bundles/resolve-cinematic-luts/Phantom Luts/A7s3 Phntm Film LUTs - G6/SLog3/Eastman A7s3-Legacy.cube
TITLE "Generated by Resolve"
LUT_3D_SIZE 9
0.0451209 0.0390021 0.0432288
0.0482185 0.0390021 0.0439765
0.0893568 0.0390021 0.0493172
0.183185 0.0390021 0.0508125
0.31191 0.0390021 0.0457771
0.422415 0.0390021 0.0521706
0.518761 0.0390021 0.108064
0.61239 0.0798047 0.228763
0.628183 0.128252 0.334432
0.050309 0.0422675 0.0465705
0.0522011 0.0436408 0.0475624
0.0877089 0.0434272 0.0504921
0.185657 0.0398413 0.0491035
0.32076 0.0390021 0.0446784
0.427283 0.0422065 0.0505531
0.525521 0.0411994 0.0980087
0.612161 0.0790417 0.222217
0.627741 0.128405 0.331365
0.0679637 0.0950637 0.0643015
0.0637522 0.0970474 0.062623
0.106157 0.100496 0.0627451
0.231907 0.0752117 0.0575723
0.33576 0.0609751 0.0390021
0.428092 0.0535592 0.0436408
0.542596 0.0640421 0.0836652
0.611078 0.0779583 0.206592
0.635172 0.125216 0.329046
0.0799878 0.215381 0.0918898
0.0713512 0.221622 0.0871138
0.100725 0.24065 0.0852064
0.296513 0.288319 0.105577
0.531929 0.234958 0.123049
0.621241 0.210498 0.122118
0.597299 0.1552 0.0941329
0.601465 0.0777905 0.113939
0.621912 0.111406 0.289952
0.104601 0.437583 0.156619
0.0955215 0.439841 0.157458
0.100328 0.44509 0.134035
0.274205 0.49163 0.13109
0.560265 0.549416 0.158495
0.750652 0.5149 0.186343
0.826383 0.442527 0.217609
0.79733 0.344549 0.191012
0.645808 0.148653 0.144335
0.143755 0.616434 0.276814
0.141344 0.615152 0.285344
0.147372 0.610285 0.251713
0.219242 0.61416 0.178607
0.55964 0.728939 0.232013
0.734752 0.754498 0.270176
0.846876 0.747829 0.277409
0.853193 0.714778 0.246555
0.826993 0.549981 0.217456
0.196124 0.72076 0.372381
0.196246 0.71751 0.374487
0.198779 0.708827 0.341421
0.22443 0.694606 0.252522
0.547143 0.785779 0.28809
0.710857 0.842878 0.325368
0.841718 0.848997 0.360754
0.874052 0.846021 0.360067
0.867552 0.826093 0.305318
0.220523 0.739269 0.419989
0.219837 0.735088 0.412543
0.219425 0.725338 0.374807
0.237873 0.707851 0.297398
0.44242 0.745922 0.284199
0.678645 0.836088 0.34374
0.797177 0.858473 0.362417
0.881758 0.854231 0.389471
0.866773 0.855573 0.395071
0.256291 0.752224 0.458457
0.252735 0.748714 0.450019
0.252399 0.739788 0.420325
0.280217 0.729351 0.381811
0.392325 0.741634 0.375814
0.586954 0.803861 0.437537
0.767575 0.869017 0.490089
0.859312 0.865431 0.488319
0.876371 0.869673 0.534035
0.0453193 0.0390021 0.0448157
0.0486915 0.0390021 0.0457618
0.0859541 0.0397345 0.0561074
0.170809 0.0390021 0.0615854
0.299519 0.0390021 0.0506142
0.410788 0.0390021 0.0571603
0.507073 0.0458076 0.131395
0.599191 0.0877699 0.24123
0.62417 0.134386 0.343191
0.0491646 0.0418402 0.0482338
0.0515297 0.0426337 0.0502174
0.0966354 0.0435187 0.0550546
0.185809 0.040116 0.0513771
0.31078 0.0390021 0.0464027
0.418708 0.0390021 0.0535439
0.518898 0.049836 0.125582
0.600626 0.0889601 0.244434
0.629831 0.140139 0.358083
0.0668193 0.0960708 0.0722362
0.0626535 0.0973526 0.0669718
0.106157 0.0999924 0.0644999
0.228504 0.0749065 0.0589303
0.34815 0.0555886 0.0406653
0.44004 0.0594339 0.049897
0.545724 0.0529183 0.10071
0.609415 0.0848859 0.232959
0.642664 0.138369 0.359609
0.0773175 0.217563 0.100725
0.0717021 0.222614 0.0967269
0.0849928 0.232761 0.0832074
0.292393 0.282719 0.105547
0.527123 0.22533 0.12343
0.604288 0.20383 0.120073
0.572992 0.134249 0.0761273
0.603647 0.0742046 0.134478
0.639536 0.127886 0.326543
0.104311 0.439521 0.168627
0.0954452 0.441428 0.170932
0.0982681 0.443153 0.146029
0.250507 0.481773 0.129427
0.55465 0.54287 0.158007
0.750164 0.503746 0.188022
0.826108 0.43444 0.221912
0.792325 0.334386 0.187442
0.647868 0.122499 0.185367
0.143694 0.617777 0.288106
0.140597 0.616571 0.29688
0.144808 0.610224 0.266636
0.189853 0.60737 0.182284
0.550072 0.722194 0.231312
0.730098 0.749401 0.268299
0.847089 0.740597 0.278904
0.854398 0.709194 0.251514
0.823926 0.527886 0.214267
0.197421 0.724224 0.382086
0.197711 0.720745 0.385657
0.198611 0.711345 0.355016
0.216281 0.694804 0.26836
0.525887 0.776776 0.285847
0.70428 0.840711 0.326085
0.840375 0.848325 0.359472
0.874357 0.844129 0.359503
0.86717 0.823346 0.301579
0.223056 0.742901 0.428138
0.221439 0.73901 0.422446
0.220584 0.728588 0.385061
0.234852 0.710781 0.312459
0.415869 0.737163 0.282078
0.670878 0.833738 0.346136
0.793927 0.858854 0.366323
0.881575 0.85417 0.388571
0.86714 0.855817 0.39733
0.25745 0.754589 0.463584
0.253925 0.751202 0.456184
0.252552 0.741955 0.423331
0.277394 0.730602 0.386816
0.387686 0.741314 0.37937
0.578836 0.800351 0.439551
0.76524 0.868986 0.495094
0.858244 0.866087 0.491859
0.876356 0.869352 0.532372
0.0441596 0.0390021 0.0623941
0.0519875 0.0391394 0.0668498
0.0882429 0.0417334 0.0717632
0.174105 0.0416876 0.084123
0.304662 0.0390021 0.0762188
0.415061 0.0390021 0.101396
0.514839 0.0519417 0.170871
0.604166 0.0951247 0.266316
0.628809 0.139116 0.359701
0.0464637 0.0430762 0.062974
0.0455329 0.0424201 0.0716564
0.0935531 0.0438239 0.0780652
0.183398 0.040528 0.0805982
0.312459 0.0390021 0.0658274
0.421576 0.0390021 0.0867323
0.526726 0.0557259 0.170214
0.606622 0.0973831 0.270832
0.634256 0.143648 0.374319
0.0633097 0.0945449 0.0851301
0.0598154 0.0960555 0.0874495
0.105089 0.0983139 0.101076
0.24361 0.0709392 0.0839704
0.367071 0.0438087 0.0521096
0.441581 0.0390021 0.0579843
0.551202 0.0571908 0.152941
0.616129 0.0937667 0.266712
0.648936 0.144533 0.385702
0.080766 0.222553 0.122728
0.0754711 0.227222 0.120241
0.0852674 0.233936 0.110185
0.302373 0.291508 0.139239
0.50605 0.223926 0.143267
0.585473 0.178119 0.123156
0.599466 0.109316 0.100359
0.609583 0.0813764 0.195422
0.653208 0.140887 0.3617
0.106538 0.449516 0.208591
0.0972305 0.447837 0.205447
0.0984207 0.442634 0.177356
0.178408 0.461967 0.130816
0.543877 0.531716 0.161013
0.743618 0.475563 0.200992
0.82414 0.422187 0.230869
0.787442 0.324651 0.183688
0.658991 0.133989 0.251316
0.144701 0.62385 0.314931
0.142138 0.621347 0.323293
0.143679 0.613489 0.299657
0.1617 0.599069 0.2094
0.522805 0.707225 0.233875
0.71783 0.7364 0.265675
0.848386 0.725139 0.283909
0.857527 0.693034 0.270924
0.820218 0.500694 0.212909
0.202914 0.732235 0.404074
0.203006 0.728939 0.411002
0.202136 0.718791 0.381125
0.211383 0.69807 0.304875
0.469245 0.751507 0.28101
0.691264 0.835523 0.330846
0.834257 0.845945 0.35906
0.875166 0.839551 0.362676
0.866896 0.81854 0.29955
0.230732 0.751553 0.448112
0.22887 0.748104 0.445853
0.225605 0.737377 0.410101
0.233387 0.717922 0.343053
0.368811 0.726406 0.297002
0.650401 0.828763 0.364294
0.7879 0.860243 0.378546
0.881346 0.85417 0.388418
0.868513 0.85716 0.410605
0.262898 0.760616 0.477745
0.25919 0.757412 0.471092
0.255863 0.748623 0.441917
0.277684 0.734951 0.401083
0.38175 0.74258 0.393942
0.564279 0.794629 0.448142
0.762112 0.869673 0.509377
0.85742 0.868345 0.505653
0.875349 0.869291 0.531151
0.0409247 0.0453193 0.101167
0.0489204 0.0449989 0.108919
0.09131 0.0455634 0.127245
0.175647 0.044358 0.125948
0.307088 0.0390021 0.143725
0.417151 0.0421912 0.190234
0.529107 0.0714275 0.241291
0.622003 0.113893 0.31902
0.637919 0.145586 0.392538
0.039292 0.0475776 0.105608
0.0391852 0.0472114 0.118486
0.0821546 0.0471504 0.14551
0.187671 0.0439612 0.136461
0.31577 0.0390021 0.145525
0.425895 0.043595 0.190265
0.542687 0.0754864 0.245487
0.627375 0.119081 0.330037
0.64213 0.150988 0.407294
0.0485084 0.0930953 0.129488
0.0430457 0.0913252 0.141909
0.0663462 0.084123 0.177539
0.223865 0.0591135 0.172198
0.354482 0.0390021 0.15874
0.446952 0.0419318 0.181186
0.565621 0.0754711 0.244068
0.639811 0.118624 0.3346
0.656458 0.151385 0.41944
0.0731975 0.221836 0.173541
0.0695048 0.227543 0.180713
0.0772106 0.233341 0.188647
0.298131 0.297002 0.293538
0.51223 0.233951 0.275502
0.629526 0.155825 0.239231
0.583459 0.0716106 0.185885
0.624842 0.102266 0.288991
0.674449 0.15967 0.424094
0.120623 0.478309 0.296925
0.114458 0.478935 0.302907
0.116823 0.472175 0.284215
0.177523 0.477684 0.262501
0.540932 0.542443 0.312474
0.723247 0.454414 0.300938
0.824826 0.379828 0.286046
0.75079 0.238743 0.223636
0.68484 0.163867 0.363684
0.163043 0.648676 0.384863
0.162432 0.646418 0.394751
0.161349 0.635889 0.37406
0.160342 0.609293 0.309957
0.418097 0.659419 0.293568
0.701152 0.7234 0.331838
0.844465 0.674617 0.353201
0.852491 0.652201 0.302785
0.815885 0.461173 0.215839
0.221714 0.755047 0.46186
0.221561 0.750332 0.467185
0.216953 0.738018 0.443091
0.214496 0.713191 0.380133
0.347799 0.716609 0.319905
0.647608 0.821836 0.378927
0.821485 0.843061 0.400824
0.877516 0.830228 0.391546
0.870222 0.809339 0.334752
0.247349 0.771191 0.490074
0.246036 0.767178 0.489311
0.242649 0.75819 0.471122
0.240299 0.735759 0.406882
0.342855 0.728679 0.34696
0.597696 0.809018 0.405524
0.777066 0.865232 0.438392
0.881743 0.857389 0.43946
0.874128 0.86041 0.461219
0.274662 0.77377 0.505867
0.271565 0.770565 0.500313
0.269734 0.764233 0.487984
0.286122 0.748577 0.445533
0.379843 0.749447 0.43003
0.548074 0.791211 0.475563
0.758236 0.872236 0.549279
0.860685 0.877211 0.546426
0.87689 0.869245 0.531899
0.0390021 0.0533303 0.180316
0.0390021 0.0520943 0.192767
0.0673075 0.050782 0.221485
0.181201 0.0424659 0.235401
0.301717 0.042649 0.234836
0.42649 0.0496986 0.264805
0.543786 0.0874037 0.322988
0.638834 0.130236 0.399863
0.649134 0.153201 0.446693
0.0390021 0.0571756 0.195422
0.0390021 0.0557259 0.209186
0.0570687 0.0520027 0.240269
0.189578 0.0415198 0.256016
0.312566 0.0434577 0.245747
0.437797 0.0535134 0.274449
0.561669 0.095964 0.336751
0.642039 0.133761 0.412253
0.653605 0.15819 0.461784
0.0390021 0.0823987 0.214389
0.0390021 0.078172 0.230365
0.0390021 0.0647135 0.257954
0.19202 0.0448005 0.30248
0.35523 0.0492866 0.282597
0.456535 0.0587472 0.286107
0.590143 0.102083 0.352575
0.654841 0.133928 0.423819
0.667704 0.159228 0.47512
0.0447852 0.214725 0.257633
0.0392157 0.214481 0.269978
0.0390021 0.203677 0.282887
0.194491 0.232212 0.391852
0.484184 0.207507 0.421607
0.567376 0.135393 0.373053
0.618357 0.114 0.355352
0.654337 0.13228 0.409598
0.683101 0.165621 0.482475
0.112856 0.486671 0.386618
0.109483 0.487755 0.394888
0.113603 0.488838 0.398032
0.174029 0.508476 0.426581
0.526558 0.542626 0.527352
0.716976 0.463798 0.489342
0.843107 0.373098 0.437705
0.762249 0.216938 0.418189
0.681193 0.165972 0.440772
0.17499 0.672312 0.471214
0.176928 0.671229 0.482277
0.182589 0.668864 0.476173
0.194858 0.656321 0.449577
0.415427 0.666758 0.475822
0.692988 0.724407 0.523934
0.821485 0.636622 0.482689
0.859419 0.553155 0.438407
0.824674 0.357763 0.37438
0.241962 0.784802 0.538857
0.244724 0.781109 0.546868
0.245853 0.773495 0.534707
0.245014 0.750179 0.492348
0.353902 0.728679 0.446159
0.578866 0.782681 0.489723
0.813947 0.839963 0.526757
0.891539 0.803754 0.533211
0.877302 0.775616 0.435401
0.27126 0.80737 0.563241
0.272816 0.803876 0.564248
0.273289 0.795529 0.549462
0.271809 0.773312 0.506844
0.350973 0.752132 0.461372
0.535592 0.789441 0.484916
0.773312 0.877256 0.555642
0.890486 0.874235 0.555657
0.886336 0.872572 0.550835
0.294972 0.801373 0.561044
0.292821 0.797604 0.554711
0.29279 0.790265 0.542809
0.315541 0.777096 0.522835
0.397314 0.770855 0.510918
0.541497 0.80119 0.538811
0.751827 0.876402 0.619303
0.864973 0.896834 0.631907
0.893034 0.887968 0.627817
0.0390021 0.0606241 0.26392
0.0390021 0.0577859 0.278996
0.0545815 0.0537118 0.304128
0.17171 0.0426795 0.331716
0.311971 0.0436713 0.326284
0.420722 0.0637675 0.342779
0.551476 0.102281 0.393805
0.639353 0.143618 0.462104
0.656092 0.168841 0.515908
0.0390021 0.0643473 0.277607
0.0390021 0.0628977 0.289128
0.0434882 0.056611 0.315969
0.174838 0.0434577 0.355749
0.322179 0.0453651 0.339406
0.43386 0.0686961 0.354589
0.573831 0.112108 0.411246
0.641794 0.14995 0.476951
0.659831 0.175326 0.529091
0.0390021 0.0796063 0.294743
0.0390021 0.0779583 0.307286
0.0390021 0.0673686 0.326711
0.152605 0.0468147 0.386023
0.362676 0.0574197 0.385718
0.461753 0.0786755 0.378607
0.599878 0.12282 0.432456
0.653239 0.15288 0.495537
0.667552 0.178927 0.540658
0.0390021 0.196033 0.333318
0.0390021 0.195743 0.342763
0.0390021 0.183719 0.35201
0.104219 0.164401 0.433402
0.427222 0.145357 0.497688
0.524575 0.11751 0.434211
0.632975 0.139071 0.459129
0.659327 0.153719 0.503304
0.672389 0.179858 0.540475
0.0818647 0.476967 0.458457
0.0804761 0.476905 0.463539
0.0785992 0.472633 0.468742
0.103777 0.471458 0.502266
0.440253 0.497612 0.63769
0.738903 0.479591 0.665843
0.862058 0.401511 0.646143
0.716533 0.197559 0.526528
0.667033 0.174472 0.518654
0.169543 0.671717 0.551797
0.170932 0.669947 0.555398
0.17641 0.669108 0.5561
0.189197 0.665171 0.555291
0.442893 0.704479 0.632258
0.688884 0.715068 0.692805
0.828595 0.645167 0.652705
0.871595 0.563561 0.603784
0.836088 0.359075 0.584497
0.247913 0.798718 0.62153
0.250492 0.795316 0.623194
0.254047 0.791989 0.615763
0.263951 0.783948 0.597864
0.405249 0.782788 0.601068
0.607538 0.800702 0.649516
0.816892 0.847776 0.689906
0.887541 0.788067 0.657694
0.876249 0.717372 0.612406
0.287465 0.83888 0.643992
0.289937 0.836454 0.642588
0.293965 0.832532 0.631998
0.304967 0.823621 0.609613
0.398459 0.804471 0.588174
0.554147 0.82092 0.619455
0.756695 0.882307 0.682155
0.894148 0.908873 0.704921
0.91136 0.903868 0.714809
0.309255 0.833799 0.62887
0.310887 0.831403 0.626444
0.314809 0.827298 0.618662
0.346639 0.821057 0.608316
0.443854 0.812894 0.611185
0.571618 0.831983 0.649058
0.743984 0.882353 0.712489
0.871214 0.922576 0.743542
0.912215 0.917891 0.747936
0.0390021 0.068513 0.329305
0.0390021 0.065568 0.342931
0.0438087 0.059556 0.362219
0.156252 0.047776 0.400656
0.314672 0.0505226 0.403143
0.422431 0.0713359 0.406012
0.548669 0.119905 0.454017
0.642893 0.162264 0.522805
0.661784 0.180011 0.562844
0.0390021 0.0727703 0.337118
0.0390021 0.0713664 0.348028
0.0390021 0.0655375 0.370275
0.150759 0.0503548 0.417502
0.330388 0.0548257 0.423407
0.437873 0.0773327 0.420737
0.572259 0.131395 0.474861
0.646922 0.168048 0.539345
0.66659 0.185794 0.576715
0.0390021 0.0905013 0.351476
0.0390021 0.0897688 0.360693
0.0390021 0.079881 0.377234
0.120882 0.0551156 0.431785
0.353079 0.0651865 0.46392
0.48397 0.0998245 0.464332
0.601892 0.145312 0.501701
0.652735 0.172595 0.556039
0.672297 0.190799 0.589563
0.0390021 0.190066 0.384146
0.0390021 0.190433 0.393271
0.0390021 0.178759 0.401892
0.0580758 0.152972 0.461402
0.350683 0.119097 0.536889
0.527123 0.132067 0.517693
0.646357 0.168856 0.54725
0.655161 0.175738 0.565484
0.675746 0.193881 0.596292
0.0752422 0.475288 0.521172
0.0751049 0.474968 0.527352
0.0740826 0.468482 0.53315
0.0860456 0.450568 0.559853
0.360647 0.455985 0.702449
0.738491 0.471519 0.808408
0.864652 0.416464 0.751522
0.702907 0.213855 0.595972
0.674403 0.192767 0.593317
0.145388 0.659617 0.599161
0.143801 0.657176 0.599191
0.143114 0.653315 0.60058
0.154299 0.649516 0.614176
0.368399 0.677073 0.710765
0.626673 0.683375 0.785122
0.854826 0.667659 0.795865
0.910597 0.600397 0.78146
0.837278 0.358999 0.717098
0.245914 0.796567 0.676478
0.246189 0.793103 0.674891
0.249668 0.790539 0.673411
0.258564 0.785351 0.669688
0.406943 0.808209 0.711864
0.638254 0.834653 0.776974
0.81709 0.844633 0.81854
0.900374 0.798535 0.790875
0.894011 0.728862 0.759319
0.29189 0.85182 0.701503
0.293767 0.849622 0.701045
0.298116 0.848356 0.695674
0.310033 0.845685 0.685527
0.421378 0.859678 0.701473
0.608392 0.873442 0.748531
0.766674 0.899107 0.798062
0.899596 0.926146 0.822675
0.921187 0.918135 0.818265
0.317113 0.854032 0.692393
0.318135 0.852689 0.69044
0.32401 0.851896 0.685206
0.357763 0.85449 0.685496
0.476066 0.867048 0.711086
0.625544 0.879606 0.755444
0.760449 0.905592 0.803876
0.883055 0.937331 0.836408
0.921798 0.941512 0.841123
0.0390021 0.0827497 0.382208
0.0390021 0.0805524 0.393057
0.0390021 0.0751049 0.409598
0.127779 0.0579995 0.450095
0.308507 0.0636454 0.481285
0.425193 0.0801709 0.472114
0.54226 0.125048 0.503838
0.652201 0.174716 0.575692
0.668269 0.188434 0.606989
0.0390021 0.0890516 0.385779
0.0390021 0.0879683 0.394324
0.0390021 0.0826581 0.412894
0.116838 0.0603494 0.455711
0.318898 0.0690166 0.498756
0.441962 0.0876173 0.489097
0.5664 0.136492 0.524224
0.655818 0.178378 0.590005
0.671977 0.192142 0.613108
0.0390021 0.1066 0.394156
0.0390021 0.10663 0.401099
0.0390021 0.101122 0.41355
0.0798047 0.0682078 0.455787
0.317601 0.0736553 0.516381
0.505104 0.119066 0.542809
0.604456 0.154864 0.55613
0.659434 0.181582 0.59855
0.674388 0.194537 0.615885
0.0390021 0.201999 0.426413
0.0390021 0.204639 0.435431
0.0390021 0.197467 0.442039
0.0390021 0.176684 0.485008
0.299474 0.135912 0.579736
0.524971 0.148714 0.584894
0.66273 0.186938 0.605646
0.66186 0.184009 0.603342
0.677546 0.19678 0.618662
0.0759136 0.476081 0.568399
0.0760815 0.47628 0.573617
0.0747845 0.47126 0.578882
0.0795148 0.450111 0.595636
0.31519 0.448829 0.737285
0.671702 0.457313 0.859846
0.868177 0.432166 0.817075
0.716289 0.229877 0.652995
0.67715 0.196521 0.61828
0.141497 0.659617 0.637308
0.140719 0.657465 0.638071
0.138949 0.653254 0.640024
0.134447 0.641978 0.643961
0.324224 0.659602 0.749279
0.565728 0.653162 0.821195
0.860243 0.669337 0.892058
0.92488 0.611841 0.866148
0.8421 0.371817 0.777066
0.222522 0.784695 0.697887
0.22002 0.781018 0.696284
0.223316 0.778302 0.697856
0.239017 0.775616 0.706081
0.365835 0.79173 0.759884
0.596597 0.814374 0.829419
0.781155 0.826307 0.880293
0.914015 0.803937 0.878187
0.920653 0.738796 0.869581
0.291386 0.850736 0.735882
0.2916 0.848768 0.734203
0.295399 0.847547 0.73344
0.305409 0.845579 0.732296
0.41265 0.865919 0.765637
0.609506 0.895552 0.823499
0.785443 0.918151 0.874662
0.900954 0.926223 0.898329
0.925414 0.913848 0.895567
0.31931 0.862684 0.737362
0.320348 0.862364 0.736629
0.32575 0.86276 0.735775
0.355764 0.868055 0.742626
0.471946 0.888457 0.776028
0.631617 0.912459 0.823957
0.787137 0.931533 0.871397
0.890623 0.946624 0.900679
0.926177 0.951843 0.903731
0.0390021 0.109651 0.420066
0.0390021 0.104585 0.423697
0.0390021 0.0987716 0.436896
0.0786908 0.0715496 0.46688
0.275715 0.0721752 0.523796
0.453391 0.103258 0.544182
0.541299 0.128847 0.545937
0.651484 0.175555 0.590158
0.664332 0.185824 0.605951
0.0390021 0.113176 0.420478
0.0390021 0.113558 0.424918
0.0390021 0.104967 0.43386
0.0634775 0.0774701 0.465827
0.276127 0.0728466 0.525811
0.475532 0.109926 0.549996
0.567666 0.141115 0.565164
0.654108 0.177768 0.596384
0.666346 0.187594 0.608011
0.0390021 0.127779 0.423163
0.0390021 0.129198 0.428351
0.0390021 0.126619 0.434897
0.0390021 0.10103 0.455451
0.257511 0.0744793 0.525322
0.493446 0.12224 0.561822
0.642649 0.172564 0.591699
0.656168 0.179141 0.598062
0.668864 0.189563 0.61033
0.0390021 0.246036 0.469703
0.0390021 0.258198 0.481773
0.0390021 0.263111 0.492332
0.0390021 0.251759 0.504921
0.291386 0.225711 0.648569
0.578134 0.22652 0.685344
0.663951 0.194858 0.619333
0.661616 0.183749 0.603372
0.670893 0.191424 0.612482
0.0811017 0.492912 0.600031
0.0827192 0.497047 0.606256
0.0821241 0.494072 0.611276
0.0823987 0.480644 0.621118
0.289448 0.481407 0.733577
0.588159 0.46865 0.839475
0.873884 0.480079 0.848966
0.805844 0.317525 0.741573
0.672068 0.192416 0.613413
0.144778 0.667185 0.659678
0.144259 0.665522 0.661295
0.142443 0.661585 0.662669
0.138567 0.651392 0.666255
0.310048 0.665797 0.75407
0.537926 0.657069 0.821622
0.827436 0.674571 0.906493
0.927001 0.624796 0.879088
0.873564 0.422461 0.809171
0.206882 0.77908 0.706508
0.204135 0.775204 0.705562
0.201999 0.770748 0.704921
0.214069 0.768673 0.713176
0.323064 0.783368 0.761517
0.568246 0.806638 0.836866
0.752407 0.816205 0.889525
0.914733 0.804303 0.903517
0.923995 0.741451 0.891264
0.285313 0.846738 0.747204
0.283452 0.844404 0.746487
0.285801 0.843107 0.747143
0.296452 0.840894 0.751003
0.391089 0.858289 0.78439
0.583993 0.884703 0.842512
0.761929 0.910689 0.893645
0.894408 0.921538 0.921065
0.92549 0.909285 0.919081
0.319524 0.8654 0.757931
0.321065 0.865446 0.75848
0.326726 0.866651 0.760067
0.355306 0.871641 0.770016
0.46891 0.891722 0.805249
0.625635 0.916625 0.851118
0.780545 0.939406 0.894575
0.891524 0.949233 0.922667
0.926879 0.953826 0.924804
