bundles/resolve-cinematic-luts/Phantom Luts/A7s3 Phntm Film LUTs - G6/SLog3/EastmanRM A7s3.cube
TITLE "Generated by Resolve"
LUT_3D_SIZE 5
0.0443122 0.0362554 0.0384222
0.129244 0.0325628 0.0368811
0.403159 0.0283513 0.0505531
0.613321 0.0509957 0.142596
0.712154 0.168307 0.44686
0.0542153 0.125536 0.050309
0.132128 0.129549 0.0486458
0.43563 0.0286259 0.0403754
0.622171 0.0571298 0.152316
0.715541 0.168078 0.442527
0.048127 0.46746 0.0819257
0.0509499 0.484306 0.0729076
0.635462 0.615412 0.123827
0.865034 0.458625 0.217212
0.793774 0.212848 0.452873
0.277119 0.742809 0.424155
0.274174 0.745754 0.424949
0.532815 0.788388 0.343328
0.904875 0.911345 0.559792
0.916014 0.893233 0.493767
0.437003 0.805158 0.572732
0.494102 0.814694 0.582467
0.666606 0.857572 0.663081
0.877867 0.931258 0.798413
0.907561 0.941543 0.844114
0.0419165 0.0417334 0.062623
0.0991836 0.0384375 0.0640879
0.375814 0.0322576 0.0805066
0.602121 0.0643931 0.202396
0.697871 0.182391 0.48954
0.0504921 0.125093 0.0892042
0.118288 0.135271 0.11754
0.452445 0.0344396 0.0738842
0.628702 0.0692302 0.195254
0.743206 0.203937 0.533684
0.0478981 0.480217 0.145693
0.0475929 0.487465 0.127153
0.623026 0.604883 0.12784
0.867994 0.453559 0.224033
0.835157 0.269734 0.570275
0.27863 0.751583 0.457527
0.276814 0.753323 0.453452
0.472145 0.76527 0.333272
0.905486 0.911635 0.561959
0.915709 0.893095 0.494377
0.452094 0.811048 0.590616
0.517922 0.823713 0.609583
0.675837 0.862715 0.679774
0.878202 0.93167 0.804227
0.905364 0.941588 0.846098
0.0407874 0.0670176 0.19942
0.0606088 0.0480201 0.259236
0.379889 0.0434424 0.267124
0.642939 0.11809 0.36582
0.70985 0.195102 0.547417
0.0415961 0.110399 0.238056
0.0417487 0.0842298 0.290501
0.434287 0.0546731 0.336889
0.691585 0.133547 0.386297
0.778317 0.238285 0.617884
0.0536202 0.501579 0.394263
0.0539254 0.515633 0.434806
0.591196 0.603098 0.573693
0.907256 0.353338 0.506264
0.891981 0.364141 0.742718
0.301106 0.778058 0.569619
0.29601 0.784451 0.57995
0.438865 0.789029 0.513436
0.899321 0.920272 0.705242
0.920165 0.892424 0.549661
0.479606 0.828534 0.648127
0.541253 0.84445 0.683818
0.70219 0.881361 0.742031
0.878782 0.93312 0.834516
0.907729 0.942306 0.850278
0.0424201 0.106584 0.396689
0.0518196 0.096025 0.426093
0.330831 0.0685588 0.498589
0.635813 0.159503 0.563775
0.707469 0.212833 0.659815
0.0424353 0.136339 0.406928
0.0424201 0.118303 0.42063
0.352087 0.0847486 0.527581
0.672465 0.179706 0.607019
0.716548 0.224933 0.682567
0.046479 0.481575 0.568231
0.0474708 0.489921 0.585275
0.349722 0.484001 0.740841
0.828046 0.330571 0.779339
0.790921 0.30573 0.766018
0.306706 0.775341 0.702663
0.30782 0.782391 0.715007
0.443229 0.819425 0.753643
0.87454 0.910124 0.877684
0.91429 0.85594 0.862989
0.460136 0.842069 0.751003
0.538888 0.860868 0.77641
0.718975 0.90428 0.835462
0.885924 0.943252 0.893736
0.910292 0.951324 0.909102
0.0428321 0.164935 0.453834
0.0426642 0.148882 0.446769
0.21648 0.0819409 0.531014
0.58468 0.146487 0.600443
0.691478 0.208225 0.672557
0.042771 0.183948 0.459953
0.0429541 0.205432 0.475883
0.186511 0.0994736 0.546456
0.674434 0.192157 0.652873
0.697261 0.213336 0.678538
0.0555123 0.518471 0.621775
0.0624399 0.545235 0.638727
0.246616 0.573953 0.738445
0.923812 0.569757 0.917617
0.70782 0.221561 0.687907
0.260746 0.760342 0.71873
0.269413 0.766613 0.726879
0.377111 0.800412 0.768063
0.863462 0.907561 0.903532
0.912245 0.854994 0.90016
0.451987 0.837873 0.774868
0.527276 0.858152 0.803662
0.713558 0.904952 0.858579
0.887129 0.945693 0.90956
0.914397 0.952728 0.916289
