bundles/resolve-cinematic-luts/Phantom Luts/A7s3 Phntm Film LUTs - G6/SLog3/Eastman A7s3-Legacy.cube
TITLE "Generated by Resolve"
LUT_3D_SIZE 5
0.0451209 0.0390021 0.0432288
0.0893568 0.0390021 0.0493172
0.31191 0.0390021 0.0457771
0.518761 0.0390021 0.108064
0.628183 0.128252 0.334432
0.0679637 0.0950637 0.0643015
0.106157 0.100496 0.0627451
0.33576 0.0609751 0.0390021
0.542596 0.0640421 0.0836652
0.635172 0.125216 0.329046
0.104601 0.437583 0.156619
0.100328 0.44509 0.134035
0.560265 0.549416 0.158495
0.826383 0.442527 0.217609
0.645808 0.148653 0.144335
0.196124 0.72076 0.372381
0.198779 0.708827 0.341421
0.547143 0.785779 0.28809
0.841718 0.848997 0.360754
0.867552 0.826093 0.305318
0.256291 0.752224 0.458457
0.252399 0.739788 0.420325
0.392325 0.741634 0.375814
0.767575 0.869017 0.490089
0.876371 0.869673 0.534035
0.0441596 0.0390021 0.0623941
0.0882429 0.0417334 0.0717632
0.304662 0.0390021 0.0762188
0.514839 0.0519417 0.170871
0.628809 0.139116 0.359701
0.0633097 0.0945449 0.0851301
0.105089 0.0983139 0.101076
0.367071 0.0438087 0.0521096
0.551202 0.0571908 0.152941
0.648936 0.144533 0.385702
0.106538 0.449516 0.208591
0.0984207 0.442634 0.177356
0.543877 0.531716 0.161013
0.82414 0.422187 0.230869
0.658991 0.133989 0.251316
0.202914 0.732235 0.404074
0.202136 0.718791 0.381125
0.469245 0.751507 0.28101
0.834257 0.845945 0.35906
0.866896 0.81854 0.29955
0.262898 0.760616 0.477745
0.255863 0.748623 0.441917
0.38175 0.74258 0.393942
0.762112 0.869673 0.509377
0.875349 0.869291 0.531151
0.0390021 0.0533303 0.180316
0.0673075 0.050782 0.221485
0.301717 0.042649 0.234836
0.543786 0.0874037 0.322988
0.649134 0.153201 0.446693
0.0390021 0.0823987 0.214389
0.0390021 0.0647135 0.257954
0.35523 0.0492866 0.282597
0.590143 0.102083 0.352575
0.667704 0.159228 0.47512
0.112856 0.486671 0.386618
0.113603 0.488838 0.398032
0.526558 0.542626 0.527352
0.843107 0.373098 0.437705
0.681193 0.165972 0.440772
0.241962 0.784802 0.538857
0.245853 0.773495 0.534707
0.353902 0.728679 0.446159
0.813947 0.839963 0.526757
0.877302 0.775616 0.435401
0.294972 0.801373 0.561044
0.29279 0.790265 0.542809
0.397314 0.770855 0.510918
0.751827 0.876402 0.619303
0.893034 0.887968 0.627817
0.0390021 0.068513 0.329305
0.0438087 0.059556 0.362219
0.314672 0.0505226 0.403143
0.548669 0.119905 0.454017
0.661784 0.180011 0.562844
0.0390021 0.0905013 0.351476
0.0390021 0.079881 0.377234
0.353079 0.0651865 0.46392
0.601892 0.145312 0.501701
0.672297 0.190799 0.589563
0.0752422 0.475288 0.521172
0.0740826 0.468482 0.53315
0.360647 0.455985 0.702449
0.864652 0.416464 0.751522
0.674403 0.192767 0.593317
0.245914 0.796567 0.676478
0.249668 0.790539 0.673411
0.406943 0.808209 0.711864
0.81709 0.844633 0.81854
0.894011 0.728862 0.759319
0.317113 0.854032 0.692393
0.32401 0.851896 0.685206
0.476066 0.867048 0.711086
0.760449 0.905592 0.803876
0.921798 0.941512 0.841123
0.0390021 0.109651 0.420066
0.0390021 0.0987716 0.436896
0.275715 0.0721752 0.523796
0.541299 0.128847 0.545937
0.664332 0.185824 0.605951
0.0390021 0.127779 0.423163
0.0390021 0.126619 0.434897
0.257511 0.0744793 0.525322
0.642649 0.172564 0.591699
0.668864 0.189563 0.61033
0.0811017 0.492912 0.600031
0.0821241 0.494072 0.611276
0.289448 0.481407 0.733577
0.873884 0.480079 0.848966
0.672068 0.192416 0.613413
0.206882 0.77908 0.706508
0.201999 0.770748 0.704921
0.323064 0.783368 0.761517
0.752407 0.816205 0.889525
0.923995 0.741451 0.891264
0.319524 0.8654 0.757931
0.326726 0.866651 0.760067
0.46891 0.891722 0.805249
0.780545 0.939406 0.894575
0.926879 0.953826 0.924804
