bundles/resolve-cinematic-luts/Phantom Luts/A7s3 Phntm Film LUTs - G6/SLog3/EastmanRM A7s3.cube
TITLE "Generated by Resolve"
LUT_3D_SIZE 9
0.0443122 0.0362554 0.0384222
0.0489357 0.035523 0.0376135
0.129244 0.0325628 0.0368811
0.24831 0.030396 0.0411841
0.403159 0.0283513 0.0505531
0.531472 0.0317082 0.0770886
0.613321 0.0509957 0.142596
0.690181 0.107012 0.269184
0.712154 0.168307 0.44686
0.0447089 0.0475166 0.0429999
0.0483711 0.0484932 0.0421759
0.116075 0.0386816 0.0396735
0.250889 0.0305943 0.0422522
0.416861 0.0280308 0.0519417
0.54107 0.0324102 0.0779126
0.619135 0.0534829 0.14551
0.691951 0.108049 0.269032
0.70135 0.168368 0.448692
0.0542153 0.125536 0.050309
0.053727 0.128084 0.0482032
0.132128 0.129549 0.0486458
0.303014 0.0784466 0.047715
0.43563 0.0286259 0.0403754
0.545937 0.0344091 0.0779889
0.622171 0.0571298 0.152316
0.691157 0.107652 0.266804
0.715541 0.168078 0.442527
0.0527962 0.261784 0.0633707
0.0469368 0.268635 0.0589303
0.0771344 0.282673 0.0448768
0.348745 0.328725 0.0596017
0.61912 0.243183 0.0891432
0.667506 0.166583 0.108064
0.593179 0.0416571 0.104311
0.671122 0.0939803 0.231495
0.72813 0.175357 0.447623
0.048127 0.46746 0.0819257
0.0464027 0.476783 0.0982223
0.0509499 0.484306 0.0729076
0.221134 0.524376 0.0568246
0.635462 0.615412 0.123827
0.831815 0.568109 0.213001
0.865034 0.458625 0.217212
0.686244 0.124712 0.136843
0.793774 0.212848 0.452873
0.149248 0.653834 0.287633
0.139757 0.666224 0.321706
0.153536 0.663447 0.292378
0.215 0.653986 0.196216
0.598901 0.784634 0.27808
0.824903 0.832883 0.376043
0.91043 0.816861 0.42533
0.893278 0.758434 0.352789
0.858747 0.434256 0.223239
0.277119 0.742809 0.424155
0.268772 0.747616 0.439521
0.274174 0.745754 0.424949
0.296727 0.732189 0.356695
0.532815 0.788388 0.343328
0.77612 0.891768 0.469505
0.904875 0.911345 0.559792
0.917464 0.909117 0.556924
0.916014 0.893233 0.493767
0.30573 0.764584 0.47628
0.31104 0.76321 0.466957
0.316228 0.760739 0.450385
0.335531 0.754437 0.413703
0.501198 0.781201 0.421225
0.751492 0.881987 0.569116
0.883009 0.92108 0.628031
0.920638 0.922621 0.682719
0.917311 0.917311 0.628702
0.437003 0.805158 0.572732
0.458335 0.807996 0.574502
0.494102 0.814694 0.582467
0.564248 0.829572 0.607477
0.666606 0.857572 0.663081
0.800259 0.899565 0.741787
0.877867 0.931258 0.798413
0.910018 0.938888 0.817502
0.907561 0.941543 0.844114
0.0431525 0.037705 0.04271
0.0472725 0.0369573 0.0415808
0.104768 0.0361486 0.0445716
0.213397 0.0342107 0.0530556
0.371603 0.0314031 0.0676127
0.507317 0.0345312 0.103761
0.594736 0.0582284 0.179812
0.672282 0.118914 0.31281
0.695338 0.178332 0.478599
0.04448 0.0479438 0.0459297
0.0482948 0.0487831 0.047837
0.115297 0.0411994 0.048188
0.230549 0.0336614 0.0538949
0.390692 0.0309148 0.0681468
0.52018 0.0354162 0.103883
0.601938 0.0608682 0.181735
0.678401 0.123919 0.322042
0.699306 0.183658 0.490822
0.0518196 0.128862 0.0642252
0.0493782 0.131884 0.0581826
0.127733 0.131182 0.0522927
0.296162 0.0785382 0.0532082
0.442863 0.031693 0.0541543
0.54284 0.0359045 0.0914321
0.620874 0.0624399 0.171969
0.697398 0.12253 0.308248
0.719295 0.185245 0.49015
0.0506142 0.267048 0.077409
0.0465095 0.273274 0.0737774
0.0586099 0.277638 0.0469062
0.346944 0.326543 0.0605783
0.61709 0.235309 0.0929885
0.652644 0.149371 0.107362
0.622858 0.0559854 0.134966
0.689372 0.109834 0.267994
0.761593 0.207187 0.513664
0.0481117 0.471504 0.0988022
0.0460975 0.480949 0.11606
0.0497139 0.485145 0.085481
0.192401 0.515557 0.0542916
0.632731 0.613108 0.124544
0.833829 0.561883 0.214908
0.864576 0.452689 0.216205
0.657038 0.0990005 0.126818
0.81828 0.242878 0.519875
0.148867 0.657221 0.30164
0.139361 0.670146 0.336416
0.151446 0.668376 0.312078
0.202152 0.655314 0.211902
0.589883 0.781537 0.278004
0.825528 0.833341 0.37702
0.911604 0.8159 0.427817
0.892149 0.756786 0.354269
0.855177 0.435538 0.232364
0.275807 0.745678 0.436774
0.269749 0.749874 0.449134
0.274144 0.747448 0.433265
0.293843 0.734737 0.368338
0.518074 0.782208 0.340749
0.774304 0.89134 0.472511
0.905226 0.911452 0.560632
0.917647 0.909422 0.559426
0.916091 0.893889 0.494728
0.30277 0.768933 0.492256
0.31165 0.765209 0.474907
0.317586 0.762539 0.457191
0.336751 0.756649 0.421515
0.501778 0.782712 0.430488
0.752178 0.881849 0.57789
0.883223 0.921706 0.63714
0.920592 0.92285 0.68484
0.915282 0.918944 0.643473
0.44387 0.807416 0.579629
0.469825 0.811688 0.584588
0.503883 0.81796 0.591562
0.571603 0.83267 0.616373
0.670848 0.859632 0.669352
0.801709 0.900328 0.745159
0.878325 0.931533 0.800198
0.910018 0.938994 0.818448
0.905898 0.941573 0.845609
0.0419165 0.0417334 0.062623
0.0471656 0.0397803 0.0681621
0.0991836 0.0384375 0.0640879
0.216587 0.0368048 0.070634
0.375814 0.0322576 0.0805066
0.511742 0.0362249 0.119722
0.602121 0.0643931 0.202396
0.679927 0.126604 0.333577
0.697871 0.182391 0.48954
0.0425879 0.0501106 0.0614786
0.0424201 0.0469978 0.0750591
0.101793 0.0418097 0.0786297
0.225422 0.0366217 0.0716716
0.389929 0.0317845 0.0797131
0.523507 0.0368658 0.117418
0.609659 0.0676127 0.20531
0.684291 0.130755 0.344045
0.701991 0.187121 0.501945
0.0504921 0.125093 0.0892042
0.0486458 0.129564 0.100587
0.118288 0.135271 0.11754
0.314321 0.0804303 0.0888991
0.452445 0.0344396 0.0738842
0.544015 0.0366827 0.106035
0.628702 0.0692302 0.195254
0.708034 0.133455 0.342931
0.743206 0.203937 0.533684
0.0514534 0.274586 0.11249
0.0467994 0.281346 0.113344
0.0537118 0.284718 0.0882582
0.350332 0.336797 0.103182
0.599985 0.236423 0.114015
0.626978 0.0941482 0.117159
0.631891 0.0639353 0.160815
0.706691 0.125307 0.308064
0.7888 0.230442 0.560678
0.0478981 0.480217 0.145693
0.0457771 0.487999 0.160067
0.0475929 0.487465 0.127153
0.118914 0.498543 0.0562142
0.623026 0.604883 0.12784
0.833448 0.542412 0.217655
0.867994 0.453559 0.224033
0.659861 0.0918288 0.177386
0.835157 0.269734 0.570275
0.146914 0.662242 0.327108
0.13756 0.674601 0.362936
0.145693 0.674113 0.343511
0.179294 0.657984 0.246571
0.556481 0.767498 0.27274
0.820676 0.828702 0.372168
0.913512 0.810803 0.433021
0.893095 0.754421 0.355413
0.856321 0.428504 0.237949
0.27863 0.751583 0.457527
0.270497 0.756817 0.473274
0.276814 0.753323 0.453452
0.29192 0.743023 0.399558
0.472145 0.76527 0.333272
0.766079 0.888945 0.479088
0.905486 0.911635 0.561959
0.918242 0.910399 0.568643
0.915709 0.893095 0.494377
0.308034 0.772595 0.504173
0.305913 0.773968 0.508217
0.319265 0.767468 0.477378
0.339345 0.761425 0.439185
0.501579 0.785763 0.450248
0.750301 0.879942 0.593851
0.883162 0.922927 0.655268
0.920562 0.922988 0.686168
0.914809 0.920516 0.659022
0.452094 0.811048 0.590616
0.472648 0.816678 0.604547
0.517922 0.823713 0.609583
0.582238 0.837858 0.63151
0.675837 0.862715 0.679774
0.801785 0.900725 0.749905
0.878202 0.93167 0.804227
0.909667 0.939269 0.821424
0.905364 0.941588 0.846098
0.0407111 0.051606 0.114794
0.0441901 0.0503395 0.122744
0.0888533 0.0424811 0.143648
0.21442 0.041062 0.128649
0.384939 0.0374609 0.142321
0.521477 0.0457008 0.196216
0.624949 0.0865644 0.259144
0.690089 0.139757 0.376135
0.702358 0.187366 0.510002
0.0402075 0.0572213 0.119188
0.0405127 0.0548867 0.132677
0.0780346 0.0433814 0.164218
0.228122 0.0429541 0.149828
0.403586 0.0379492 0.151812
0.535271 0.0474556 0.198306
0.636103 0.0927443 0.268711
0.695293 0.145052 0.390127
0.705974 0.191135 0.522438
0.0431678 0.124956 0.14197
0.0421454 0.123812 0.161929
0.0639506 0.111742 0.207553
0.274449 0.0725414 0.208957
0.449638 0.0392157 0.152071
0.555215 0.0460517 0.178729
0.658152 0.0964828 0.26537
0.71931 0.148043 0.391394
0.753017 0.212909 0.559274
0.0501717 0.270481 0.194232
0.0460517 0.27834 0.21268
0.0522469 0.285893 0.224338
0.34049 0.350545 0.325917
0.618326 0.239002 0.27776
0.665644 0.104906 0.208515
0.648432 0.0783551 0.211963
0.725078 0.147478 0.381292
0.832273 0.277073 0.642084
0.0509346 0.501884 0.260945
0.0486915 0.512123 0.290303
0.0513466 0.51339 0.268116
0.0999466 0.513939 0.203754
0.608194 0.606516 0.287465
0.823362 0.514763 0.290898
0.878996 0.366644 0.278569
0.694301 0.124804 0.274632
0.863188 0.314641 0.652628
0.154208 0.675959 0.395651
0.144137 0.687938 0.429175
0.150118 0.688304 0.41239
0.161547 0.676493 0.34342
0.453071 0.71722 0.290272
0.810971 0.823087 0.406485
0.915145 0.794858 0.463416
0.901488 0.74966 0.379614
0.889784 0.316564 0.42356
0.28777 0.76257 0.496284
0.279118 0.767758 0.513313
0.282658 0.766018 0.498863
0.293065 0.757427 0.452842
0.42153 0.759793 0.379248
0.74844 0.882567 0.532219
0.904097 0.91545 0.59823
0.921096 0.912963 0.604212
0.915892 0.890196 0.489372
0.31664 0.779721 0.529381
0.312551 0.782528 0.538231
0.317388 0.781247 0.528618
0.345892 0.773114 0.481193
0.503044 0.795331 0.496681
0.745968 0.875853 0.626307
0.882536 0.925231 0.693751
0.920424 0.924025 0.695109
0.914977 0.926101 0.710231
0.4636 0.817075 0.61091
0.484932 0.823026 0.625849
0.521782 0.831998 0.643641
0.599695 0.848173 0.6636
0.685512 0.869047 0.700633
0.800717 0.901564 0.760616
0.87776 0.931899 0.813626
0.908553 0.940276 0.831662
0.905898 0.941619 0.846006
0.0407874 0.0670176 0.19942
0.0424201 0.0638895 0.215152
0.0606088 0.0480201 0.259236
0.196506 0.0437171 0.2822
0.379889 0.0434424 0.267124
0.530983 0.0606394 0.292576
0.642939 0.11809 0.36582
0.702586 0.161654 0.45127
0.70985 0.195102 0.547417
0.0409094 0.0717784 0.21355
0.0415961 0.0711223 0.23299
0.0570382 0.059968 0.275822
0.207538 0.0448157 0.311559
0.397894 0.0453803 0.28925
0.545846 0.0665904 0.306767
0.658381 0.127825 0.384863
0.708675 0.166369 0.468147
0.714961 0.200824 0.56202
0.0415961 0.110399 0.238056
0.0416266 0.105333 0.263523
0.0417487 0.0842298 0.290501
0.207446 0.049073 0.360769
0.434287 0.0546731 0.336889
0.573877 0.0708324 0.304417
0.691585 0.133547 0.386297
0.732021 0.166995 0.472175
0.778317 0.238285 0.617884
0.0423438 0.254124 0.296971
0.0425269 0.254734 0.321218
0.0428626 0.244465 0.334157
0.188708 0.260624 0.452857
0.571069 0.214664 0.502083
0.643977 0.117678 0.359808
0.695552 0.133196 0.379583
0.741329 0.170367 0.478004
0.852033 0.308141 0.70045
0.0536202 0.501579 0.394263
0.0507973 0.509575 0.425391
0.0539254 0.515633 0.434806
0.0983139 0.531151 0.457969
0.591196 0.603098 0.573693
0.845075 0.50602 0.53518
0.907256 0.353338 0.506264
0.719295 0.163622 0.434012
0.891981 0.364141 0.742718
0.163928 0.687633 0.493492
0.152819 0.697948 0.523033
0.160418 0.703059 0.520363
0.176257 0.703334 0.492836
0.435355 0.727077 0.488777
0.788006 0.814618 0.587076
0.901518 0.760571 0.575158
0.901335 0.636683 0.462745
0.907332 0.389548 0.610758
0.301106 0.778058 0.569619
0.291173 0.783047 0.585107
0.29601 0.784451 0.57995
0.305287 0.78085 0.546532
0.438865 0.789029 0.513436
0.730877 0.86772 0.634775
0.899321 0.920272 0.705242
0.924025 0.912474 0.712673
0.920165 0.892424 0.549661
0.339315 0.794522 0.581888
0.328328 0.798184 0.596857
0.332662 0.79765 0.590036
0.359686 0.796719 0.570596
0.530327 0.820111 0.587106
0.749432 0.877867 0.68368
0.879896 0.929122 0.760403
0.917693 0.9346 0.781964
0.911879 0.935576 0.792218
0.479606 0.828534 0.648127
0.502144 0.834714 0.663523
0.541253 0.84445 0.683818
0.608942 0.860792 0.714351
0.70219 0.881361 0.742031
0.802045 0.906828 0.786114
0.878782 0.93312 0.834516
0.908614 0.942092 0.852003
0.907729 0.942306 0.850278
0.0417945 0.0859541 0.31426
0.043183 0.0804608 0.33283
0.0587472 0.0768749 0.363088
0.170138 0.0505837 0.411261
0.35729 0.050782 0.41384
0.522423 0.0762493 0.406607
0.656352 0.138872 0.458793
0.709331 0.175311 0.546227
0.715846 0.203433 0.605005
0.0418555 0.0919356 0.327977
0.0419471 0.090074 0.343816
0.0498665 0.081239 0.37293
0.170306 0.0521553 0.434623
0.368902 0.053315 0.431006
0.532845 0.085832 0.429496
0.671 0.148562 0.482338
0.704784 0.183169 0.57084
0.712825 0.210163 0.621729
0.0420844 0.120043 0.348989
0.0421912 0.117494 0.364889
0.0422065 0.0995804 0.381415
0.138537 0.0549783 0.460822
0.396979 0.0627146 0.469535
0.552956 0.0985275 0.45034
0.702266 0.154681 0.49543
0.726177 0.185458 0.580774
0.735607 0.219699 0.637598
0.0429999 0.225635 0.393698
0.043122 0.226764 0.411399
0.0429236 0.214954 0.420493
0.0776684 0.182559 0.49929
0.438453 0.122576 0.556344
0.60853 0.139513 0.51725
0.709346 0.158999 0.512306
0.735943 0.189715 0.593744
0.820829 0.301823 0.732799
0.0467689 0.49192 0.500923
0.0467231 0.49839 0.519951
0.0467994 0.499367 0.529702
0.0478828 0.493843 0.55111
0.460838 0.527794 0.696971
0.837339 0.521508 0.77084
0.89192 0.331731 0.704082
0.737621 0.189044 0.588006
0.872068 0.371893 0.796506
0.159701 0.679347 0.590661
0.155001 0.686671 0.608179
0.163684 0.692302 0.61471
0.178775 0.697734 0.62005
0.446143 0.747051 0.683589
0.774762 0.797024 0.764569
0.912322 0.74461 0.746044
0.919829 0.643427 0.715618
0.879606 0.367483 0.75967
0.310628 0.782895 0.649516
0.299077 0.78674 0.664622
0.304936 0.790326 0.665599
0.316335 0.795209 0.658579
0.464759 0.82295 0.667567
0.737591 0.877974 0.752834
0.883726 0.915526 0.803357
0.920531 0.909499 0.813977
0.914733 0.858137 0.753841
0.358495 0.8112 0.667399
0.347189 0.812696 0.676921
0.352316 0.814527 0.675883
0.375296 0.819181 0.670176
0.564141 0.854444 0.711147
0.764035 0.899535 0.779309
0.876707 0.932296 0.835767
0.915434 0.943526 0.854917
0.913008 0.944152 0.85948
0.481575 0.841703 0.704997
0.507591 0.848234 0.718776
0.552956 0.858717 0.735973
0.627939 0.875685 0.76379
0.716564 0.895308 0.796551
0.814466 0.918074 0.830137
0.88336 0.936889 0.865064
0.906783 0.945418 0.881529
0.907439 0.947021 0.88661
0.0424201 0.106584 0.396689
0.0432593 0.102571 0.411063
0.0518196 0.096025 0.426093
0.124453 0.0616922 0.482994
0.330831 0.0685588 0.498589
0.464775 0.0832227 0.493065
0.635813 0.159503 0.563775
0.695506 0.190967 0.620752
0.707469 0.212833 0.659815
0.0422827 0.110658 0.397452
0.042359 0.109987 0.407507
0.0461891 0.102617 0.426322
0.118486 0.0756237 0.482139
0.343435 0.0752728 0.510384
0.479698 0.0923323 0.506752
0.652155 0.16997 0.584909
0.690959 0.197543 0.638346
0.705425 0.21825 0.670893
0.0424353 0.136339 0.406928
0.0424506 0.13463 0.410712
0.0424201 0.118303 0.42063
0.10161 0.101549 0.470619
0.352087 0.0847486 0.527581
0.521721 0.118563 0.545296
0.672465 0.179706 0.607019
0.700511 0.202045 0.650492
0.716548 0.224933 0.682567
0.0428016 0.209033 0.444556
0.0429541 0.211017 0.452491
0.0428168 0.204318 0.454917
0.0466773 0.172869 0.489174
0.331533 0.11751 0.571344
0.583185 0.160769 0.607141
0.681712 0.187503 0.628244
0.706462 0.206928 0.662379
0.747799 0.254047 0.716503
0.046479 0.481575 0.568231
0.0469673 0.488518 0.578561
0.0474708 0.489921 0.585275
0.0473182 0.47396 0.59469
0.349722 0.484001 0.740841
0.805707 0.503273 0.888273
0.828046 0.330571 0.779339
0.710185 0.208545 0.666835
0.790921 0.30573 0.766018
0.134981 0.662181 0.642496
0.136553 0.667704 0.650919
0.138399 0.669688 0.654124
0.143557 0.67013 0.661204
0.330495 0.707393 0.736309
0.71577 0.761532 0.841917
0.905516 0.753994 0.867506
0.930632 0.652064 0.891218
0.779187 0.292348 0.752453
0.306706 0.775341 0.702663
0.301106 0.778897 0.711254
0.30782 0.782391 0.715007
0.319203 0.78703 0.719432
0.443229 0.819425 0.753643
0.741817 0.886931 0.841779
0.87454 0.910124 0.877684
0.917342 0.900984 0.871351
0.91429 0.85594 0.862989
0.362936 0.815106 0.726879
0.361166 0.816159 0.731167
0.366155 0.818372 0.732479
0.381262 0.823529 0.733761
0.553826 0.864378 0.779553
0.774136 0.915053 0.847333
0.880461 0.939208 0.884596
0.912261 0.946593 0.894896
0.912932 0.947234 0.897292
0.460136 0.842069 0.751003
0.487282 0.848646 0.760204
0.538888 0.860868 0.77641
0.622904 0.881361 0.803494
0.718975 0.90428 0.835462
0.822141 0.926574 0.868132
0.885924 0.943252 0.893736
0.908095 0.94995 0.905119
0.910292 0.951324 0.909102
0.0424048 0.127672 0.423117
0.0426795 0.123644 0.433906
0.0447089 0.118456 0.44773
0.0926375 0.106859 0.475517
0.286442 0.0848859 0.53315
0.4607 0.102571 0.547845
0.606088 0.159426 0.599252
0.683696 0.198535 0.659388
0.699046 0.214801 0.679973
0.0425879 0.136233 0.426841
0.0425879 0.133471 0.428931
0.04271 0.124254 0.443809
0.0821393 0.10782 0.473304
0.295933 0.088014 0.537789
0.487175 0.111955 0.561425
0.624384 0.168536 0.61445
0.684916 0.20087 0.663462
0.700008 0.217777 0.683803
0.042771 0.157382 0.440558
0.0427863 0.156909 0.444068
0.042649 0.152468 0.445212
0.0528267 0.115984 0.464698
0.287343 0.0885481 0.540429
0.534829 0.134157 0.590936
0.652659 0.181918 0.637324
0.690242 0.203265 0.665721
0.707713 0.222721 0.689281
0.0432136 0.236011 0.477607
0.0433051 0.245975 0.486351
0.043534 0.251728 0.494453
0.0433051 0.230762 0.496452
0.285679 0.161654 0.628168
0.564492 0.165484 0.631357
0.68751 0.203662 0.666712
0.694682 0.205982 0.669017
0.717464 0.230213 0.69781
0.0491035 0.489479 0.600061
0.0502785 0.499657 0.608804
0.0512703 0.503456 0.615228
0.0500954 0.49366 0.618967
0.296895 0.503273 0.745998
0.759167 0.526802 0.897795
0.863844 0.403494 0.849195
0.698863 0.209018 0.672557
0.734142 0.246479 0.715328
0.131441 0.664836 0.668223
0.133806 0.67097 0.673854
0.13695 0.673518 0.677791
0.136065 0.672541 0.680873
0.294804 0.703319 0.749828
0.678218 0.749828 0.854002
0.890333 0.75935 0.908446
0.924392 0.667063 0.917403
0.725093 0.237827 0.70634
0.272984 0.76228 0.714702
0.275273 0.766323 0.720958
0.287053 0.769741 0.725872
0.308248 0.776745 0.734966
0.398611 0.804425 0.770809
0.717205 0.875563 0.862867
0.870283 0.90692 0.900587
0.919219 0.897307 0.895872
0.913664 0.843824 0.897719
0.365118 0.813458 0.749004
0.365164 0.814755 0.751232
0.370001 0.816678 0.753689
0.382574 0.821469 0.758144
0.549416 0.862791 0.804242
0.768597 0.916106 0.870054
0.878019 0.939437 0.901503
0.909239 0.947173 0.90959
0.911986 0.948577 0.91252
0.453437 0.838926 0.768048
0.468833 0.844205 0.779248
0.524208 0.857694 0.795483
0.611078 0.879332 0.821317
0.711437 0.904326 0.852445
0.818448 0.928923 0.884443
0.888319 0.945296 0.906004
0.90901 0.951782 0.914611
0.911711 0.952789 0.916625
0.0428321 0.164935 0.453834
0.042649 0.159167 0.452033
0.0426642 0.148882 0.446769
0.0467079 0.121843 0.463157
0.21648 0.0819409 0.531014
0.475776 0.111955 0.569085
0.58468 0.146487 0.600443
0.677256 0.194293 0.655344
0.691478 0.208225 0.672557
0.0428321 0.167086 0.454032
0.0427405 0.168124 0.456687
0.0426795 0.157916 0.452308
0.0440833 0.125505 0.459113
0.222736 0.0824598 0.53196
0.494545 0.118456 0.575372
0.618738 0.163607 0.619974
0.678538 0.19556 0.657115
0.692378 0.210407 0.674922
0.042771 0.183948 0.459953
0.0429541 0.187091 0.463981
0.0429541 0.205432 0.475883
0.0428626 0.17377 0.463157
0.186511 0.0994736 0.546456
0.523262 0.144259 0.606989
0.674434 0.192157 0.652873
0.681865 0.196933 0.658335
0.697261 0.213336 0.678538
0.0444495 0.30724 0.523339
0.0448768 0.331624 0.53959
0.0452583 0.361364 0.559045
0.045304 0.374182 0.567269
0.252705 0.363256 0.71194
0.704433 0.341451 0.833387
0.703502 0.218799 0.684367
0.684413 0.198138 0.659617
0.702815 0.21709 0.682857
0.0555123 0.518471 0.621775
0.0587015 0.534508 0.631251
0.0624399 0.545235 0.638727
0.0639506 0.549447 0.644236
0.246616 0.573953 0.738445
0.655482 0.580438 0.854917
0.923812 0.569757 0.917617
0.716167 0.224353 0.690562
0.70782 0.221561 0.687907
0.14049 0.674434 0.680476
0.144991 0.682094 0.686503
0.148592 0.686137 0.689738
0.149538 0.686992 0.692882
0.296529 0.718898 0.750652
0.66656 0.772183 0.851484
0.874708 0.786358 0.905974
0.919875 0.716579 0.912459
0.716274 0.22536 0.691981
0.260746 0.760342 0.71873
0.261067 0.763958 0.724453
0.269413 0.766613 0.726879
0.300404 0.773999 0.736385
0.377111 0.800412 0.768063
0.712505 0.875364 0.864912
0.863462 0.907561 0.903532
0.915328 0.902617 0.902876
0.912245 0.854994 0.90016
0.378729 0.812451 0.751797
0.377264 0.813687 0.754223
0.381689 0.81561 0.756527
0.397253 0.821515 0.763119
0.549722 0.861021 0.805798
0.766171 0.913787 0.870237
0.876783 0.937407 0.901671
0.909819 0.946227 0.911101
0.912337 0.945968 0.912566
0.451987 0.837873 0.774868
0.466728 0.843534 0.786969
0.527276 0.858152 0.803662
0.614618 0.880186 0.828733
0.713558 0.904952 0.858579
0.818326 0.929397 0.889357
0.887129 0.945693 0.90956
0.908782 0.95227 0.917144
0.914397 0.952728 0.916289
