bundles/resolve-cinematic-luts/Phantom Luts/A7s3 Phntm Film LUTs - G6/SLog3/Eterna A7s3-Legacy.cube
TITLE "Generated by Resolve"
LUT_3D_SIZE 33
0.0306401 0.0570382 0.057023
0.0306401 0.0570382 0.057023
0.0307164 0.0570077 0.0569162
0.0310826 0.0569314 0.0564126
0.0356146 0.0572061 0.0561074
0.0436103 0.0572671 0.0548714
0.0543069 0.0571298 0.0531167
0.0682078 0.0571756 0.0515908
0.0851301 0.057908 0.0521706
0.101137 0.0582284 0.0537118
0.119493 0.0594949 0.0571603
0.141497 0.0626841 0.0626383
0.168582 0.066743 0.0699931
0.199161 0.0714733 0.0776532
0.236088 0.0761578 0.0893568
0.27599 0.0807965 0.104448
0.315633 0.0850843 0.118975
0.35758 0.0896773 0.134936
0.40116 0.0937972 0.152499
0.446006 0.0975357 0.17142
0.494652 0.101183 0.192508
0.548424 0.105379 0.21529
0.605325 0.110155 0.24004
0.659068 0.115892 0.266987
0.696193 0.122408 0.292058
0.717357 0.127413 0.31487
0.724559 0.129656 0.335256
0.737057 0.135576 0.359991
0.756985 0.144259 0.391135
0.771374 0.148867 0.42475
0.782818 0.151293 0.458045
0.792203 0.153475 0.489921
0.808804 0.162005 0.527062
0.0315251 0.0566262 0.0556344
0.0308537 0.0569467 0.0566873
0.0307317 0.0570077 0.0568856
0.0308232 0.0570687 0.0568246
0.0354925 0.0575265 0.0569772
0.0433814 0.0578012 0.0564431
0.0559548 0.0576791 0.0543526
0.0715343 0.0578012 0.0530709
0.0881514 0.0581826 0.0531777
0.104311 0.0586404 0.0547646
0.123339 0.0600748 0.0589914
0.145983 0.0633555 0.0650797
0.172915 0.0674601 0.0723278
0.203952 0.0720836 0.0798352
0.241062 0.0766918 0.0914168
0.280797 0.0814679 0.106264
0.320958 0.0858015 0.120958
0.363104 0.0900587 0.136721
0.406577 0.0944839 0.153719
0.451865 0.0983444 0.171801
0.500893 0.102113 0.192584
0.554253 0.106264 0.215442
0.611719 0.111116 0.240558
0.663996 0.116793 0.267613
0.699382 0.123323 0.292805
0.717556 0.127504 0.314855
0.725078 0.130114 0.33547
0.73698 0.1355 0.360006
0.757 0.144305 0.391363
0.772213 0.149325 0.425467
0.783383 0.151171 0.458366
0.792844 0.153231 0.489677
0.806378 0.159258 0.522789
0.0315557 0.056611 0.0555581
0.0308843 0.0569314 0.0566415
0.0307317 0.0570077 0.0568856
0.0307317 0.057084 0.0569314
0.0348058 0.0575723 0.0572519
0.0423438 0.0579843 0.0571908
0.0551003 0.0581369 0.0559396
0.072282 0.0584268 0.0549325
0.0893111 0.0584726 0.0546273
0.106813 0.0590219 0.0563363
0.126558 0.0607309 0.0607767
0.150347 0.0641337 0.0673381
0.17818 0.0682078 0.0747082
0.209415 0.0727703 0.0826886
0.246296 0.0771344 0.0942245
0.285481 0.0815595 0.108232
0.32636 0.0863813 0.123217
0.368353 0.0906844 0.138567
0.411765 0.0947433 0.155276
0.457511 0.0990311 0.173404
0.506706 0.102922 0.193545
0.560113 0.107073 0.216403
0.618479 0.11165 0.241932
0.6692 0.117632 0.268803
0.702388 0.123995 0.293736
0.717861 0.127611 0.31516
0.725826 0.130602 0.336263
0.738216 0.136248 0.361013
0.756649 0.143954 0.392004
0.772808 0.149691 0.425986
0.783673 0.151217 0.458534
0.793103 0.15317 0.489174
0.802991 0.156115 0.518364
0.0315862 0.0566873 0.0555734
0.03093 0.0570077 0.0566567
0.0307774 0.0570687 0.0569162
0.0307164 0.0571298 0.0570077
0.0333715 0.057557 0.0572366
0.0393072 0.057969 0.0572824
0.0496834 0.0582589 0.0566262
0.0675059 0.0586252 0.0559243
0.0862287 0.0588235 0.0558938
0.105287 0.0592203 0.0573434
0.126131 0.0608835 0.0612955
0.151492 0.0643473 0.0679026
0.180194 0.0685283 0.0754711
0.212696 0.0728466 0.0837415
0.251087 0.077348 0.0965744
0.29044 0.0816052 0.110414
0.330739 0.0864424 0.125032
0.372183 0.090837 0.140032
0.415457 0.0951247 0.156435
0.461448 0.0991531 0.174289
0.511162 0.103258 0.194842
0.565957 0.107408 0.218204
0.623499 0.112291 0.243748
0.673381 0.118547 0.270146
0.706264 0.125063 0.294728
0.717968 0.127672 0.315038
0.725933 0.130678 0.335821
0.738628 0.136355 0.360693
0.756252 0.143679 0.390356
0.772503 0.149523 0.422934
0.783246 0.150835 0.45481
0.792691 0.152499 0.484535
0.805524 0.157443 0.515648
0.032517 0.0589456 0.0568856
0.0320897 0.0597696 0.0579843
0.0320745 0.0598154 0.0580606
0.0322881 0.0593576 0.0580758
0.0340124 0.0595865 0.0581369
0.0383764 0.0597391 0.0580911
0.0461433 0.0597391 0.0571145
0.0639658 0.0600443 0.0565805
0.0844739 0.0596475 0.0564431
0.104646 0.059678 0.0580758
0.126268 0.0610513 0.0614176
0.152651 0.0644388 0.067689
0.183413 0.0690318 0.0759289
0.217075 0.0733654 0.0847944
0.255665 0.07776 0.0980087
0.294789 0.0818647 0.11104
0.3364 0.0860914 0.126131
0.379522 0.0907912 0.141833
0.42298 0.0951553 0.15819
0.469062 0.0992905 0.176028
0.519631 0.103716 0.196811
0.574853 0.108293 0.220417
0.632151 0.113527 0.246159
0.680095 0.120058 0.272572
0.711742 0.126589 0.297475
0.718669 0.12781 0.316701
0.727306 0.131334 0.338323
0.741344 0.137331 0.364752
0.759716 0.145693 0.396033
0.774334 0.150286 0.429145
0.784649 0.151659 0.460883
0.793881 0.153155 0.490517
0.809689 0.160754 0.524529
0.0354162 0.0675212 0.0605325
0.0350042 0.068513 0.0614786
0.0349584 0.0686503 0.0614481
0.0353857 0.0676127 0.0608072
0.0386816 0.0674449 0.0611429
0.0437781 0.067628 0.0610971
0.0518654 0.0673381 0.0601816
0.0671855 0.0664378 0.0588846
0.0876478 0.0645762 0.0581674
0.108339 0.0624094 0.0586709
0.13109 0.0623941 0.061738
0.157519 0.0649577 0.0674296
0.187884 0.0686809 0.0749371
0.223285 0.0736553 0.0845045
0.262943 0.0785534 0.0981918
0.302159 0.0829023 0.111376
0.343069 0.0869917 0.125307
0.387823 0.091249 0.142138
0.433707 0.0953689 0.159838
0.482399 0.0992599 0.179141
0.534401 0.103639 0.200412
0.5906 0.108659 0.224079
0.645167 0.114061 0.249592
0.687663 0.12108 0.275212
0.714229 0.127398 0.299016
0.719646 0.12813 0.318547
0.729107 0.131884 0.342031
0.744106 0.138369 0.369131
0.763439 0.147784 0.40174
0.776074 0.151049 0.434882
0.786114 0.152453 0.466575
0.795209 0.153704 0.496101
0.814588 0.163973 0.533639
0.0383001 0.079469 0.0640421
0.0376745 0.0810864 0.0648051
0.0373541 0.082002 0.0652018
0.0375067 0.0812085 0.0638285
0.0406958 0.0796979 0.0635233
0.0474556 0.0799268 0.063798
0.057969 0.079118 0.0634928
0.0744335 0.0775769 0.0630045
0.0932631 0.0747387 0.0619516
0.112474 0.0709239 0.0606394
0.135866 0.0677958 0.0616617
0.163226 0.0670176 0.0662852
0.192905 0.0687419 0.073228
0.226703 0.0719921 0.081117
0.265248 0.0769513 0.093019
0.307134 0.0833143 0.108873
0.349325 0.0886702 0.124376
0.391485 0.0927138 0.13959
0.43856 0.0968795 0.157717
0.488853 0.101045 0.177859
0.54287 0.105013 0.199969
0.601816 0.109804 0.225162
0.656397 0.115633 0.251881
0.695476 0.12256 0.27779
0.715969 0.127611 0.300389
0.720745 0.128893 0.320073
0.730022 0.132753 0.343725
0.744869 0.139956 0.371878
0.764233 0.149844 0.404379
0.774319 0.152712 0.436301
0.783001 0.154559 0.466209
0.792142 0.157046 0.494987
0.813916 0.17023 0.533761
0.0442206 0.0962387 0.0656748
0.0433051 0.0990616 0.067628
0.0416571 0.100954 0.0688334
0.0412299 0.101411 0.0683452
0.0417945 0.100267 0.0669261
0.0485695 0.0998245 0.0668498
0.0596628 0.099382 0.0668193
0.078233 0.0979171 0.0670024
0.101961 0.0942397 0.0673075
0.124269 0.0878614 0.0676432
0.145052 0.0821698 0.0664683
0.17055 0.0766766 0.0672923
0.201801 0.0746777 0.0728618
0.23415 0.0719921 0.0780957
0.26981 0.0735027 0.0873732
0.309453 0.0786908 0.101579
0.355505 0.0871748 0.12079
0.402396 0.094316 0.139422
0.445945 0.0982071 0.15581
0.496498 0.102174 0.175875
0.55317 0.106615 0.19913
0.613748 0.111513 0.225254
0.667567 0.117327 0.252644
0.703456 0.123949 0.279072
0.719005 0.127489 0.301137
0.723552 0.128985 0.321706
0.732128 0.133135 0.345113
0.7467 0.140841 0.373556
0.764569 0.149828 0.40618
0.775036 0.153002 0.438453
0.784054 0.155245 0.469062
0.797223 0.160555 0.501915
0.820325 0.174823 0.542321
0.0489967 0.117113 0.0707256
0.0467689 0.120302 0.072694
0.0451057 0.12311 0.0743877
0.0444648 0.124392 0.0740368
0.0443275 0.124239 0.0718853
0.0467536 0.124376 0.06981
0.0569162 0.123751 0.0700236
0.0763714 0.122683 0.0694591
0.10219 0.120958 0.0700999
0.133013 0.116197 0.0717937
0.164233 0.105745 0.0757153
0.190066 0.0979171 0.0754864
0.215518 0.0913558 0.0753643
0.246006 0.082826 0.0759289
0.280766 0.0766613 0.0810712
0.316533 0.0740215 0.0910811
0.357687 0.0792859 0.109178
0.404562 0.0889906 0.130632
0.457542 0.0991836 0.153826
0.504356 0.103944 0.171801
0.561318 0.108492 0.195224
0.622446 0.113207 0.221775
0.675715 0.119524 0.250065
0.707973 0.125368 0.276112
0.720577 0.127779 0.298924
0.725475 0.128923 0.320455
0.733715 0.132982 0.344442
0.747738 0.140841 0.373053
0.764065 0.149264 0.405768
0.775616 0.153353 0.438834
0.785183 0.156466 0.47039
0.801175 0.163943 0.50576
0.825437 0.179324 0.547936
0.0522164 0.1411 0.0779583
0.0500038 0.144884 0.0792859
0.047425 0.148577 0.0809033
0.0463569 0.150652 0.0811322
0.0463569 0.151324 0.0790112
0.047776 0.152499 0.075761
0.0515145 0.152331 0.0728008
0.0679332 0.152071 0.0735027
0.0978103 0.150866 0.0733959
0.129946 0.147829 0.0742046
0.171633 0.143435 0.0774243
0.216892 0.126589 0.0852064
0.247044 0.117128 0.0857404
0.274434 0.109926 0.0846723
0.303609 0.0991836 0.0838178
0.333608 0.0864881 0.0846113
0.365545 0.0776684 0.0920424
0.403113 0.0785077 0.110811
0.448585 0.0864881 0.135058
0.50811 0.0996109 0.16289
0.571679 0.108949 0.192035
0.631113 0.116091 0.215946
0.680934 0.122759 0.242649
0.710353 0.127749 0.26891
0.720653 0.12874 0.291997
0.726024 0.129122 0.315129
0.734173 0.132387 0.34052
0.747875 0.139925 0.369558
0.76347 0.148272 0.402808
0.776089 0.153521 0.436439
0.786923 0.157458 0.469764
0.805951 0.167315 0.508354
0.829313 0.182422 0.550393
0.0547341 0.171801 0.0882277
0.0516518 0.176593 0.0887007
0.0485695 0.181094 0.0903029
0.0469978 0.184573 0.0909438
0.046952 0.186313 0.088838
0.0483558 0.188327 0.0852522
0.0497902 0.189883 0.0810864
0.0571298 0.188739 0.0742504
0.0840009 0.189029 0.0761425
0.124071 0.18819 0.0780804
0.166567 0.184619 0.0806287
0.220813 0.180804 0.084123
0.283482 0.159136 0.0988022
0.324285 0.145312 0.102159
0.354437 0.138567 0.102647
0.381552 0.128496 0.102296
0.410193 0.114199 0.102235
0.436286 0.0985122 0.104509
0.459602 0.0842451 0.112245
0.48394 0.0779126 0.128679
0.556237 0.0948501 0.165423
0.63154 0.110689 0.202747
0.688594 0.125689 0.235233
0.711955 0.130526 0.257237
0.72015 0.130327 0.280369
0.725902 0.129854 0.305348
0.734508 0.132158 0.333227
0.746975 0.138094 0.36318
0.763256 0.146929 0.397375
0.776867 0.153414 0.43154
0.78996 0.159045 0.46775
0.809308 0.170016 0.508293
0.833555 0.186099 0.551934
0.0580148 0.211353 0.101717
0.0541543 0.217197 0.101427
0.0502785 0.22269 0.103136
0.0482032 0.227192 0.104204
0.0479896 0.230732 0.102632
0.0496986 0.234684 0.0992599
0.0513313 0.238239 0.0959793
0.0542611 0.239094 0.0895247
0.0658122 0.236988 0.0783093
0.106462 0.237949 0.0800793
0.158953 0.238422 0.0835431
0.217304 0.236774 0.0868849
0.288029 0.236576 0.0891432
0.367254 0.214405 0.114504
0.423804 0.195056 0.125887
0.465644 0.18645 0.129061
0.500175 0.178683 0.131609
0.527489 0.166506 0.132784
0.547646 0.145373 0.132326
0.554528 0.114458 0.131838
0.560449 0.0951247 0.142184
0.60708 0.0936751 0.169146
0.668818 0.107698 0.206287
0.717388 0.132128 0.246128
0.721736 0.132479 0.263478
0.72604 0.131502 0.289311
0.732921 0.132219 0.319036
0.744244 0.136278 0.350927
0.760876 0.145037 0.386343
0.776272 0.152438 0.423163
0.79266 0.1608 0.462837
0.814542 0.173449 0.506691
0.838224 0.189776 0.551522
0.0622568 0.263569 0.118425
0.0575723 0.271015 0.117617
0.0529488 0.278691 0.1196
0.0511635 0.285527 0.120989
0.0500496 0.290944 0.120378
0.0518502 0.296986 0.117571
0.0538949 0.301595 0.113588
0.0569314 0.305226 0.109117
0.0621195 0.305333 0.0983139
0.0778973 0.302541 0.0843214
0.134005 0.306035 0.0857404
0.202899 0.308202 0.0862898
0.282856 0.30753 0.0888533
0.365652 0.311177 0.0796521
0.457954 0.295018 0.116243
0.53785 0.269795 0.141817
0.594446 0.250217 0.152834
0.639216 0.238071 0.15642
0.675792 0.226291 0.160403
0.693507 0.206348 0.163592
0.690013 0.173236 0.164889
0.672862 0.138537 0.168917
0.658442 0.106035 0.179126
0.677028 0.102998 0.196796
0.718013 0.130343 0.240864
0.727657 0.13431 0.266987
0.73257 0.133547 0.297169
0.740154 0.134661 0.331487
0.754955 0.141711 0.369406
0.77377 0.151446 0.410559
0.794842 0.163165 0.454597
0.819059 0.177737 0.502403
0.84239 0.193866 0.548119
0.0690013 0.333684 0.137194
0.0643473 0.342687 0.138003
0.0599832 0.35079 0.139132
0.056611 0.358541 0.139986
0.0544289 0.365347 0.13872
0.0541695 0.372519 0.135973
0.0554818 0.379004 0.132769
0.0568704 0.383291 0.128344
0.0594492 0.386969 0.121447
0.0656901 0.385199 0.10341
0.0920272 0.383322 0.0880446
0.170199 0.385885 0.0866712
0.259785 0.386999 0.0829786
0.357656 0.388037 0.0852369
0.448264 0.393683 0.0667735
0.538933 0.387274 0.107973
0.641062 0.361151 0.150896
0.714656 0.334432 0.17435
0.769146 0.313619 0.186023
0.801663 0.297078 0.195254
0.814511 0.277317 0.203052
0.809964 0.247425 0.204944
0.78143 0.205127 0.200763
0.711055 0.130404 0.191104
0.696956 0.115236 0.194736
0.715297 0.127901 0.227909
0.731228 0.136278 0.265248
0.738903 0.136019 0.303166
0.749645 0.138567 0.345968
0.773114 0.151537 0.394247
0.803037 0.169512 0.447623
0.826429 0.183627 0.498497
0.848692 0.198932 0.545769
0.0706188 0.418662 0.158572
0.065156 0.428733 0.160601
0.0599374 0.437659 0.161456
0.0561532 0.445853 0.16141
0.0534981 0.452857 0.159487
0.052369 0.460472 0.157412
0.0524453 0.466926 0.155108
0.0538491 0.471443 0.150912
0.0564126 0.475044 0.144915
0.0610971 0.477775 0.133639
0.072282 0.475242 0.106416
0.118791 0.471702 0.0863813
0.227848 0.472007 0.0869764
0.334951 0.472786 0.0828412
0.43592 0.47451 0.0946517
0.527657 0.480659 0.0690623
0.611933 0.477821 0.109331
0.716655 0.456291 0.164553
0.800076 0.430121 0.199405
0.855985 0.400488 0.224292
0.880629 0.377218 0.237873
0.885008 0.353841 0.238636
0.872175 0.322377 0.231052
0.850614 0.282918 0.220951
0.778485 0.19115 0.20058
0.728038 0.142077 0.195727
0.720821 0.132937 0.219867
0.73991 0.141863 0.266743
0.758465 0.147631 0.320256
0.77998 0.157198 0.376593
0.80914 0.174365 0.435889
0.835721 0.191562 0.492622
0.857481 0.207187 0.543481
0.0733959 0.508965 0.190539
0.0683604 0.518929 0.193698
0.0636454 0.528313 0.195026
0.0593271 0.536431 0.194781
0.0567483 0.543145 0.193408
0.0560922 0.550332 0.192111
0.0569924 0.555764 0.189944
0.0590066 0.560037 0.186557
0.0619364 0.563195 0.180331
0.0666514 0.565805 0.171283
0.0748608 0.565164 0.152865
0.0978866 0.561212 0.114778
0.176928 0.556954 0.0954757
0.31313 0.554314 0.0997024
0.420493 0.556786 0.100664
0.516747 0.558038 0.120912
0.603494 0.561975 0.094255
0.682155 0.560525 0.125383
0.781399 0.544488 0.183856
0.863066 0.522286 0.226047
0.910628 0.495949 0.254078
0.923934 0.468818 0.265354
0.915892 0.434791 0.260853
0.90367 0.397223 0.252262
0.884337 0.349752 0.238499
0.840009 0.266346 0.217655
0.76643 0.180499 0.199207
0.733913 0.144991 0.215671
0.7579 0.153796 0.275944
0.790906 0.168521 0.349554
0.819211 0.183368 0.418723
0.846937 0.201099 0.483116
0.86894 0.217517 0.541085
0.0868238 0.595819 0.235752
0.0826886 0.605417 0.239078
0.0779126 0.614099 0.240009
0.0742657 0.622614 0.240101
0.0720531 0.629374 0.239124
0.0724346 0.635904 0.238819
0.0740063 0.640543 0.237629
0.076585 0.644327 0.234684
0.0804913 0.646723 0.228717
0.0864118 0.64831 0.218784
0.0942245 0.648463 0.204166
0.107347 0.645441 0.174243
0.145235 0.639811 0.128923
0.268177 0.636469 0.11931
0.410315 0.634714 0.120119
0.500862 0.638895 0.128161
0.59205 0.637797 0.152316
0.672953 0.638285 0.134432
0.746441 0.637476 0.156985
0.83209 0.626276 0.208621
0.903487 0.608225 0.250828
0.934417 0.587152 0.271641
0.93814 0.562356 0.27306
0.933318 0.529168 0.268376
0.926223 0.482094 0.266117
0.910216 0.417105 0.256367
0.876432 0.330419 0.234272
0.812696 0.229389 0.210147
0.766369 0.172595 0.22266
0.784863 0.169558 0.300435
0.82501 0.189364 0.395224
0.860243 0.213596 0.469398
0.882704 0.230884 0.536889
0.111391 0.678523 0.286748
0.108583 0.688334 0.289677
0.105135 0.697276 0.29044
0.101839 0.705577 0.290547
0.100099 0.712596 0.290242
0.100816 0.718502 0.289967
0.102983 0.722789 0.289311
0.106035 0.72575 0.287007
0.109911 0.727749 0.282185
0.115846 0.728985 0.273182
0.123278 0.727672 0.256947
0.133715 0.725505 0.237675
0.152834 0.719188 0.192981
0.224292 0.714137 0.151919
0.377813 0.713771 0.151217
0.500587 0.711513 0.147662
0.577371 0.716808 0.164508
0.66186 0.712825 0.190799
0.737926 0.709743 0.184405
0.804639 0.708782 0.201831
0.873075 0.70074 0.240589
0.922652 0.686854 0.272343
0.93872 0.66981 0.280522
0.937407 0.645884 0.273365
0.937255 0.611627 0.269368
0.937102 0.565133 0.270039
0.927565 0.492317 0.265522
0.899565 0.387533 0.247578
0.841596 0.267399 0.218891
0.793591 0.199603 0.223438
0.827039 0.198184 0.349035
0.872648 0.228351 0.445731
0.897963 0.24828 0.527596
0.150378 0.757992 0.34139
0.148943 0.767056 0.343404
0.146136 0.775387 0.344671
0.14345 0.783123 0.345586
0.141711 0.78941 0.345739
0.142977 0.794491 0.345937
0.144411 0.797909 0.344793
0.147692 0.800137 0.342855
0.151217 0.801602 0.33872
0.156008 0.802335 0.330465
0.161807 0.800565 0.316136
0.17023 0.797391 0.296773
0.18349 0.793606 0.268894
0.217655 0.786664 0.214755
0.332738 0.78819 0.186313
0.482795 0.787762 0.186206
0.57792 0.786816 0.187411
0.647898 0.790311 0.209384
0.727977 0.785336 0.236408
0.799405 0.77969 0.240543
0.856748 0.776364 0.253132
0.907607 0.769589 0.277989
0.936736 0.756649 0.297063
0.937881 0.740429 0.289937
0.934493 0.717494 0.277012
0.93315 0.684825 0.269093
0.936568 0.63473 0.269123
0.936141 0.558846 0.268956
0.915129 0.433982 0.259052
0.858839 0.295384 0.224918
0.833326 0.245396 0.232868
0.875547 0.237934 0.411536
0.913222 0.272969 0.504875
0.200824 0.825849 0.396704
0.198596 0.832685 0.398032
0.195636 0.839857 0.398993
0.192386 0.846326 0.39942
0.190188 0.852369 0.399847
0.189502 0.856489 0.398962
0.190341 0.859251 0.397833
0.192233 0.861128 0.395499
0.19472 0.862242 0.391546
0.198077 0.86276 0.384604
0.202152 0.861448 0.373175
0.208835 0.858656 0.354772
0.219135 0.854582 0.329168
0.238163 0.849958 0.291554
0.302708 0.845304 0.237705
0.447242 0.851514 0.22678
0.573617 0.848524 0.226749
0.647135 0.849714 0.234928
0.712322 0.85275 0.259617
0.788968 0.847471 0.286809
0.853712 0.84065 0.297017
0.901671 0.837247 0.305272
0.934325 0.831724 0.317998
0.944625 0.819181 0.320867
0.940505 0.803235 0.30544
0.934096 0.780423 0.283009
0.932097 0.744579 0.272312
0.933715 0.691508 0.268956
0.935363 0.6047 0.26656
0.921721 0.469322 0.259205
0.881605 0.340398 0.237644
0.88574 0.301686 0.291722
0.919234 0.290486 0.470268
0.244541 0.879469 0.444816
0.241321 0.884947 0.445365
0.236942 0.890684 0.445487
0.232395 0.895766 0.444663
0.229374 0.900649 0.444587
0.228138 0.903807 0.443305
0.228061 0.905638 0.441566
0.229297 0.906966 0.438987
0.231312 0.907668 0.435645
0.234134 0.908049 0.430289
0.237232 0.907393 0.421576
0.242679 0.905821 0.406149
0.251926 0.903288 0.38233
0.264683 0.899519 0.353414
0.296773 0.894713 0.303609
0.407141 0.898116 0.269383
0.545342 0.899886 0.268269
0.649989 0.896208 0.26894
0.70486 0.900114 0.283757
0.769802 0.903395 0.311864
0.844602 0.898634 0.340871
0.89926 0.892058 0.353597
0.934035 0.88954 0.358129
0.951247 0.883848 0.361913
0.95172 0.872297 0.350011
0.946532 0.857221 0.326619
0.938796 0.833738 0.292927
0.933227 0.795819 0.277363
0.932158 0.739635 0.270863
0.935271 0.643534 0.266728
0.92401 0.487236 0.258824
0.903944 0.397635 0.251255
0.925719 0.345968 0.370581
0.281437 0.915084 0.482414
0.276829 0.918288 0.481758
0.272175 0.920821 0.480461
0.268879 0.92311 0.479332
0.267079 0.925002 0.478325
0.266712 0.926085 0.477119
0.267475 0.926787 0.475257
0.269062 0.927169 0.472663
0.271489 0.927428 0.469505
0.27422 0.927565 0.464652
0.277272 0.927581 0.457679
0.281712 0.927321 0.446693
0.289357 0.92665 0.429068
0.302159 0.9252 0.400717
0.319951 0.922545 0.364843
0.37966 0.920668 0.317357
0.517922 0.926421 0.307073
0.635294 0.924178 0.310948
0.713268 0.92401 0.317571
0.763973 0.929076 0.339513
0.829602 0.932342 0.373663
0.896422 0.929381 0.405417
0.934127 0.924346 0.420951
0.955444 0.922881 0.423758
0.962417 0.918883 0.415076
0.96112 0.910979 0.393347
0.955673 0.898772 0.358358
0.948028 0.876814 0.320485
0.940032 0.838544 0.293919
0.933288 0.779385 0.277852
0.935821 0.673625 0.269856
0.929015 0.50695 0.265278
0.922408 0.452995 0.267811
0.294621 0.92668 0.502998
0.290089 0.929213 0.502266
0.2851 0.931243 0.500648
0.281575 0.932754 0.499046
0.279332 0.933806 0.497673
0.278325 0.9346 0.495918
0.278553 0.935119 0.494057
0.279789 0.935347 0.491341
0.281804 0.935439 0.487892
0.284276 0.935531 0.483619
0.287129 0.935729 0.477852
0.291173 0.935958 0.469505
0.29778 0.936156 0.455558
0.308934 0.935866 0.432853
0.324468 0.933806 0.398489
0.35108 0.931289 0.356146
0.456321 0.936751 0.329168
0.593942 0.937331 0.33106
0.693278 0.935149 0.337591
0.753536 0.938643 0.353979
0.805295 0.94403 0.384894
0.872297 0.946548 0.422461
0.924727 0.94519 0.45623
0.950896 0.943069 0.473976
0.963455 0.942672 0.480858
0.966064 0.940154 0.471839
0.965103 0.935927 0.446693
0.962356 0.93048 0.405905
0.955856 0.913054 0.360998
0.945464 0.877729 0.306615
0.93489 0.815717 0.279942
0.931807 0.699535 0.269169
0.935149 0.549859 0.268238
0.297765 0.930922 0.515435
0.294041 0.932296 0.514366
0.289921 0.933745 0.513039
0.286122 0.935012 0.511345
0.283818 0.935943 0.510033
0.282795 0.936599 0.508522
0.282933 0.937057 0.5066
0.284047 0.937316 0.504067
0.285695 0.937514 0.501167
0.288075 0.937667 0.496696
0.290883 0.937804 0.491218
0.294682 0.938125 0.483833
0.300587 0.938369 0.472847
0.308812 0.938308 0.455497
0.321675 0.937499 0.426886
0.341451 0.935485 0.385107
0.392691 0.936858 0.349081
0.530282 0.942412 0.343648
0.653498 0.939422 0.351003
0.731121 0.93904 0.360678
0.784619 0.943282 0.384771
0.840864 0.947051 0.417243
0.901991 0.949615 0.454063
0.940597 0.949218 0.486473
0.959197 0.949493 0.5066
0.965347 0.950408 0.516564
0.965667 0.950134 0.512078
0.965331 0.948974 0.49221
0.964202 0.94638 0.450675
0.960784 0.935485 0.401633
0.952636 0.907423 0.349004
0.938216 0.840742 0.28426
0.931838 0.709667 0.264286
0.301625 0.934493 0.527047
0.299153 0.935439 0.526268
0.295521 0.93666 0.524895
0.29221 0.937743 0.523308
0.289815 0.938704 0.522042
0.289006 0.939284 0.520729
0.289296 0.939696 0.519158
0.290425 0.939986 0.51725
0.292622 0.940017 0.514046
0.294514 0.940215 0.51014
0.297032 0.940352 0.504768
0.30013 0.940505 0.498192
0.304265 0.940688 0.489036
0.310552 0.940703 0.475517
0.32076 0.94052 0.454063
0.336507 0.939452 0.417578
0.36585 0.938689 0.374044
0.453574 0.944564 0.358633
0.591531 0.943572 0.363424
0.698161 0.940352 0.371801
0.759915 0.942412 0.387015
0.814984 0.946441 0.416052
0.871305 0.949142 0.446372
0.92018 0.949432 0.477607
0.949828 0.949172 0.504707
0.96286 0.950622 0.521691
0.96524 0.951293 0.527291
0.96495 0.951217 0.521324
0.964309 0.950561 0.499992
0.963302 0.949401 0.464332
0.962081 0.94435 0.43122
0.95671 0.925505 0.375601
0.94342 0.857191 0.312947
0.309606 0.937194 0.538201
0.307256 0.938109 0.537209
0.303685 0.9393 0.536141
0.300221 0.940414 0.534737
0.297642 0.94139 0.533715
0.296498 0.942031 0.532433
0.296513 0.942443 0.531014
0.29749 0.942657 0.529183
0.298955 0.942763 0.526574
0.300847 0.94287 0.523033
0.30277 0.943038 0.518456
0.305425 0.943221 0.512276
0.308904 0.94342 0.504265
0.314061 0.943603 0.493492
0.321782 0.943557 0.476646
0.334462 0.943328 0.451362
0.361608 0.943481 0.413001
0.414679 0.946624 0.387762
0.522026 0.948165 0.388022
0.644877 0.944533 0.395026
0.731762 0.942901 0.401801
0.787121 0.946014 0.42269
0.844724 0.949172 0.451667
0.898833 0.950668 0.477424
0.936492 0.950942 0.504112
0.957458 0.950118 0.524681
0.965347 0.95169 0.539437
0.964904 0.95198 0.540108
0.964263 0.952148 0.530236
0.963317 0.951522 0.503868
0.962631 0.950378 0.472709
0.962554 0.948867 0.454887
0.959487 0.935882 0.399817
0.317968 0.940124 0.549859
0.316258 0.940734 0.548684
0.312673 0.941863 0.547524
0.308873 0.942977 0.546227
0.305989 0.944045 0.545068
0.304448 0.944762 0.544137
0.304128 0.945266 0.543023
0.304921 0.945434 0.54168
0.306554 0.94551 0.539483
0.308644 0.945541 0.536202
0.310582 0.945647 0.532128
0.312978 0.945785 0.526665
0.31577 0.945937 0.519356
0.31928 0.946136 0.510369
0.325261 0.946258 0.49778
0.337743 0.946883 0.48043
0.35993 0.947692 0.45594
0.410224 0.950149 0.432456
0.483757 0.95198 0.430701
