bundles/resolve-cinematic-luts/Phantom Luts/A7s3 Phntm Film LUTs - G6/SLog3/Eterna A7s3-Legacy.cube
TITLE "Generated by Resolve"
LUT_3D_SIZE 9
0.0306401 0.0570382 0.057023
0.0356146 0.0572061 0.0561074
0.0851301 0.057908 0.0521706
0.168582 0.066743 0.0699931
0.315633 0.0850843 0.118975
0.494652 0.101183 0.192508
0.696193 0.122408 0.292058
0.756985 0.144259 0.391135
0.808804 0.162005 0.527062
0.032517 0.0589456 0.0568856
0.0340124 0.0595865 0.0581369
0.0844739 0.0596475 0.0564431
0.183413 0.0690318 0.0759289
0.3364 0.0860914 0.126131
0.519631 0.103716 0.196811
0.711742 0.126589 0.297475
0.759716 0.145693 0.396033
0.809689 0.160754 0.524529
0.0489967 0.117113 0.0707256
0.0443275 0.124239 0.0718853
0.10219 0.120958 0.0700999
0.215518 0.0913558 0.0753643
0.357687 0.0792859 0.109178
0.561318 0.108492 0.195224
0.720577 0.127779 0.298924
0.764065 0.149264 0.405768
0.825437 0.179324 0.547936
0.0622568 0.263569 0.118425
0.0500496 0.290944 0.120378
0.0621195 0.305333 0.0983139
0.282856 0.30753 0.0888533
0.594446 0.250217 0.152834
0.690013 0.173236 0.164889
0.718013 0.130343 0.240864
0.754955 0.141711 0.369406
0.84239 0.193866 0.548119
0.0868238 0.595819 0.235752
0.0720531 0.629374 0.239124
0.0804913 0.646723 0.228717
0.145235 0.639811 0.128923
0.59205 0.637797 0.152316
0.903487 0.608225 0.250828
0.926223 0.482094 0.266117
0.766369 0.172595 0.22266
0.882704 0.230884 0.536889
0.244541 0.879469 0.444816
0.229374 0.900649 0.444587
0.231312 0.907668 0.435645
0.251926 0.903288 0.38233
0.545342 0.899886 0.268269
0.844602 0.898634 0.340871
0.95172 0.872297 0.350011
0.932158 0.739635 0.270863
0.925719 0.345968 0.370581
0.301625 0.934493 0.527047
0.289815 0.938704 0.522042
0.292622 0.940017 0.514046
0.304265 0.940688 0.489036
0.36585 0.938689 0.374044
0.759915 0.942412 0.387015
0.949828 0.949172 0.504707
0.964309 0.950561 0.499992
0.94342 0.857191 0.312947
0.347066 0.945098 0.574624
0.339696 0.947845 0.571588
0.352392 0.946212 0.569802
0.36376 0.946349 0.558312
0.419791 0.949111 0.53901
0.637659 0.950744 0.559136
0.89398 0.950957 0.622461
0.970047 0.951644 0.664744
0.964141 0.951522 0.515862
0.600702 0.9561 0.734157
0.584451 0.956237 0.721248
0.596307 0.954757 0.722881
0.606256 0.953246 0.720424
0.63679 0.95317 0.726772
0.710735 0.953094 0.749447
0.862745 0.953216 0.794522
0.959731 0.957168 0.84155
0.966628 0.958831 0.85716
0.031342 0.0568399 0.0575113
0.0372015 0.0574655 0.0583047
0.0797589 0.0593423 0.0634775
0.158175 0.0651713 0.0819867
0.308614 0.0804913 0.127871
0.497932 0.0945754 0.204166
0.712749 0.115816 0.305715
0.770687 0.139345 0.405203
0.81561 0.157641 0.538033
0.032578 0.0589914 0.057496
0.0355535 0.0595712 0.0601968
0.0933852 0.0608835 0.0648508
0.186358 0.0690318 0.0842145
0.336965 0.0827344 0.134295
0.531991 0.0975052 0.208957
0.731121 0.119783 0.316213
0.780163 0.143053 0.425467
0.82945 0.16846 0.56347
0.0476997 0.115709 0.0817273
0.0438697 0.123766 0.0780804
0.104494 0.120684 0.071519
0.224506 0.0877394 0.0799115
0.367529 0.0833143 0.121645
0.568093 0.104799 0.203738
0.732708 0.124269 0.314855
0.779568 0.150668 0.437415
0.864775 0.211429 0.623117
0.0566873 0.257893 0.129198
0.0487831 0.282902 0.127367
0.0605325 0.305272 0.109117
0.282338 0.305898 0.0901503
0.583459 0.249287 0.154452
0.690852 0.179385 0.165652
0.715297 0.123919 0.241352
0.766003 0.145968 0.391562
0.873365 0.222858 0.614389
0.0798352 0.581262 0.240345
0.0645304 0.608667 0.242054
0.0733349 0.627573 0.229526
0.130419 0.631434 0.138933
0.580804 0.62948 0.14966
0.900649 0.602853 0.251331
0.927382 0.487312 0.26656
0.78436 0.183078 0.238743
0.900481 0.249088 0.593759
0.231952 0.867903 0.444907
0.216205 0.889311 0.445396
0.219989 0.89633 0.431373
0.244846 0.894286 0.374548
0.527672 0.896696 0.266514
0.841108 0.896574 0.336965
0.950851 0.868666 0.347753
0.931502 0.738949 0.269596
0.930495 0.336233 0.414847
0.296864 0.935378 0.534615
0.28748 0.93901 0.529473
0.291447 0.939971 0.519036
0.306035 0.940841 0.487358
0.369726 0.939681 0.3785
0.755749 0.942321 0.387686
0.949722 0.949416 0.504372
0.964187 0.950668 0.500191
0.94136 0.844816 0.304921
0.341466 0.944625 0.579202
0.336416 0.947143 0.575814
0.348867 0.9458 0.572213
0.362387 0.946181 0.557229
0.428458 0.949416 0.541421
0.635904 0.950912 0.563806
0.892119 0.950927 0.626276
0.969955 0.951736 0.666331
0.963943 0.951629 0.515236
0.587411 0.956115 0.728664
0.583078 0.956008 0.722927
0.599847 0.954696 0.727703
0.61471 0.95317 0.72755
0.650645 0.953201 0.735882
0.721645 0.953094 0.758465
0.860548 0.953246 0.794751
0.95993 0.957351 0.842695
0.966628 0.958892 0.858488
0.0327611 0.0577401 0.0796826
0.0442969 0.0587015 0.0832227
0.0872358 0.0601205 0.0784924
0.164752 0.0658122 0.094316
0.301488 0.078584 0.134188
0.484474 0.0923171 0.208835
0.70248 0.112642 0.308568
0.769558 0.138415 0.405463
0.809339 0.152285 0.531365
0.0332799 0.0607309 0.0670787
0.0323949 0.0593576 0.0904707
0.0953994 0.0617075 0.0886702
0.180545 0.0673075 0.100175
0.317128 0.0791638 0.14197
0.507042 0.0938735 0.215091
0.724422 0.116823 0.323644
0.781811 0.144106 0.431632
0.824872 0.164477 0.56286
0.0474403 0.112093 0.0967269
0.0439612 0.118608 0.105272
0.101778 0.11577 0.113924
0.245655 0.0921492 0.118212
0.360586 0.0854505 0.143023
0.550484 0.100023 0.219409
0.735439 0.123995 0.333562
0.781552 0.151308 0.455573
0.877699 0.227085 0.65687
0.0570687 0.250401 0.149142
0.0486152 0.274784 0.155154
0.0614939 0.291478 0.137743
0.278492 0.299474 0.101152
0.54406 0.245487 0.16405
0.680812 0.155657 0.182315
0.729519 0.131258 0.264164
0.773434 0.150607 0.408606
0.889708 0.242817 0.655436
0.0727855 0.562402 0.266697
0.0572366 0.587503 0.271015
0.0643931 0.603433 0.253056
0.106767 0.612222 0.167193
0.562158 0.610269 0.15053
0.886732 0.582574 0.254368
0.933745 0.506783 0.276463
0.755322 0.153994 0.236622
0.907195 0.258625 0.623453
0.213458 0.849989 0.461189
0.194537 0.867918 0.461662
0.195148 0.87042 0.441642
0.220066 0.869398 0.379751
0.477928 0.882963 0.26598
0.820508 0.878523 0.32401
0.951553 0.854719 0.351583
0.930419 0.752148 0.271885
0.936141 0.333394 0.483574
0.295308 0.93576 0.558831
0.285466 0.939559 0.555001
0.290883 0.940612 0.543175
0.30692 0.941985 0.502937
0.380728 0.942946 0.395651
0.745525 0.942229 0.397177
0.949142 0.949798 0.504692
0.964355 0.950851 0.509926
0.941527 0.852384 0.301595
0.338231 0.943877 0.597543
0.327764 0.947723 0.594751
0.345449 0.944961 0.588418
0.361608 0.946288 0.569192
0.450355 0.950195 0.554711
0.639384 0.951003 0.575433
0.889891 0.950759 0.634226
0.970092 0.951629 0.665354
0.964004 0.951827 0.519448
0.5664 0.955734 0.725048
0.57322 0.956512 0.728923
0.601404 0.954482 0.737194
0.627344 0.953155 0.742672
0.667765 0.953384 0.751232
0.733135 0.953307 0.767666
0.860136 0.953353 0.797986
0.960006 0.957794 0.84593
0.966339 0.959014 0.858198
0.0359045 0.0607004 0.137453
0.0427863 0.0610513 0.154223
0.0981308 0.0628214 0.139712
0.185657 0.0684825 0.130297
0.321431 0.0790875 0.162127
0.495705 0.0923323 0.23212
0.704814 0.112749 0.328237
0.775311 0.142138 0.42327
0.808011 0.151415 0.537591
0.032639 0.0608072 0.119829
0.0342718 0.0624552 0.149844
0.0894484 0.0630198 0.174166
0.197314 0.0695048 0.146731
0.325963 0.0796521 0.173266
0.501381 0.0926223 0.242435
0.723995 0.116457 0.348424
0.782452 0.143984 0.451453
0.819333 0.160174 0.568353
0.0438239 0.109239 0.127886
0.0399634 0.111482 0.158816
0.0507973 0.095964 0.208652
0.243961 0.0768597 0.188479
0.359579 0.0838483 0.195834
0.528603 0.0970932 0.265095
0.741848 0.126864 0.373465
0.782406 0.151705 0.481529
0.869978 0.220813 0.661814
0.0581674 0.237156 0.184817
0.0509804 0.256687 0.207675
0.0618143 0.272877 0.226535
0.283696 0.29453 0.27306
0.550362 0.236316 0.27837
0.712612 0.15874 0.292805
0.73225 0.122835 0.332692
0.781155 0.154284 0.462455
0.913039 0.283238 0.731151
0.0724346 0.536568 0.319402
0.0554971 0.562524 0.344457
0.0655833 0.578317 0.348791
0.0997635 0.580957 0.27097
0.541222 0.586831 0.228321
0.848051 0.544839 0.324987
0.939574 0.441917 0.329015
0.778759 0.156832 0.323598
0.921828 0.28838 0.691707
0.196368 0.825452 0.507546
0.174701 0.839857 0.518868
0.174395 0.840909 0.506188
0.191882 0.842893 0.440848
0.363958 0.868254 0.327535
0.788754 0.85037 0.33814
0.955917 0.816571 0.409751
0.94493 0.754147 0.317327
0.943969 0.348455 0.558114
0.29572 0.935485 0.613138
0.278706 0.941665 0.616495
0.28809 0.942321 0.604685
0.308675 0.944305 0.559838
0.393317 0.94992 0.481697
0.71342 0.947234 0.483024
0.944778 0.951659 0.555962
0.966384 0.949248 0.561013
0.941894 0.866484 0.299168
0.337667 0.943267 0.636973
0.321538 0.948379 0.63653
0.337545 0.946075 0.628504
0.368887 0.946441 0.610651
0.480049 0.95111 0.599725
0.652735 0.951659 0.616571
0.886412 0.950027 0.66479
0.970565 0.951583 0.676493
0.96524 0.95227 0.560204
0.547524 0.955001 0.73434
0.558968 0.955886 0.741466
0.582025 0.956603 0.752392
0.638346 0.952575 0.765621
0.692668 0.952895 0.780545
0.754101 0.953216 0.79028
0.863218 0.953735 0.810803
0.959854 0.95848 0.856046
0.966613 0.958877 0.857801
0.0465095 0.0670024 0.245411
0.0493477 0.0682689 0.271107
0.0975662 0.0638743 0.280232
0.211261 0.0696422 0.238743
0.355749 0.0839857 0.236942
0.523827 0.0990005 0.303532
0.730526 0.123903 0.375998
0.77911 0.143755 0.461265
0.808011 0.152941 0.559426
0.0389868 0.0661326 0.220066
0.0405737 0.0679179 0.247669
0.0729992 0.0656291 0.282231
0.205783 0.0679789 0.266163
0.354498 0.08365 0.25153
0.524269 0.0984665 0.315969
0.744381 0.127535 0.407431
0.783551 0.145068 0.495628
0.822248 0.166415 0.599771
0.0414893 0.0948348 0.206928
0.0364691 0.0945144 0.242588
0.035584 0.079881 0.297047
0.213031 0.0685283 0.350851
0.391455 0.0874342 0.297505
0.544747 0.101991 0.339513
0.746059 0.134081 0.43949
0.778668 0.151308 0.52549
0.861738 0.216297 0.679271
0.0509346 0.22446 0.246571
0.0399481 0.239826 0.282109
0.040238 0.251957 0.334371
0.139284 0.236698 0.433249
0.522866 0.177157 0.423651
0.636606 0.127657 0.386419
0.744091 0.134463 0.438239
0.777203 0.153094 0.52462
0.901122 0.270832 0.73901
0.0727245 0.508858 0.394415
0.0574197 0.528206 0.428855
0.0634928 0.542855 0.455161
0.0923171 0.54313 0.459083
0.519478 0.545541 0.504601
0.828916 0.497093 0.515892
0.955612 0.431266 0.517281
0.78143 0.146914 0.453758
0.924071 0.301991 0.745449
0.179232 0.793286 0.564385
0.156725 0.803449 0.58265
0.157778 0.803479 0.588525
0.179324 0.803769 0.561227
0.394461 0.826246 0.5205
0.75314 0.807736 0.511467
0.951308 0.769146 0.566018
0.966354 0.661479 0.51281
0.94081 0.33106 0.627482
0.296513 0.933257 0.677424
0.27982 0.939803 0.688228
0.278935 0.94168 0.686198
0.304631 0.939742 0.649287
0.44004 0.951858 0.60737
0.671626 0.951141 0.618372
0.942077 0.945998 0.679759
0.97023 0.935851 0.694041
0.952102 0.881559 0.352895
0.34229 0.940902 0.698466
0.320974 0.947448 0.704616
0.317998 0.95053 0.701213
0.360479 0.949508 0.678233
0.523842 0.951324 0.680888
0.687953 0.951476 0.702296
0.884871 0.950027 0.733257
0.972152 0.952422 0.76936
0.96849 0.953902 0.743603
0.532982 0.953033 0.755627
0.542931 0.955322 0.766262
0.56643 0.956878 0.779034
0.629618 0.955154 0.79762
0.716518 0.952224 0.820111
0.783139 0.953628 0.829831
0.875532 0.954803 0.845273
0.960433 0.958709 0.878691
0.969436 0.957824 0.863096
0.0650034 0.076936 0.367895
0.0703746 0.079408 0.401328
0.109682 0.0744335 0.427832
0.230106 0.0698863 0.409216
0.390341 0.0873274 0.37438
0.573114 0.103349 0.403326
0.75053 0.131426 0.471992
0.778286 0.14696 0.521843
0.805035 0.157763 0.593103
0.0523232 0.0763256 0.345586
0.0549477 0.0787823 0.375479
0.0795605 0.0779431 0.407462
0.197696 0.069276 0.427741
0.386313 0.084123 0.397024
0.569329 0.103334 0.417884
0.753094 0.132464 0.490929
0.781353 0.148638 0.561196
0.807645 0.158618 0.631785
0.0409705 0.0889754 0.323842
0.0369116 0.092607 0.36527
0.0381933 0.0932631 0.413596
0.150469 0.0715496 0.468894
0.41828 0.0840009 0.464012
0.584009 0.10663 0.444175
0.752621 0.13872 0.50515
0.775418 0.154696 0.592111
0.832273 0.194339 0.693462
0.0505531 0.215641 0.357183
0.0410925 0.221332 0.394934
0.0417639 0.228992 0.445197
0.0535744 0.208331 0.50425
0.422065 0.115938 0.573236
0.655634 0.11812 0.506706
0.751141 0.138766 0.506752
0.770062 0.155276 0.595361
0.853376 0.222873 0.722972
0.0736858 0.491707 0.492775
0.053254 0.502586 0.521874
0.0494087 0.515587 0.553323
0.0451209 0.515526 0.591775
0.373205 0.512627 0.708141
0.817899 0.442679 0.686809
0.946731 0.367788 0.659541
0.776089 0.156481 0.57615
0.865476 0.233738 0.728786
0.172915 0.761578 0.635065
0.148577 0.76527 0.65037
0.147723 0.762188 0.660212
0.16437 0.759365 0.662364
0.362585 0.776272 0.678782
0.721859 0.752071 0.706416
0.951141 0.714687 0.716869
0.968688 0.634867 0.702678
0.890043 0.246616 0.681636
0.304097 0.917189 0.736217
0.273075 0.925338 0.749706
0.26862 0.924361 0.753475
0.280751 0.923262 0.737911
0.437156 0.934249 0.726421
0.687343 0.936538 0.744213
0.925521 0.931441 0.763287
0.969162 0.913924 0.785138
0.964767 0.818647 0.687984
0.349157 0.938323 0.764309
0.323445 0.94583 0.776867
0.319707 0.948821 0.780575
0.340398 0.951522 0.767926
0.541253 0.952651 0.77789
0.723613 0.952682 0.799374
0.875502 0.952743 0.816342
0.974929 0.953765 0.855055
0.975372 0.954681 0.857252
0.499886 0.95256 0.794095
0.510399 0.954879 0.80676
0.536278 0.956527 0.819974
0.611826 0.956741 0.839368
0.714733 0.954681 0.861341
0.814633 0.953582 0.879957
0.899001 0.955627 0.892287
0.962798 0.958526 0.910567
0.970123 0.960266 0.912749
0.0785077 0.092256 0.501137
0.0774548 0.0972152 0.53727
0.109148 0.095613 0.571542
0.219074 0.0745556 0.578912
0.417884 0.0800946 0.538445
0.604623 0.105989 0.538949
0.76437 0.138491 0.567346
0.777981 0.151934 0.621729
0.79939 0.160815 0.65388
0.0658427 0.0911269 0.476967
0.0668956 0.0951705 0.513954
0.0796826 0.0975052 0.544686
0.165789 0.0800336 0.574914
0.397604 0.0799878 0.554818
0.599176 0.105821 0.557809
0.766735 0.140551 0.591943
0.781872 0.151751 0.654597
0.800748 0.161898 0.696605
0.0413977 0.106188 0.464897
0.0391089 0.110613 0.5028
0.0403143 0.113359 0.539422
0.105699 0.100786 0.593256
0.400076 0.0833448 0.638849
0.616861 0.107332 0.600671
0.75993 0.146151 0.611719
0.776593 0.157748 0.672847
0.809354 0.180438 0.724697
0.0462806 0.214664 0.479789
0.0421302 0.215671 0.512963
0.0431983 0.215518 0.54786
0.0448615 0.205524 0.59527
0.289509 0.116304 0.669886
0.662364 0.121965 0.681086
0.754025 0.147219 0.610636
0.769635 0.158495 0.663066
0.831113 0.205859 0.755077
0.0462654 0.49781 0.606622
0.0372473 0.502037 0.63154
0.040589 0.50576 0.657938
0.0505074 0.501335 0.692866
0.224872 0.47921 0.821973
0.726268 0.406973 0.89955
0.908873 0.290166 0.761242
0.770291 0.157397 0.65597
0.802487 0.175113 0.723735
0.169223 0.743084 0.718074
0.150576 0.740291 0.729213
0.14548 0.73077 0.733806
0.151369 0.723964 0.74583
0.222354 0.727825 0.798535
0.619211 0.727611 0.87686
0.944198 0.672984 0.855833
0.9673 0.59559 0.841108
0.793072 0.16759 0.713481
0.291203 0.904143 0.804471
0.269093 0.906371 0.813687
0.264469 0.90161 0.814679
0.268757 0.896757 0.810864
0.33164 0.907454 0.816388
0.658976 0.914427 0.852354
0.900862 0.907271 0.880568
0.970916 0.881895 0.881315
0.967269 0.788022 0.867826
0.348348 0.938552 0.830381
0.325689 0.944564 0.841794
0.325277 0.946059 0.846693
0.334554 0.948486 0.841688
0.484443 0.955444 0.856519
0.731121 0.95378 0.884962
0.891966 0.956313 0.905119
0.974365 0.958099 0.921691
0.974853 0.959472 0.927993
0.470253 0.947784 0.836347
0.454994 0.954543 0.85182
0.479759 0.955871 0.864576
0.564126 0.956466 0.881529
0.68397 0.956725 0.905638
0.816022 0.955856 0.920501
0.9122 0.958206 0.933669
0.95903 0.961303 0.94107
0.971069 0.962509 0.944457
0.0651408 0.118776 0.625238
0.0576791 0.129458 0.646952
0.0676585 0.130098 0.662104
0.144305 0.111894 0.680034
0.416159 0.0894789 0.705959
0.600702 0.10103 0.671473
0.776425 0.142931 0.703914
0.784497 0.153735 0.728298
0.795331 0.16463 0.741451
0.0590372 0.116182 0.605966
0.0547036 0.125856 0.63032
0.0545815 0.131594 0.647715
0.10753 0.120546 0.671733
0.371145 0.0880446 0.708217
0.591836 0.100267 0.687282
0.775982 0.144228 0.724788
0.783917 0.154864 0.752682
0.793973 0.165179 0.761501
0.0421912 0.129229 0.588479
0.0428931 0.135729 0.612207
0.0441749 0.140429 0.63267
0.0499123 0.143252 0.665965
0.29424 0.0859998 0.707744
0.617411 0.112413 0.736461
0.773449 0.146777 0.748226
0.782559 0.158923 0.772381
0.797894 0.171359 0.77763
0.0462501 0.22533 0.601434
0.0483864 0.231312 0.625467
0.0505074 0.232242 0.648341
0.0548867 0.229023 0.679759
0.155718 0.182681 0.736492
0.57174 0.120668 0.762371
0.772778 0.14847 0.759594
0.780636 0.158358 0.770977
0.802197 0.176349 0.782925
0.0612497 0.50927 0.718975
0.0671855 0.510552 0.733791
0.0739605 0.505425 0.750454
0.0810407 0.494713 0.767987
0.112505 0.458396 0.812482
0.573831 0.433341 0.950561
0.87071 0.266102 0.869566
0.780011 0.156985 0.769406
0.800092 0.173465 0.78468
0.146212 0.730373 0.786847
0.142367 0.724941 0.79295
0.136828 0.714733 0.796735
0.131197 0.700435 0.80032
0.139361 0.684581 0.823682
0.51664 0.711116 0.944564
0.890593 0.657938 0.961044
0.961913 0.536141 0.939742
0.791806 0.167849 0.786191
0.27776 0.896513 0.866423
0.273777 0.891859 0.869032
0.270115 0.884703 0.869215
0.268467 0.874464 0.867796
0.285451 0.86807 0.878172
0.573236 0.890776 0.929473
0.823285 0.89276 0.949798
0.963165 0.858305 0.942168
0.963317 0.75259 0.94316
0.338704 0.942077 0.890654
0.332387 0.943084 0.895598
0.333532 0.943008 0.897597
0.336751 0.943313 0.896376
0.376547 0.949233 0.901656
0.660731 0.955001 0.928985
0.867491 0.959075 0.947097
0.9617 0.962951 0.959899
0.965454 0.961151 0.960876
0.426352 0.949279 0.886976
0.408209 0.953353 0.897704
0.419471 0.953948 0.905211
0.474128 0.9552 0.913954
0.609842 0.9561 0.928405
0.773999 0.957458 0.944564
0.906065 0.960678 0.955627
0.957626 0.96434 0.961334
0.973083 0.963638 0.959808
0.0509041 0.151308 0.671962
0.0532235 0.161166 0.67921
0.0549477 0.166125 0.684077
0.0534981 0.155184 0.681193
0.298024 0.0869917 0.712963
0.617411 0.114412 0.748974
0.753979 0.143053 0.754452
0.779278 0.156207 0.779278
0.79086 0.166659 0.788342
0.0489662 0.147387 0.664271
0.0507362 0.154589 0.671489
0.0528725 0.161654 0.677974
0.0546426 0.160006 0.683787
0.235767 0.0893416 0.703029
0.601114 0.111803 0.747906
0.75227 0.143069 0.760433
0.778653 0.155642 0.778653
0.789303 0.165682 0.789303
0.0471656 0.156024 0.654871
0.0496681 0.163653 0.664576
0.0516365 0.170123 0.672114
0.0589456 0.193759 0.695232
0.0962234 0.158633 0.700816
0.553017 0.115343 0.757488
0.761044 0.144564 0.767117
0.779293 0.156268 0.779293
0.793149 0.169772 0.793149
0.0566262 0.259831 0.690715
0.0606088 0.275441 0.710201
0.0643168 0.285527 0.723095
0.0741894 0.311589 0.752773
0.0802777 0.313054 0.768566
0.520058 0.245289 0.887831
0.780514 0.157214 0.780514
0.777035 0.154116 0.777035
0.795499 0.171923 0.795499
0.0896468 0.524773 0.783825
0.0947585 0.529778 0.793805
0.0995956 0.529549 0.803845
0.104875 0.524102 0.817411
0.107729 0.49482 0.833829
0.424369 0.491402 0.946914
0.878752 0.388525 0.947723
0.77966 0.156603 0.779675
0.793622 0.170214 0.793622
0.149706 0.733318 0.836805
0.150362 0.730556 0.841657
0.149371 0.723888 0.845853
0.146624 0.710475 0.848112
0.142702 0.687282 0.853971
0.37792 0.703212 0.949645
0.75903 0.682033 0.96286
0.9608 0.53875 0.9608
0.790463 0.166842 0.790463
0.270481 0.884916 0.900206
0.262394 0.878599 0.900008
0.252979 0.870848 0.899458
0.242924 0.858946 0.897475
0.2533 0.846647 0.904738
0.40856 0.870909 0.952193
0.741466 0.880232 0.957565
0.952361 0.856291 0.959091
0.962036 0.705409 0.962036
0.34139 0.941604 0.92459
0.340444 0.940307 0.925704
0.34023 0.939208 0.927092
0.339712 0.936934 0.927062
0.347982 0.93518 0.928603
0.57438 0.948989 0.950423
0.806271 0.952789 0.957809
0.945754 0.959091 0.962325
0.961975 0.954574 0.961975
0.39556 0.951858 0.929122
0.38883 0.95111 0.930816
0.393835 0.951461 0.934493
0.404334 0.952117 0.938308
0.509896 0.955062 0.945388
0.695644 0.956191 0.952972
0.868437 0.95935 0.959533
0.954543 0.964263 0.964279
0.966705 0.966705 0.966705
