bundles/resolve-cinematic-luts/Phantom Luts/A7s3 Phntm Film LUTs - G6/SLog3/Eterna A7s3-Legacy.cube
TITLE "Generated by Resolve"
LUT_3D_SIZE 5
0.0306401 0.0570382 0.057023
0.0851301 0.057908 0.0521706
0.315633 0.0850843 0.118975
0.696193 0.122408 0.292058
0.808804 0.162005 0.527062
0.0489967 0.117113 0.0707256
0.10219 0.120958 0.0700999
0.357687 0.0792859 0.109178
0.720577 0.127779 0.298924
0.825437 0.179324 0.547936
0.0868238 0.595819 0.235752
0.0804913 0.646723 0.228717
0.59205 0.637797 0.152316
0.926223 0.482094 0.266117
0.882704 0.230884 0.536889
0.301625 0.934493 0.527047
0.292622 0.940017 0.514046
0.36585 0.938689 0.374044
0.949828 0.949172 0.504707
0.94342 0.857191 0.312947
0.600702 0.9561 0.734157
0.596307 0.954757 0.722881
0.63679 0.95317 0.726772
0.862745 0.953216 0.794522
0.966628 0.958831 0.85716
0.0327611 0.0577401 0.0796826
0.0872358 0.0601205 0.0784924
0.301488 0.078584 0.134188
0.70248 0.112642 0.308568
0.809339 0.152285 0.531365
0.0474403 0.112093 0.0967269
0.101778 0.11577 0.113924
0.360586 0.0854505 0.143023
0.735439 0.123995 0.333562
0.877699 0.227085 0.65687
0.0727855 0.562402 0.266697
0.0643931 0.603433 0.253056
0.562158 0.610269 0.15053
0.933745 0.506783 0.276463
0.907195 0.258625 0.623453
0.295308 0.93576 0.558831
0.290883 0.940612 0.543175
0.380728 0.942946 0.395651
0.949142 0.949798 0.504692
0.941527 0.852384 0.301595
0.5664 0.955734 0.725048
0.601404 0.954482 0.737194
0.667765 0.953384 0.751232
0.860136 0.953353 0.797986
0.966339 0.959014 0.858198
0.0465095 0.0670024 0.245411
0.0975662 0.0638743 0.280232
0.355749 0.0839857 0.236942
0.730526 0.123903 0.375998
0.808011 0.152941 0.559426
0.0414893 0.0948348 0.206928
0.035584 0.079881 0.297047
0.391455 0.0874342 0.297505
0.746059 0.134081 0.43949
0.861738 0.216297 0.679271
0.0727245 0.508858 0.394415
0.0634928 0.542855 0.455161
0.519478 0.545541 0.504601
0.955612 0.431266 0.517281
0.924071 0.301991 0.745449
0.296513 0.933257 0.677424
0.278935 0.94168 0.686198
0.44004 0.951858 0.60737
0.942077 0.945998 0.679759
0.952102 0.881559 0.352895
0.532982 0.953033 0.755627
0.56643 0.956878 0.779034
0.716518 0.952224 0.820111
0.875532 0.954803 0.845273
0.969436 0.957824 0.863096
0.0785077 0.092256 0.501137
0.109148 0.095613 0.571542
0.417884 0.0800946 0.538445
0.76437 0.138491 0.567346
0.79939 0.160815 0.65388
0.0413977 0.106188 0.464897
0.0403143 0.113359 0.539422
0.400076 0.0833448 0.638849
0.75993 0.146151 0.611719
0.809354 0.180438 0.724697
0.0462654 0.49781 0.606622
0.040589 0.50576 0.657938
0.224872 0.47921 0.821973
0.908873 0.290166 0.761242
0.802487 0.175113 0.723735
0.291203 0.904143 0.804471
0.264469 0.90161 0.814679
0.33164 0.907454 0.816388
0.900862 0.907271 0.880568
0.967269 0.788022 0.867826
0.470253 0.947784 0.836347
0.479759 0.955871 0.864576
0.68397 0.956725 0.905638
0.9122 0.958206 0.933669
0.971069 0.962509 0.944457
0.0509041 0.151308 0.671962
0.0549477 0.166125 0.684077
0.298024 0.0869917 0.712963
0.753979 0.143053 0.754452
0.79086 0.166659 0.788342
0.0471656 0.156024 0.654871
0.0516365 0.170123 0.672114
0.0962234 0.158633 0.700816
0.761044 0.144564 0.767117
0.793149 0.169772 0.793149
0.0896468 0.524773 0.783825
0.0995956 0.529549 0.803845
0.107729 0.49482 0.833829
0.878752 0.388525 0.947723
0.793622 0.170214 0.793622
0.270481 0.884916 0.900206
0.252979 0.870848 0.899458
0.2533 0.846647 0.904738
0.741466 0.880232 0.957565
0.962036 0.705409 0.962036
0.39556 0.951858 0.929122
0.393835 0.951461 0.934493
0.509896 0.955062 0.945388
0.868437 0.95935 0.959533
0.966705 0.966705 0.966705
