bundles/resolve-cinematic-luts/Phantom Luts/A7s3 Phntm Film LUTs - G6/SLog3/Vision A7s3-Legacy.cube
TITLE "Generated by Resolve"
LUT_3D_SIZE 33
0.0306096 0.0418402 0.0328679
0.0306096 0.0418402 0.0328679
0.0306096 0.0418402 0.0328679
0.0306096 0.0419165 0.0328832
0.032578 0.042298 0.0333104
0.0352636 0.0425269 0.0331121
0.0436713 0.0427558 0.0307622
0.0564584 0.0415961 0.0319677
0.0745403 0.0408789 0.0326543
0.0943008 0.0396277 0.0323949
0.119829 0.0401617 0.0334478
0.153643 0.0409705 0.0350958
0.195148 0.0391394 0.035874
0.236713 0.0381476 0.0368505
0.282811 0.0332036 0.0412146
0.325811 0.0328985 0.0483406
0.371145 0.033463 0.0598154
0.418601 0.0348821 0.0731212
0.467369 0.0380713 0.089601
0.518318 0.043122 0.113436
0.576226 0.0529946 0.150759
0.637858 0.0644083 0.196338
0.697353 0.0774395 0.241245
0.746777 0.0899672 0.28632
0.771817 0.101106 0.326863
0.773022 0.108598 0.358282
0.774487 0.11841 0.390646
0.777798 0.131029 0.424155
0.78262 0.142199 0.454246
0.785534 0.14316 0.478538
0.788266 0.142702 0.499733
0.792462 0.145266 0.523171
0.801251 0.157061 0.55024
0.0305943 0.0418555 0.0328374
0.0306096 0.0418402 0.0328527
0.0306096 0.0418402 0.0328679
0.0306096 0.0419165 0.0328679
0.0328985 0.042359 0.033402
0.0353552 0.0425422 0.0330663
0.0441291 0.04271 0.0307622
0.0571603 0.0417029 0.0321965
0.0759747 0.0408331 0.0327153
0.0966506 0.0396735 0.0325933
0.121965 0.0403449 0.033814
0.156039 0.0411078 0.0352636
0.198489 0.0387732 0.0361028
0.238376 0.0380255 0.0364996
0.284733 0.0331884 0.041001
0.328847 0.0328985 0.0471504
0.374182 0.0333867 0.0577707
0.42208 0.0350958 0.0719158
0.470603 0.0381018 0.0886244
0.52134 0.0432593 0.112795
0.580316 0.0534676 0.150881
0.641886 0.064744 0.196338
0.700481 0.0773175 0.24065
0.749294 0.0907759 0.287175
0.771908 0.101076 0.326299
0.773083 0.108644 0.358083
0.77467 0.118608 0.39086
0.777966 0.131167 0.424186
0.782589 0.142107 0.454322
0.785611 0.143175 0.478599
0.78854 0.142794 0.499901
0.792737 0.145525 0.523461
0.802106 0.158282 0.551308
0.0305943 0.0418555 0.0328374
0.0306096 0.0418555 0.0328679
0.0306096 0.0418555 0.0328679
0.0306706 0.0419165 0.0328679
0.032578 0.042298 0.0332494
0.0350347 0.0425269 0.0330968
0.042237 0.0429389 0.0311437
0.0565347 0.0417334 0.0320592
0.0755474 0.0409094 0.0327306
0.0958877 0.0395819 0.0323949
0.12076 0.0403143 0.0336614
0.155596 0.0410925 0.0350195
0.199664 0.0395056 0.0360113
0.2421 0.0383154 0.0366522
0.289281 0.0331731 0.0406653
0.330953 0.0330358 0.0451057
0.377142 0.0333715 0.0557259
0.424918 0.035111 0.0699016
0.472847 0.0383307 0.0881514
0.52488 0.0435798 0.112413
0.583337 0.0536812 0.150072
0.644724 0.0650645 0.195651
0.7019 0.0776532 0.239994
0.750393 0.0910964 0.286717
0.771984 0.100954 0.324819
0.773159 0.108751 0.357916
0.77467 0.118563 0.390494
0.77792 0.130846 0.423056
0.782467 0.141848 0.453803
0.785641 0.143221 0.478386
0.788693 0.14287 0.499596
0.793088 0.146059 0.523629
0.802731 0.158999 0.551781
0.0307317 0.0425269 0.0330968
0.0307469 0.0425116 0.0331121
0.0307622 0.0424659 0.0330358
0.0309606 0.0425574 0.0331121
0.0321813 0.0428321 0.0333562
0.0344244 0.0428016 0.0332494
0.0396582 0.0432746 0.0315251
0.0561379 0.0419471 0.0317082
0.0756542 0.0412146 0.0326848
0.0971847 0.0399634 0.0322576
0.122576 0.0404212 0.0329442
0.157382 0.0411536 0.034165
0.203281 0.0404212 0.035462
0.247272 0.0387579 0.0369116
0.293385 0.033051 0.0398566
0.33463 0.0330358 0.0443275
0.379126 0.0335546 0.0537118
0.426856 0.0351873 0.0683909
0.476143 0.0385595 0.0876478
0.52723 0.044007 0.111574
0.584833 0.0536812 0.147356
0.646662 0.0655528 0.194614
0.704768 0.0777752 0.239429
0.751751 0.0912947 0.285603
0.772137 0.100999 0.324193
0.773236 0.108553 0.356756
0.774624 0.118318 0.389288
0.777905 0.130465 0.422263
0.782345 0.141619 0.453208
0.785687 0.143282 0.478202
0.788846 0.143008 0.499382
0.793317 0.146441 0.523522
0.803449 0.159686 0.552239
0.0305791 0.048127 0.0344701
0.0306096 0.0479591 0.0343786
0.030808 0.047364 0.0339971
0.0320745 0.0472114 0.0342412
0.0340276 0.0478981 0.0344244
0.036408 0.0478676 0.0345006
0.0398871 0.0485542 0.0328527
0.0574502 0.0455634 0.0317845
0.0780652 0.0421912 0.0321202
0.100603 0.040589 0.0319524
0.126574 0.0409094 0.0325475
0.160601 0.0411841 0.033341
0.203891 0.0408331 0.0342412
0.247501 0.0393835 0.0359045
0.296712 0.0349889 0.0394751
0.339132 0.033051 0.044007
0.382727 0.0335088 0.0514992
0.430014 0.0354772 0.0664073
0.478218 0.0385748 0.0851606
0.529702 0.0440528 0.109209
0.588434 0.0539101 0.14519
0.650217 0.0657054 0.192416
0.70782 0.0779126 0.23798
0.753857 0.091371 0.284291
0.772259 0.100801 0.322362
0.773419 0.108309 0.354635
0.77467 0.118029 0.387396
0.777798 0.129854 0.421073
0.782315 0.141649 0.452277
0.785763 0.14342 0.477058
0.788968 0.143145 0.499001
0.793454 0.146563 0.523186
0.804456 0.160876 0.552895
0.0310216 0.0557565 0.0363928
0.0310979 0.0555886 0.0363165
0.0314641 0.0546731 0.0356756
0.032517 0.0539254 0.0356451
0.0349584 0.0546578 0.0360266
0.0382696 0.0554208 0.0360418
0.0441901 0.0552987 0.0344244
0.0620584 0.05243 0.0314488
0.0784161 0.0487221 0.0333257
0.0995804 0.0447242 0.0324559
0.129152 0.0426947 0.0322728
0.166598 0.0417029 0.0325933
0.204959 0.0407111 0.0324865
0.248234 0.0396124 0.0345159
0.295201 0.0360266 0.0372778
0.341329 0.0331579 0.0407111
0.388357 0.0333715 0.0508278
0.433021 0.0352789 0.0632181
0.481209 0.0385748 0.0820478
0.532372 0.0439002 0.105455
0.591516 0.0538643 0.141787
0.653742 0.0657206 0.189227
0.711254 0.0785687 0.236011
0.755779 0.0913863 0.281514
0.772442 0.10045 0.320165
0.773693 0.108019 0.352575
0.774716 0.117388 0.385672
0.777722 0.129213 0.418601
0.782193 0.141421 0.451011
0.785824 0.143587 0.475898
0.78912 0.143328 0.498619
0.793927 0.147082 0.523278
0.804746 0.162173 0.553155
0.0320592 0.0691386 0.039704
0.0320897 0.0689097 0.0396124
0.0319524 0.0670176 0.0382544
0.0323186 0.0657511 0.037232
0.0356756 0.0668956 0.0381628
0.0395056 0.0678874 0.0386206
0.0458534 0.0688029 0.0376593
0.0661479 0.0657664 0.0320134
0.0872816 0.0585031 0.0348516
0.102739 0.0548257 0.0355688
0.12784 0.0498817 0.0335546
0.163622 0.044831 0.031342
0.209171 0.0424964 0.031693
0.253727 0.0407416 0.0332647
0.293446 0.0365759 0.0341344
0.340917 0.0343175 0.038407
0.39028 0.0324407 0.0454871
0.438621 0.0351415 0.0607156
0.484382 0.0383917 0.0774395
0.535683 0.0439765 0.10219
0.595773 0.0540169 0.137209
0.658549 0.0662394 0.18526
0.716335 0.079057 0.232807
0.757855 0.0914778 0.278782
0.772671 0.100084 0.316365
0.773816 0.107683 0.34992
0.77499 0.11667 0.382544
0.777768 0.128542 0.416815
0.781888 0.141604 0.449271
0.785245 0.143954 0.474357
0.788312 0.144015 0.497948
0.792569 0.147784 0.522347
0.803342 0.163821 0.552972
0.0325933 0.0859236 0.0435035
0.0326238 0.0858625 0.0433509
0.0324102 0.0842451 0.0416114
0.0323796 0.0829328 0.0402991
0.0349432 0.0837262 0.0405127
0.039292 0.084123 0.0410468
0.0461433 0.085069 0.040589
0.057847 0.0860609 0.0379034
0.0870222 0.0812695 0.0301213
0.115846 0.0682231 0.0366369
0.139071 0.0623941 0.0378576
0.170062 0.0571298 0.0349126
0.207645 0.0502632 0.0320287
0.249851 0.0441596 0.0293126
0.298009 0.0409552 0.0322576
0.338521 0.0337072 0.033463
0.387564 0.0324712 0.0395972
0.442161 0.0337682 0.0544137
0.490578 0.0383154 0.0731212
0.540703 0.0440833 0.0963455
0.600351 0.0542458 0.130694
0.663417 0.0670481 0.180407
0.72018 0.0792401 0.227909
0.760525 0.0915084 0.273701
0.772946 0.0995804 0.311711
0.773846 0.106798 0.345098
0.775372 0.11606 0.378897
0.777996 0.127413 0.412268
0.781643 0.14139 0.447257
0.785336 0.144305 0.473152
0.78854 0.14435 0.496986
0.793088 0.149065 0.52192
0.804288 0.165591 0.553246
0.0336767 0.104143 0.0485389
0.0336919 0.10399 0.0484474
0.0335241 0.102327 0.046952
0.0335393 0.100694 0.0449226
0.0344396 0.100511 0.0433356
0.0378882 0.101839 0.0437934
0.0458991 0.102754 0.0452583
0.0555276 0.103624 0.0432136
0.0736553 0.103929 0.037644
0.112871 0.0972915 0.0289158
0.155993 0.0797131 0.0392462
0.195865 0.0677501 0.038819
0.222095 0.0630961 0.0361944
0.257237 0.0567483 0.0329747
0.296513 0.0491951 0.0298161
0.338766 0.0436255 0.0297551
0.386084 0.0341039 0.0332189
0.434104 0.0301976 0.04094
0.494255 0.0364385 0.0649882
0.545769 0.0428779 0.0889906
0.608133 0.0546731 0.127199
0.669474 0.0670481 0.168841
0.725994 0.079408 0.219928
0.764492 0.0913558 0.266072
0.773419 0.0989548 0.30428
0.774075 0.10573 0.339025
0.775326 0.114549 0.373587
0.777905 0.126497 0.408591
0.781689 0.140352 0.442237
0.785397 0.144686 0.470558
0.788663 0.144839 0.494697
0.793622 0.150378 0.520851
0.8056 0.167971 0.554284
0.0327153 0.126085 0.0537423
0.0327611 0.126223 0.0538033
0.0337835 0.124758 0.0527962
0.0341192 0.122667 0.0503395
0.0345006 0.122896 0.048249
0.0357977 0.122621 0.0465858
0.0411841 0.124636 0.0473487
0.0550851 0.125689 0.0486
0.0672007 0.127367 0.046128
0.0935683 0.126207 0.0368811
0.148013 0.115984 0.0304875
0.20911 0.0922103 0.0412451
0.254887 0.0792248 0.0419318
0.287083 0.0740368 0.0399481
0.317174 0.067628 0.0367285
0.352026 0.0595254 0.0334173
0.390021 0.0505531 0.0306859
0.431464 0.0409247 0.0338445
0.476905 0.0299992 0.0416114
0.54165 0.0371862 0.0715648
0.611948 0.0525063 0.116014
0.677302 0.067628 0.160021
0.732387 0.0796063 0.207477
0.766934 0.0907912 0.255238
0.774441 0.0974136 0.29398
0.774807 0.104356 0.33048
0.775509 0.112871 0.366369
0.778073 0.124758 0.402716
0.781537 0.138598 0.438087
0.785367 0.145052 0.466041
0.788769 0.145434 0.492027
0.795224 0.15227 0.520592
0.806409 0.171069 0.554757
0.0301671 0.156374 0.0594492
0.0301366 0.15639 0.0595254
0.0313878 0.154635 0.0581369
0.0322728 0.152468 0.0561074
0.0325017 0.152499 0.0538643
0.0326238 0.151797 0.0503548
0.0357977 0.152148 0.0475624
0.044892 0.155901 0.0489815
0.0639048 0.158816 0.0514992
0.0808728 0.161929 0.0477455
0.125063 0.161288 0.0360723
0.201099 0.145006 0.0319524
0.270802 0.118929 0.0485237
0.325277 0.101839 0.0517128
0.36408 0.0951705 0.0497292
0.392508 0.0914168 0.0484321
0.425452 0.082002 0.0452125
0.457908 0.0689097 0.0398413
0.48954 0.055848 0.0399329
0.518791 0.0336919 0.0421607
0.593057 0.0386816 0.0779278
0.677958 0.0616159 0.138125
0.74049 0.0798199 0.195209
0.77084 0.090013 0.238636
0.775723 0.096025 0.277638
0.776013 0.10277 0.318059
0.776761 0.111543 0.356909
0.778881 0.122469 0.394766
0.781949 0.136309 0.43151
0.785489 0.145373 0.462409
0.788571 0.145861 0.486946
0.796994 0.15523 0.520333
0.807004 0.174319 0.553918
0.0290837 0.197986 0.0682841
0.0290379 0.198032 0.0683146
0.029572 0.196445 0.0668803
0.0302739 0.194003 0.0641337
0.0310521 0.193317 0.0612192
0.0317693 0.193591 0.0583963
0.0322118 0.192187 0.053727
0.0371099 0.193576 0.0502174
0.0542611 0.201984 0.0551308
0.0806439 0.20972 0.0606394
0.105653 0.215412 0.0555581
0.184451 0.215061 0.0387884
0.265568 0.198154 0.0350652
0.34226 0.174121 0.0623789
0.406424 0.150042 0.0754711
0.451972 0.140688 0.0754711
0.489326 0.133364 0.0747539
0.518593 0.124773 0.0719921
0.547173 0.107301 0.0644999
0.572 0.0859236 0.0600595
0.579812 0.0496834 0.0541085
0.649958 0.0423285 0.0854658
0.731212 0.0659037 0.150927
0.772457 0.0878157 0.214298
0.77644 0.0937514 0.253468
0.776822 0.100542 0.297505
0.777539 0.108827 0.341741
0.7794 0.119326 0.382818
0.782177 0.133944 0.422736
0.785412 0.144839 0.457801
0.789731 0.148089 0.484108
0.797757 0.158358 0.518868
0.807736 0.177432 0.552956
0.0377966 0.255528 0.0914778
0.0377508 0.255924 0.0916304
0.037995 0.254429 0.0901503
0.0390631 0.253391 0.0877394
0.0400854 0.253132 0.0845655
0.0408789 0.25333 0.0820172
0.0419318 0.253025 0.0780499
0.0424506 0.250843 0.0699779
0.0508431 0.254368 0.0684825
0.0778363 0.265064 0.0739452
0.10724 0.272297 0.0783703
0.143572 0.278096 0.0675364
0.252689 0.275654 0.0422827
0.333745 0.258106 0.0358129
0.407187 0.2383 0.0728313
0.469734 0.217136 0.0957961
0.526833 0.197543 0.0971695
0.571618 0.184558 0.0977188
0.60618 0.173571 0.0975052
0.639796 0.154696 0.09514
0.663493 0.125368 0.0861677
0.671855 0.089189 0.0840009
0.7093 0.0487068 0.0936446
0.757778 0.0659495 0.147463
0.777661 0.0910048 0.215808
0.779217 0.0968643 0.26128
0.778698 0.10515 0.317098
0.780224 0.115618 0.366262
0.781994 0.129107 0.40943
0.78526 0.145998 0.450492
0.791516 0.151995 0.482475
0.799573 0.163241 0.516732
0.808454 0.182544 0.550927
0.0490883 0.318807 0.118151
0.0489509 0.31873 0.11809
0.049012 0.317815 0.116686
0.0497902 0.316976 0.114443
0.0508583 0.31664 0.110765
0.0519722 0.317082 0.10837
0.0533608 0.3178 0.105501
0.054902 0.316564 0.0982834
0.0560311 0.314122 0.0898299
0.0697948 0.319936 0.090135
0.105638 0.33048 0.094255
0.144671 0.337331 0.098085
0.198596 0.342412 0.07953
0.319188 0.335302 0.0517891
0.40116 0.32398 0.0341802
0.472908 0.308003 0.0866102
0.538552 0.289479 0.112261
0.597635 0.267109 0.128832
0.647257 0.248478 0.126894
0.691157 0.231403 0.124346
0.725368 0.211978 0.121294
0.754971 0.178866 0.116899
0.763775 0.137789 0.116075
0.762646 0.0691844 0.101228
0.771176 0.0666514 0.134081
0.777813 0.0879225 0.204715
0.78114 0.0995499 0.264775
0.781033 0.109957 0.331594
0.782269 0.123507 0.389853
0.787991 0.145312 0.440726
0.794446 0.158373 0.480552
0.802762 0.170535 0.51696
0.81001 0.186648 0.547692
0.0643778 0.383169 0.153658
0.0643778 0.383658 0.153826
0.0641337 0.382559 0.151781
0.064332 0.381003 0.148531
0.0657816 0.381323 0.145541
0.066804 0.380774 0.141787
0.0675212 0.380865 0.138338
0.069276 0.382467 0.133669
0.0700847 0.380514 0.122972
0.0752422 0.380285 0.112963
0.0952468 0.386007 0.112413
0.143282 0.39585 0.118029
0.199039 0.400061 0.116991
0.259922 0.408469 0.0937819
0.386191 0.398581 0.067216
0.468269 0.389776 0.0302892
0.536263 0.377951 0.0950942
0.604639 0.360739 0.134981
0.659236 0.342046 0.164446
0.715908 0.318822 0.168032
0.758862 0.299168 0.16524
0.78909 0.276173 0.158572
0.797711 0.240726 0.144183
0.806271 0.184787 0.132357
0.801434 0.127825 0.122133
0.780316 0.0677806 0.114305
0.780041 0.0835126 0.184146
0.787182 0.105943 0.271504
0.787823 0.120119 0.353017
0.790799 0.143145 0.419272
0.797833 0.165789 0.474998
0.805585 0.180133 0.515938
0.811505 0.197223 0.546197
0.0826276 0.44892 0.200702
0.0822309 0.448676 0.199908
0.082475 0.447562 0.198047
0.082536 0.446662 0.195346
0.083238 0.44622 0.191455
0.0841077 0.445548 0.187427
0.0852979 0.44538 0.183108
0.0867628 0.446128 0.178088
0.0885939 0.447089 0.169833
0.0912642 0.445899 0.154086
0.103639 0.447684 0.142336
0.134554 0.452979 0.141329
0.20383 0.459358 0.148333
0.260349 0.46424 0.134234
0.327794 0.475319 0.113573
0.455528 0.464576 0.0862135
0.536751 0.455863 0.0258488
0.600137 0.446616 0.104265
0.66775 0.431006 0.16466
0.719738 0.414282 0.195468
0.76614 0.392355 0.217197
0.792874 0.372213 0.211887
0.793576 0.342565 0.198062
0.796231 0.306355 0.178485
0.803601 0.246967 0.14995
0.80975 0.184588 0.132265
0.796384 0.106462 0.117281
0.788098 0.0839246 0.157778
0.794049 0.116609 0.297292
0.798672 0.141772 0.381765
0.801801 0.173358 0.456977
0.808713 0.192798 0.510246
0.814542 0.209033 0.544945
0.105013 0.516457 0.252995
0.104784 0.516548 0.252537
0.104494 0.51519 0.248585
0.104555 0.51368 0.245777
0.105394 0.513466 0.242481
0.106294 0.512901 0.239429
0.107576 0.511971 0.234363
0.109346 0.51194 0.228611
0.111315 0.512886 0.223301
0.114305 0.512398 0.211292
0.11841 0.51165 0.191974
0.140368 0.514366 0.181262
0.198535 0.517906 0.179721
0.269459 0.524132 0.190646
0.324849 0.531334 0.158633
0.395697 0.543786 0.143206
0.522286 0.532555 0.110094
0.601312 0.52285 0.0329595
0.661997 0.515877 0.112108
0.725704 0.500862 0.19678
0.766857 0.49015 0.222232
0.795834 0.472816 0.239704
0.795438 0.45037 0.241138
0.792782 0.421881 0.232441
0.792676 0.383017 0.215808
0.795026 0.325017 0.190387
0.802869 0.249668 0.15079
0.810895 0.159716 0.126696
0.803006 0.112413 0.128954
0.804257 0.133196 0.321492
0.810422 0.174899 0.414618
0.811429 0.208072 0.492775
0.818326 0.22443 0.541039
0.132937 0.583947 0.307729
0.132265 0.583062 0.306127
0.131853 0.581659 0.302403
0.131395 0.580011 0.298772
0.131777 0.579355 0.295506
0.132387 0.578744 0.292271
0.133135 0.578592 0.288121
0.135317 0.577234 0.281498
0.138216 0.576669 0.27393
0.14226 0.578012 0.2663
0.145602 0.576455 0.248936
0.152499 0.575936 0.227939
0.194934 0.578332 0.219455
0.271397 0.583856 0.226139
0.337713 0.589929 0.223835
0.387167 0.600259 0.195499
0.462913 0.610788 0.179889
0.583673 0.601205 0.14287
0.660609 0.5906 0.0657359
0.719448 0.585061 0.122652
0.771359 0.57322 0.213687
0.800565 0.562768 0.246815
0.809277 0.550851 0.24831
0.805463 0.530983 0.240452
0.801358 0.501869 0.2365
0.797024 0.462409 0.23711
0.793332 0.407202 0.228061
0.794812 0.32668 0.190234
0.806851 0.208804 0.133852
0.812207 0.184863 0.134112
0.819669 0.167727 0.337316
0.81828 0.218738 0.452049
0.823224 0.244862 0.529747
0.165347 0.650736 0.360403
0.16463 0.649546 0.357931
0.164263 0.647883 0.354894
0.163516 0.646189 0.351064
0.163592 0.645533 0.348058
0.164019 0.644831 0.345113
0.165393 0.643793 0.34052
0.165713 0.642847 0.334112
0.168643 0.641733 0.325795
0.173159 0.641276 0.316869
0.177829 0.641627 0.305608
0.183413 0.639811 0.283101
0.206912 0.639521 0.263798
0.270298 0.642557 0.260197
0.347097 0.650202 0.27155
0.404654 0.656672 0.252705
0.451835 0.668986 0.231052
0.526207 0.6766 0.220996
0.639673 0.670527 0.186053
0.714641 0.657023 0.115724
0.766125 0.652018 0.134905
0.803006 0.643427 0.210819
0.822324 0.633387 0.246921
0.822568 0.619181 0.246372
0.819211 0.59823 0.243641
0.813718 0.573343 0.238361
0.807553 0.538399 0.238087
0.800168 0.485023 0.236744
0.794003 0.396353 0.223774
0.80145 0.260456 0.153796
0.809888 0.252354 0.172015
0.829252 0.218402 0.35903
0.828702 0.266423 0.507652
0.204486 0.714 0.410727
0.204059 0.712779 0.408453
0.203922 0.711803 0.405768
0.20325 0.710918 0.402213
0.203449 0.710185 0.399817
0.2038 0.709148 0.396536
0.204532 0.70782 0.39234
0.206271 0.706416 0.386572
0.205844 0.705348 0.377295
0.209003 0.70457 0.367864
0.213977 0.704036 0.357778
0.218296 0.703716 0.340368
0.227649 0.702434 0.313726
0.275151 0.703365 0.303349
0.355062 0.709133 0.310048
0.420584 0.713481 0.314366
0.468208 0.722011 0.2869
0.513848 0.73312 0.273182
0.584024 0.738048 0.263737
0.693767 0.735836 0.231189
0.757214 0.719203 0.179797
0.802548 0.716579 0.151003
0.828672 0.707103 0.205432
0.835096 0.698589 0.215366
0.833249 0.68513 0.204837
0.830259 0.666743 0.192813
0.825849 0.63888 0.205661
0.819959 0.600427 0.236408
0.809781 0.548638 0.238437
0.796139 0.452308 0.236118
0.796399 0.31136 0.180102
0.817105 0.283467 0.219959
0.831632 0.266728 0.472267
0.243137 0.771298 0.460914
0.242664 0.770184 0.45774
0.241856 0.769223 0.454978
0.241184 0.768063 0.452415
0.240803 0.767178 0.449042
0.240543 0.766308 0.446174
0.241382 0.765499 0.442527
0.243229 0.765194 0.437858
0.245319 0.764218 0.431189
0.244816 0.762402 0.419883
0.248112 0.760662 0.407233
0.252857 0.759777 0.393484
0.259098 0.757946 0.369345
0.285527 0.75729 0.345754
0.360983 0.758618 0.345861
0.430823 0.76202 0.355215
0.485222 0.766659 0.345022
0.526452 0.774731 0.32398
0.571374 0.78407 0.316167
0.643305 0.788113 0.307362
0.740871 0.785245 0.278935
0.788342 0.772625 0.247288
0.824323 0.76849 0.212039
0.843961 0.762844 0.20528
0.84683 0.754681 0.191211
0.845808 0.744869 0.158419
0.842878 0.727291 0.130205
0.836896 0.70013 0.141787
0.829526 0.661021 0.183139
0.81973 0.598444 0.236011
0.799344 0.481926 0.230106
0.794614 0.362234 0.208576
0.831342 0.300618 0.272251
0.278477 0.813321 0.504021
0.278553 0.813016 0.501808
0.277638 0.812116 0.498299
0.277134 0.81088 0.495537
0.277043 0.810117 0.492973
0.277104 0.809445 0.490639
0.278157 0.80882 0.487511
0.279149 0.807736 0.483467
0.280339 0.80647 0.477424
0.283055 0.805081 0.468696
0.282109 0.803418 0.454078
0.286397 0.800977 0.439048
0.290883 0.799146 0.419776
0.303304 0.796719 0.391272
0.361685 0.796841 0.382528
0.441611 0.798184 0.391379
0.497871 0.799039 0.394583
0.54165 0.804898 0.372045
0.578317 0.813611 0.360891
0.624949 0.821836 0.355642
0.702129 0.822263 0.341787
0.775372 0.819135 0.321431
0.81059 0.809964 0.302663
0.836042 0.805997 0.280522
0.84538 0.801083 0.262104
0.847211 0.794903 0.234302
0.848585 0.787457 0.178515
0.849378 0.774823 0.118242
0.847211 0.750912 0.0938735
0.839033 0.71014 0.127825
0.82652 0.636515 0.206394
0.79852 0.482689 0.231556
0.796826 0.40502 0.239872
0.303487 0.837674 0.534768
0.303456 0.837369 0.53257
0.303471 0.837064 0.530358
0.303471 0.836774 0.527733
0.303624 0.836515 0.525643
0.303975 0.836271 0.523537
0.304768 0.835798 0.520882
0.305516 0.834775 0.517052
0.307179 0.833494 0.511437
0.308812 0.831586 0.503258
0.307332 0.829999 0.490562
0.312169 0.828 0.475303
0.315969 0.82562 0.456321
0.320546 0.822339 0.430045
0.360952 0.822034 0.412833
0.443 0.821637 0.417929
0.503822 0.821378 0.424002
0.545785 0.823789 0.413275
0.584726 0.830701 0.394842
0.621118 0.837903 0.38851
0.669215 0.84387 0.383444
0.746151 0.843275 0.366781
0.800107 0.840192 0.355413
0.826139 0.833967 0.343221
0.839506 0.831281 0.332952
0.843381 0.828061 0.320745
0.843839 0.823789 0.299626
0.844785 0.818448 0.260655
0.846571 0.80734 0.201785
0.849027 0.786404 0.12665
0.845975 0.746685 0.0864881
0.830274 0.657542 0.185214
0.802167 0.484047 0.237842
0.315648 0.845502 0.551934
0.315694 0.84535 0.549767
0.315709 0.845212 0.547112
0.316045 0.844923 0.54493
0.31635 0.844572 0.542733
0.31693 0.844099 0.540703
0.317693 0.84358 0.538003
0.318517 0.843153 0.534508
0.319707 0.842329 0.530144
0.322332 0.841428 0.524025
0.325536 0.839536 0.514183
0.324376 0.837308 0.498116
0.328542 0.834821 0.478523
0.333181 0.832135 0.455589
0.355093 0.83064 0.435798
0.425666 0.830167 0.433616
0.497642 0.827558 0.438575
0.544167 0.827222 0.433707
0.579431 0.832105 0.414389
0.614054 0.838468 0.404395
0.655238 0.845151 0.397147
0.713344 0.846464 0.387732
0.783093 0.848066 0.372244
0.818219 0.842313 0.368978
0.836347 0.840589 0.364691
0.840711 0.840406 0.363439
0.840803 0.839551 0.356649
0.841382 0.838178 0.339681
0.841825 0.835401 0.305272
0.843229 0.826795 0.262547
0.846601 0.808331 0.198322
0.849317 0.769192 0.0977493
0.828138 0.617227 0.206638
0.324895 0.847791 0.564294
0.324697 0.847532 0.562112
0.32462 0.847379 0.559823
0.324849 0.847135 0.557946
0.325353 0.846799 0.555474
0.325719 0.846311 0.553231
0.326406 0.845716 0.55021
0.327062 0.845014 0.546517
0.328405 0.844114 0.542382
0.330846 0.842939 0.536889
0.333669 0.841443 0.528557
0.336797 0.839246 0.516747
0.336126 0.836988 0.49659
0.340108 0.833448 0.471366
0.349294 0.831373 0.447517
0.405295 0.83154 0.443854
0.484581 0.829664 0.449546
0.53875 0.828321 0.45037
0.573114 0.831983 0.433082
0.606561 0.837949 0.419715
0.644053 0.844785 0.411902
0.689632 0.84773 0.402838
0.754009 0.848341 0.387884
0.804059 0.84712 0.380484
0.830488 0.842481 0.374655
0.840284 0.842496 0.377081
0.841566 0.84239 0.376791
0.841596 0.842115 0.371374
0.840787 0.840497 0.353307
0.841337 0.838972 0.321874
0.842176 0.834333 0.292882
0.844404 0.822644 0.2448
0.848203 0.761349 0.127871
0.336019 0.849256 0.575631
0.335653 0.848875 0.573632
0.335271 0.8486 0.571008
0.335378 0.848463 0.569009
0.335546 0.848264 0.567376
0.33608 0.847883 0.56527
0.336797 0.847425 0.562554
0.338018 0.84686 0.559609
0.339544 0.845914 0.554925
0.34136 0.845045 0.54995
0.344015 0.84358 0.542687
0.346136 0.841642 0.532555
0.345525 0.83949 0.515435
0.350408 0.836347 0.493217
0.361639 0.833799 0.46952
0.391241 0.833387 0.458793
0.468162 0.832364 0.463294
0.529564 0.830427 0.465797
0.569894 0.832441 0.456199
0.599527 0.837537 0.44036
0.634424 0.844633 0.431189
0.675868 0.84918 0.421195
0.728161 0.849332 0.406424
0.783841 0.849958 0.392981
0.81854 0.844633 0.387213
0.838621 0.84332 0.3841
0.841733 0.843473 0.389258
0.841749 0.843381 0.3879
0.841749 0.842771 0.380453
0.841337 0.841215 0.359854
0.841215 0.839094 0.327306
0.841291 0.837949 0.308629
0.844724 0.820691 0.245045
0.348959 0.851087 0.587671
0.348531 0.850797 0.58529
0.347799 0.850629 0.583169
0.34757 0.850492 0.581567
0.347448 0.850294 0.579232
0.347723 0.849912 0.576959
0.348257 0.849363 0.574533
0.348745 0.848646 0.571008
0.349828 0.847639 0.567102
0.351415 0.846403 0.562158
0.353506 0.845029 0.556207
0.357473 0.843458 0.547723
0.36051 0.84152 0.535378
0.361746 0.839673 0.517266
0.376074 0.83653 0.49633
