bundles/resolve-cinematic-luts/Phantom Luts/A7s3 Phntm Film LUTs - G6/SLog3/VisionTeal A7s3-Legacy.cube
TITLE "Generated by Resolve"
LUT_3D_SIZE 33
0.0234531 0.0431983 0.0412757
0.0234531 0.0431983 0.0412757
0.0234531 0.0431983 0.0412757
0.0235142 0.0432593 0.0412604
0.0268864 0.0433051 0.0418402
0.032578 0.0425116 0.0417639
0.0423285 0.0415198 0.0415808
0.0585946 0.0396277 0.0396735
0.080766 0.0370794 0.0389715
0.103258 0.0337987 0.0378882
0.130632 0.0325933 0.0392157
0.165774 0.0308995 0.0391546
0.205493 0.0293126 0.040528
0.245289 0.0282902 0.0412909
0.289662 0.0282292 0.0472572
0.331365 0.0272221 0.0548104
0.375204 0.026688 0.0643778
0.420188 0.0273442 0.0767834
0.466072 0.0298009 0.0937819
0.513436 0.0331273 0.116899
0.566018 0.0397498 0.154086
0.626078 0.0513771 0.201007
0.684611 0.0645304 0.249226
0.732647 0.0778668 0.296452
0.760128 0.0890822 0.339956
0.760296 0.0954452 0.371862
0.761471 0.105165 0.406165
0.764858 0.113512 0.437751
0.769116 0.119768 0.466896
0.773205 0.121141 0.498207
0.77702 0.123171 0.529076
0.78146 0.126085 0.556771
0.791287 0.14139 0.594583
0.023682 0.0431373 0.0411841
0.0234836 0.0431983 0.0412604
0.0234531 0.043183 0.0412604
0.0235294 0.0433967 0.0413825
0.0275425 0.0432593 0.0419013
0.0327611 0.0425574 0.0418708
0.042298 0.0417182 0.0418555
0.0590219 0.0397498 0.0399634
0.0815747 0.0371862 0.0393988
0.104555 0.0337377 0.0384833
0.131899 0.0328374 0.0397955
0.168002 0.0310063 0.0396887
0.207889 0.0289921 0.0407568
0.247196 0.0283513 0.0415503
0.292683 0.0280461 0.0469978
0.334585 0.026978 0.052491
0.378576 0.0268254 0.0631723
0.423804 0.0275425 0.0753185
0.469261 0.0300298 0.0932479
0.516396 0.0335393 0.116548
0.570291 0.0405585 0.154833
0.628931 0.0518959 0.201587
0.686595 0.0651713 0.249088
0.734722 0.0784314 0.297139
0.76022 0.0892195 0.339742
0.76054 0.0956436 0.371939
0.761669 0.105501 0.406546
0.764904 0.113634 0.437369
0.768963 0.11957 0.46659
0.773251 0.121202 0.498238
0.777203 0.123262 0.529244
0.78204 0.12697 0.55787
0.791485 0.14255 0.595728
0.023682 0.0431373 0.0411536
0.0234836 0.043183 0.0412451
0.0234531 0.043183 0.0412451
0.0234531 0.043122 0.0411078
0.0266728 0.0433204 0.0417792
0.0319677 0.0426947 0.041825
0.0408179 0.0420081 0.041886
0.0578927 0.040238 0.0404212
0.0799268 0.0377356 0.039704
0.10277 0.0342107 0.0389563
0.130602 0.0331579 0.0400092
0.167193 0.0311589 0.039704
0.208698 0.0291447 0.0395209
0.252872 0.0282902 0.0410773
0.297002 0.0279698 0.0466316
0.33698 0.027039 0.050248
0.381689 0.0269169 0.0610208
0.426276 0.0277562 0.0740826
0.472084 0.0302434 0.0923018
0.519356 0.033875 0.116197
0.573343 0.0411994 0.154482
0.632059 0.0525978 0.200855
0.689326 0.0655528 0.248112
0.736782 0.0787671 0.29633
0.760327 0.0892195 0.338964
0.760647 0.0957046 0.371771
0.761746 0.105333 0.405661
0.76492 0.113756 0.436561
0.768826 0.119356 0.466224
0.773281 0.121279 0.498054
0.777279 0.123354 0.528939
0.782284 0.127306 0.558175
0.79176 0.143221 0.596017
0.0239109 0.0439307 0.0415198
0.0237278 0.0439918 0.0415351
0.0238346 0.0439155 0.0415198
0.0241245 0.0439765 0.0415808
0.0251316 0.0435035 0.0411688
0.030457 0.0433356 0.0418097
0.0388952 0.0424964 0.0417792
0.0564126 0.0411536 0.0406653
0.0795148 0.0383764 0.0394598
0.104158 0.0346532 0.038407
0.132219 0.0331579 0.038819
0.168643 0.0311131 0.0379797
0.212421 0.0294652 0.0384833
0.25539 0.0285954 0.0412451
0.300282 0.0277562 0.0454261
0.340917 0.0270085 0.049958
0.383749 0.0270848 0.0593729
0.428336 0.0280613 0.0731212
0.474754 0.030518 0.0914473
0.52166 0.0341192 0.114824
0.575433 0.0417945 0.152468
0.634806 0.053254 0.199954
0.69163 0.0661021 0.247639
0.73904 0.0793927 0.296223
0.760433 0.089128 0.337407
0.760769 0.0956741 0.370825
0.761852 0.105119 0.404334
0.764935 0.113848 0.435798
0.768734 0.119265 0.465476
0.773297 0.121401 0.497246
0.777325 0.123461 0.528695
0.782422 0.127474 0.557946
0.792554 0.144213 0.596674
0.023743 0.0496681 0.0412451
0.0236515 0.0495003 0.0411536
0.0241245 0.0488899 0.0407416
0.0255589 0.0486305 0.0411231
0.0294194 0.0488289 0.0416571
0.0343175 0.0480659 0.0419318
0.0410163 0.0477607 0.0421912
0.0563973 0.0454108 0.0415961
0.0805676 0.0406653 0.0391852
0.107378 0.0353704 0.0369268
0.135637 0.0332952 0.0369421
0.172305 0.0308232 0.0361639
0.213092 0.0287938 0.0362249
0.255741 0.0281224 0.0393378
0.303548 0.0278477 0.0434424
0.344945 0.0269932 0.0497902
0.387686 0.0274357 0.0578012
0.431067 0.0280613 0.0711528
0.476692 0.0305943 0.0886702
0.524254 0.0345312 0.112749
0.578286 0.0421607 0.14992
0.637751 0.0537423 0.197742
0.694362 0.0664378 0.246357
0.740658 0.0798657 0.295399
0.760601 0.0890822 0.335851
0.7608 0.0953841 0.368612
0.761852 0.104738 0.402518
0.764874 0.113848 0.435096
0.768536 0.11899 0.464561
0.773312 0.121538 0.495933
0.77734 0.123552 0.528054
0.783337 0.128374 0.558587
0.793118 0.145113 0.596704
0.0232548 0.0576944 0.0409857
0.0231785 0.0575265 0.0409247
0.0240635 0.0564736 0.0404822
0.0261234 0.0554818 0.041001
0.0302586 0.0556039 0.0417334
0.0361639 0.0556039 0.0425269
0.04654 0.0543069 0.0430762
0.0599985 0.0522316 0.0420691
0.0793927 0.0482338 0.0407874
0.104982 0.0425879 0.038407
0.137911 0.0368048 0.0359045
0.177874 0.0312352 0.034699
0.215137 0.0282139 0.0338598
0.257191 0.026978 0.0360723
0.30251 0.0268406 0.0403143
0.346136 0.0267338 0.0464485
0.392874 0.0272526 0.057435
0.434119 0.028275 0.0679942
0.479026 0.0305791 0.0859388
0.527535 0.034699 0.110369
0.581491 0.0423743 0.146059
0.642023 0.0544289 0.195743
0.697704 0.0667277 0.24445
0.743297 0.0806134 0.294209
0.760952 0.0889906 0.333516
0.760952 0.0949874 0.365835
0.761761 0.103777 0.399298
0.764843 0.114031 0.433921
0.768475 0.118944 0.46302
0.773312 0.121691 0.494804
0.777447 0.123964 0.526833
0.783719 0.128862 0.558312
0.794095 0.146685 0.597345
0.0232853 0.0714885 0.0422522
0.0231937 0.0713054 0.0421302
0.0234073 0.0691081 0.0408484
0.0248875 0.0674907 0.0407111
0.0301976 0.0681315 0.041886
0.0358434 0.0687114 0.042649
0.0480507 0.0674601 0.0440375
0.0630961 0.0651408 0.0427863
0.086244 0.0595102 0.0430304
0.10634 0.0545052 0.0411536
0.136538 0.0475929 0.0372168
0.17789 0.0395819 0.0334173
0.222232 0.0327611 0.0323033
0.264073 0.0260777 0.0313573
0.303243 0.0241855 0.0337377
0.347189 0.0248112 0.0399329
0.394614 0.0265202 0.0525368
0.440436 0.0285496 0.0664225
0.482033 0.03093 0.0818036
0.530694 0.0346532 0.106752
0.585931 0.0427253 0.141772
0.646235 0.0550546 0.192844
0.701961 0.0677195 0.240894
0.7458 0.0810712 0.29012
0.761517 0.0889448 0.329534
0.761303 0.0948348 0.362844
0.761944 0.103471 0.39704
0.764736 0.113878 0.430457
0.767987 0.11873 0.460426
0.773022 0.122133 0.491234
0.776761 0.124544 0.523171
0.783108 0.130419 0.555215
0.79382 0.149371 0.594568
0.0232548 0.0884108 0.0433051
0.022797 0.0884108 0.0431525
0.0230106 0.0865949 0.0415198
0.0233158 0.085008 0.0402686
0.0272374 0.0854047 0.0408484
0.0346685 0.0852827 0.0426795
0.0463569 0.0845197 0.0441444
0.0643778 0.0834363 0.0448768
0.0831311 0.0805982 0.0408637
0.116594 0.0704204 0.0437934
0.146426 0.0621958 0.0408484
0.181765 0.0549325 0.0361334
0.221637 0.0471504 0.0329747
0.264256 0.0388952 0.0311894
0.308049 0.0283207 0.0299687
0.346731 0.0216068 0.0318608
0.392432 0.0236362 0.0420996
0.442527 0.0270848 0.0611124
0.488167 0.0313726 0.0796063
0.534356 0.0353246 0.101915
0.590372 0.0438697 0.13756
0.65182 0.0563516 0.189151
0.707912 0.0690318 0.238224
0.748562 0.0815595 0.285451
0.761975 0.0887465 0.324849
0.761593 0.0944686 0.358679
0.762325 0.102968 0.39295
0.764691 0.114214 0.428138
0.767941 0.119158 0.456306
0.772992 0.122576 0.488899
0.776715 0.124804 0.521477
0.783658 0.131365 0.554482
0.7944 0.150683 0.594247
0.0227054 0.1066 0.0452735
0.0221408 0.106615 0.0452583
0.0224918 0.10515 0.0435492
0.0224002 0.103319 0.0406653
0.0241245 0.102831 0.0396582
0.0316167 0.103395 0.0420539
0.0429694 0.103273 0.0454414
0.0602274 0.101808 0.0457313
0.0831311 0.100923 0.0438697
0.108248 0.0970169 0.0390021
0.159594 0.0818494 0.0438087
0.205997 0.0672923 0.0389258
0.236362 0.0624247 0.0363165
0.273426 0.0547799 0.0327916
0.310582 0.0452125 0.0298619
0.350622 0.0341192 0.028809
0.392767 0.0204318 0.0299229
0.43711 0.0224155 0.0463874
0.492241 0.0296635 0.0720073
0.539452 0.0347753 0.0957198
0.59823 0.0456397 0.135576
0.658564 0.0580758 0.181506
0.713832 0.0702068 0.23154
0.752071 0.082826 0.27985
0.76257 0.0887312 0.318456
0.762402 0.0940414 0.352544
0.762676 0.102007 0.388342
0.764813 0.113405 0.424536
0.767544 0.118715 0.453513
0.772854 0.122911 0.484016
0.776593 0.125154 0.518975
0.784207 0.13341 0.55375
0.795193 0.152621 0.594034
0.0200046 0.129549 0.0466316
0.0195621 0.129778 0.0465858
0.0199435 0.127901 0.045243
0.0210727 0.125933 0.0426642
0.0226444 0.125963 0.0407416
0.0280919 0.124681 0.0408179
0.0352941 0.125887 0.0421607
0.0550698 0.124865 0.0469673
0.0796368 0.124178 0.0467384
0.105379 0.12282 0.0417029
0.142458 0.117937 0.0379187
0.215946 0.0954147 0.0446174
0.268925 0.0796216 0.0408331
0.303929 0.0738384 0.0380713
0.335073 0.0669108 0.0350042
0.367651 0.0564584 0.0323033
0.40174 0.043595 0.0299535
0.436423 0.0271305 0.0299229
0.47837 0.0204776 0.0455024
0.538109 0.0305028 0.0802777
0.603449 0.0436561 0.125353
0.666392 0.0590524 0.173999
0.720745 0.071931 0.221698
0.755962 0.0831464 0.270909
0.763943 0.0888075 0.309102
0.763119 0.0937514 0.34519
0.763058 0.101427 0.381964
0.764492 0.111833 0.418357
0.767437 0.1187 0.450034
0.772793 0.123095 0.480262
0.776349 0.125444 0.513329
0.784527 0.134783 0.551995
0.796399 0.155184 0.593759
0.0190585 0.160372 0.0466621
0.0190585 0.160632 0.046952
0.0189212 0.158099 0.045243
0.0191196 0.155749 0.0431983
0.0191043 0.155398 0.0422217
0.021622 0.154208 0.04065
0.0268559 0.153338 0.0378271
0.040177 0.155749 0.0406195
0.0696574 0.156451 0.0466316
0.101091 0.156741 0.0463417
0.135027 0.156039 0.0397192
0.193744 0.149096 0.0369573
0.281163 0.125566 0.0513771
0.342107 0.104784 0.0489357
0.383078 0.0979019 0.0479591
0.411185 0.0921645 0.0458534
0.441672 0.0808423 0.0432593
0.468742 0.0625162 0.0391394
0.492439 0.0415198 0.037171
0.517586 0.0184329 0.0400702
0.587152 0.0317845 0.0882124
0.669825 0.0552682 0.154559
0.729793 0.0733043 0.212619
0.759899 0.0839399 0.255299
0.765347 0.0885939 0.294759
0.764553 0.0931563 0.334173
0.764401 0.100496 0.372793
0.765042 0.110811 0.411719
0.767163 0.118349 0.445289
0.772778 0.1234 0.476387
0.776287 0.126009 0.509926
0.785122 0.136492 0.549722
0.797818 0.159274 0.593851
0.0187686 0.200458 0.049546
0.0187686 0.200748 0.0498817
0.018677 0.199466 0.0483101
0.0188144 0.197498 0.0470741
0.0188144 0.196139 0.0467079
0.0187686 0.196124 0.0440528
0.0204013 0.193484 0.039353
0.0287785 0.19324 0.036759
0.0509651 0.198825 0.0415503
0.0907454 0.204059 0.0502022
0.134356 0.206607 0.0498665
0.187366 0.20737 0.0398108
0.256596 0.203296 0.039765
0.350896 0.185214 0.0621347
0.423117 0.157015 0.0701762
0.470726 0.147051 0.0706188
0.506676 0.139208 0.0708476
0.534691 0.127901 0.0700694
0.556451 0.105379 0.0638285
0.572213 0.0745861 0.0593271
0.572137 0.0277562 0.0480049
0.642634 0.0361944 0.0989395
0.722637 0.0612039 0.173449
0.763394 0.0845045 0.233982
0.766735 0.088304 0.272694
0.765728 0.0922713 0.314946
0.765164 0.0984207 0.358541
0.765484 0.108446 0.400305
0.767239 0.118608 0.438605
0.772259 0.122499 0.470954
0.777981 0.128161 0.506752
0.786221 0.139376 0.545602
0.798398 0.162768 0.591379
0.0216831 0.25861 0.0712749
0.0200961 0.25919 0.0707561
0.0205844 0.257588 0.0699626
0.0221408 0.255497 0.0672007
0.0239414 0.25452 0.0637827
0.0255436 0.254475 0.061326
0.027924 0.253208 0.0570077
0.0305333 0.249393 0.0486915
0.0421607 0.251545 0.0475319
0.0760815 0.258335 0.0541848
0.123522 0.263661 0.063035
0.183688 0.262913 0.0555581
0.245228 0.261952 0.0446021
0.321416 0.26186 0.0421149
0.411566 0.25417 0.0683757
0.487709 0.23061 0.0906996
0.545327 0.209888 0.0920424
0.587793 0.197147 0.0917372
0.621439 0.184649 0.0941024
0.650278 0.159258 0.0953078
0.666041 0.119142 0.0906386
0.665324 0.0704051 0.0838941
0.701915 0.0446632 0.112505
0.749523 0.0621653 0.172992
0.768215 0.087602 0.236439
0.768078 0.0909285 0.279042
0.76701 0.0961929 0.335561
0.766537 0.105455 0.384482
0.76733 0.11841 0.428702
0.772488 0.123522 0.463691
0.778439 0.130755 0.501534
0.789242 0.146151 0.544564
0.798688 0.164797 0.584115
0.032929 0.319615 0.0914931
0.0321355 0.319844 0.091722
0.0319371 0.318746 0.0907301
0.0324102 0.317494 0.0882734
0.0342718 0.316655 0.0848402
0.0362402 0.316381 0.0816968
0.0379644 0.31664 0.0786603
0.0411688 0.314412 0.0713207
0.0440528 0.310719 0.0621347
0.0617227 0.313146 0.0614023
0.106096 0.319112 0.0682231
0.174151 0.320653 0.0748455
0.241199 0.321141 0.0613718
0.304509 0.317021 0.0551003
0.385504 0.324407 0.0470741
0.469459 0.327565 0.0761578
0.553704 0.310048 0.110277
0.616953 0.286244 0.124376
0.666804 0.269245 0.123583
0.709178 0.251438 0.122988
0.738094 0.226993 0.12282
0.760281 0.185565 0.123415
0.759686 0.127489 0.124239
0.755215 0.0589609 0.118471
0.763882 0.0657969 0.162905
0.76791 0.0852064 0.2271
0.770504 0.0938888 0.284031
0.768719 0.101076 0.350561
0.76791 0.113268 0.409628
0.773465 0.126619 0.455268
0.782483 0.138125 0.498955
0.791989 0.154253 0.544182
0.800549 0.172213 0.582788
0.0492714 0.383871 0.118593
0.0484779 0.384588 0.119234
0.047715 0.383886 0.118425
0.0479286 0.382315 0.11545
0.0493324 0.382101 0.112673
0.0511788 0.380621 0.108797
0.0525978 0.379721 0.104875
0.0550698 0.379858 0.099382
0.0573129 0.375982 0.0881056
0.0653391 0.373251 0.0777905
0.0905318 0.374685 0.0759747
0.153231 0.377722 0.0856794
0.24097 0.375998 0.0885328
0.304372 0.381048 0.0690623
0.372702 0.378515 0.0691997
0.448661 0.38703 0.0539712
0.529137 0.395972 0.0893873
0.618692 0.386221 0.133211
0.681727 0.368612 0.16434
0.73901 0.346838 0.168597
0.779721 0.329625 0.167208
0.805585 0.304601 0.163928
0.809155 0.262669 0.153506
0.807477 0.190585 0.144427
0.796887 0.114672 0.131518
0.774914 0.0694438 0.144564
0.771267 0.0820172 0.211948
0.775982 0.101717 0.29012
0.773968 0.112627 0.371267
0.776242 0.133425 0.439506
0.784863 0.14641 0.491402
0.794751 0.163058 0.540993
0.802045 0.182345 0.579171
0.0696117 0.449958 0.154452
0.0683452 0.450126 0.15491
0.0674754 0.448997 0.15346
0.0673228 0.448173 0.150301
0.0678264 0.446967 0.146288
0.0687572 0.44596 0.14229
0.0708629 0.444923 0.137987
0.0731975 0.444633 0.132509
0.0776684 0.443366 0.123476
0.0812695 0.439002 0.10724
0.0964523 0.435447 0.0952621
0.130098 0.43418 0.0932937
0.228382 0.431983 0.10248
0.313054 0.431266 0.0964065
0.3729 0.441642 0.0825208
0.440345 0.440925 0.0901961
0.514366 0.450584 0.0666056
0.59028 0.461662 0.108537
0.679591 0.461234 0.161379
0.743435 0.448264 0.20119
0.791135 0.42742 0.223041
0.817227 0.409796 0.219852
0.815976 0.377935 0.205356
0.815686 0.338796 0.184375
0.815106 0.269001 0.158938
0.811444 0.189975 0.143847
0.789715 0.0876173 0.125368
0.780026 0.0843214 0.18938
0.782574 0.113603 0.316381
0.785016 0.136019 0.400214
0.787991 0.157748 0.471504
0.797436 0.175982 0.531746
0.803449 0.193515 0.573602
0.0913252 0.518975 0.206821
0.0900893 0.519646 0.207645
0.0889296 0.517876 0.204288
0.0883955 0.516045 0.200473
0.0894026 0.515297 0.197208
0.0907454 0.514015 0.192432
0.0927291 0.512139 0.186313
0.0957656 0.511193 0.178347
0.0993973 0.510475 0.169177
0.103761 0.50692 0.151461
0.110018 0.500908 0.12752
0.132784 0.496986 0.11548
0.203372 0.491188 0.115648
0.310903 0.488334 0.128054
0.381125 0.491112 0.109056
0.440055 0.505486 0.10248
0.506233 0.505501 0.114229
0.577676 0.515282 0.0877546
0.650248 0.528084 0.128222
0.734142 0.535363 0.18793
0.790631 0.530205 0.229938
0.82327 0.515297 0.250584
0.823041 0.49099 0.250599
0.819669 0.46099 0.242039
0.818051 0.42118 0.22443
0.815763 0.359182 0.196735
0.815091 0.27335 0.159625
0.810941 0.155413 0.140642
0.796368 0.0944991 0.13785
0.790921 0.132723 0.340612
0.795102 0.16849 0.430442
0.798199 0.191684 0.506691
0.804578 0.208789 0.562875
0.112078 0.58909 0.258015
0.110689 0.589014 0.257679
0.110399 0.587228 0.255482
0.110307 0.585519 0.252018
0.111055 0.584482 0.248707
0.11223 0.582864 0.245441
0.114611 0.581552 0.239841
0.11809 0.578622 0.231022
0.122576 0.576333 0.221653
0.127703 0.575189 0.210636
0.13402 0.569238 0.184314
0.144503 0.562768 0.151064
0.189899 0.555184 0.13724
0.293828 0.54789 0.146685
0.394797 0.546563 0.152407
0.446082 0.555611 0.127581
0.506081 0.570352 0.12488
0.566476 0.570504 0.142641
0.637675 0.581842 0.117342
0.706523 0.594598 0.152087
0.775921 0.606302 0.20705
0.819165 0.605951 0.246113
0.833707 0.596613 0.254932
0.83209 0.57644 0.250233
0.829343 0.547066 0.248539
0.825071 0.505028 0.248035
0.819577 0.445975 0.236942
0.816297 0.361028 0.197513
0.814008 0.221515 0.145541
0.814939 0.18883 0.150942
0.805158 0.169833 0.351339
0.799985 0.212696 0.462959
0.806882 0.230106 0.542824
0.135683 0.661921 0.31107
0.134508 0.66128 0.309499
0.134035 0.659236 0.306081
0.133745 0.657603 0.303929
0.134813 0.65658 0.300832
0.136614 0.65536 0.297673
0.139315 0.653315 0.292302
0.143633 0.650416 0.284993
0.148852 0.646632 0.274159
0.154635 0.643748 0.261646
0.162646 0.640757 0.245487
0.171954 0.632639 0.212284
0.200381 0.62327 0.177798
0.275105 0.611673 0.168521
0.38732 0.606287 0.184192
0.468254 0.609171 0.169055
0.514061 0.62295 0.153231
0.570092 0.636362 0.154971
0.622538 0.634501 0.181476
0.694789 0.647486 0.15845
0.753231 0.658991 0.186954
0.801953 0.667781 0.225391
0.830243 0.670253 0.247074
0.833814 0.66186 0.240879
0.833051 0.645502 0.235523
0.832441 0.62179 0.236942
0.833295 0.585367 0.246494
0.828977 0.529747 0.249622
0.819471 0.434577 0.232837
0.8159 0.286473 0.162417
0.815656 0.270344 0.184741
0.811475 0.221027 0.365682
0.808942 0.254566 0.510521
0.165606 0.734936 0.363149
0.16408 0.733379 0.360754
0.163195 0.731792 0.358129
0.163241 0.730739 0.356161
0.164385 0.729809 0.354086
0.166629 0.728542 0.351308
0.169253 0.726757 0.34609
0.174823 0.723445 0.338506
0.180362 0.719112 0.327047
0.188907 0.714992 0.313878
0.197696 0.711528 0.299321
0.207233 0.704738 0.272877
0.221302 0.695018 0.231388
0.273426 0.682292 0.20708
0.379568 0.669123 0.211948
0.476814 0.665721 0.221347
0.535195 0.67393 0.199207
0.57792 0.686992 0.193179
0.630457 0.699092 0.19852
0.678569 0.698329 0.225879
0.740398 0.707271 0.212222
0.787778 0.71873 0.222766
0.82179 0.722911 0.246494
0.832319 0.719875 0.248814
0.832898 0.71107 0.236194
0.832471 0.699504 0.220111
0.832547 0.67892 0.216861
0.833341 0.648585 0.227939
0.833646 0.596262 0.244816
0.823697 0.494453 0.246891
0.81619 0.344244 0.187533
0.819181 0.298817 0.227863
0.810285 0.26125 0.475135
0.203113 0.798383 0.416236
0.202472 0.797452 0.41352
0.201404 0.796582 0.411185
0.201999 0.795636 0.40911
0.203143 0.794781 0.407233
0.204685 0.793194 0.403861
0.207721 0.790936 0.39968
0.212879 0.789197 0.392859
0.219089 0.78558 0.383825
0.225315 0.780163 0.369162
0.233371 0.774899 0.352178
0.241337 0.769482 0.331212
0.253529 0.760693 0.294942
0.284459 0.747417 0.252323
0.373144 0.728603 0.243
0.472328 0.718624 0.252811
0.549477 0.718898 0.24712
0.594446 0.729061 0.234165
0.634562 0.741039 0.235584
0.686 0.751827 0.243229
0.727642 0.750332 0.269612
0.775433 0.757275 0.263554
0.812039 0.766751 0.261234
0.831708 0.768093 0.270848
0.835538 0.763973 0.260227
0.836698 0.757992 0.23975
0.837324 0.748119 0.214206
0.836194 0.727199 0.206348
0.834165 0.696468 0.212421
0.833051 0.646754 0.227817
0.82742 0.527245 0.24358
0.817624 0.399344 0.217319
0.821103 0.307393 0.27538
0.234333 0.846586 0.461723
0.237278 0.845838 0.460517
0.238148 0.844251 0.457862
0.238636 0.84329 0.454978
0.239963 0.842481 0.453117
0.242496 0.841352 0.450797
0.246128 0.840101 0.447227
0.251148 0.83769 0.442115
0.255665 0.833585 0.432944
0.262303 0.82826 0.419547
0.270588 0.821775 0.40119
0.279118 0.815381 0.379309
0.287327 0.807691 0.350439
0.304646 0.795789 0.304646
0.369253 0.777111 0.278096
0.472465 0.759426 0.281926
0.553994 0.754009 0.287953
0.609934 0.760113 0.273686
0.646174 0.770169 0.271901
0.686275 0.781094 0.277287
0.73521 0.790127 0.286336
0.767132 0.788067 0.310994
0.801007 0.791791 0.309331
0.825772 0.797559 0.306523
0.834852 0.797513 0.299779
0.836789 0.795148 0.284977
0.84004 0.792935 0.256046
0.842237 0.786618 0.226566
0.841215 0.768093 0.208652
0.836851 0.735958 0.203632
0.83418 0.677775 0.215961
0.826261 0.527169 0.245975
0.821591 0.441154 0.24976
0.243595 0.877073 0.490822
0.246403 0.876585 0.489952
0.249546 0.87599 0.488991
0.254063 0.874937 0.488029
0.258274 0.874052 0.487327
0.263203 0.872694 0.485466
0.266575 0.870863 0.48188
0.271458 0.868025 0.476097
0.278172 0.864408 0.468559
0.286641 0.859831 0.458335
0.295247 0.853803 0.443091
0.304707 0.846433 0.420233
0.313039 0.837827 0.392493
0.322789 0.828153 0.353231
0.366751 0.812024 0.314366
0.462531 0.790127 0.309041
0.547463 0.778653 0.313664
0.607355 0.778912 0.309392
0.650996 0.786923 0.300908
0.684733 0.795697 0.304692
0.724788 0.80528 0.313771
0.768002 0.813672 0.322255
0.791669 0.809796 0.344106
0.817487 0.813947 0.344091
0.829587 0.816236 0.342489
0.833524 0.815229 0.336049
0.834272 0.813474 0.322179
0.836866 0.813428 0.298329
0.840742 0.809964 0.266087
0.843244 0.796674 0.23003
0.841596 0.766064 0.203067
0.833875 0.693858 0.210788
0.830182 0.528939 0.252094
0.252232 0.886259 0.510216
0.251453 0.886549 0.508171
0.251041 0.886625 0.506294
0.251209 0.88632 0.504097
0.251637 0.885771 0.501442
0.255482 0.884749 0.499702
0.265629 0.882582 0.498207
0.276814 0.879789 0.49633
0.28278 0.876905 0.489982
0.290852 0.872358 0.480323
0.30277 0.866606 0.467292
0.313497 0.858763 0.446937
0.323919 0.849821 0.418585
0.332509 0.840742 0.384894
0.358389 0.827634 0.347936
0.43505 0.805661 0.327382
0.529961 0.78761 0.328054
0.597055 0.781796 0.326802
0.64155 0.786892 0.316976
0.675303 0.794263 0.317647
0.71194 0.803555 0.3243
0.751507 0.812131 0.329152
0.789258 0.820752 0.343313
0.809812 0.816876 0.359411
0.826993 0.821195 0.363836
0.831067 0.82208 0.364462
0.831846 0.821942 0.35993
0.832654 0.82211 0.348486
0.834195 0.823026 0.32668
0.837263 0.820874 0.299809
0.841077 0.811078 0.264576
0.84332 0.783871 0.216266
0.838834 0.666835 0.206928
0.262089 0.887449 0.524117
0.261082 0.887556 0.521813
0.259922 0.887633 0.519768
0.259586 0.887404 0.518059
0.259831 0.886992 0.515572
0.260533 0.886137 0.512261
0.262089 0.885191 0.508522
0.263539 0.883696 0.503594
0.280293 0.879652 0.501213
0.291752 0.875715 0.494972
0.301976 0.870237 0.483253
0.314778 0.863371 0.466453
0.326787 0.853635 0.440681
0.336522 0.842924 0.404501
0.349676 0.832319 0.367071
0.407889 0.813855 0.343481
0.502846 0.792782 0.339864
0.579797 0.78349 0.341985
0.628992 0.785046 0.33135
0.664729 0.792508 0.329046
0.699245 0.80058 0.333623
0.735073 0.80853 0.337133
0.771984 0.816739 0.343801
0.795239 0.815366 0.364996
0.820783 0.820096 0.368963
0.829023 0.822156 0.374014
0.830167 0.822538 0.374273
0.830427 0.822644 0.369955
0.831739 0.823026 0.358526
0.833234 0.823987 0.336782
0.834913 0.823606 0.318791
0.838422 0.819181 0.289021
0.838926 0.773388 0.234455
0.273777 0.888655 0.537346
0.273045 0.888609 0.535424
0.272419 0.888579 0.533608
0.272374 0.888487 0.53135
0.272343 0.888258 0.529274
0.27274 0.887449 0.526986
0.274006 0.886091 0.522698
0.275395 0.884504 0.517662
0.277485 0.8822 0.510857
0.289418 0.878416 0.506096
0.303563 0.873716 0.498299
0.315129 0.867475 0.484779
0.32987 0.858518 0.462989
0.341497 0.847288 0.431189
0.357946 0.834943 0.392477
0.390219 0.822614 0.367407
0.472374 0.800778 0.356451
0.555444 0.78735 0.355962
0.613962 0.785107 0.351034
0.652308 0.789853 0.344579
0.686046 0.797665 0.347509
0.722805 0.805982 0.35172
0.757534 0.813428 0.351278
0.788083 0.820294 0.360296
0.80856 0.817609 0.374975
0.827512 0.821698 0.379629
0.829587 0.82237 0.384527
0.829587 0.8224 0.383566
0.829694 0.822522 0.378012
0.830915 0.822843 0.363455
0.832746 0.823758 0.341161
0.834012 0.824628 0.328939
0.838468 0.817502 0.289677
0.288548 0.888472 0.549722
0.28777 0.888395 0.547601
0.287037 0.88835 0.54522
0.286549 0.888136 0.543465
0.285893 0.887968 0.541817
0.286198 0.887434 0.539559
0.286748 0.886442 0.535439
0.287312 0.885252 0.531121
0.289082 0.883726 0.525719
0.291096 0.881056 0.518044
0.301915 0.876814 0.510857
0.316777 0.870558 0.500648
