bundles/resolve-cinematic-luts/Phantom Luts/A7s3 Phntm Film LUTs - G6/SLog3/Vision A7s3-Legacy.cube
TITLE "Generated by Resolve"
LUT_3D_SIZE 5
0.0306096 0.0418402 0.0328679
0.0745403 0.0408789 0.0326543
0.371145 0.033463 0.0598154
0.771817 0.101106 0.326863
0.801251 0.157061 0.55024
0.0336767 0.104143 0.0485389
0.0736553 0.103929 0.037644
0.386084 0.0341039 0.0332189
0.773419 0.0989548 0.30428
0.8056 0.167971 0.554284
0.105013 0.516457 0.252995
0.111315 0.512886 0.223301
0.522286 0.532555 0.110094
0.792676 0.383017 0.215808
0.818326 0.22443 0.541039
0.324895 0.847791 0.564294
0.328405 0.844114 0.542382
0.484581 0.829664 0.449546
0.830488 0.842481 0.374655
0.848203 0.761349 0.127871
0.588342 0.870268 0.721706
0.546944 0.863859 0.691173
0.614664 0.868009 0.702754
0.781689 0.891386 0.744945
0.87657 0.901869 0.727001
0.0300298 0.0419776 0.0800031
0.0865797 0.0416114 0.072694
0.399115 0.0356909 0.106615
0.774945 0.113237 0.383856
0.81207 0.178393 0.583413
0.0272831 0.101076 0.0822919
0.0904402 0.104036 0.0926833
0.412421 0.0343633 0.0658274
0.774838 0.106249 0.348791
0.822965 0.258915 0.640879
0.10428 0.517739 0.284733
0.103822 0.506615 0.247456
0.507469 0.518257 0.111894
0.793942 0.357183 0.205844
0.830625 0.302159 0.640024
0.327611 0.850523 0.581643
0.328389 0.847898 0.561791
0.447791 0.83241 0.456382
0.828428 0.842359 0.373938
0.839567 0.70396 0.15491
0.591302 0.871473 0.726925
0.568231 0.867384 0.709102
0.622873 0.870146 0.714733
0.78056 0.890913 0.747219
0.876463 0.901778 0.726726
0.0511177 0.0618448 0.356176
0.107729 0.0471809 0.362387
0.405173 0.0450294 0.333135
0.778149 0.119219 0.542245
0.812009 0.208759 0.62417
0.0425116 0.0796979 0.378164
0.0631113 0.0692607 0.409598
0.426413 0.0480201 0.3514
0.777249 0.122576 0.528801
0.826627 0.301808 0.691173
0.033341 0.500511 0.49279
0.036286 0.495338 0.48748
0.525292 0.537728 0.515846
0.826276 0.250309 0.448508
0.856596 0.444053 0.772229
0.303883 0.858976 0.678431
0.31281 0.857252 0.659525
0.451057 0.848081 0.60061
0.818509 0.859358 0.546212
0.829862 0.624582 0.205493
0.573129 0.872755 0.739361
0.552117 0.869627 0.724483
0.620371 0.873747 0.734234
0.787839 0.894545 0.768734
0.875837 0.900954 0.724895
0.101259 0.143053 0.704677
0.161883 0.13254 0.704997
0.474479 0.0935225 0.647288
0.794171 0.150683 0.741711
0.807248 0.173037 0.767391
0.0867933 0.158679 0.7084
0.105409 0.1608 0.746334
0.482826 0.100649 0.690623
0.79556 0.1505 0.749615
0.817273 0.215351 0.784054
0.0568856 0.4963 0.785336
0.0716564 0.488441 0.79881
0.452399 0.456352 0.873289
0.81503 0.216327 0.770169
0.86833 0.467414 0.847791
0.192584 0.866926 0.882017
0.194522 0.860853 0.874739
0.31104 0.846937 0.852399
0.845701 0.876295 0.857496
0.858701 0.445289 0.771664
0.485801 0.887587 0.826749
0.474449 0.887007 0.817655
0.56968 0.892775 0.812497
0.801129 0.919387 0.845838
0.896315 0.938125 0.868666
0.101854 0.230686 0.792645
0.103426 0.213657 0.801678
0.409369 0.110048 0.74461
0.793652 0.142779 0.760571
0.802869 0.159319 0.771145
0.101991 0.247364 0.794827
0.113161 0.340307 0.844221
0.403571 0.226429 0.82623
0.801297 0.155459 0.769253
0.805158 0.162142 0.773587
0.0850538 0.555764 0.871092
0.0796826 0.578622 0.885649
0.253971 0.615732 0.910094
0.879866 0.569955 0.873671
0.807752 0.169116 0.776562
0.133715 0.853956 0.932723
0.127901 0.848798 0.932036
0.236225 0.835599 0.924758
0.801297 0.855543 0.940978
0.891386 0.57348 0.874617
0.430518 0.889982 0.91545
0.424964 0.889937 0.91606
0.541588 0.895277 0.910704
0.77438 0.92697 0.918318
0.914046 0.949981 0.932815
