bundles/resolve-cinematic-luts/Phantom Luts/A7s3 Phntm Film LUTs - G6/SLog3/VisionTeal A7s3-Legacy.cube
TITLE "Generated by Resolve"
LUT_3D_SIZE 5
0.0234531 0.0431983 0.0412757
0.080766 0.0370794 0.0389715
0.375204 0.026688 0.0643778
0.760128 0.0890822 0.339956
0.791287 0.14139 0.594583
0.0227054 0.1066 0.0452735
0.0831311 0.100923 0.0438697
0.392767 0.0204318 0.0299229
0.76257 0.0887312 0.318456
0.795193 0.152621 0.594034
0.0913252 0.518975 0.206821
0.0993973 0.510475 0.169177
0.506233 0.505501 0.114229
0.818051 0.42118 0.22443
0.804578 0.208789 0.562875
0.262089 0.887449 0.524117
0.280293 0.879652 0.501213
0.502846 0.792782 0.339864
0.820783 0.820096 0.368963
0.838926 0.773388 0.234455
0.555047 0.878004 0.680735
0.505501 0.873228 0.645396
0.568048 0.866773 0.640253
0.783551 0.865965 0.683207
0.880323 0.876631 0.707073
0.0215 0.0490272 0.0885176
0.0843214 0.0395972 0.0937667
0.399481 0.0282597 0.120974
0.760296 0.102068 0.407263
0.806195 0.175082 0.647395
0.0202792 0.10399 0.084184
0.0834211 0.105592 0.100313
0.411276 0.0289921 0.074403
0.761837 0.0938582 0.361166
0.815641 0.243153 0.68542
0.0615396 0.525765 0.236088
0.0852674 0.510613 0.205905
0.49041 0.491951 0.11545
0.817151 0.393835 0.214359
0.821256 0.287602 0.671687
0.263645 0.892866 0.547402
0.263539 0.888762 0.524208
0.45124 0.803998 0.34995
0.818753 0.819684 0.368063
0.836866 0.729915 0.215885
0.559747 0.879179 0.687938
0.531594 0.876524 0.668269
0.576425 0.870924 0.654994
0.780392 0.866117 0.68455
0.88014 0.876524 0.706538
0.0192569 0.0949722 0.35201
0.0599374 0.0805829 0.38941
0.396719 0.0359503 0.37969
0.770169 0.103456 0.600427
0.810162 0.213916 0.694453
0.0193942 0.114488 0.361059
0.0194247 0.105501 0.405737
0.417624 0.0383001 0.399191
0.768322 0.105119 0.578882
0.820386 0.280507 0.734401
0.0471351 0.526329 0.447822
0.0480354 0.520867 0.444266
0.541543 0.534035 0.505745
0.800641 0.226993 0.453452
0.846204 0.422736 0.797894
0.289586 0.901518 0.664469
0.286519 0.900587 0.646357
0.400778 0.860273 0.541939
0.809094 0.82565 0.510292
0.840208 0.672786 0.210529
0.555261 0.883772 0.709758
0.527733 0.882216 0.693523
0.585626 0.879683 0.694377
0.781659 0.874174 0.711742
0.879072 0.875868 0.703578
0.0195315 0.216907 0.672786
0.0195773 0.201678 0.699748
0.423346 0.0749676 0.709606
0.787961 0.137789 0.82208
0.798993 0.16434 0.842786
0.0195163 0.233707 0.663096
0.019501 0.238499 0.708278
0.424155 0.0835889 0.751675
0.788342 0.139574 0.828962
0.809018 0.208377 0.85388
0.0206455 0.556664 0.715282
0.0204471 0.549218 0.727871
0.372854 0.508049 0.851591
0.807248 0.206455 0.838956
0.851057 0.449805 0.884855
0.245426 0.923003 0.845304
0.24654 0.917021 0.841749
0.337255 0.891417 0.825605
0.861006 0.872251 0.850553
0.836561 0.363195 0.798489
0.50103 0.908919 0.797772
0.487877 0.909285 0.791043
0.583749 0.906004 0.791211
0.798413 0.918639 0.825925
0.917006 0.927886 0.846159
0.0197147 0.313283 0.737682
0.0195468 0.298894 0.752773
0.308965 0.100649 0.794766
0.784848 0.135775 0.839673
0.794308 0.153536 0.84828
0.0199893 0.3299 0.735927
0.0204166 0.428367 0.776303
0.313146 0.296178 0.839384
0.79237 0.149538 0.846799
0.795956 0.156313 0.849439
0.0208591 0.627985 0.803861
0.0209506 0.653742 0.818311
0.175662 0.687129 0.858015
0.865156 0.552758 0.907103
0.798535 0.163684 0.85214
0.163531 0.934249 0.895674
0.159823 0.930663 0.897063
0.254292 0.900114 0.892317
0.807065 0.861357 0.924224
0.876783 0.554299 0.907927
0.446403 0.92607 0.867796
0.441184 0.926711 0.867994
0.555718 0.920562 0.86865
0.789456 0.933288 0.898802
0.933776 0.94519 0.927108
