bundles/resolve-cinematic-luts/Phantom Luts/A7s3 Phntm Film LUTs - G6/SLog3/Vision A7s3-Legacy.cube
TITLE "Generated by Resolve"
LUT_3D_SIZE 9
0.0306096 0.0418402 0.0328679
0.032578 0.042298 0.0333104
0.0745403 0.0408789 0.0326543
0.195148 0.0391394 0.035874
0.371145 0.033463 0.0598154
0.576226 0.0529946 0.150759
0.771817 0.101106 0.326863
0.78262 0.142199 0.454246
0.801251 0.157061 0.55024
0.0305791 0.048127 0.0344701
0.0340276 0.0478981 0.0344244
0.0780652 0.0421912 0.0321202
0.203891 0.0408331 0.0342412
0.382727 0.0335088 0.0514992
0.588434 0.0539101 0.14519
0.772259 0.100801 0.322362
0.782315 0.141649 0.452277
0.804456 0.160876 0.552895
0.0336767 0.104143 0.0485389
0.0344396 0.100511 0.0433356
0.0736553 0.103929 0.037644
0.222095 0.0630961 0.0361944
0.386084 0.0341039 0.0332189
0.608133 0.0546731 0.127199
0.773419 0.0989548 0.30428
0.781689 0.140352 0.442237
0.8056 0.167971 0.554284
0.0377966 0.255528 0.0914778
0.0400854 0.253132 0.0845655
0.0508431 0.254368 0.0684825
0.252689 0.275654 0.0422827
0.526833 0.197543 0.0971695
0.663493 0.125368 0.0861677
0.777661 0.0910048 0.215808
0.781994 0.129107 0.40943
0.808454 0.182544 0.550927
0.105013 0.516457 0.252995
0.105394 0.513466 0.242481
0.111315 0.512886 0.223301
0.198535 0.517906 0.179721
0.522286 0.532555 0.110094
0.766857 0.49015 0.222232
0.792676 0.383017 0.215808
0.803006 0.112413 0.128954
0.818326 0.22443 0.541039
0.243137 0.771298 0.460914
0.240803 0.767178 0.449042
0.245319 0.764218 0.431189
0.259098 0.757946 0.369345
0.485222 0.766659 0.345022
0.740871 0.785245 0.278935
0.84683 0.754681 0.191211
0.829526 0.661021 0.183139
0.831342 0.300618 0.272251
0.324895 0.847791 0.564294
0.325353 0.846799 0.555474
0.328405 0.844114 0.542382
0.336126 0.836988 0.49659
0.484581 0.829664 0.449546
0.644053 0.844785 0.411902
0.830488 0.842481 0.374655
0.840787 0.840497 0.353307
0.848203 0.761349 0.127871
0.378225 0.851713 0.608515
0.375158 0.851759 0.601633
0.376501 0.850889 0.592767
0.393149 0.845899 0.573709
0.496361 0.844877 0.559319
0.648737 0.851774 0.563684
0.779202 0.859602 0.499901
0.846555 0.855573 0.506859
0.841093 0.840238 0.343572
0.588342 0.870268 0.721706
0.553414 0.865492 0.698039
0.546944 0.863859 0.691173
0.566278 0.864378 0.692164
0.614664 0.868009 0.702754
0.694347 0.876585 0.724544
0.781689 0.891386 0.744945
0.851514 0.897902 0.713924
0.87657 0.901869 0.727001
0.0300603 0.0419013 0.0350958
0.0347601 0.0422065 0.0362249
0.0882734 0.0400549 0.0390784
0.220615 0.0334936 0.0388495
0.40145 0.0339361 0.0718242
0.604242 0.0573892 0.17525
0.774258 0.102602 0.339712
0.786725 0.142916 0.462196
0.805737 0.160235 0.557565
0.0303655 0.0475776 0.036759
0.0349279 0.0471809 0.0376745
0.0941634 0.0411994 0.0345006
0.216419 0.038529 0.0362707
0.387274 0.0332647 0.0567025
0.597238 0.0545663 0.153948
0.775143 0.100954 0.329305
0.787198 0.142931 0.459968
0.807034 0.164904 0.559457
0.0330053 0.104982 0.057496
0.0338445 0.103151 0.0486763
0.0729381 0.102754 0.0377661
0.227527 0.0605631 0.0366674
0.398703 0.0322881 0.0372168
0.613138 0.0556649 0.130449
0.775036 0.0998856 0.313771
0.784405 0.142336 0.454673
0.808698 0.175158 0.564752
0.0368353 0.256703 0.0990005
0.0380865 0.254597 0.0916915
0.0448768 0.251392 0.0701762
0.249271 0.272725 0.0421759
0.526314 0.192737 0.09691
0.660777 0.114702 0.0840925
0.777676 0.0928206 0.235996
0.783856 0.138888 0.432929
0.813962 0.203342 0.577371
0.104173 0.516243 0.261921
0.103975 0.514427 0.25098
0.109483 0.511009 0.228443
0.17998 0.515587 0.179751
0.519738 0.530022 0.110338
0.768719 0.485313 0.226246
0.793973 0.367468 0.209949
0.807019 0.123949 0.244907
0.826291 0.262135 0.599405
0.24184 0.770382 0.468269
0.240345 0.769772 0.45803
0.24361 0.76553 0.441184
0.255238 0.757809 0.381338
0.476005 0.763622 0.349508
0.738277 0.782879 0.27599
0.845701 0.749126 0.19527
0.826429 0.641276 0.202228
0.840711 0.334325 0.536797
0.326375 0.848768 0.570245
0.323781 0.848188 0.562341
0.327703 0.845319 0.549081
0.335653 0.83888 0.506889
0.47068 0.830198 0.449546
0.638514 0.844129 0.413794
0.829374 0.842481 0.374166
0.840681 0.84033 0.351156
0.840818 0.716747 0.148745
0.377157 0.851804 0.612558
0.374456 0.851957 0.605982
0.376257 0.851453 0.598169
0.391424 0.847013 0.578027
0.48986 0.844968 0.561379
0.645426 0.851179 0.566323
0.77528 0.859388 0.500954
0.846189 0.854948 0.503288
0.841077 0.840192 0.343465
0.595666 0.871519 0.727184
0.575647 0.868803 0.714015
0.568994 0.867002 0.707179
0.580224 0.866804 0.704158
0.624216 0.870054 0.713802
0.696513 0.87744 0.730617
0.78143 0.891173 0.746929
0.850416 0.898436 0.716136
0.876631 0.902083 0.727749
0.0300298 0.0419776 0.0800031
0.0405737 0.0422217 0.0790417
0.0865797 0.0416114 0.072694
0.2121 0.0381933 0.0902113
0.399115 0.0356909 0.106615
0.632395 0.0664988 0.228733
0.774945 0.113237 0.383856
0.788327 0.141146 0.494911
0.81207 0.178393 0.583413
0.0275578 0.0453956 0.0680247
0.0310216 0.0425269 0.0853895
0.0887465 0.0417182 0.0748455
0.215976 0.0358129 0.073579
0.402106 0.0348974 0.0893873
0.63331 0.0646067 0.213413
0.775769 0.111269 0.375906
0.788693 0.141482 0.494438
0.817014 0.221332 0.614389
0.0272831 0.101076 0.0822919
0.0278172 0.100877 0.082475
0.0904402 0.104036 0.0926833
0.275044 0.0534981 0.0574655
0.412421 0.0343633 0.0658274
0.630854 0.0614786 0.1794
0.774838 0.106249 0.348791
0.786877 0.143267 0.483009
0.822965 0.258915 0.640879
0.0317693 0.258381 0.119631
0.034287 0.256764 0.112978
0.0447089 0.250797 0.0946059
0.242267 0.270695 0.0589151
0.496727 0.186496 0.102434
0.680644 0.0785229 0.0944839
0.777813 0.0965286 0.271534
0.785962 0.144747 0.46125
0.823651 0.273686 0.642969
0.10428 0.517739 0.284733
0.102556 0.513237 0.270253
0.103822 0.506615 0.247456
0.142077 0.503304 0.181872
0.507469 0.518257 0.111894
0.762829 0.473899 0.235279
0.793942 0.357183 0.205844
0.799344 0.128862 0.337087
0.830625 0.302159 0.640024
0.238544 0.767926 0.478523
0.237156 0.766735 0.469017
0.239719 0.763058 0.453971
0.24918 0.751003 0.394156
0.461646 0.756115 0.359182
0.730053 0.775601 0.274235
0.843595 0.739391 0.224445
0.824262 0.630701 0.212207
0.847395 0.3682 0.559136
0.327611 0.850523 0.581643
0.32546 0.850324 0.573785
0.328389 0.847898 0.561791
0.341054 0.840482 0.526207
0.447791 0.83241 0.456382
0.632151 0.843412 0.422492
0.828428 0.842359 0.373938
0.841031 0.840803 0.357443
0.839567 0.70396 0.15491
0.374762 0.852125 0.617411
0.371405 0.852705 0.611505
0.376059 0.851652 0.604669
0.390448 0.848356 0.584344
0.484718 0.845396 0.567407
0.644358 0.851194 0.575067
0.771496 0.860334 0.510887
0.845991 0.854551 0.499321
0.841062 0.840223 0.344045
0.591302 0.871473 0.726925
0.57055 0.868589 0.71252
0.568231 0.867384 0.709102
0.578225 0.867109 0.706538
0.622873 0.870146 0.714733
0.693629 0.876982 0.729656
0.78056 0.890913 0.747219
0.849729 0.898863 0.716976
0.876463 0.901778 0.726726
0.0373388 0.0476234 0.191546
0.0486 0.046128 0.193942
0.0969253 0.043595 0.181933
0.217395 0.0370642 0.165301
0.396353 0.0430457 0.21326
0.631525 0.0888838 0.32961
0.777493 0.130159 0.433433
0.788525 0.139406 0.50988
0.813245 0.197192 0.601526
0.0347601 0.0488899 0.18999
0.0385138 0.0484016 0.205203
0.0890669 0.0437629 0.200565
0.218952 0.0370794 0.1673
0.395102 0.0432746 0.207233
0.630762 0.0818952 0.307866
0.777798 0.126146 0.422141
0.789181 0.139757 0.512108
0.815305 0.212528 0.611948
0.0286412 0.0919509 0.205646
0.0310369 0.0880446 0.218738
0.0666361 0.0746624 0.253101
0.244251 0.0403754 0.187076
0.398764 0.0450294 0.198032
0.663996 0.0800641 0.290776
0.777111 0.127138 0.421164
0.789303 0.141604 0.520333
0.824216 0.28011 0.663447
0.0189517 0.244419 0.218662
0.0189212 0.244053 0.218814
0.0223392 0.241932 0.217166
0.275364 0.292195 0.267323
0.556069 0.180896 0.214069
0.682246 0.0748455 0.205982
0.775814 0.111238 0.363882
0.790967 0.148363 0.508186
0.831449 0.339452 0.697337
0.0856489 0.517205 0.352636
0.0863813 0.514748 0.342229
0.0943008 0.509453 0.322545
0.133883 0.499046 0.263188
0.501259 0.521798 0.210559
0.735302 0.463813 0.280156
0.809171 0.299214 0.214847
0.800687 0.156435 0.419211
0.836744 0.364355 0.693614
0.225757 0.76408 0.517708
0.227878 0.763317 0.508278
0.237888 0.759854 0.493645
0.249973 0.746029 0.448661
0.426123 0.748745 0.385595
0.710185 0.757504 0.286366
0.838987 0.719524 0.291005
0.821225 0.611994 0.229541
0.850202 0.388098 0.631113
0.325826 0.851804 0.608789
0.326787 0.852445 0.601755
0.334951 0.851911 0.592294
0.346471 0.846723 0.563531
0.41854 0.836896 0.494087
0.626108 0.844099 0.464469
0.823713 0.844739 0.392691
0.842054 0.839719 0.37731
0.834821 0.658473 0.187457
0.370626 0.853223 0.634287
0.367391 0.853361 0.628199
0.370153 0.853071 0.621012
0.391043 0.851774 0.606271
0.478599 0.848112 0.588922
0.645045 0.853895 0.603479
0.766812 0.864454 0.544778
0.845853 0.854032 0.495491
0.841001 0.840299 0.345174
0.585016 0.871519 0.729854
0.562982 0.868315 0.715373
0.560708 0.868086 0.711345
0.577111 0.868437 0.712917
0.623972 0.871107 0.720668
0.6925 0.877333 0.733654
0.781018 0.89099 0.750942
0.848981 0.900618 0.722972
0.876051 0.90103 0.72491
0.0511177 0.0618448 0.356176
0.0682689 0.0593118 0.35935
0.107729 0.0471809 0.362387
0.234928 0.0444038 0.322515
0.405173 0.0450294 0.333135
0.642329 0.0852216 0.432593
0.778149 0.119219 0.542245
0.791882 0.142397 0.574701
0.812009 0.208759 0.62417
0.0475624 0.0636454 0.36228
0.0543832 0.0632792 0.368261
0.0990921 0.0543679 0.373877
0.229419 0.0439307 0.328588
0.405753 0.0451514 0.333669
0.637018 0.0836347 0.425635
0.778454 0.119646 0.536797
0.792981 0.141649 0.571756
0.820645 0.252216 0.656504
0.0425116 0.0796979 0.378164
0.0437781 0.0783093 0.389746
0.0631113 0.0692607 0.409598
0.230686 0.0466926 0.374929
0.426413 0.0480201 0.3514
0.639277 0.0838636 0.424033
0.777249 0.122576 0.528801
0.792355 0.142153 0.567422
0.826627 0.301808 0.691173
0.0220645 0.22533 0.417411
0.0256809 0.22208 0.426795
0.0327001 0.207523 0.442924
0.208225 0.197818 0.503304
0.511025 0.131167 0.433921
0.66482 0.093492 0.432242
0.7785 0.129442 0.498787
0.801038 0.16527 0.579828
0.838056 0.363088 0.731197
0.033341 0.500511 0.49279
0.0335699 0.498894 0.491142
0.036286 0.495338 0.48748
0.0571756 0.488792 0.478828
0.525292 0.537728 0.515846
0.803937 0.44799 0.476738
0.826276 0.250309 0.448508
0.801312 0.167041 0.52433
0.856596 0.444053 0.772229
0.154437 0.75761 0.604913
0.157763 0.756176 0.597177
0.171466 0.750805 0.584527
0.217426 0.73817 0.551049
0.447166 0.745144 0.540581
0.702617 0.75378 0.49398
0.836805 0.714 0.504417
0.818051 0.567117 0.394903
0.851423 0.435096 0.709041
0.303883 0.858976 0.678431
0.304448 0.858793 0.669947
0.31281 0.857252 0.659525
0.341024 0.852903 0.632837
0.451057 0.848081 0.60061
0.661631 0.854932 0.614755
0.818509 0.859358 0.546212
0.850645 0.843595 0.501015
0.829862 0.624582 0.205493
0.357183 0.858534 0.678065
0.353964 0.858457 0.670604
0.358923 0.857389 0.662058
0.381521 0.855619 0.646922
0.495964 0.85684 0.644724
0.653666 0.863233 0.66273
0.769207 0.876295 0.631815
0.854047 0.866072 0.578149
0.841779 0.843732 0.394949
0.573129 0.872755 0.739361
0.552178 0.870008 0.727275
0.552117 0.869627 0.724483
0.568887 0.870542 0.725414
0.620371 0.873747 0.734234
0.698085 0.880278 0.74992
0.787839 0.894545 0.768734
0.849653 0.907317 0.746715
0.875837 0.900954 0.724895
0.0812695 0.0916609 0.529641
0.101778 0.0883955 0.534096
0.142504 0.0792248 0.531365
0.266255 0.0576638 0.502571
0.437064 0.0774395 0.485237
0.646265 0.093431 0.550637
0.79498 0.156863 0.661387
0.800336 0.152361 0.705699
0.811826 0.188632 0.707225
0.0745861 0.0942245 0.53518
0.0824445 0.0924086 0.535622
0.122301 0.0855726 0.539681
0.255222 0.0584573 0.51548
0.431357 0.0765393 0.484016
0.644343 0.0927749 0.548852
0.79498 0.159167 0.657969
0.800748 0.152895 0.703975
0.819043 0.221653 0.722118
0.0613565 0.110948 0.561929
0.062501 0.110491 0.57052
0.0922408 0.104341 0.58674
0.236347 0.0619974 0.558206
0.471153 0.0897536 0.537255
0.654292 0.0950179 0.55761
0.793667 0.15758 0.661463
0.801129 0.154726 0.707637
0.836347 0.304967 0.760876
0.0594797 0.214939 0.591211
0.0604715 0.209583 0.596139
0.0650034 0.200778 0.615457
0.160632 0.167285 0.657511
0.457496 0.102617 0.576608
0.708553 0.113649 0.603296
0.792844 0.15964 0.658824
0.801373 0.160204 0.703746
0.856031 0.413657 0.792187
0.0204929 0.485939 0.652705
0.0204471 0.481941 0.655421
0.0201114 0.476234 0.663371
0.0273747 0.459556 0.6851
0.479454 0.465827 0.756909
0.780484 0.424781 0.703807
0.810513 0.237903 0.66006
0.800244 0.180713 0.662425
0.867704 0.475105 0.809903
0.0887922 0.736355 0.7393
0.0888228 0.73492 0.737041
0.0948959 0.73019 0.732464
0.115679 0.721386 0.722026
0.358785 0.728206 0.716533
0.725612 0.745846 0.726864
0.901961 0.68484 0.702419
0.875639 0.514672 0.657374
0.862058 0.468162 0.775601
0.207889 0.872847 0.799527
0.205524 0.872328 0.792828
0.211322 0.869429 0.782605
0.240421 0.863035 0.757946
0.385672 0.852842 0.714488
0.6963 0.861372 0.745388
0.825345 0.872068 0.719524
0.891142 0.846265 0.694484
0.875914 0.571328 0.547158
0.27985 0.878431 0.77995
0.27985 0.878096 0.77232
0.290944 0.875944 0.760906
0.323919 0.871656 0.740688
0.473396 0.866957 0.723461
0.682795 0.880125 0.750652
0.796521 0.898299 0.762921
0.876356 0.902373 0.730694
0.86482 0.882307 0.658686
0.538506 0.879301 0.767559
0.522164 0.876585 0.758434
0.528572 0.876158 0.755764
0.552743 0.87686 0.756619
0.609232 0.880446 0.764141
0.700603 0.888411 0.779736
0.799481 0.904845 0.804181
0.855833 0.921691 0.799725
0.881376 0.913817 0.769863
0.101259 0.143053 0.704677
0.121431 0.139712 0.704753
0.161883 0.13254 0.704997
0.279835 0.0803693 0.675212
0.474479 0.0935225 0.647288
0.647944 0.119768 0.655436
0.794171 0.150683 0.741711
0.802396 0.159258 0.768704
0.807248 0.173037 0.767391
0.0959793 0.144579 0.702174
0.102358 0.14258 0.704509
0.142351 0.137331 0.708354
0.260731 0.0791638 0.676387
0.475059 0.0946517 0.655314
0.646799 0.120333 0.655543
0.793942 0.150729 0.74049
0.80235 0.159304 0.768048
0.807233 0.172488 0.766415
0.0867933 0.158679 0.7084
0.088365 0.15906 0.716793
0.105409 0.1608 0.746334
0.245212 0.118639 0.71397
0.482826 0.100649 0.690623
0.670054 0.128603 0.680995
0.79556 0.1505 0.749615
0.804654 0.16112 0.772564
0.817273 0.215351 0.784054
0.0839246 0.236469 0.715023
0.0852674 0.231586 0.718959
0.0895552 0.2271 0.740093
0.135103 0.206378 0.780804
0.43772 0.11603 0.719799
0.729183 0.152361 0.738918
0.796994 0.150393 0.757305
0.805249 0.162921 0.773526
0.844388 0.350347 0.821622
0.0568856 0.4963 0.785336
0.0621958 0.492424 0.789029
0.0716564 0.488441 0.79881
0.0999771 0.467369 0.821393
0.452399 0.456352 0.873289
0.75584 0.408194 0.821973
0.81503 0.216327 0.770169
0.804471 0.162753 0.769558
0.86833 0.467414 0.847791
0.0341344 0.716533 0.828534
0.0323186 0.712657 0.828534
0.0307774 0.708415 0.829068
0.0279698 0.696147 0.831632
0.235447 0.7037 0.864485
0.697749 0.701793 0.888411
0.896544 0.681941 0.855253
0.877317 0.510506 0.832609
0.864607 0.452735 0.8318
0.192584 0.866926 0.882017
0.190997 0.865034 0.879622
0.194522 0.860853 0.874739
0.214618 0.854109 0.865538
0.31104 0.846937 0.852399
0.639506 0.862745 0.850492
0.845701 0.876295 0.857496
0.916976 0.838758 0.843122
0.858701 0.445289 0.771664
0.254429 0.889998 0.873075
0.251621 0.889769 0.869001
0.254917 0.889357 0.863966
0.271519 0.88864 0.853208
0.385321 0.885817 0.832822
0.628962 0.899474 0.821134
0.82179 0.923568 0.852979
0.890623 0.935821 0.858122
0.887617 0.924529 0.820645
0.485801 0.887587 0.826749
0.466178 0.886763 0.821805
0.474449 0.887007 0.817655
0.504921 0.88835 0.814237
0.56968 0.892775 0.812497
0.67451 0.902251 0.817655
0.801129 0.919387 0.845838
0.883619 0.935729 0.87451
0.896315 0.938125 0.868666
0.0999619 0.191714 0.78587
0.101442 0.189136 0.792844
0.118807 0.180087 0.794934
0.25214 0.136873 0.764904
0.480415 0.106783 0.732143
0.682322 0.15552 0.746532
0.796063 0.145571 0.762661
0.80116 0.154849 0.769177
0.806516 0.16669 0.77525
0.0989548 0.18912 0.780499
0.0997482 0.189609 0.784848
0.108782 0.184924 0.796078
0.234012 0.143755 0.770932
0.471687 0.106584 0.732799
0.69427 0.160296 0.74992
0.795666 0.145617 0.761273
0.80116 0.154849 0.769177
0.80618 0.166354 0.77499
0.096376 0.197726 0.770184
0.0977493 0.198596 0.774914
0.101656 0.203998 0.793942
0.155978 0.172366 0.790677
0.441855 0.106767 0.73637
0.730571 0.15993 0.756558
0.79617 0.146349 0.763561
0.801465 0.156039 0.769467
0.808759 0.172808 0.778286
0.0998093 0.292866 0.790692
0.101213 0.291508 0.79559
0.106264 0.302281 0.815076
0.112047 0.289937 0.829862
0.431907 0.200473 0.808072
0.702586 0.186114 0.763363
0.799512 0.152102 0.767025
0.80209 0.157733 0.770443
0.82533 0.245167 0.799084
0.087541 0.519249 0.844648
0.0923629 0.51696 0.847669
0.0999008 0.516884 0.858839
0.118669 0.504387 0.880369
0.415091 0.492332 0.899565
0.732998 0.452964 0.85359
0.831434 0.283864 0.80679
0.802518 0.158358 0.770825
0.85095 0.381781 0.829572
0.0218509 0.722301 0.875654
0.0213626 0.720043 0.877089
0.0211185 0.71632 0.87924
0.0212711 0.706142 0.884062
0.211017 0.70547 0.914046
0.67274 0.701396 0.935012
0.881285 0.679835 0.90135
0.882063 0.52845 0.863416
0.838254 0.318471 0.815122
0.163958 0.857679 0.920195
0.157916 0.85478 0.919356
0.155688 0.851514 0.918441
0.167132 0.846159 0.918074
0.249424 0.834638 0.916655
0.607538 0.842954 0.927855
0.824491 0.852644 0.940063
0.912261 0.826185 0.920195
0.853773 0.396704 0.833005
0.276783 0.890532 0.916808
0.273838 0.890593 0.916426
0.274571 0.890471 0.914946
0.282734 0.889799 0.911925
0.370306 0.890822 0.908415
0.609979 0.90341 0.901518
0.793759 0.929091 0.91249
0.907515 0.943725 0.92726
0.9122 0.935454 0.926955
0.444099 0.892699 0.891798
0.425422 0.892226 0.889296
0.437675 0.89221 0.887282
0.476112 0.89276 0.884672
0.546441 0.897093 0.882246
0.6486 0.907485 0.88249
0.784695 0.928466 0.895277
0.890837 0.946334 0.920043
0.918029 0.947982 0.928817
0.101854 0.230686 0.792645
0.102327 0.221103 0.794827
0.103426 0.213657 0.801678
0.117128 0.184695 0.796048
0.409369 0.110048 0.74461
0.709789 0.171801 0.755734
0.793652 0.142779 0.760571
0.79794 0.149126 0.765362
0.802869 0.159319 0.771145
0.100526 0.216037 0.788296
0.101656 0.219287 0.79086
0.103166 0.213611 0.800549
0.113939 0.185458 0.796094
0.403586 0.10901 0.74435
0.704921 0.171954 0.755505
0.793332 0.142306 0.760204
0.797909 0.149096 0.765316
0.802701 0.159106 0.770993
0.101991 0.247364 0.794827
0.103212 0.254658 0.799771
0.113161 0.340307 0.844221
0.112154 0.306188 0.835065
0.403571 0.226429 0.82623
0.663249 0.174868 0.760616
0.801297 0.155459 0.769253
0.798093 0.149706 0.765621
0.805158 0.162142 0.773587
0.11078 0.374563 0.836255
0.112505 0.381109 0.841566
0.120104 0.433021 0.866545
0.126436 0.47274 0.883436
0.378164 0.449241 0.890837
0.70692 0.408164 0.844923
0.81944 0.221378 0.791897
0.798352 0.150423 0.766003
0.805966 0.165637 0.774792
0.0850538 0.555764 0.871092
0.0857557 0.558907 0.875013
0.0796826 0.578622 0.885649
0.0751049 0.593179 0.89543
0.253971 0.615732 0.910094
0.676432 0.613123 0.921996
0.879866 0.569955 0.873671
0.808667 0.172976 0.77821
0.807752 0.169116 0.776562
0.0218662 0.736141 0.898131
0.0216831 0.736721 0.899641
0.0216373 0.737575 0.902495
0.0213016 0.734157 0.906798
0.125658 0.739574 0.915511
0.619867 0.747585 0.932967
0.8448 0.73315 0.918975
0.903456 0.646174 0.892866
0.807919 0.169574 0.776776
0.133715 0.853956 0.932723
0.125566 0.851438 0.931899
0.127901 0.848798 0.932036
0.142245 0.845014 0.930358
0.236225 0.835599 0.924758
0.594644 0.844923 0.928801
0.801297 0.855543 0.940978
0.911864 0.834913 0.923613
0.891386 0.57348 0.874617
0.283268 0.887327 0.925948
0.27924 0.886183 0.926101
0.278752 0.885176 0.925795
0.288182 0.884413 0.925338
0.34902 0.885435 0.92137
0.590127 0.894881 0.912413
0.775158 0.921386 0.92282
0.895323 0.940246 0.932738
0.910948 0.918303 0.93283
0.430518 0.889982 0.91545
0.411795 0.88957 0.916426
0.424964 0.889937 0.91606
0.469337 0.891035 0.913497
0.541588 0.895277 0.910704
0.642573 0.905669 0.911406
0.77438 0.92697 0.918318
0.884932 0.947234 0.931243
0.914046 0.949981 0.932815
