bundles/resolve-cinematic-luts/Phantom Luts/A7s3 Phntm Film LUTs - G6/SLog3/VisionTeal A7s3-Legacy.cube
TITLE "Generated by Resolve"
LUT_3D_SIZE 9
0.0234531 0.0431983 0.0412757
0.0268864 0.0433051 0.0418402
0.080766 0.0370794 0.0389715
0.205493 0.0293126 0.040528
0.375204 0.026688 0.0643778
0.566018 0.0397498 0.154086
0.760128 0.0890822 0.339956
0.769116 0.119768 0.466896
0.791287 0.14139 0.594583
0.023743 0.0496681 0.0412451
0.0294194 0.0488289 0.0416571
0.0805676 0.0406653 0.0391852
0.213092 0.0287938 0.0362249
0.387686 0.0274357 0.0578012
0.578286 0.0421607 0.14992
0.760601 0.0890822 0.335851
0.768536 0.11899 0.464561
0.793118 0.145113 0.596704
0.0227054 0.1066 0.0452735
0.0241245 0.102831 0.0396582
0.0831311 0.100923 0.0438697
0.236362 0.0624247 0.0363165
0.392767 0.0204318 0.0299229
0.59823 0.0456397 0.135576
0.76257 0.0887312 0.318456
0.767544 0.118715 0.453513
0.795193 0.152621 0.594034
0.0216831 0.25861 0.0712749
0.0239414 0.25452 0.0637827
0.0421607 0.251545 0.0475319
0.245228 0.261952 0.0446021
0.545327 0.209888 0.0920424
0.666041 0.119142 0.0906386
0.768215 0.087602 0.236439
0.76733 0.11841 0.428702
0.798688 0.164797 0.584115
0.0913252 0.518975 0.206821
0.0894026 0.515297 0.197208
0.0993973 0.510475 0.169177
0.203372 0.491188 0.115648
0.506233 0.505501 0.114229
0.790631 0.530205 0.229938
0.818051 0.42118 0.22443
0.796368 0.0944991 0.13785
0.804578 0.208789 0.562875
0.203113 0.798383 0.416236
0.203143 0.794781 0.407233
0.219089 0.78558 0.383825
0.253529 0.760693 0.294942
0.549477 0.718898 0.24712
0.727642 0.750332 0.269612
0.835538 0.763973 0.260227
0.834165 0.696468 0.212421
0.821103 0.307393 0.27538
0.262089 0.887449 0.524117
0.259831 0.886992 0.515572
0.280293 0.879652 0.501213
0.326787 0.853635 0.440681
0.502846 0.792782 0.339864
0.699245 0.80058 0.333623
0.820783 0.820096 0.368963
0.831739 0.823026 0.358526
0.838926 0.773388 0.234455
0.325536 0.88365 0.570367
0.317296 0.885359 0.564019
0.320165 0.882078 0.549813
0.349111 0.867094 0.519539
0.479088 0.821561 0.46511
0.656214 0.807157 0.465171
0.783444 0.822095 0.446998
0.8336 0.828321 0.480842
0.831846 0.82327 0.352346
0.555047 0.878004 0.680735
0.513207 0.874998 0.654841
0.505501 0.873228 0.645396
0.521584 0.870665 0.640146
0.568048 0.866773 0.640253
0.663508 0.861234 0.654414
0.783551 0.865965 0.683207
0.8551 0.869688 0.6851
0.880323 0.876631 0.707073
0.0225223 0.0439307 0.0455634
0.0287022 0.0434882 0.0464332
0.0861982 0.0382239 0.0534981
0.221881 0.0308385 0.0536049
0.399252 0.0283818 0.0832227
0.587228 0.0451514 0.186709
0.761532 0.0919051 0.358709
0.772763 0.119509 0.47985
0.795499 0.146044 0.605158
0.0229191 0.049012 0.0456245
0.0282444 0.0485389 0.0466468
0.0932631 0.0390478 0.0443122
0.215106 0.0315709 0.0463722
0.383673 0.0287022 0.0683909
0.579171 0.0428016 0.165896
0.762448 0.0907301 0.349493
0.773129 0.11989 0.479545
0.800046 0.156298 0.617121
0.0221256 0.107805 0.0572824
0.0220645 0.106004 0.0463264
0.0813458 0.100008 0.0446632
0.238132 0.0594339 0.0378576
0.400519 0.0225681 0.0403143
0.599283 0.0466011 0.142046
0.763272 0.090013 0.330648
0.770977 0.119295 0.470268
0.803189 0.167559 0.621241
0.0188602 0.260899 0.0758831
0.018677 0.257816 0.0699474
0.0338445 0.249134 0.0487526
0.242069 0.259678 0.0446632
0.543099 0.204639 0.091783
0.658686 0.105852 0.0864271
0.768536 0.0886854 0.256214
0.770535 0.121782 0.449393
0.807111 0.195651 0.627298
0.0861677 0.520836 0.217121
0.0854505 0.518273 0.207858
0.0959029 0.510063 0.17821
0.17734 0.491661 0.114076
0.502144 0.502907 0.114961
0.792706 0.524361 0.234943
0.817609 0.4047 0.218418
0.796033 0.129183 0.268849
0.815076 0.247562 0.630854
0.172335 0.801785 0.419837
0.186969 0.800778 0.417029
0.211398 0.790295 0.39707
0.247272 0.764355 0.313756
0.537865 0.716823 0.25153
0.725536 0.748165 0.26688
0.835538 0.759533 0.259953
0.832685 0.680659 0.214878
0.821149 0.327504 0.535271
0.26305 0.889845 0.532982
0.257832 0.890211 0.526009
0.263737 0.884215 0.50602
0.322148 0.859052 0.455451
0.482826 0.796353 0.341131
0.694209 0.799542 0.3337
0.819837 0.819852 0.368505
0.83183 0.823087 0.356802
0.837171 0.739467 0.220462
0.326558 0.883909 0.574823
0.316564 0.886839 0.570748
0.319783 0.883406 0.556863
0.343877 0.869718 0.52639
0.470893 0.824491 0.469276
0.650645 0.807523 0.467353
0.780972 0.821393 0.446708
0.833204 0.827878 0.47805
0.831876 0.823255 0.352193
0.563928 0.879011 0.687648
0.540551 0.877241 0.673136
0.531991 0.875181 0.662791
0.53875 0.872908 0.65507
0.578836 0.869749 0.653788
0.665629 0.863844 0.66273
0.781842 0.86627 0.684855
0.854627 0.870268 0.686381
0.880461 0.876783 0.707759
0.0215 0.0490272 0.0885176
0.0287633 0.0476692 0.0919814
0.0843214 0.0395972 0.0937667
0.214267 0.0317998 0.104845
0.399481 0.0282597 0.120974
0.620325 0.0536507 0.246052
0.760296 0.102068 0.407263
0.775357 0.120424 0.523201
0.806195 0.175082 0.647395
0.0216068 0.0499428 0.076936
0.0214694 0.0507515 0.093431
0.0852216 0.0398413 0.0967575
0.21442 0.0327001 0.0923934
0.403998 0.0286412 0.106355
0.620478 0.052842 0.230793
0.761059 0.100679 0.400519
0.776303 0.121309 0.526162
0.813733 0.223026 0.678737
0.0202792 0.10399 0.084184
0.0203098 0.104082 0.0848554
0.0834211 0.105592 0.100313
0.27155 0.049836 0.0720684
0.411276 0.0289921 0.074403
0.612741 0.0496834 0.185733
0.761837 0.0938582 0.361166
0.773922 0.121843 0.501396
0.815641 0.243153 0.68542
0.0187533 0.263447 0.102281
0.0188907 0.26154 0.0941939
0.0275273 0.252598 0.0756542
0.238987 0.260517 0.0615244
0.512444 0.193988 0.0966964
0.671595 0.0600137 0.0970474
0.766735 0.0897231 0.286824
0.772137 0.121218 0.472953
0.816876 0.262028 0.68481
0.0615396 0.525765 0.236088
0.0591135 0.520439 0.221042
0.0852674 0.510613 0.205905
0.133837 0.486152 0.117845
0.49041 0.491951 0.11545
0.787076 0.510307 0.243336
0.817151 0.393835 0.214359
0.786328 0.12665 0.358495
0.821256 0.287602 0.671687
0.164004 0.802121 0.436286
0.159976 0.802136 0.428565
0.184527 0.793271 0.412024
0.235966 0.760159 0.333516
0.515328 0.709056 0.260334
0.717342 0.739773 0.263081
0.834119 0.750072 0.272023
0.832807 0.67245 0.218082
0.827131 0.362585 0.555627
0.263645 0.892866 0.547402
0.257496 0.894682 0.542412
0.263539 0.888762 0.524208
0.312963 0.865919 0.477241
0.45124 0.803998 0.34995
0.686915 0.797757 0.339696
0.818753 0.819684 0.368063
0.831418 0.82298 0.360739
0.836866 0.729915 0.215885
0.327352 0.884565 0.582971
0.316045 0.888609 0.580301
0.317281 0.886366 0.568078
0.335546 0.873594 0.533349
0.46305 0.828565 0.478721
0.644541 0.808988 0.475532
0.778729 0.821637 0.454643
0.832685 0.82742 0.474723
0.831861 0.82324 0.352438
0.559747 0.879179 0.687938
0.534737 0.877928 0.673671
0.531594 0.876524 0.668269
0.538811 0.873457 0.658976
0.576425 0.870924 0.654994
0.66186 0.86389 0.662455
0.780392 0.866117 0.68455
0.854032 0.870787 0.687572
0.88014 0.876524 0.706538
0.0201267 0.0641031 0.194537
0.0202335 0.0605936 0.205295
0.0695659 0.0428321 0.217777
0.21297 0.0327001 0.203555
0.397421 0.0283207 0.236744
0.62063 0.0662089 0.34638
0.764324 0.109926 0.456901
0.778302 0.121279 0.552316
0.806958 0.179767 0.656962
0.0201267 0.0666209 0.191669
0.0200656 0.0669718 0.208225
0.0639963 0.0522011 0.231525
0.213947 0.0327001 0.206134
0.395346 0.028687 0.229465
0.622034 0.0664683 0.332448
0.763943 0.108736 0.449409
0.778561 0.121553 0.551461
0.8103 0.20264 0.67071
0.019791 0.107256 0.191714
0.0197604 0.106386 0.204944
0.0304112 0.0926375 0.255192
0.238849 0.0368658 0.226856
0.398581 0.029984 0.217166
0.648112 0.0660105 0.316106
0.763745 0.110552 0.443839
0.779431 0.123873 0.558312
0.819043 0.26862 0.710781
0.0186923 0.254856 0.190997
0.0186923 0.254688 0.191638
0.0189517 0.251514 0.19292
0.277684 0.291341 0.269596
0.542992 0.172747 0.219104
0.669261 0.0642405 0.219837
0.762814 0.0985275 0.376333
0.778546 0.127825 0.527565
0.825498 0.327794 0.737011
0.0688334 0.531044 0.322774
0.0642405 0.529427 0.31368
0.0658579 0.52195 0.2907
0.109361 0.501991 0.222248
0.492836 0.496284 0.203601
0.758816 0.486778 0.283726
0.818128 0.319997 0.219623
0.785489 0.148043 0.436637
0.829084 0.349432 0.724071
0.170016 0.800351 0.492821
0.162997 0.801205 0.483986
0.163088 0.79617 0.462257
0.196902 0.770748 0.403204
0.442725 0.705699 0.285985
0.694591 0.717418 0.267536
0.833921 0.73225 0.309651
0.831922 0.657099 0.224613
0.833341 0.376394 0.639078
0.274784 0.893339 0.583551
0.2663 0.896956 0.578271
0.268482 0.896162 0.565179
0.285863 0.883055 0.521294
0.411429 0.823392 0.404257
0.668254 0.795117 0.372747
0.813428 0.818479 0.379538
0.830198 0.82034 0.375235
0.839811 0.697551 0.213046
0.333104 0.885801 0.605814
0.322271 0.889754 0.603021
0.320821 0.889387 0.59321
0.334615 0.882597 0.566522
0.447837 0.841611 0.512169
0.631525 0.816831 0.504891
0.775616 0.824506 0.484688
0.832273 0.827008 0.471214
0.831678 0.823117 0.353735
0.5579 0.880171 0.693538
0.530648 0.879088 0.678569
0.526757 0.878813 0.6748
0.541497 0.876478 0.671077
0.578729 0.873503 0.665293
0.660243 0.866346 0.669718
0.779232 0.867384 0.688975
0.853849 0.873121 0.693614
0.879255 0.875944 0.70396
0.0192569 0.0949722 0.35201
0.0193179 0.0896925 0.364813
0.0599374 0.0805829 0.38941
0.205905 0.0383764 0.374701
0.396719 0.0359503 0.37969
0.632853 0.0654612 0.479469
0.770169 0.103456 0.600427
0.784955 0.129702 0.640299
0.810162 0.213916 0.694453
0.0195621 0.0988022 0.356329
0.0194247 0.0972305 0.364828
0.0428473 0.0852522 0.394644
0.197024 0.0386358 0.380362
0.397513 0.0359197 0.379736
0.628473 0.0637064 0.471565
0.769894 0.103136 0.591897
0.784863 0.127489 0.633799
0.81146 0.212726 0.693248
0.0193942 0.114488 0.361059
0.0192569 0.114687 0.373266
0.0194247 0.105501 0.405737
0.185931 0.0425422 0.4271
0.417624 0.0383001 0.399191
0.630701 0.0633097 0.467414
0.768322 0.105119 0.578882
0.784817 0.130312 0.632074
0.820386 0.280507 0.734401
0.019028 0.254139 0.364462
0.0189517 0.251606 0.372656
0.0191196 0.243244 0.388495
0.134127 0.231907 0.496056
0.500725 0.119219 0.474235
0.654185 0.0713207 0.47071
0.767086 0.107973 0.538506
0.793057 0.151797 0.636561
0.829633 0.345449 0.770138
0.0471351 0.526329 0.447822
0.0450294 0.525338 0.447654
0.0480354 0.520867 0.444266
0.0666056 0.51107 0.438575
0.541543 0.534035 0.505745
0.789105 0.452155 0.472862
0.800641 0.226993 0.453452
0.789654 0.150973 0.556466
0.846204 0.422736 0.797894
0.153063 0.795651 0.585107
0.151446 0.794858 0.580072
0.159594 0.788342 0.567315
0.19266 0.770275 0.533288
0.396567 0.743511 0.479225
0.69955 0.724254 0.456641
0.856199 0.722286 0.499168
0.848371 0.58909 0.403174
0.84213 0.416556 0.727123
0.289586 0.901518 0.664469
0.282826 0.903502 0.658854
0.286519 0.900587 0.646357
0.301854 0.892927 0.614404
0.400778 0.860273 0.541939
0.648051 0.819852 0.522652
0.809094 0.82565 0.510292
0.836286 0.82092 0.479225
0.840208 0.672786 0.210529
0.341787 0.891585 0.658274
0.331609 0.894636 0.654337
0.331167 0.893492 0.644587
0.344656 0.888777 0.623652
0.443595 0.86836 0.591501
0.623377 0.838102 0.575814
0.779904 0.840482 0.571969
0.843626 0.83946 0.552254
0.829099 0.822003 0.389914
0.555261 0.883772 0.709758
0.530495 0.882658 0.697383
0.527733 0.882216 0.693523
0.54197 0.881376 0.692866
0.585626 0.879683 0.694377
0.661219 0.875593 0.696269
0.781659 0.874174 0.711742
0.859129 0.881941 0.716976
0.879072 0.875868 0.703578
0.0194705 0.138979 0.519707
0.0192874 0.134859 0.535149
0.0479591 0.125536 0.555825
0.192126 0.0531777 0.556909
0.411933 0.0622263 0.546014
0.631525 0.0831769 0.612924
0.785977 0.159579 0.726864
0.791669 0.145892 0.77882
0.805234 0.190112 0.779324
0.0191806 0.14345 0.520806
0.0193332 0.141207 0.526253
0.026688 0.132662 0.551888
0.173495 0.0584726 0.569451
0.404746 0.0600595 0.543938
0.629755 0.0824445 0.610803
0.787869 0.157855 0.724361
0.79234 0.147021 0.776745
0.806882 0.198825 0.777966
0.0193332 0.168627 0.528878
0.019379 0.16939 0.538384
0.0192874 0.159579 0.571725
0.171557 0.118532 0.613382
0.441489 0.0718853 0.599557
0.638849 0.0845502 0.61941
0.784665 0.159976 0.726284
0.792233 0.147692 0.780987
0.822751 0.283253 0.80824
0.0194705 0.273884 0.528435
0.0193179 0.270069 0.534569
0.0190585 0.262287 0.555581
0.0286259 0.226627 0.636454
0.418738 0.0844587 0.633387
0.693965 0.105928 0.667628
0.783505 0.161669 0.722042
0.792416 0.154253 0.775998
0.840818 0.388891 0.82681
0.0203861 0.541695 0.588205
0.0205234 0.538964 0.59086
0.0208133 0.534707 0.599252
0.0202945 0.514443 0.615534
0.442847 0.488746 0.743862
0.771405 0.406241 0.730312
0.806241 0.22475 0.715511
0.793469 0.175235 0.730922
0.856672 0.457084 0.841398
0.134249 0.785336 0.704768
0.13257 0.782895 0.702708
0.135378 0.777951 0.697322
0.14963 0.766079 0.687099
0.365515 0.752331 0.686992
0.740826 0.741909 0.717372
0.903075 0.687358 0.70016
0.852796 0.470085 0.650095
0.854307 0.448371 0.803937
0.232166 0.924834 0.773785
0.228458 0.924743 0.768948
0.233524 0.920714 0.759945
0.25597 0.909483 0.739223
0.38529 0.881392 0.696559
0.657603 0.859937 0.693965
0.833021 0.851911 0.690181
0.893202 0.839719 0.687938
0.874113 0.581735 0.5505
0.297383 0.91957 0.753338
0.291585 0.920424 0.747967
0.299275 0.917372 0.739025
0.326238 0.909545 0.720592
0.462013 0.887678 0.699504
0.641276 0.880964 0.702174
0.799466 0.874968 0.710079
0.880232 0.876982 0.708736
0.860761 0.856504 0.635325
0.540948 0.893477 0.745617
0.520333 0.892531 0.735622
0.52491 0.891386 0.73228
0.546197 0.890074 0.733227
0.59794 0.889738 0.739864
0.674128 0.891768 0.747402
0.78706 0.891188 0.762051
0.873716 0.901366 0.772213
0.89163 0.89189 0.751217
0.0195315 0.216907 0.672786
0.0196841 0.212116 0.683619
0.0195773 0.201678 0.699748
0.201953 0.161379 0.732784
0.423346 0.0749676 0.709606
0.626886 0.114946 0.727977
0.787961 0.137789 0.82208
0.794171 0.15288 0.846265
0.798993 0.16434 0.842786
0.0193179 0.218387 0.667369
0.0195773 0.216205 0.67306
0.0194705 0.207324 0.693812
0.169574 0.167727 0.731258
0.421958 0.0761425 0.717525
0.625864 0.115312 0.727993
0.787778 0.137392 0.820569
0.794354 0.15259 0.845579
0.799054 0.163607 0.841581
0.0195163 0.233707 0.663096
0.0195773 0.235416 0.672114
0.019501 0.238499 0.708278
0.100755 0.191867 0.744457
0.424155 0.0835889 0.751675
0.648981 0.124392 0.754772
0.788342 0.139574 0.828962
0.795544 0.155184 0.848661
0.809018 0.208377 0.85388
0.0196384 0.308339 0.650141
0.0198062 0.304494 0.655573
0.0197757 0.302571 0.679194
0.0197452 0.284169 0.743023
0.358846 0.105058 0.77174
0.71075 0.152148 0.811261
0.788373 0.141238 0.835462
0.795941 0.157321 0.849027
0.828199 0.339574 0.868742
0.0206455 0.556664 0.715282
0.0207675 0.551827 0.718944
0.0204471 0.549218 0.727871
0.0204929 0.534218 0.750576
0.372854 0.508049 0.851591
0.729717 0.403754 0.855283
0.807248 0.206455 0.838956
0.795087 0.155673 0.845624
0.851057 0.449805 0.884855
0.0480507 0.792599 0.794949
0.0440375 0.790234 0.794827
0.0388647 0.786374 0.793561
0.0305943 0.776013 0.793851
0.223087 0.767071 0.828717
0.685389 0.715709 0.880735
0.898604 0.665522 0.873137
0.864179 0.491188 0.860792
0.848463 0.435126 0.867933
0.245426 0.923003 0.845304
0.244175 0.921477 0.84477
0.24654 0.917021 0.841749
0.260151 0.908476 0.836179
0.337255 0.891417 0.825605
0.65304 0.874189 0.828748
0.861006 0.872251 0.850553
0.931563 0.833631 0.835309
0.836561 0.363195 0.798489
0.289342 0.93698 0.828183
0.284642 0.93753 0.825635
0.285634 0.936522 0.820996
0.295567 0.933959 0.81297
0.400534 0.917723 0.800092
0.643793 0.909377 0.803357
0.817578 0.921157 0.830076
0.912551 0.924834 0.836896
0.906706 0.908705 0.803204
0.50103 0.908919 0.797772
0.479438 0.910216 0.793927
0.487877 0.909285 0.791043
0.518791 0.907439 0.789273
0.583749 0.906004 0.791211
0.683742 0.909041 0.801221
0.798413 0.918639 0.825925
0.895582 0.927901 0.849241
0.917006 0.927886 0.846159
0.019852 0.275593 0.740993
0.019913 0.274311 0.749981
0.0198825 0.263188 0.759106
0.0851453 0.217243 0.785367
0.412695 0.0927291 0.789593
0.657633 0.145876 0.817746
0.787198 0.139223 0.841688
0.792203 0.148836 0.846632
0.797818 0.161044 0.851087
0.0197299 0.271763 0.735409
0.019852 0.273548 0.740612
0.0197452 0.269657 0.755627
0.0555276 0.224659 0.782132
0.399435 0.0920729 0.789242
0.671366 0.15314 0.821195
0.787045 0.139025 0.840375
0.792203 0.148821 0.846616
0.79765 0.160479 0.851041
0.0195926 0.27834 0.721202
0.0195163 0.27924 0.726497
0.0196231 0.288106 0.746609
0.0196078 0.253086 0.7682
0.359365 0.094789 0.79118
0.711437 0.158495 0.828351
0.786664 0.139864 0.841901
0.792355 0.150072 0.846815
0.799863 0.167056 0.853269
0.019913 0.373632 0.724102
0.0199435 0.373297 0.729305
0.0203403 0.386175 0.749874
0.0200504 0.375677 0.767376
0.349233 0.247745 0.832288
0.679805 0.178653 0.831189
0.790707 0.145632 0.845457
0.793133 0.151507 0.847486
0.814389 0.239445 0.863035
0.0205997 0.587137 0.77731
0.020798 0.585901 0.780438
0.0206912 0.587991 0.789853
0.0208133 0.581552 0.808637
0.319753 0.555718 0.86331
0.701808 0.450126 0.879637
0.81796 0.27541 0.863737
0.793957 0.152392 0.848096
0.833127 0.369848 0.872679
0.026154 0.815045 0.842802
0.0244144 0.813336 0.84358
0.0212406 0.810254 0.843549
0.0209964 0.801556 0.844648
0.18143 0.783246 0.873198
0.645869 0.728786 0.923827
0.873625 0.666423 0.925475
0.865049 0.510353 0.897383
0.823392 0.308919 0.867643
0.202518 0.927932 0.882719
0.196963 0.926131 0.883314
0.195361 0.923384 0.883589
0.205753 0.915984 0.884413
0.274601 0.893278 0.882856
0.611002 0.86981 0.896819
0.831327 0.856382 0.927764
0.924178 0.817761 0.924117
0.836591 0.384695 0.875334
0.306432 0.940246 0.863905
0.300267 0.941726 0.864439
0.301991 0.941222 0.86334
0.311238 0.938949 0.860761
0.393957 0.9299 0.858991
0.629023 0.919936 0.864866
0.80911 0.931868 0.89575
0.926726 0.939559 0.919097
0.933989 0.930037 0.918532
0.471061 0.92166 0.848249
0.452827 0.92195 0.845243
0.462989 0.921141 0.844007
0.498497 0.918608 0.843366
0.566629 0.917388 0.845228
0.667048 0.92047 0.853117
0.800366 0.932052 0.880156
0.910674 0.942199 0.912047
0.933211 0.944274 0.918395
0.0197147 0.313283 0.737682
0.0198215 0.303853 0.742428
0.0195468 0.298894 0.752773
0.0196078 0.26833 0.758267
0.308965 0.100649 0.794766
0.690028 0.167529 0.827543
0.784848 0.135775 0.839673
0.789029 0.142611 0.843565
0.794308 0.153536 0.84828
0.0199435 0.299092 0.736629
0.0195773 0.301747 0.738567
0.0195468 0.298756 0.751904
0.0196994 0.269368 0.757519
0.300343 0.0993973 0.793805
0.683925 0.166018 0.82623
0.784543 0.135515 0.839445
0.788983 0.14255 0.843473
0.794354 0.153353 0.84831
0.0199893 0.3299 0.735927
0.019913 0.337407 0.74078
0.0204166 0.428367 0.776303
0.020325 0.392691 0.77026
0.313146 0.296178 0.839384
0.634272 0.160235 0.826642
0.79237 0.149538 0.846799
0.789548 0.143618 0.844221
0.795956 0.156313 0.849439
0.0203708 0.456535 0.7664
0.0205234 0.463462 0.771359
0.0207065 0.514565 0.794232
0.0207065 0.55288 0.809262
0.263081 0.518914 0.85684
0.670695 0.406744 0.870451
0.808988 0.215702 0.85948
0.789929 0.144259 0.844602
0.797116 0.159777 0.850462
0.0208591 0.627985 0.803861
0.0210575 0.631632 0.807645
0.0209506 0.653742 0.818311
0.0210269 0.671946 0.828031
0.175662 0.687129 0.858015
0.652277 0.631708 0.924254
0.865156 0.552758 0.907103
0.799847 0.167178 0.853239
0.798535 0.163684 0.85214
0.0275883 0.833051 0.864942
0.0271153 0.833982 0.866606
0.0269322 0.835706 0.869184
0.0237583 0.833738 0.872557
0.118334 0.822843 0.877546
0.599481 0.776761 0.909316
0.843198 0.726955 0.934325
0.893065 0.628779 0.920195
0.798657 0.164172 0.852277
0.163531 0.934249 0.895674
0.157305 0.933242 0.896422
0.159823 0.930663 0.897063
0.175265 0.923384 0.896529
0.254292 0.900114 0.892317
0.597238 0.873381 0.896132
0.807065 0.861357 0.924224
0.924819 0.826932 0.925902
0.876783 0.554299 0.907927
0.300374 0.941161 0.873976
0.294713 0.941863 0.875029
0.294224 0.941146 0.87512
0.303655 0.93872 0.874769
0.36318 0.931243 0.870909
0.602808 0.916747 0.874205
0.78999 0.926574 0.901549
0.920424 0.935378 0.925383
0.932357 0.912535 0.924681
0.446403 0.92607 0.867796
0.427359 0.927504 0.867506
0.441184 0.926711 0.867994
0.483635 0.923384 0.867094
0.555718 0.920562 0.86865
0.657069 0.922835 0.876738
0.789456 0.933288 0.898802
0.907485 0.943816 0.923796
0.933776 0.94519 0.927108
