bundles/resolve-cinematic-luts/Phantom Luts/A7s3 Phntm Film LUTs - G6/ATOMOS Monitor LUTs/Slog2+Sgamut3cine/Bleach A7s3 Sl2sg3c AML.cube
TITLE "Generated by Resolve"
LUT_3D_SIZE 5
0.0767376 0.0882887 0.0783093
0.121187 0.0880598 0.0817121
0.371206 0.0930343 0.107271
0.637613 0.106859 0.179477
0.811673 0.168048 0.322118
0.0809033 0.215747 0.100328
0.226566 0.253574 0.0915694
0.587884 0.20415 0.139193
0.731197 0.158511 0.152377
0.833616 0.227329 0.283131
0.0587472 0.481849 0.135439
0.125216 0.511406 0.0808728
0.633249 0.650813 0.185168
0.865171 0.688243 0.349676
0.901457 0.700511 0.414832
0.174319 0.72755 0.334936
0.233082 0.73167 0.266453
0.637217 0.777203 0.322026
0.828779 0.833692 0.441947
0.909483 0.849882 0.592508
0.310826 0.762356 0.43476
0.422858 0.770535 0.439017
0.685786 0.814176 0.548318
0.837339 0.863066 0.617258
0.903548 0.881102 0.665797
0.0726329 0.0860304 0.109606
0.125826 0.088426 0.114824
0.400061 0.0935378 0.217105
0.65655 0.113741 0.287739
0.810987 0.156634 0.410254
0.0759899 0.216388 0.187533
0.252613 0.257862 0.246891
0.604044 0.195666 0.222339
0.756924 0.167239 0.27071
0.847044 0.218448 0.402747
0.057023 0.489967 0.222843
0.0818341 0.501961 0.160052
0.637812 0.651087 0.278233
0.87068 0.677852 0.445274
0.90927 0.667094 0.521874
0.17319 0.724437 0.397726
0.189258 0.728283 0.340414
0.603067 0.766491 0.34786
0.828077 0.832868 0.452735
0.913909 0.848081 0.622599
0.312749 0.763287 0.502556
0.340581 0.764874 0.453956
0.636255 0.801556 0.537133
0.830304 0.861646 0.620111
0.902495 0.880476 0.662104
0.0742199 0.0880751 0.240146
0.184817 0.0881819 0.291646
0.445411 0.095964 0.353368
0.682033 0.11928 0.507347
0.819928 0.150179 0.604288
0.0674907 0.176669 0.356619
0.167681 0.173083 0.500267
0.606241 0.130144 0.521019
0.754269 0.135912 0.566964
0.831968 0.15877 0.614374
0.059556 0.487449 0.425315
0.077821 0.502342 0.444129
0.663371 0.648753 0.631235
0.869688 0.649775 0.643076
0.905898 0.631861 0.64303
0.161425 0.719402 0.558877
0.175555 0.720409 0.533181
0.589242 0.770626 0.591928
0.842969 0.837049 0.66627
0.915938 0.844419 0.710994
0.287266 0.767254 0.600931
0.339971 0.77084 0.585611
0.610254 0.809613 0.622431
0.837232 0.873747 0.708171
0.906752 0.88957 0.728771
0.0822309 0.0903182 0.367849
0.194629 0.0926223 0.480049
0.489418 0.0958572 0.536156
0.709758 0.128176 0.619104
0.839994 0.16022 0.696529
0.0632029 0.142962 0.511467
0.119219 0.114961 0.591775
0.593881 0.116533 0.652049
0.789166 0.150423 0.687449
0.848508 0.169512 0.723751
0.0562295 0.487114 0.571038
0.0589303 0.497719 0.601541
0.631983 0.627604 0.775158
0.890471 0.640528 0.813504
0.915862 0.611795 0.827665
0.165499 0.716518 0.669444
0.17821 0.716976 0.670436
0.591363 0.774777 0.733547
0.855833 0.834333 0.804028
0.915969 0.834836 0.814572
0.265644 0.773678 0.688685
0.301167 0.773724 0.682002
0.614069 0.822995 0.727428
0.853346 0.886915 0.813306
0.913069 0.89633 0.823331
0.0923781 0.0930037 0.502129
0.205432 0.0974136 0.593973
0.50811 0.0996719 0.627878
0.724727 0.129076 0.689311
0.851118 0.167056 0.755108
0.0640116 0.15082 0.601251
0.0948959 0.108248 0.637369
0.577234 0.112734 0.718105
0.803876 0.157946 0.753811
0.857877 0.17557 0.780041
0.0624247 0.502449 0.641413
0.0653697 0.507561 0.66685
0.610071 0.621363 0.82562
0.899382 0.647028 0.867536
0.915938 0.616068 0.869093
0.153567 0.715663 0.715846
0.18529 0.71545 0.723644
0.580362 0.761028 0.789242
0.851774 0.82829 0.849042
0.915999 0.827817 0.855024
0.259648 0.774517 0.729778
0.293278 0.774578 0.729717
0.605646 0.818647 0.774258
0.859068 0.889128 0.851591
0.913436 0.894759 0.858289
