bundles/resolve-cinematic-luts/Phantom Luts/A7s3 Phntm Film LUTs - G6/ATOMOS Monitor LUTs/Slog2+Sgamut3cine/Bleach A7s3 Sl2sg3c-Legacy AML.cube
TITLE "Generated by Resolve"
LUT_3D_SIZE 9
0.0844892 0.0961776 0.0856794
0.0844892 0.0961776 0.0856794
0.114107 0.0973068 0.0869917
0.200183 0.10016 0.0932174
0.316838 0.103838 0.103258
0.458 0.103639 0.122118
0.58436 0.107805 0.151308
0.689128 0.122271 0.199985
0.788952 0.150195 0.269352
0.0844587 0.0963302 0.0856641
0.085008 0.0967727 0.0857404
0.14049 0.10135 0.0888838
0.261418 0.10135 0.0922103
0.39089 0.104143 0.101152
0.539376 0.105577 0.121416
0.649348 0.11635 0.159609
0.747982 0.138781 0.211765
0.8112 0.169924 0.273625
0.0921187 0.182025 0.102174
0.101427 0.191913 0.0927291
0.184833 0.207782 0.0991684
0.363745 0.19646 0.10985
0.513909 0.169848 0.126329
0.604685 0.154009 0.129198
0.689113 0.137804 0.140017
0.776501 0.144076 0.18201
0.815106 0.188937 0.244602
0.0828717 0.306584 0.115724
0.0894026 0.318441 0.0977951
0.175006 0.342351 0.0925307
0.357885 0.392432 0.104845
0.609125 0.425757 0.157244
0.749508 0.44744 0.249851
0.84918 0.436728 0.307942
0.903334 0.411017 0.335531
0.899184 0.391516 0.330678
0.0689555 0.438514 0.125063
0.0729992 0.450523 0.110719
0.11313 0.463752 0.078706
0.358892 0.554574 0.134081
0.586069 0.609384 0.168093
0.74609 0.637751 0.231022
0.862394 0.650431 0.332662
0.901717 0.658763 0.375723
0.90721 0.660853 0.390646
0.100664 0.596017 0.201999
0.114168 0.60882 0.193271
0.143496 0.617334 0.149096
0.393042 0.672862 0.188907
0.584009 0.707835 0.224018
0.719646 0.744015 0.258045
0.842435 0.762066 0.333623
0.900633 0.768536 0.445792
0.90808 0.772717 0.485557
0.167132 0.721904 0.300175
0.177279 0.724941 0.285481
0.216251 0.729076 0.239506
0.393622 0.749783 0.250019
0.604364 0.769268 0.283162
0.695964 0.800397 0.33022
0.815244 0.833082 0.384695
0.885908 0.841856 0.480354
0.906111 0.843061 0.544442
0.211627 0.765148 0.345388
0.221424 0.764904 0.327825
0.286122 0.766903 0.310216
0.414984 0.771954 0.325612
0.613428 0.788846 0.366125
0.713481 0.819211 0.436469
0.795972 0.845899 0.488273
0.870359 0.862943 0.534066
0.89929 0.870573 0.584466
0.281788 0.765988 0.388663
0.294133 0.76611 0.375265
0.367559 0.769131 0.381384
0.492683 0.774716 0.401877
0.629892 0.795834 0.466758
0.732784 0.827756 0.534554
0.808057 0.851957 0.568933
0.860807 0.865843 0.583108
0.902296 0.874937 0.620066
0.0844892 0.0961929 0.0857099
0.0844892 0.0961776 0.0856794
0.115206 0.0975967 0.0935988
0.202106 0.100984 0.110063
0.319036 0.103929 0.126925
0.45919 0.104021 0.144839
0.583139 0.107073 0.173571
0.685405 0.119142 0.221042
0.789105 0.14876 0.292607
0.0845045 0.0963455 0.0857404
0.0873579 0.0992905 0.0884871
0.166659 0.101366 0.0942855
0.273442 0.102861 0.0977646
0.399451 0.104524 0.115511
0.542779 0.104829 0.138079
0.649653 0.115862 0.179767
0.75404 0.138567 0.241443
0.818982 0.17438 0.310384
0.0911116 0.187137 0.122515
0.0934157 0.198016 0.105959
0.18941 0.211536 0.103716
0.380667 0.188525 0.118868
0.521981 0.158816 0.130495
0.621439 0.145678 0.135271
0.729732 0.153964 0.177172
0.790707 0.156008 0.220966
0.823453 0.192035 0.290455
0.0812085 0.312001 0.13611
0.0843824 0.323781 0.118746
0.14905 0.340764 0.0927291
0.360906 0.395087 0.107942
0.624765 0.425223 0.173602
0.747967 0.446555 0.255985
0.859983 0.416663 0.321126
0.900069 0.395621 0.334829
0.897459 0.390143 0.341207
0.0671092 0.442359 0.143511
0.0687419 0.455329 0.128893
0.0938125 0.462196 0.0872358
0.347204 0.55407 0.134951
0.590127 0.613092 0.170214
0.756268 0.63917 0.246723
0.866712 0.649622 0.352605
0.903044 0.655787 0.392966
0.908904 0.652079 0.419211
0.100969 0.599023 0.224872
0.110002 0.612924 0.2159
0.136828 0.618784 0.165362
0.363806 0.671702 0.187427
0.581598 0.708782 0.225589
0.72137 0.745907 0.259815
0.848142 0.761807 0.351415
0.902983 0.766918 0.46659
0.909087 0.771572 0.500587
0.165286 0.720958 0.318303
0.17229 0.725567 0.303914
0.200763 0.727001 0.258549
0.357687 0.747829 0.251926
0.595758 0.767117 0.286656
0.694209 0.799985 0.334264
0.815717 0.833509 0.387411
0.887785 0.841245 0.490562
0.907332 0.841947 0.554711
0.208972 0.764782 0.364401
0.215259 0.765255 0.346227
0.258747 0.765759 0.320699
0.386389 0.770962 0.327276
0.599222 0.785962 0.365438
0.709697 0.817746 0.438834
0.793988 0.845228 0.490089
0.869795 0.862715 0.533471
0.899626 0.870558 0.587488
0.279591 0.765972 0.408682
0.287129 0.765957 0.391043
0.337484 0.767193 0.382208
0.466087 0.7738 0.400061
0.613703 0.792233 0.461906
0.726925 0.82565 0.532967
0.805158 0.851301 0.569558
0.859419 0.865476 0.582605
0.901976 0.874739 0.618967
0.0827192 0.0967422 0.106691
0.0889601 0.0971542 0.103883
0.116335 0.0984817 0.109087
0.21471 0.100603 0.150027
0.335561 0.10428 0.179095
0.483848 0.105684 0.191623
0.600244 0.110689 0.224125
0.693874 0.120089 0.268956
0.785504 0.140352 0.32932
0.0823529 0.0968795 0.106065
0.0834211 0.099321 0.130053
0.168948 0.100191 0.148882
0.280491 0.102693 0.169055
0.410559 0.105272 0.17734
0.549844 0.106783 0.194949
0.648417 0.114214 0.232288
0.738308 0.125658 0.280049
0.818143 0.162371 0.35198
0.0885176 0.182101 0.158358
0.090547 0.194156 0.169131
0.202167 0.210056 0.198581
0.379538 0.193896 0.1879
0.533135 0.166125 0.178683
0.630823 0.156222 0.189288
0.712902 0.148028 0.221836
0.77821 0.140856 0.259129
0.826551 0.184771 0.330938
0.0794842 0.314641 0.187976
0.0821546 0.328176 0.180087
0.141421 0.35079 0.169406
0.387945 0.410254 0.209812
0.625864 0.415152 0.258213
0.757977 0.403479 0.310613
0.863432 0.404639 0.352636
0.899351 0.406439 0.373114
0.898848 0.410452 0.396353
0.0651865 0.446616 0.195163
0.0658732 0.459098 0.183429
0.0846876 0.458488 0.141939
0.312734 0.551217 0.195956
0.591516 0.609079 0.242954
0.770367 0.632181 0.328374
0.864698 0.638376 0.399023
0.905608 0.633173 0.454566
0.910002 0.62359 0.48069
0.0987106 0.598016 0.270924
0.106462 0.610956 0.264698
0.122789 0.611826 0.22385
0.272175 0.65243 0.218143
0.56228 0.698192 0.27013
0.71635 0.737804 0.305806
0.858991 0.755138 0.403021
0.905989 0.759365 0.514244
0.911818 0.765423 0.53547
0.161761 0.717586 0.353323
0.166461 0.721828 0.341939
0.179141 0.723491 0.305715
0.288777 0.737697 0.272831
0.55758 0.757382 0.30277
0.684489 0.793423 0.349676
0.813519 0.83125 0.392523
0.8925 0.838376 0.514626
0.910933 0.838682 0.578012
0.206424 0.763653 0.396735
0.210468 0.764157 0.382589
0.224186 0.765148 0.348638
0.341238 0.768856 0.331472
0.558572 0.778912 0.363592
0.69778 0.813901 0.440391
0.7879 0.843671 0.493721
0.868193 0.862165 0.531746
0.900755 0.870405 0.594766
0.277913 0.766003 0.442573
0.28397 0.765988 0.426093
0.304738 0.765957 0.399023
0.40708 0.772091 0.402075
0.575219 0.785168 0.453162
0.714534 0.821836 0.530892
0.798291 0.849287 0.57116
0.856153 0.864881 0.581643
0.901122 0.874357 0.616266
0.0814832 0.0989395 0.149569
0.0974136 0.0995651 0.153506
0.143633 0.100023 0.16405
0.221683 0.101869 0.187182
0.35314 0.105013 0.237293
0.502617 0.107179 0.279255
0.617014 0.115557 0.329259
0.714366 0.128923 0.369909
0.794354 0.143542 0.420783
0.0801709 0.0991989 0.161395
0.0817578 0.0995499 0.192737
0.171572 0.100282 0.233982
0.301167 0.105531 0.250034
0.438926 0.106538 0.277836
0.570077 0.11107 0.323461
0.67039 0.122148 0.362585
0.761044 0.136507 0.396872
0.813825 0.150271 0.444892
0.0805676 0.172885 0.221134
0.0783246 0.177539 0.251652
0.16907 0.183948 0.308553
0.388998 0.169604 0.324636
0.539483 0.142626 0.325078
0.628672 0.134432 0.315862
0.704067 0.133135 0.324895
0.775204 0.134707 0.358282
0.820264 0.160372 0.417884
0.0796216 0.307912 0.269947
0.0811017 0.32137 0.282872
0.126955 0.343999 0.307073
0.417517 0.410513 0.392691
0.629023 0.406958 0.398672
0.757031 0.410605 0.421454
0.863249 0.401114 0.440299
0.900862 0.392935 0.45626
0.898329 0.363439 0.479805
0.0636759 0.447593 0.278111
0.0646525 0.460975 0.27779
0.0798657 0.463554 0.251362
0.342336 0.577935 0.365057
0.607813 0.614801 0.424414
0.759091 0.618784 0.48481
0.860059 0.610697 0.513664
0.909224 0.601282 0.533959
0.909041 0.598444 0.550652
0.0970779 0.597925 0.342855
0.104494 0.609796 0.344274
0.118624 0.608698 0.310002
0.281559 0.654139 0.33727
0.556878 0.695903 0.414908
0.71841 0.730419 0.469535
0.866529 0.740032 0.549111
0.905135 0.750469 0.568154
0.915694 0.749218 0.585046
0.157687 0.712337 0.418357
0.162768 0.71574 0.409186
0.171984 0.716716 0.371817
0.277028 0.724666 0.350393
0.509422 0.746212 0.395895
0.681193 0.782391 0.478859
0.809064 0.820829 0.516594
0.904311 0.832395 0.57911
0.915969 0.833661 0.614878
0.20145 0.760159 0.459831
0.206714 0.760861 0.442939
0.218738 0.762402 0.408392
0.311849 0.764874 0.387533
0.507546 0.774975 0.422431
0.688106 0.811582 0.508476
0.785901 0.843748 0.553643
0.867948 0.863188 0.570397
0.903929 0.87071 0.61384
0.274418 0.765255 0.496345
0.283192 0.765469 0.481254
0.302785 0.7664 0.458534
0.349096 0.768673 0.427237
0.533257 0.780697 0.468605
0.692576 0.816999 0.54377
0.790295 0.848219 0.586297
0.853284 0.865217 0.591196
0.901305 0.874846 0.620554
0.0817121 0.099794 0.206317
0.102342 0.100587 0.218906
0.155749 0.10074 0.244572
0.243763 0.101549 0.267262
0.366735 0.107362 0.30135
0.524865 0.109728 0.355001
0.631907 0.118364 0.426276
0.723293 0.13106 0.498207
0.804776 0.146059 0.545678
0.0803693 0.100694 0.236957
0.0843977 0.100938 0.272511
0.171756 0.102129 0.330404
0.315099 0.104433 0.34844
0.465599 0.109087 0.3664
0.589685 0.114595 0.424964
0.684794 0.125353 0.48571
0.771344 0.139528 0.537697
0.820249 0.151446 0.565423
0.0754406 0.156008 0.298451
0.0741741 0.158282 0.331151
0.140154 0.152956 0.403494
0.357961 0.139818 0.460136
0.539681 0.122942 0.438941
0.62945 0.122087 0.462226
0.712825 0.131334 0.500954
0.792218 0.142947 0.536675
0.820676 0.152422 0.556771
0.070573 0.293416 0.348623
0.0686961 0.304982 0.375174
0.0963607 0.309133 0.427588
0.371618 0.373846 0.548363
0.643183 0.380575 0.584329
0.770184 0.37792 0.611765
0.869368 0.358267 0.605631
0.902892 0.337423 0.605295
0.894087 0.302129 0.609598
0.0672923 0.440925 0.37557
0.068101 0.453849 0.38822
0.0792554 0.455375 0.390936
0.327581 0.571542 0.532143
0.616632 0.603311 0.585657
0.747372 0.60618 0.593149
0.855756 0.609033 0.601648
0.904036 0.60351 0.608484
0.904982 0.591241 0.601068
0.0961929 0.593561 0.44564
0.102235 0.604852 0.454109
0.113893 0.604883 0.433127
0.27509 0.653315 0.47631
0.58088 0.70135 0.573205
0.729503 0.727199 0.605234
0.851972 0.727977 0.634363
0.905867 0.735912 0.647639
0.915831 0.731044 0.659175
0.150317 0.70602 0.511757
0.154345 0.709026 0.506935
0.1626 0.708766 0.481209
0.270283 0.718105 0.456916
0.52755 0.747799 0.535195
0.689143 0.785275 0.596307
0.816999 0.818952 0.623301
0.905745 0.825116 0.667384
0.916014 0.828779 0.676951
0.191897 0.75639 0.54078
0.195621 0.756374 0.530053
0.205997 0.756603 0.506127
0.305531 0.760403 0.480995
0.517525 0.777096 0.533654
0.671717 0.812589 0.592721
0.793927 0.848936 0.637964
0.872847 0.866407 0.650843
0.913817 0.872587 0.682795
0.255131 0.768261 0.561837
0.269932 0.767086 0.551644
0.296712 0.766979 0.535714
0.351751 0.771344 0.518105
0.538216 0.788739 0.557763
0.67718 0.824338 0.610636
0.798566 0.858335 0.657099
0.861402 0.874662 0.666133
0.90428 0.882979 0.682902
0.083238 0.100755 0.268574
0.104784 0.101762 0.288808
0.159625 0.102159 0.326329
0.256733 0.103059 0.355718
0.390463 0.106279 0.384649
0.538872 0.111559 0.438544
0.646876 0.121874 0.511315
0.742748 0.135958 0.563394
0.818952 0.151202 0.607996
0.0818494 0.10219 0.309545
0.0894636 0.10277 0.348348
0.171572 0.103853 0.422461
0.321233 0.105791 0.463951
0.486885 0.107164 0.475013
0.60267 0.117464 0.512215
0.702464 0.130373 0.562432
0.790494 0.1458 0.600961
0.828305 0.156771 0.63331
0.0727398 0.140276 0.367544
0.0715801 0.143435 0.406134
0.120348 0.128771 0.486992
0.318044 0.120974 0.545251
0.535393 0.115007 0.538308
0.647715 0.126619 0.555871
0.734829 0.137942 0.583566
0.811215 0.150149 0.613474
0.831037 0.159365 0.642802
0.0700847 0.282322 0.446769
0.0699779 0.292638 0.48127
0.0896773 0.287968 0.525643
0.330602 0.33756 0.627909
0.64477 0.353933 0.682292
0.783856 0.358358 0.700923
0.871885 0.32517 0.706645
0.894423 0.287251 0.703883
0.881926 0.251621 0.690578
0.0627604 0.430381 0.471305
0.0618906 0.441642 0.485649
0.0703746 0.442283 0.505394
0.283528 0.538888 0.613336
0.598093 0.590997 0.676417
0.758724 0.596658 0.698421
0.866209 0.595865 0.705608
0.911513 0.590677 0.700832
0.915724 0.57084 0.710948
0.100465 0.589914 0.536889
0.106752 0.599939 0.548119
0.116838 0.599573 0.547784
0.254963 0.639826 0.593606
0.580056 0.700023 0.667094
0.735424 0.717815 0.698665
0.844846 0.719097 0.705791
0.902968 0.721416 0.710338
0.915648 0.717342 0.715129
0.149523 0.70106 0.589639
0.152956 0.703334 0.589364
0.158114 0.702434 0.579995
0.244709 0.709743 0.572045
0.5402 0.75288 0.629786
0.711681 0.796201 0.690272
0.829313 0.81886 0.710613
0.898528 0.819059 0.73106
0.915908 0.821637 0.739178
0.187793 0.754391 0.609689
0.189807 0.75407 0.603998
0.197009 0.753826 0.591897
0.284779 0.756146 0.578378
0.530251 0.782849 0.615564
0.688441 0.825742 0.675135
0.808026 0.856077 0.717388
0.8813 0.870314 0.728527
0.916243 0.873198 0.756909
0.239994 0.774136 0.623621
0.251896 0.77258 0.616068
0.276371 0.771313 0.605249
0.338735 0.775036 0.59765
0.549569 0.799329 0.627207
0.688121 0.839139 0.68011
0.803052 0.869108 0.725383
0.870512 0.884871 0.740124
0.907103 0.891295 0.750683
0.0861524 0.102312 0.326452
0.107897 0.10309 0.355169
0.161883 0.103593 0.406409
0.265263 0.104585 0.448905
0.405875 0.10576 0.482216
0.551858 0.112306 0.516426
0.659388 0.125689 0.567788
0.758953 0.142184 0.619898
0.830365 0.157397 0.65919
0.084535 0.10454 0.379644
0.09337 0.10454 0.426596
0.172076 0.105333 0.506447
0.32723 0.107881 0.550637
0.500587 0.106752 0.556085
0.612055 0.119371 0.575097
0.716381 0.135866 0.616388
0.806851 0.152621 0.657572
0.836667 0.162982 0.682963
0.070573 0.13167 0.442191
0.0692302 0.131991 0.482506
0.107637 0.117479 0.541894
0.294865 0.114885 0.599725
0.529534 0.116564 0.608087
0.653941 0.129381 0.618891
0.752239 0.145281 0.644266
0.827024 0.15874 0.675258
0.840177 0.165591 0.693828
0.071458 0.271916 0.526253
0.0722667 0.282795 0.553292
0.0856641 0.274189 0.588266
0.301015 0.314809 0.686076
0.620096 0.328481 0.751614
0.786267 0.337102 0.769497
0.87245 0.305257 0.763302
0.890013 0.265522 0.749462
0.874052 0.223651 0.730282
0.05626 0.431647 0.539254
0.0552987 0.443046 0.552605
0.0574044 0.44213 0.572473
0.243259 0.514809 0.66627
0.579293 0.580148 0.747265
0.770382 0.597375 0.783612
0.880385 0.599985 0.794766
0.916091 0.590112 0.801633
0.916304 0.569055 0.812665
0.0927443 0.586267 0.593912
0.099382 0.596002 0.606226
0.115221 0.5991 0.618311
0.246601 0.629267 0.666194
0.563882 0.685008 0.732006
0.725963 0.709941 0.769207
0.850568 0.712718 0.783047
0.908583 0.713542 0.787015
0.915618 0.710552 0.787854
0.153552 0.698528 0.647318
0.157046 0.701152 0.64979
0.162753 0.699809 0.648447
0.244312 0.705821 0.655421
0.53254 0.749401 0.706142
0.718166 0.799725 0.764477
0.834333 0.812589 0.785916
0.89662 0.813642 0.79321
0.915846 0.813672 0.796582
0.189242 0.752911 0.665537
0.19089 0.752499 0.66305
0.196643 0.751888 0.658167
0.271901 0.754223 0.653437
0.520241 0.783902 0.685863
0.701946 0.834836 0.744015
0.82443 0.863127 0.787655
0.88777 0.871366 0.793378
0.916243 0.87097 0.80293
0.236316 0.778378 0.673686
0.239658 0.778119 0.669596
0.266331 0.776516 0.663645
0.32195 0.777432 0.658442
0.539574 0.803067 0.684886
0.701549 0.850095 0.738857
0.814786 0.879026 0.783475
0.878553 0.891203 0.8009
0.911116 0.895476 0.803861
0.090074 0.104021 0.384009
0.110307 0.104189 0.424842
0.164797 0.104738 0.485863
0.273564 0.106462 0.526223
0.417807 0.107332 0.547173
0.561776 0.109194 0.56994
0.669856 0.128786 0.61323
0.773907 0.147555 0.662898
0.839231 0.163409 0.702571
0.0860456 0.106584 0.454673
0.0957809 0.106905 0.500618
0.172641 0.107103 0.563424
0.330678 0.110521 0.607172
0.511681 0.109529 0.614099
0.62324 0.118425 0.627512
0.72694 0.140093 0.66128
0.822507 0.159152 0.703105
0.84596 0.168627 0.725826
0.0686198 0.132296 0.509178
0.0682994 0.13225 0.53962
0.0980545 0.114855 0.581857
0.281331 0.116777 0.642954
0.520256 0.118059 0.658244
0.657954 0.131044 0.671534
0.764263 0.15111 0.693782
0.839887 0.166033 0.722332
0.849027 0.171527 0.737453
0.0728466 0.269276 0.576043
0.073106 0.280354 0.600793
0.082475 0.268315 0.630915
0.283452 0.306584 0.734157
0.597162 0.319982 0.797803
0.781262 0.331594 0.820752
0.875593 0.302739 0.807721
0.89192 0.256916 0.786648
0.872816 0.212314 0.760021
0.0575723 0.437797 0.587762
0.0581979 0.449302 0.601434
0.0614176 0.445914 0.62063
0.235996 0.512734 0.714382
0.563714 0.575006 0.792752
0.763256 0.597543 0.837308
0.889052 0.604501 0.841596
0.916152 0.595254 0.846174
0.916411 0.571771 0.848997
0.0808728 0.587793 0.635081
0.082887 0.595193 0.645579
0.0970779 0.598749 0.660349
0.201358 0.621866 0.706844
0.535241 0.674876 0.769543
0.715969 0.704967 0.815915
0.858976 0.716045 0.833219
0.915267 0.717937 0.842847
0.915404 0.714153 0.849348
0.154513 0.697627 0.684947
0.159716 0.699489 0.68835
0.169802 0.697887 0.691203
0.256703 0.705531 0.708095
0.542138 0.74255 0.758801
0.712093 0.790051 0.805966
0.83064 0.807172 0.824887
0.896208 0.807324 0.828519
0.915785 0.806943 0.830121
0.192554 0.752682 0.701732
0.194247 0.751827 0.70071
0.199054 0.751003 0.69987
0.276036 0.754009 0.703197
0.521004 0.781109 0.734722
0.698039 0.833387 0.789639
0.831083 0.86479 0.827955
0.88896 0.868284 0.833844
0.916197 0.867979 0.83714
0.235187 0.779141 0.708202
0.238376 0.779553 0.706935
0.263432 0.779065 0.704829
0.318898 0.778912 0.702693
0.52845 0.801938 0.725994
0.694469 0.851057 0.779187
0.825391 0.883894 0.821622
0.884291 0.89337 0.837919
0.91342 0.896178 0.837949
0.0920119 0.105425 0.448981
0.111055 0.104829 0.491218
0.166949 0.106371 0.54374
0.282109 0.108843 0.581415
0.426749 0.108782 0.591119
0.56997 0.111238 0.612268
0.677821 0.129091 0.651392
0.786542 0.152148 0.700008
0.846876 0.167742 0.737026
0.0862287 0.109255 0.518151
0.0960708 0.11017 0.554925
0.172381 0.108965 0.606851
0.330495 0.113222 0.651331
0.518547 0.112001 0.661326
0.634012 0.119554 0.673945
0.733181 0.140673 0.698619
0.834806 0.164279 0.73962
0.852232 0.172503 0.760616
0.06804 0.137743 0.556176
0.0677501 0.136339 0.581247
0.0914015 0.119783 0.61799
0.267597 0.116884 0.674693
0.509239 0.118273 0.695949
0.658259 0.132799 0.711849
0.772686 0.154421 0.733303
0.848249 0.172045 0.758587
0.855314 0.175341 0.772778
0.0730297 0.273014 0.611719
0.0742809 0.281926 0.636011
0.0783551 0.268894 0.661418
0.268269 0.30602 0.767697
0.580133 0.323613 0.826917
0.773053 0.335958 0.851759
0.880308 0.31841 0.842847
0.903563 0.275853 0.824262
0.881666 0.224109 0.79852
0.0603037 0.446204 0.623163
0.0607462 0.456764 0.635538
0.0660105 0.452384 0.655726
0.237675 0.517754 0.751873
0.552316 0.574578 0.819577
0.750973 0.598886 0.863416
0.890562 0.609079 0.870787
0.916121 0.600366 0.869978
0.916167 0.575296 0.869627
0.0788281 0.59501 0.666514
0.0806592 0.600198 0.675654
0.0866102 0.600031 0.686549
0.192966 0.626032 0.737499
0.523934 0.67158 0.795285
0.70695 0.702953 0.84123
0.860151 0.719203 0.864836
0.915648 0.723613 0.869337
0.915724 0.719722 0.87422
0.147875 0.697948 0.710887
0.1552 0.69926 0.71516
0.170855 0.697734 0.721462
0.244572 0.706477 0.741192
0.510811 0.733898 0.778759
0.696773 0.781552 0.825208
0.825742 0.804547 0.851194
0.897475 0.807309 0.859159
0.915816 0.806256 0.862608
0.196841 0.752285 0.725597
0.200015 0.751293 0.72575
0.213611 0.751217 0.728817
0.290455 0.754192 0.735515
0.5355 0.779293 0.768292
0.701961 0.829374 0.818891
0.828229 0.861189 0.849409
0.88513 0.865614 0.852888
0.914534 0.865278 0.852705
0.23386 0.779904 0.730587
0.23949 0.780087 0.730861
0.262272 0.780285 0.731487
0.322301 0.779232 0.73106
0.532433 0.801022 0.75436
0.693217 0.84979 0.804471
0.824125 0.884398 0.843702
0.88748 0.893446 0.858061
0.913573 0.894896 0.858518
