bundles/resolve-cinematic-luts/Phantom Luts/A7s3 Phntm Film LUTs - G6/ATOMOS Monitor LUTs/Slog2+Sgamut3cine/Bleach A7s3 Sl2sg3c-Legacy AML.cube
TITLE "Generated by Resolve"
LUT_3D_SIZE 5
0.0844892 0.0961776 0.0856794
0.114107 0.0973068 0.0869917
0.316838 0.103838 0.103258
0.58436 0.107805 0.151308
0.788952 0.150195 0.269352
0.0921187 0.182025 0.102174
0.184833 0.207782 0.0991684
0.513909 0.169848 0.126329
0.689113 0.137804 0.140017
0.815106 0.188937 0.244602
0.0689555 0.438514 0.125063
0.11313 0.463752 0.078706
0.586069 0.609384 0.168093
0.862394 0.650431 0.332662
0.90721 0.660853 0.390646
0.167132 0.721904 0.300175
0.216251 0.729076 0.239506
0.604364 0.769268 0.283162
0.815244 0.833082 0.384695
0.906111 0.843061 0.544442
0.281788 0.765988 0.388663
0.367559 0.769131 0.381384
0.629892 0.795834 0.466758
0.808057 0.851957 0.568933
0.902296 0.874937 0.620066
0.0827192 0.0967422 0.106691
0.116335 0.0984817 0.109087
0.335561 0.10428 0.179095
0.600244 0.110689 0.224125
0.785504 0.140352 0.32932
0.0885176 0.182101 0.158358
0.202167 0.210056 0.198581
0.533135 0.166125 0.178683
0.712902 0.148028 0.221836
0.826551 0.184771 0.330938
0.0651865 0.446616 0.195163
0.0846876 0.458488 0.141939
0.591516 0.609079 0.242954
0.864698 0.638376 0.399023
0.910002 0.62359 0.48069
0.161761 0.717586 0.353323
0.179141 0.723491 0.305715
0.55758 0.757382 0.30277
0.813519 0.83125 0.392523
0.910933 0.838682 0.578012
0.277913 0.766003 0.442573
0.304738 0.765957 0.399023
0.575219 0.785168 0.453162
0.798291 0.849287 0.57116
0.901122 0.874357 0.616266
0.0817121 0.099794 0.206317
0.155749 0.10074 0.244572
0.366735 0.107362 0.30135
0.631907 0.118364 0.426276
0.804776 0.146059 0.545678
0.0754406 0.156008 0.298451
0.140154 0.152956 0.403494
0.539681 0.122942 0.438941
0.712825 0.131334 0.500954
0.820676 0.152422 0.556771
0.0672923 0.440925 0.37557
0.0792554 0.455375 0.390936
0.616632 0.603311 0.585657
0.855756 0.609033 0.601648
0.904982 0.591241 0.601068
0.150317 0.70602 0.511757
0.1626 0.708766 0.481209
0.52755 0.747799 0.535195
0.816999 0.818952 0.623301
0.916014 0.828779 0.676951
0.255131 0.768261 0.561837
0.296712 0.766979 0.535714
0.538216 0.788739 0.557763
0.798566 0.858335 0.657099
0.90428 0.882979 0.682902
0.0861524 0.102312 0.326452
0.161883 0.103593 0.406409
0.405875 0.10576 0.482216
0.659388 0.125689 0.567788
0.830365 0.157397 0.65919
0.070573 0.13167 0.442191
0.107637 0.117479 0.541894
0.529534 0.116564 0.608087
0.752239 0.145281 0.644266
0.840177 0.165591 0.693828
0.05626 0.431647 0.539254
0.0574044 0.44213 0.572473
0.579293 0.580148 0.747265
0.880385 0.599985 0.794766
0.916304 0.569055 0.812665
0.153552 0.698528 0.647318
0.162753 0.699809 0.648447
0.53254 0.749401 0.706142
0.834333 0.812589 0.785916
0.915846 0.813672 0.796582
0.236316 0.778378 0.673686
0.266331 0.776516 0.663645
0.539574 0.803067 0.684886
0.814786 0.879026 0.783475
0.911116 0.895476 0.803861
0.0920119 0.105425 0.448981
0.166949 0.106371 0.54374
0.426749 0.108782 0.591119
0.677821 0.129091 0.651392
0.846876 0.167742 0.737026
0.06804 0.137743 0.556176
0.0914015 0.119783 0.61799
0.509239 0.118273 0.695949
0.772686 0.154421 0.733303
0.855314 0.175341 0.772778
0.0603037 0.446204 0.623163
0.0660105 0.452384 0.655726
0.552316 0.574578 0.819577
0.890562 0.609079 0.870787
0.916167 0.575296 0.869627
0.147875 0.697948 0.710887
0.170855 0.697734 0.721462
0.510811 0.733898 0.778759
0.825742 0.804547 0.851194
0.915816 0.806256 0.862608
0.23386 0.779904 0.730587
0.262272 0.780285 0.731487
0.532433 0.801022 0.75436
0.824125 0.884398 0.843702
0.913573 0.894896 0.858518
