bundles/resolve-cinematic-luts/Phantom Luts/A7s3 Phntm Film LUTs - G6/ATOMOS Monitor LUTs/Slog2+Sgamut3cine/Bleach A7s3 Sl2sg3c AML.cube
TITLE "Generated by Resolve"
LUT_3D_SIZE 9
0.0767376 0.0882887 0.0783093
0.0767376 0.0882887 0.0783093
0.121187 0.0880598 0.0817121
0.237812 0.0908675 0.0887312
0.371206 0.0930343 0.107271
0.52665 0.0954452 0.133852
0.637613 0.106859 0.179477
0.734371 0.129641 0.245533
0.811673 0.168048 0.322118
0.0766308 0.0888685 0.0783398
0.0782025 0.0897536 0.078584
0.162356 0.0957504 0.0847486
0.311025 0.0955825 0.0893416
0.463828 0.094789 0.101701
0.595026 0.102647 0.134127
0.697353 0.120317 0.186862
0.777203 0.150942 0.249134
0.83003 0.196826 0.322683
0.0809033 0.215747 0.100328
0.0994583 0.22826 0.0813458
0.226566 0.253574 0.0915694
0.457893 0.234195 0.109789
0.587884 0.20415 0.139193
0.665232 0.183566 0.150515
0.731197 0.158511 0.152377
0.794842 0.167956 0.197513
0.833616 0.227329 0.283131
0.0686656 0.3467 0.113603
0.0704051 0.35668 0.0884718
0.196521 0.387778 0.0813001
0.421454 0.459068 0.0996567
0.65478 0.504768 0.166155
0.777417 0.522622 0.258869
0.856245 0.518959 0.311467
0.904433 0.493462 0.357443
0.906752 0.477638 0.366659
0.0587472 0.481849 0.135439
0.0670176 0.494102 0.120439
0.125216 0.511406 0.0808728
0.427573 0.604623 0.14757
0.633249 0.650813 0.185168
0.775723 0.676692 0.250324
0.865171 0.688243 0.349676
0.894881 0.698009 0.393515
0.901457 0.700511 0.414832
0.109987 0.637446 0.249226
0.123781 0.645823 0.235416
0.160662 0.651133 0.173556
0.459068 0.69691 0.208103
0.623407 0.73341 0.251377
0.751949 0.767727 0.287388
0.852659 0.783886 0.373068
0.897917 0.789456 0.48661
0.907393 0.7944 0.526802
0.174319 0.72755 0.334936
0.185901 0.729152 0.317571
0.233082 0.73167 0.266453
0.441627 0.74963 0.27425
0.637217 0.777203 0.322026
0.729458 0.809232 0.378164
0.828779 0.833692 0.441947
0.887922 0.845304 0.534646
0.909483 0.849882 0.592508
0.227924 0.759762 0.381994
0.238254 0.759441 0.362051
0.313191 0.762127 0.341146
0.476905 0.769436 0.365301
0.661265 0.800137 0.441444
0.752132 0.831525 0.515282
0.823087 0.853269 0.545129
0.878126 0.866468 0.585245
0.904051 0.874006 0.6327
0.310826 0.762356 0.43476
0.32575 0.763027 0.418784
0.422858 0.770535 0.439017
0.56051 0.782528 0.480888
0.685786 0.814176 0.548318
0.776379 0.844556 0.597604
0.837339 0.863066 0.617258
0.873854 0.873014 0.631968
0.903548 0.881102 0.665797
0.0767376 0.0883192 0.0783398
0.0767376 0.0882887 0.0783093
0.122408 0.0882277 0.0890669
0.244495 0.0906844 0.116838
0.37911 0.0932326 0.142824
0.530678 0.0957198 0.169238
0.638224 0.106493 0.214755
0.732204 0.125582 0.277195
0.81355 0.167529 0.35465
0.0767376 0.0889754 0.0785687
0.0823987 0.0936141 0.0835431
0.196368 0.0951705 0.0896315
0.323461 0.0937972 0.0987869
0.473808 0.0928664 0.122408
0.59997 0.101839 0.160128
0.700191 0.119966 0.218799
0.785214 0.15198 0.292103
0.838499 0.203037 0.37232
0.0785077 0.223789 0.132036
0.0818647 0.236622 0.105562
0.232731 0.25774 0.0997177
0.479088 0.224292 0.125536
0.595102 0.187396 0.149371
0.6766 0.168887 0.153323
0.766262 0.182727 0.201999
0.808316 0.177356 0.252171
0.84332 0.227802 0.343389
0.0659037 0.351843 0.141222
0.0659495 0.362203 0.116365
0.158358 0.384161 0.0819409
0.426444 0.462669 0.104097
0.669566 0.505119 0.187732
0.776822 0.521584 0.268589
0.867964 0.503716 0.333455
0.906905 0.479789 0.371542
0.90692 0.474144 0.391974
0.0578622 0.485679 0.158892
0.0620432 0.499031 0.144076
0.0968948 0.507393 0.0908064
0.416312 0.604776 0.150301
0.636042 0.653849 0.187594
0.785061 0.677653 0.267414
0.869276 0.687922 0.376669
0.896544 0.695628 0.41886
0.904189 0.692805 0.454154
0.109728 0.639643 0.273411
0.118669 0.649485 0.261112
0.151705 0.652186 0.195789
0.42298 0.69662 0.208896
0.621057 0.733715 0.253208
0.753475 0.769223 0.289036
0.857725 0.783963 0.393973
0.900481 0.788754 0.507652
0.909087 0.793942 0.54078
0.173434 0.727275 0.35642
0.180026 0.729976 0.338598
0.214649 0.730236 0.287846
0.396551 0.748394 0.279103
0.630594 0.775265 0.326177
0.727871 0.808804 0.383764
0.829343 0.833997 0.445914
0.889418 0.845335 0.543389
0.910765 0.849561 0.601816
0.225467 0.759106 0.404532
0.231586 0.759426 0.382742
0.282155 0.760845 0.353079
0.441108 0.768841 0.366629
0.649516 0.796902 0.441215
0.748714 0.830228 0.517571
0.821439 0.852842 0.546456
0.877668 0.866178 0.584787
0.904433 0.87393 0.635111
0.309178 0.762707 0.461219
0.317739 0.762905 0.439063
0.382147 0.768017 0.436728
0.536843 0.77937 0.474617
0.671168 0.810178 0.544823
0.771679 0.842985 0.59733
0.835065 0.862623 0.6177
0.872862 0.872831 0.631479
0.903258 0.880919 0.664576
0.0726329 0.0860304 0.109606
0.0829328 0.0869001 0.107027
0.125826 0.088426 0.114824
0.259937 0.0905623 0.174777
0.400061 0.0935378 0.217105
0.552789 0.099382 0.242618
0.65655 0.113741 0.287739
0.739773 0.126787 0.338506
0.810987 0.156634 0.410254
0.0710155 0.0868849 0.108751
0.0751049 0.0902724 0.14493
0.203784 0.0905928 0.1729
0.335485 0.0925612 0.20238
0.489784 0.0945907 0.216785
0.609689 0.10605 0.248188
0.700938 0.118105 0.295338
0.77525 0.135286 0.348653
0.836973 0.186755 0.436377
0.0759899 0.216388 0.187533
0.0774243 0.231876 0.201419
0.252613 0.257862 0.246891
0.479194 0.229267 0.22533
0.604044 0.195666 0.222339
0.689311 0.180911 0.234653
0.756924 0.167239 0.27071
0.801602 0.154223 0.309606
0.847044 0.218448 0.402747
0.0619211 0.354498 0.209628
0.0611429 0.367224 0.196582
0.142077 0.398596 0.180835
0.469688 0.489555 0.245884
0.675807 0.498466 0.302037
0.796536 0.483223 0.351156
0.877699 0.47744 0.39913
0.902815 0.481346 0.425284
0.898695 0.473823 0.446448
0.057023 0.489967 0.222843
0.0601663 0.502892 0.213321
0.0818341 0.501961 0.160052
0.372305 0.603311 0.234394
0.637812 0.651087 0.278233
0.801663 0.671733 0.371221
0.87068 0.677852 0.445274
0.90248 0.675563 0.495201
0.90927 0.667094 0.521874
0.11017 0.639414 0.324346
0.118029 0.648569 0.315969
0.136751 0.648417 0.26923
0.310979 0.680659 0.251972
0.604059 0.72372 0.307179
0.74995 0.763943 0.346181
0.867796 0.778393 0.455024
0.904982 0.78378 0.551934
0.912062 0.790005 0.572732
0.17319 0.724437 0.397726
0.177905 0.726833 0.382956
0.189258 0.728283 0.340414
0.317815 0.739544 0.302052
0.603067 0.766491 0.34786
0.71957 0.80441 0.40856
0.828077 0.832868 0.452735
0.893751 0.844388 0.563973
0.913909 0.848081 0.622599
0.225162 0.757321 0.44567
0.229603 0.757961 0.426978
0.242939 0.759274 0.385351
0.380011 0.765942 0.368872
0.614054 0.788373 0.43714
0.738323 0.82707 0.521263
0.817044 0.851926 0.550134
0.876646 0.865385 0.583551
0.905562 0.873945 0.642161
0.312749 0.763287 0.502556
0.317586 0.763622 0.484794
0.340581 0.764874 0.453956
0.478782 0.773907 0.470085
0.636255 0.801556 0.537133
0.76083 0.84004 0.59736
0.830304 0.861646 0.620111
0.870558 0.87248 0.6309
0.902495 0.880476 0.662104
0.0733349 0.0872663 0.170687
0.0986648 0.0881514 0.17995
0.166781 0.0877089 0.193668
0.270375 0.0916457 0.224674
0.424903 0.0946212 0.283726
0.566629 0.101442 0.341115
0.66862 0.116472 0.411032
0.752911 0.130739 0.465431
0.81146 0.146273 0.514611
0.0702068 0.0872816 0.184695
0.0742809 0.0877852 0.224262
0.207767 0.0883497 0.280415
0.363455 0.0953231 0.299077
0.514992 0.096849 0.332326
0.625681 0.109941 0.399268
0.71754 0.123766 0.453758
0.78793 0.138811 0.494255
0.825864 0.156344 0.533333
0.0719615 0.203128 0.269688
0.0707866 0.209781 0.304967
0.21059 0.222217 0.38909
0.493828 0.19411 0.407156
0.6103 0.162051 0.417273
0.686748 0.14818 0.405051
0.748577 0.140032 0.415259
0.799481 0.141497 0.453864
0.834348 0.173342 0.514611
0.0608835 0.346975 0.304616
0.062089 0.360586 0.316686
0.125658 0.391272 0.345815
0.504021 0.492073 0.471824
0.678737 0.487968 0.477699
0.794095 0.482139 0.495277
0.875944 0.463218 0.511254
0.902983 0.45211 0.522316
0.905562 0.422232 0.55491
0.0568093 0.492226 0.313939
0.0598459 0.50573 0.316991
0.0783246 0.508354 0.287587
0.402686 0.62623 0.428656
0.654398 0.65742 0.492714
0.794446 0.660304 0.542077
0.871412 0.657496 0.560754
0.905608 0.643488 0.574456
0.909102 0.641032 0.595163
0.107073 0.639796 0.404501
0.11487 0.648707 0.403998
0.132921 0.646418 0.362737
0.322652 0.685618 0.38436
0.601907 0.7243 0.479988
0.753674 0.761288 0.526452
0.878874 0.769345 0.591348
0.905486 0.778302 0.602838
0.915297 0.77969 0.619226
0.166171 0.721721 0.475181
0.17258 0.723812 0.46334
0.185611 0.723659 0.418387
0.312047 0.733745 0.395758
0.570809 0.760891 0.471199
0.723766 0.802472 0.548043
0.832181 0.832563 0.570199
0.903105 0.843137 0.619638
0.916136 0.846662 0.654688
0.217288 0.75523 0.51194
0.224826 0.755474 0.496162
0.240757 0.756619 0.459937
0.349523 0.76318 0.440665
0.574914 0.784482 0.505425
0.736553 0.828748 0.580484
0.818936 0.854719 0.604501
0.878294 0.867521 0.619623
0.908431 0.874647 0.659648
0.309606 0.76495 0.549447
0.321569 0.765515 0.538888
0.346059 0.767666 0.52314
0.402426 0.771695 0.496635
0.600015 0.796277 0.547921
0.746166 0.837888 0.611276
0.825864 0.862257 0.636378
0.869413 0.873381 0.639811
0.902403 0.88098 0.666148
0.0742199 0.0880751 0.240146
0.105791 0.0885328 0.260258
0.184817 0.0881819 0.291646
0.299107 0.0910964 0.317693
0.445411 0.095964 0.353368
0.585046 0.104677 0.430884
0.682033 0.11928 0.507347
0.76144 0.134295 0.56437
0.819928 0.150179 0.604288
0.0714885 0.0899062 0.271321
0.0785992 0.0893111 0.309377
0.208667 0.0908827 0.388602
0.382147 0.0946212 0.411414
0.537057 0.100282 0.439521
0.643076 0.113878 0.502434
0.73077 0.128115 0.553582
0.797452 0.143374 0.596857
0.830976 0.156878 0.620844
0.0674907 0.176669 0.356619
0.0667277 0.180392 0.395438
0.167681 0.173083 0.500267
0.462562 0.14992 0.539727
0.606241 0.130144 0.521019
0.682307 0.125322 0.535103
0.754269 0.135912 0.566964
0.811353 0.146304 0.596429
0.831968 0.15877 0.614374
0.0621958 0.336385 0.400153
0.0608377 0.347707 0.431296
0.0890211 0.352102 0.484199
0.460548 0.456733 0.607279
0.69929 0.464744 0.64239
0.818631 0.451392 0.666377
0.89218 0.420691 0.669245
0.913573 0.392874 0.674525
0.909133 0.357046 0.681437
0.059556 0.487449 0.425315
0.0631723 0.501259 0.441733
0.077821 0.502342 0.444129
0.386999 0.62208 0.585962
0.663371 0.648753 0.631235
0.785245 0.649989 0.637461
0.869688 0.649775 0.643076
0.904936 0.643244 0.649714
0.905898 0.631861 0.64303
0.106905 0.635966 0.511513
0.113542 0.644846 0.517403
0.127947 0.643992 0.498222
0.314412 0.685466 0.532387
0.627665 0.735698 0.617014
0.767514 0.76231 0.645685
0.868086 0.761685 0.671
0.905745 0.76759 0.681437
0.915648 0.764843 0.692134
0.161425 0.719402 0.558877
0.165713 0.721401 0.554879
0.175555 0.720409 0.533181
0.308919 0.731624 0.519783
0.589242 0.770626 0.591928
0.736568 0.811307 0.647425
0.842969 0.837049 0.66627
0.905562 0.841917 0.702586
0.915938 0.844419 0.710994
0.209094 0.754833 0.581582
0.213291 0.754513 0.572488
0.225711 0.753887 0.55259
0.352316 0.763455 0.544442
0.591257 0.794568 0.599725
0.731975 0.835523 0.656641
0.829999 0.862303 0.685573
0.885039 0.873167 0.696498
0.914427 0.878126 0.723949
0.287266 0.767254 0.600931
0.304891 0.767971 0.594232
0.339971 0.77084 0.585611
0.417411 0.778195 0.577737
0.610254 0.809613 0.622431
0.741085 0.848875 0.675303
0.837232 0.873747 0.708171
0.879866 0.88426 0.713085
0.906752 0.88957 0.728771
0.076997 0.089189 0.304356
0.108797 0.0889296 0.333104
0.191302 0.0907607 0.384298
0.314366 0.0942092 0.422065
0.470314 0.0944686 0.453071
0.597253 0.107546 0.510781
0.697551 0.123873 0.570642
0.77792 0.139345 0.616403
0.830289 0.154955 0.654459
0.0753185 0.0911879 0.348104
0.0871595 0.0907607 0.394385
0.209384 0.09308 0.494743
0.391348 0.0968032 0.526055
0.551568 0.0990921 0.53373
0.656046 0.118257 0.570657
0.746792 0.133547 0.613794
0.812055 0.14876 0.647944
0.83856 0.162036 0.676921
0.0648966 0.156222 0.439139
0.0644846 0.160159 0.483314
0.138811 0.136492 0.559045
0.401999 0.121141 0.601038
0.598459 0.115801 0.592645
0.700557 0.130709 0.609995
0.773129 0.143114 0.632959
0.825772 0.153506 0.658701
0.841337 0.164996 0.68513
0.0627451 0.327947 0.505913
0.0630045 0.339422 0.533562
0.0823987 0.334951 0.570199
0.411704 0.414252 0.683803
0.713008 0.439811 0.742123
0.839704 0.430304 0.756115
0.8981 0.384085 0.763531
0.909987 0.337819 0.762127
0.899062 0.295811 0.748287
0.0528725 0.482399 0.510491
0.054551 0.494575 0.525628
0.068864 0.496712 0.544961
0.34165 0.595911 0.658763
0.648295 0.637736 0.714595
0.795285 0.640955 0.733532
0.87953 0.637934 0.741741
0.91249 0.631617 0.739925
0.916014 0.613993 0.748379
0.111742 0.633646 0.585016
0.118257 0.641886 0.593423
0.131807 0.641276 0.593179
0.294682 0.675044 0.630488
0.628626 0.7364 0.702815
0.773632 0.754681 0.733379
0.863493 0.754986 0.741436
0.904097 0.756497 0.745342
0.916014 0.752361 0.749462
0.161913 0.717327 0.623926
0.166003 0.719127 0.623758
0.173877 0.718059 0.615869
0.27953 0.726345 0.611246
0.599176 0.778653 0.672999
0.757473 0.82298 0.731823
0.853422 0.839109 0.746639
0.900023 0.839597 0.762051
0.91606 0.841001 0.767849
0.206485 0.755215 0.640009
0.209155 0.754803 0.635111
0.218051 0.754238 0.625193
0.326421 0.761547 0.620356
0.604669 0.80415 0.670695
0.748287 0.848219 0.729564
0.842741 0.869307 0.760693
0.891371 0.877531 0.765774
0.916259 0.87953 0.78471
0.269932 0.771801 0.650111
0.284138 0.770809 0.64448
0.315038 0.772595 0.639765
0.398581 0.782193 0.641352
0.626551 0.822629 0.685771
0.754543 0.862028 0.738857
0.844694 0.881758 0.7729
0.887236 0.891249 0.778332
0.910292 0.894636 0.785718
0.0822309 0.0903182 0.367849
0.113771 0.0905013 0.409293
0.194629 0.0926223 0.480049
0.325353 0.0957504 0.515587
0.489418 0.0958572 0.536156
0.607752 0.107897 0.570504
0.709758 0.128176 0.619104
0.791638 0.144961 0.663203
0.839994 0.16022 0.696529
0.0802777 0.0927749 0.431708
0.0941787 0.0921645 0.483131
0.211841 0.0957504 0.563592
0.400977 0.0993668 0.596002
0.565103 0.100389 0.600732
0.664454 0.119631 0.623484
0.759777 0.138933 0.662074
0.825284 0.154955 0.695003
0.846113 0.166339 0.715709
0.0632029 0.142962 0.511467
0.0632486 0.143526 0.542336
0.119219 0.114961 0.591775
0.367071 0.109758 0.644297
0.593881 0.116533 0.652049
0.706279 0.134279 0.66598
0.789166 0.150423 0.687449
0.839261 0.161563 0.708873
0.848508 0.169512 0.723751
0.0647288 0.320684 0.57525
0.0652171 0.333486 0.595499
0.0807507 0.323095 0.629389
0.374075 0.382834 0.735744
0.700526 0.413443 0.807782
0.846998 0.406867 0.815274
0.899504 0.357275 0.806439
0.904952 0.306279 0.791318
0.887892 0.252964 0.769375
0.0562295 0.487114 0.571038
0.0578164 0.498543 0.58526
0.0589303 0.497719 0.601541
0.296498 0.575875 0.702724
0.631983 0.627604 0.775158
0.807645 0.640925 0.803723
0.890471 0.640528 0.813504
0.915785 0.631159 0.819959
0.915862 0.611795 0.827665
0.099321 0.630106 0.632151
0.1075 0.638163 0.641703
0.127977 0.640421 0.651438
0.289876 0.665629 0.693477
0.615854 0.72195 0.758831
0.76701 0.746777 0.7906
0.86595 0.747707 0.80032
0.908064 0.748089 0.804089
0.915908 0.74493 0.805219
0.165499 0.716518 0.669444
0.170169 0.718151 0.671534
0.17821 0.716976 0.670436
0.27776 0.723201 0.677272
0.591363 0.774777 0.733547
0.763729 0.825803 0.790188
0.855833 0.834333 0.804028
0.898985 0.83537 0.809842
0.915969 0.834836 0.814572
0.207553 0.755001 0.682307
0.209934 0.75462 0.68043
0.217334 0.754131 0.676768
0.311498 0.758907 0.677028
0.591714 0.80293 0.722438
0.758556 0.854383 0.781826
0.85304 0.872557 0.810803
0.895155 0.877516 0.81268
0.915053 0.877577 0.819303
0.265644 0.773678 0.688685
0.269535 0.773587 0.685557
0.301167 0.773724 0.682002
0.376074 0.782193 0.685924
0.614069 0.822995 0.727428
0.767224 0.869123 0.784375
0.853346 0.886915 0.813306
0.891005 0.894057 0.820462
0.913069 0.89633 0.823331
0.0880446 0.0916152 0.437903
0.118166 0.0919203 0.487358
0.200961 0.0948501 0.546563
0.337682 0.0980392 0.577325
0.500572 0.0981003 0.589456
0.615076 0.104112 0.613794
0.71986 0.132113 0.659892
0.803738 0.149966 0.700648
0.846616 0.164202 0.729488
0.084535 0.0945296 0.505257
0.0992752 0.0944839 0.543923
0.213413 0.0982223 0.610162
0.40737 0.101534 0.645045
0.574762 0.103197 0.651438
0.670542 0.112902 0.665278
0.767895 0.143465 0.70016
0.836408 0.160021 0.730709
0.851835 0.169894 0.748012
0.0635538 0.144091 0.562783
0.0635691 0.142107 0.585336
0.103899 0.106477 0.614038
0.348898 0.10782 0.678645
0.585367 0.114473 0.69131
0.709194 0.134569 0.707454
0.798215 0.155978 0.72636
0.848295 0.167208 0.745174
0.854765 0.173129 0.757259
0.0662852 0.319677 0.617182
0.0666514 0.329595 0.637003
0.0756085 0.315663 0.663996
0.351751 0.370779 0.77116
0.684108 0.403815 0.839048
0.843732 0.39733 0.849073
0.900526 0.348608 0.834882
0.903441 0.288792 0.813092
0.882048 0.230518 0.785016
0.0596017 0.494224 0.613123
0.061799 0.505577 0.626139
0.0624247 0.501976 0.639612
0.283925 0.571344 0.736492
0.619348 0.622339 0.807599
0.804959 0.641276 0.844007
0.897353 0.643153 0.847135
0.915908 0.634195 0.851926
0.915984 0.613108 0.853941
0.087953 0.630137 0.664088
0.0893568 0.635203 0.670695
0.11014 0.638361 0.683223
0.240436 0.656184 0.719905
0.595819 0.712505 0.78471
0.758236 0.742611 0.825177
0.870893 0.748989 0.836789
0.911711 0.749477 0.844617
0.91574 0.745464 0.850935
0.164416 0.71577 0.697276
0.170642 0.716686 0.699687
0.184268 0.715755 0.702113
0.289342 0.722515 0.716594
0.598291 0.769726 0.773892
0.75906 0.819501 0.820233
0.85182 0.830427 0.831571
0.897185 0.830945 0.831815
0.91606 0.830365 0.833661
0.209766 0.755184 0.709102
0.212406 0.754543 0.708461
0.218753 0.753857 0.707835
0.313619 0.75816 0.712627
0.590173 0.800153 0.756634
0.754253 0.853468 0.812024
0.857176 0.872938 0.837644
0.895476 0.874922 0.839887
0.914565 0.875334 0.842741
0.262943 0.77438 0.713802
0.267033 0.774594 0.712612
0.295857 0.77406 0.71107
0.36994 0.780758 0.716335
0.604486 0.819623 0.755413
0.759579 0.868833 0.809415
0.859373 0.889006 0.837461
0.89398 0.894331 0.843473
0.913588 0.895979 0.845212
0.0923781 0.0930037 0.502129
0.120989 0.0937057 0.542123
0.205432 0.0974136 0.593973
0.348638 0.100587 0.624826
0.50811 0.0996719 0.627878
0.622812 0.10631 0.651194
0.724727 0.129076 0.689311
0.812116 0.153552 0.728969
0.851118 0.167056 0.755108
0.085832 0.0978408 0.555261
0.100435 0.098024 0.587518
0.21355 0.10071 0.645685
0.408347 0.103426 0.681559
0.581628 0.105562 0.689357
0.680919 0.114153 0.700984
0.771649 0.141405 0.726406
0.843336 0.163531 0.756542
0.855467 0.17203 0.771634
0.0640116 0.15082 0.601251
0.0641337 0.146456 0.619471
0.0948959 0.108248 0.637369
0.334401 0.107378 0.702312
0.577234 0.112734 0.718105
0.710018 0.134737 0.736278
0.803876 0.157946 0.753811
0.853559 0.172564 0.770977
0.857877 0.17557 0.780041
0.0674296 0.321065 0.647898
0.0679026 0.330159 0.664881
0.0746624 0.315038 0.687434
0.333806 0.367849 0.792386
0.670298 0.406943 0.856596
0.837827 0.40116 0.868223
0.902403 0.362509 0.856306
0.911894 0.307881 0.838834
0.88954 0.243503 0.812299
0.0624247 0.502449 0.641413
0.0650492 0.513283 0.654231
0.0653697 0.507561 0.66685
0.281453 0.573098 0.761028
0.610071 0.621363 0.82562
0.79675 0.643076 0.863722
0.899382 0.647028 0.867536
0.915846 0.638453 0.868879
0.915938 0.616068 0.869093
0.0866255 0.634684 0.686381
0.0889448 0.639094 0.693431
0.0965133 0.637827 0.701244
0.226459 0.657557 0.740703
0.585275 0.708659 0.800885
0.751949 0.741146 0.84477
0.873442 0.751049 0.858885
0.915175 0.752544 0.864317
0.915785 0.749065 0.868452
0.153567 0.715663 0.715846
0.163104 0.716457 0.719097
0.18529 0.71545 0.723644
0.277455 0.720989 0.739254
0.580362 0.761028 0.789242
0.746105 0.813428 0.833082
0.851774 0.82829 0.849042
0.897551 0.828717 0.853925
0.915999 0.827817 0.855024
0.213153 0.754849 0.725734
0.217487 0.754177 0.726299
0.234379 0.75407 0.728435
0.328466 0.75845 0.735439
0.598352 0.799405 0.780346
0.755154 0.85066 0.830503
0.856641 0.871 0.851774
0.893187 0.873106 0.85388
0.913466 0.873213 0.855299
0.259648 0.774517 0.729778
0.267109 0.774746 0.7299
0.293278 0.774578 0.729717
0.372198 0.779934 0.735485
0.605646 0.818647 0.774258
0.756909 0.867811 0.824948
0.859068 0.889128 0.851591
0.89482 0.893629 0.856733
0.913436 0.894759 0.858289
