bundles/resolve-cinematic-luts/Phantom Luts/A7s3 Phntm Film LUTs - G6/ATOMOS Monitor LUTs/Slog2+Sgamut3cine/Bleach A7s3 Sl2sg3c AML.cube
TITLE "Generated by Resolve"
LUT_3D_SIZE 33
0.0767376 0.0882887 0.0783093
0.0767376 0.0882887 0.0783093
0.0767376 0.0882887 0.0783093
0.0767376 0.0882887 0.0783093
0.0767376 0.0882887 0.0783093
0.0773327 0.0882734 0.0783703
0.0842451 0.0879683 0.0794385
0.0999619 0.0878614 0.0799878
0.121187 0.0880598 0.0817121
0.145632 0.0887312 0.0831769
0.173175 0.0898146 0.0843519
0.204318 0.0906081 0.0861067
0.237812 0.0908675 0.0887312
0.271244 0.0910658 0.0920577
0.305135 0.0928664 0.0955978
0.337743 0.0931106 0.101503
0.371206 0.0930343 0.107271
0.408789 0.0928817 0.113268
0.451209 0.0928817 0.119142
0.491203 0.0934005 0.125933
0.52665 0.0954452 0.133852
0.55787 0.098085 0.143572
0.586313 0.10071 0.154284
0.612329 0.103212 0.165972
0.637613 0.106859 0.179477
0.663417 0.110964 0.19408
0.687938 0.116457 0.210269
0.711788 0.122499 0.227497
0.734371 0.129641 0.245533
0.755535 0.13753 0.263569
0.775952 0.145892 0.282734
0.794934 0.156313 0.302068
0.811673 0.168048 0.322118
0.0767376 0.0882887 0.0783093
0.0767376 0.0882887 0.0783093
0.0767376 0.0882887 0.0783093
0.0767376 0.0882887 0.0783093
0.0769207 0.0882887 0.0783398
0.0783093 0.0882887 0.0785382
0.0916762 0.087953 0.0792401
0.113893 0.087892 0.0809339
0.140475 0.0888991 0.0831617
0.170062 0.0898451 0.0844129
0.202289 0.0905776 0.0859846
0.236255 0.0909133 0.0884871
0.270298 0.0911421 0.0918746
0.304997 0.0927596 0.0955978
0.337774 0.0931716 0.101259
0.371847 0.0930648 0.107134
0.410208 0.0929732 0.113191
0.453452 0.0929885 0.119005
0.494133 0.0935836 0.125856
0.528679 0.0958114 0.133577
0.55996 0.0983139 0.143404
0.587808 0.100893 0.153918
0.613519 0.103487 0.165042
0.638819 0.107195 0.178286
0.663844 0.111238 0.192462
0.68806 0.116793 0.207645
0.711345 0.122698 0.224109
0.733059 0.129656 0.240726
0.753506 0.137118 0.258106
0.773175 0.145113 0.275486
0.791196 0.154543 0.293263
0.808026 0.165225 0.311986
0.821347 0.178302 0.33138
0.0767376 0.0882887 0.0783093
0.0767376 0.0882887 0.0783093
0.0767376 0.0882887 0.0783093
0.0767376 0.0882887 0.0783093
0.0771191 0.0882734 0.0783551
0.0835889 0.0880446 0.0793317
0.102159 0.0881361 0.0800793
0.126513 0.0881971 0.0820935
0.155062 0.0891737 0.0835584
0.186557 0.0900587 0.0845502
0.22002 0.0906233 0.0864424
0.25481 0.0910201 0.0898146
0.289677 0.0916457 0.0936599
0.324437 0.0931106 0.0977798
0.358038 0.093431 0.103227
0.393835 0.09308 0.109148
0.436088 0.0929122 0.114702
0.479088 0.0933547 0.121126
0.516243 0.0952926 0.127993
0.548531 0.0979019 0.136645
0.577005 0.100267 0.145983
0.603616 0.103136 0.156405
0.628626 0.106325 0.167437
0.653895 0.110231 0.180423
0.677714 0.114992 0.193729
0.701518 0.120958 0.208606
0.723507 0.127825 0.224918
0.743984 0.13492 0.240787
0.763622 0.142596 0.258076
0.782452 0.151308 0.275624
0.799558 0.160647 0.29305
0.813123 0.171695 0.310826
0.825315 0.184894 0.33051
0.0767376 0.0882887 0.0783093
0.0767376 0.0882887 0.0783093
0.0767376 0.0882887 0.0783093
0.0767376 0.0882887 0.0783093
0.0771649 0.0882429 0.0783856
0.0852064 0.0886702 0.0796521
0.102724 0.0888685 0.0798657
0.126726 0.08925 0.0820783
0.155032 0.0893111 0.0832532
0.188327 0.0903944 0.0844739
0.224231 0.0911116 0.0864729
0.259907 0.0915541 0.0895705
0.295552 0.0918441 0.0931563
0.328359 0.0918746 0.0990921
0.363684 0.092958 0.103151
0.402701 0.0934768 0.10811
0.447837 0.0932631 0.112993
0.491051 0.0943313 0.118547
0.527123 0.0965286 0.125704
0.559258 0.0989853 0.134112
0.58735 0.10103 0.142977
0.613077 0.103487 0.15346
0.638132 0.106813 0.165026
0.662943 0.110414 0.178561
0.687556 0.117449 0.191623
0.711452 0.125994 0.202731
0.732326 0.132738 0.219043
0.752148 0.139483 0.236683
0.770932 0.146746 0.253788
0.788113 0.155688 0.271199
0.805417 0.165652 0.29044
0.816754 0.177432 0.308522
0.827588 0.189792 0.327489
0.0766308 0.0888685 0.0783398
0.0765087 0.0892042 0.0782788
0.0764324 0.0894026 0.0782483
0.0764782 0.0894636 0.0782483
0.0782025 0.0897536 0.078584
0.0855573 0.0929885 0.0807202
0.104326 0.0953231 0.081239
0.129839 0.0959793 0.0823072
0.162356 0.0957504 0.0847486
0.19855 0.0949722 0.085832
0.237522 0.0948501 0.0861067
0.274586 0.0952163 0.0873732
0.311025 0.0955825 0.0893416
0.343328 0.0958267 0.0914626
0.377066 0.0959182 0.0940414
0.418555 0.0957351 0.0978866
0.463828 0.094789 0.101701
0.505165 0.0950332 0.108156
0.534768 0.0962234 0.114443
0.567941 0.0999924 0.124346
0.595026 0.102647 0.134127
0.625544 0.105943 0.147478
0.64976 0.109087 0.159838
0.673198 0.113054 0.174136
0.697353 0.120317 0.186862
0.717952 0.125093 0.204349
0.738445 0.130907 0.2224
0.757961 0.140703 0.235874
0.777203 0.150942 0.249134
0.794217 0.160723 0.266606
0.810605 0.171542 0.285786
0.819699 0.183291 0.303273
0.83003 0.196826 0.322683
0.0797894 0.104158 0.0830701
0.0808728 0.110246 0.0846723
0.0816968 0.114427 0.0847028
0.0843671 0.11519 0.0841688
0.0926986 0.117113 0.0856336
0.107027 0.121691 0.0874495
0.128328 0.124681 0.0860304
0.160662 0.124666 0.0861219
0.19704 0.123644 0.0885786
0.230808 0.121736 0.0911421
0.266819 0.115679 0.093843
0.301869 0.112093 0.0945296
0.333272 0.110048 0.094255
0.361654 0.107103 0.0924849
0.393133 0.103471 0.090074
0.433524 0.10103 0.0905623
0.470497 0.0982071 0.091371
0.506325 0.0974289 0.0955978
0.537163 0.0978714 0.100786
0.567636 0.0992905 0.109148
0.59881 0.103655 0.121202
0.624292 0.10602 0.131853
0.652934 0.109972 0.147051
0.681361 0.117968 0.164569
0.705333 0.123186 0.181033
0.728786 0.128954 0.200229
0.747982 0.134691 0.217182
0.764691 0.140566 0.236408
0.783307 0.151553 0.249821
0.800565 0.165377 0.263615
0.814954 0.178286 0.279515
0.823148 0.190967 0.297063
0.831434 0.205173 0.31635
0.083711 0.140154 0.0903792
0.0843671 0.148928 0.0915236
0.085359 0.152392 0.0912032
0.0885328 0.151843 0.088777
0.100557 0.155459 0.0882429
0.122499 0.1626 0.0915084
0.145449 0.164981 0.0924239
0.176623 0.167239 0.087129
0.223636 0.163989 0.0890516
0.264134 0.160876 0.0936599
0.308537 0.151095 0.100282
0.340337 0.143893 0.103578
0.374502 0.137453 0.105226
0.408042 0.130694 0.104555
0.441733 0.124804 0.102556
0.472251 0.119799 0.0998398
0.499535 0.114992 0.0973831
0.523583 0.110384 0.0962081
0.55198 0.109895 0.0993515
0.577829 0.107897 0.104067
0.606729 0.109331 0.113695
0.631479 0.111177 0.123095
0.656703 0.115511 0.134524
0.684474 0.120302 0.150439
0.711925 0.12781 0.167346
0.73341 0.13402 0.183993
0.756207 0.140978 0.20383
0.776379 0.149096 0.225391
0.791135 0.156344 0.243778
0.80383 0.164767 0.2636
0.816114 0.179889 0.277409
0.823133 0.189837 0.297337
0.831098 0.202152 0.319142
0.0833143 0.178332 0.0956436
0.0831464 0.186175 0.0964675
0.0835584 0.189654 0.0948653
0.0861524 0.18819 0.0892195
0.102754 0.191867 0.0857557
0.131411 0.2 0.0896315
0.154421 0.205951 0.0920729
0.184329 0.20798 0.092256
0.222477 0.210269 0.0860456
0.279973 0.206073 0.0894789
0.332403 0.199237 0.0980392
0.381582 0.18938 0.106157
0.426261 0.1776 0.110857
0.464027 0.168002 0.114076
0.495644 0.161395 0.117327
0.524346 0.156558 0.118364
0.549187 0.150729 0.119203
0.570397 0.146288 0.118929
0.588479 0.141497 0.117586
0.605783 0.137606 0.116457
0.621881 0.131121 0.116075
0.644388 0.129458 0.121996
0.669154 0.126848 0.130495
0.69369 0.129137 0.142809
0.717647 0.131563 0.155749
0.738796 0.139116 0.169711
0.756985 0.144717 0.183108
0.779141 0.153201 0.203571
0.795148 0.164797 0.224948
0.809186 0.178775 0.24593
0.816846 0.188602 0.265171
0.823865 0.198169 0.285878
0.831891 0.211109 0.307256
0.0809033 0.215747 0.100328
0.0805066 0.223148 0.100572
0.0811627 0.226596 0.0979934
0.0830854 0.225635 0.090013
0.0994583 0.22826 0.0813458
0.133547 0.235966 0.0852979
0.159426 0.242802 0.0884565
0.185321 0.248478 0.091371
0.226566 0.253574 0.0915694
0.27129 0.256504 0.0845045
0.334096 0.252766 0.0899214
0.396262 0.244694 0.10045
0.457893 0.234195 0.109789
0.505531 0.22208 0.119249
0.538521 0.214633 0.12755
0.562783 0.21181 0.13341
0.587884 0.20415 0.139193
0.611231 0.197162 0.145785
0.631769 0.193774 0.149142
0.649241 0.188891 0.150713
0.665232 0.183566 0.150515
0.67924 0.177401 0.148196
0.695888 0.172976 0.147768
0.713436 0.162921 0.147768
0.731197 0.158511 0.152377
0.751888 0.158236 0.163989
0.769207 0.158984 0.174609
0.78677 0.165103 0.187198
0.794842 0.167956 0.197513
0.81088 0.185748 0.219013
0.818433 0.201205 0.240162
0.825727 0.216114 0.260639
0.833616 0.227329 0.283131
0.0793774 0.251652 0.105196
0.0787366 0.2589 0.10515
0.0788281 0.261814 0.100313
0.0794232 0.261204 0.0902724
0.0910658 0.261631 0.0773022
0.125017 0.268589 0.0795453
0.157153 0.276738 0.0835737
0.185687 0.28397 0.0870222
0.219135 0.292103 0.0914168
0.270344 0.299351 0.0913405
0.319234 0.303197 0.082948
0.386511 0.30074 0.0883497
0.464805 0.292973 0.101671
0.519066 0.28864 0.115434
0.562875 0.28275 0.131823
0.594507 0.280552 0.144961
0.619883 0.279927 0.155627
0.644358 0.271504 0.16701
0.666194 0.268879 0.176745
0.68809 0.261204 0.185977
0.707881 0.253773 0.192386
0.725643 0.248341 0.194842
0.740627 0.240635 0.194491
0.75407 0.233997 0.192264
0.769192 0.226139 0.189868
0.781659 0.219776 0.187747
0.796338 0.21651 0.193088
0.807492 0.20798 0.1935
0.816236 0.207782 0.200137
0.822049 0.206836 0.207263
0.823041 0.206424 0.213245
0.829496 0.224292 0.23154
0.83447 0.239933 0.249622
0.0763104 0.285985 0.108995
0.0756237 0.292332 0.108354
0.0756085 0.295064 0.103212
0.0760204 0.294713 0.0925154
0.0814832 0.294301 0.079469
0.108202 0.297856 0.0738537
0.144411 0.307317 0.078233
0.181445 0.316121 0.0831006
0.21622 0.3252 0.0877546
0.255909 0.335836 0.0923629
0.315206 0.346197 0.0914015
0.370016 0.351385 0.0822919
0.446097 0.350637 0.0884718
0.520714 0.349493 0.1066
0.570672 0.353689 0.128573
0.613001 0.355123 0.150988
0.648325 0.357443 0.172244
0.675334 0.36051 0.188861
0.700755 0.361822 0.204944
0.72401 0.364843 0.219425
0.747967 0.351751 0.233631
0.771099 0.344213 0.246113
0.790906 0.336095 0.253147
0.80914 0.326345 0.25861
0.823621 0.320851 0.26067
0.836332 0.314885 0.2607
0.845838 0.308446 0.258839
0.85388 0.302556 0.256748
0.859495 0.295064 0.253712
0.86099 0.290806 0.252232
0.861036 0.290211 0.257053
0.856916 0.281621 0.253452
0.855634 0.280598 0.255833
0.0726177 0.31696 0.111025
0.0719921 0.322942 0.110765
0.0717327 0.325307 0.106157
0.072282 0.325994 0.0958572
0.0754711 0.325582 0.0830396
0.0903944 0.327138 0.0729076
0.127123 0.335332 0.0738689
0.167468 0.345907 0.0794995
0.209552 0.356268 0.084184
0.249744 0.368826 0.0895552
0.294209 0.383215 0.0929122
0.362402 0.397299 0.0931106
0.427848 0.405081 0.0844892
0.500725 0.411795 0.0927291
0.56788 0.421042 0.118181
0.61796 0.43212 0.148959
0.658869 0.439612 0.17705
0.695644 0.446113 0.203204
0.724834 0.449363 0.224445
0.747326 0.453574 0.240314
0.767254 0.457313 0.252583
0.793729 0.452476 0.270176
0.819883 0.44712 0.287984
0.843961 0.434928 0.303029
0.863096 0.423651 0.316976
0.875959 0.417578 0.323156
0.887434 0.412955 0.328588
0.894789 0.406851 0.331106
0.901198 0.401984 0.332509
0.900359 0.397742 0.332372
0.90016 0.39498 0.333806
0.89897 0.39144 0.332311
0.896895 0.38352 0.330114
0.0686656 0.3467 0.113603
0.0676738 0.352697 0.113191
0.0674601 0.355764 0.109056
0.0681468 0.356405 0.0996872
0.0704051 0.35668 0.0884718
0.079942 0.357748 0.0775616
0.105089 0.362753 0.0718242
0.148547 0.374624 0.0760967
0.196521 0.387778 0.0813001
0.24271 0.401556 0.0853132
0.283436 0.419577 0.0903792
0.336507 0.440833 0.0961166
0.421454 0.459068 0.0996567
0.489204 0.470451 0.0943923
0.550713 0.482872 0.106905
0.608713 0.495262 0.134279
0.65478 0.504768 0.166155
0.692134 0.511757 0.194903
0.724269 0.517281 0.220478
0.751293 0.519799 0.24004
0.777417 0.522622 0.258869
0.794079 0.526848 0.268528
0.813718 0.527108 0.280812
0.836469 0.524483 0.296818
0.856245 0.518959 0.311467
0.872374 0.513359 0.324895
0.885863 0.507286 0.336324
0.896925 0.499352 0.34844
0.904433 0.493462 0.357443
0.905333 0.490303 0.359609
0.906188 0.485649 0.362387
0.906264 0.481285 0.364767
0.906752 0.477638 0.366659
0.0638285 0.377417 0.116182
0.0627756 0.383429 0.11574
0.0628824 0.387228 0.111833
0.0647898 0.388479 0.103105
0.0677348 0.388983 0.0938735
0.0733501 0.390417 0.0822919
0.0878309 0.392081 0.0712749
0.126787 0.403403 0.0713817
0.175463 0.418769 0.0769055
0.234211 0.437278 0.0836347
0.280507 0.456291 0.0894331
0.33022 0.480385 0.0998856
0.400443 0.504433 0.111879
0.490639 0.520394 0.11725
0.546944 0.532143 0.114595
0.598383 0.543374 0.126848
0.645899 0.55227 0.151644
0.687984 0.559167 0.18436
0.723323 0.565301 0.215122
0.752911 0.570138 0.239628
0.780621 0.573465 0.260502
0.806546 0.575235 0.280476
0.82153 0.578958 0.289296
0.834592 0.582483 0.29723
0.852918 0.581064 0.311604
0.867048 0.581201 0.323552
0.88014 0.578012 0.335454
0.890013 0.57702 0.346227
0.896498 0.573281 0.354894
0.901808 0.569696 0.362936
0.903639 0.566796 0.367346
0.903578 0.562036 0.370703
0.90425 0.559442 0.373785
0.0582589 0.410132 0.118853
0.0573434 0.41677 0.118318
0.0586099 0.42179 0.114321
0.0618601 0.423102 0.10663
0.0657054 0.423957 0.0979171
0.0694438 0.42504 0.0876478
0.0762188 0.426169 0.0730144
0.107591 0.434028 0.0694438
0.154253 0.450065 0.0744793
0.218463 0.470603 0.0843061
0.288731 0.495613 0.097261
0.339086 0.518914 0.108476
0.399939 0.542763 0.123659
0.477211 0.559609 0.133364
0.548379 0.571847 0.139422
0.594415 0.581674 0.136919
0.637583 0.590967 0.148028
0.679545 0.598383 0.171496
0.719219 0.60351 0.204242
0.75407 0.608942 0.237232
0.78233 0.613687 0.262409
0.807858 0.616327 0.283482
0.831052 0.617761 0.302266
0.845136 0.620905 0.312566
0.854917 0.62504 0.319524
0.867857 0.626398 0.330694
0.878431 0.627146 0.341436
0.888045 0.626459 0.351965
0.895506 0.62681 0.361624
0.901579 0.626627 0.370779
0.90277 0.625467 0.374548
0.904158 0.623804 0.379858
0.904479 0.621012 0.382757
0.0565805 0.44538 0.123919
0.0572366 0.453422 0.124697
0.0589761 0.457496 0.121416
0.0613565 0.458412 0.114122
0.0641184 0.45861 0.105211
0.0682689 0.459861 0.0955825
0.0745403 0.462409 0.0835431
0.0893873 0.466087 0.0702373
0.139361 0.480812 0.0760967
0.205539 0.502678 0.0887617
0.289616 0.531975 0.107164
0.358343 0.556786 0.122484
0.407095 0.574426 0.133608
0.473213 0.590311 0.145357
0.53611 0.603174 0.154147
0.59443 0.61413 0.161868
0.634882 0.622812 0.161044
0.673381 0.630518 0.172763
0.711055 0.637446 0.194354
0.749187 0.64239 0.2271
0.783429 0.646647 0.260441
0.808392 0.650248 0.284108
0.830671 0.653483 0.305653
0.851377 0.6551 0.324605
0.864195 0.657481 0.339376
0.87219 0.660594 0.346639
0.879591 0.6636 0.353628
0.888075 0.665003 0.363638
0.894026 0.666728 0.371603
0.899229 0.666957 0.37998
0.900755 0.667262 0.385245
0.90219 0.666484 0.389624
0.902724 0.66453 0.394202
0.0587472 0.481849 0.135439
0.0596628 0.488914 0.137362
0.0616922 0.493034 0.135576
0.0636301 0.493767 0.12932
0.0670176 0.494102 0.120439
0.0717937 0.495476 0.109529
0.0776226 0.497368 0.0983902
0.0885023 0.500542 0.0829786
0.125216 0.511406 0.0808728
0.201663 0.536873 0.0979629
0.288426 0.565057 0.119295
0.366766 0.588418 0.136385
0.427573 0.604623 0.14757
0.477104 0.616785 0.156847
0.53312 0.629801 0.1682
0.584436 0.641474 0.177035
0.633249 0.650813 0.185168
0.670451 0.659312 0.187274
0.705638 0.666209 0.199359
0.740551 0.672358 0.220905
0.775723 0.676692 0.250324
0.808408 0.679896 0.282902
0.831083 0.683574 0.306874
0.850706 0.686336 0.329
0.865171 0.688243 0.349676
0.877653 0.689982 0.370291
0.883497 0.693019 0.376822
0.888884 0.696208 0.38378
0.894881 0.698009 0.393515
0.898299 0.700175 0.399832
0.900435 0.701106 0.405921
0.901335 0.700847 0.410925
0.901457 0.700511 0.414832
0.0642252 0.518593 0.15378
0.0660258 0.526085 0.157397
0.0683452 0.530282 0.156588
0.0708476 0.531258 0.15024
0.0744945 0.531182 0.140887
0.0800336 0.531914 0.129259
0.0866102 0.534005 0.118761
0.0953078 0.537346 0.10367
0.128206 0.547845 0.0973678
0.195529 0.568734 0.108827
0.289219 0.595926 0.13254
0.372488 0.617212 0.151415
0.439765 0.630533 0.161578
0.493675 0.641993 0.170184
0.533669 0.65272 0.179858
0.580789 0.665629 0.192584
0.624369 0.676036 0.201785
0.667765 0.68452 0.210285
0.701564 0.691997 0.215198
0.73492 0.698329 0.227436
0.766979 0.703899 0.246738
0.799695 0.70779 0.273365
0.828946 0.710506 0.307591
0.849393 0.713039 0.333913
0.864561 0.715633 0.358694
0.876371 0.717464 0.380529
0.886137 0.719524 0.40296
0.891569 0.722072 0.415152
0.896056 0.724407 0.422751
0.89865 0.726696 0.429541
0.900847 0.728298 0.435401
0.901061 0.729702 0.437232
0.901488 0.72958 0.440482
0.0752422 0.558083 0.18117
0.0784772 0.566629 0.186572
0.0809491 0.570901 0.18645
0.0840162 0.571466 0.180056
0.0884565 0.571252 0.16994
0.0945144 0.571939 0.157504
0.101625 0.573892 0.145052
0.109972 0.577005 0.131945
0.124529 0.581476 0.111376
0.198779 0.602899 0.125399
0.288869 0.624491 0.146227
0.373953 0.642893 0.164996
0.454994 0.65481 0.175998
0.508415 0.665522 0.18558
0.546792 0.676005 0.195468
0.580575 0.686397 0.206943
0.620752 0.697963 0.219303
0.66009 0.707622 0.228626
0.698512 0.715373 0.236835
0.730922 0.722225 0.242832
0.762158 0.727947 0.254994
0.791577 0.732921 0.273884
0.819745 0.736217 0.300938
0.845151 0.737789 0.335302
0.863645 0.739925 0.366705
0.875395 0.742123 0.391104
0.885573 0.744106 0.415564
0.892378 0.745495 0.436927
0.898375 0.747463 0.453681
0.900099 0.749264 0.459678
0.902464 0.751598 0.466239
0.902922 0.753307 0.468467
0.902922 0.754406 0.468864
0.0910353 0.599054 0.214908
0.0948959 0.606836 0.220691
0.097734 0.611048 0.220157
0.100694 0.611841 0.213794
0.105837 0.611444 0.203037
0.112276 0.611597 0.189548
0.119936 0.612558 0.174502
0.129244 0.615625 0.162066
0.143847 0.619516 0.143343
0.196155 0.633234 0.142016
0.291249 0.651835 0.162432
0.375189 0.667262 0.180591
0.456748 0.677653 0.191806
0.5205 0.686778 0.201541
0.557977 0.697078 0.211902
0.589151 0.707057 0.223606
0.619242 0.716945 0.234989
0.654658 0.727245 0.245884
0.690684 0.736431 0.255039
0.72665 0.743801 0.262455
0.757 0.74931 0.269535
0.785473 0.753719 0.28275
0.81236 0.758495 0.30399
0.837613 0.761166 0.334203
0.859724 0.763104 0.37145
0.874449 0.764675 0.402518
0.884321 0.766064 0.428519
0.892134 0.768063 0.452003
0.897902 0.769314 0.470512
0.902541 0.771176 0.486793
0.903975 0.772778 0.493019
0.90428 0.77435 0.497307
0.904448 0.775433 0.499229
0.109987 0.637446 0.249226
0.113756 0.643412 0.253574
0.115892 0.646342 0.251957
0.118746 0.646326 0.245548
0.123781 0.645823 0.235416
0.130266 0.645701 0.221424
0.138415 0.646433 0.205402
0.14818 0.64799 0.189303
0.160662 0.651133 0.173556
0.206165 0.661311 0.165927
0.288426 0.675471 0.178882
0.375509 0.688762 0.196719
0.459068 0.69691 0.208103
0.523964 0.704921 0.217151
0.566125 0.714504 0.228473
0.59617 0.72369 0.23949
0.623407 0.73341 0.251377
0.651484 0.742748 0.262577
0.683299 0.752102 0.271534
0.716869 0.760311 0.279423
0.751949 0.767727 0.287388
0.779049 0.77261 0.298726
0.806638 0.77731 0.316228
0.831342 0.781064 0.343893
0.852659 0.783886 0.373068
0.870161 0.785321 0.408148
0.88336 0.78648 0.442939
0.891966 0.788037 0.466987
0.897917 0.789456 0.48661
0.902922 0.791257 0.502602
0.905425 0.791974 0.514595
0.906783 0.793103 0.523095
0.907393 0.7944 0.526802
0.127413 0.668116 0.277104
0.130739 0.672389 0.279927
0.132769 0.674556 0.277928
0.135698 0.674693 0.271901
0.140902 0.674357 0.262806
0.147356 0.674098 0.250385
0.155642 0.674022 0.233494
0.165362 0.675242 0.215991
0.17908 0.677638 0.199847
0.209842 0.684352 0.18732
0.286854 0.696178 0.195605
0.372351 0.70721 0.212375
0.456428 0.713649 0.223102
0.526696 0.719936 0.232609
0.570764 0.729397 0.243519
0.601678 0.738598 0.255085
0.628138 0.747265 0.266438
0.652354 0.756115 0.277836
0.678798 0.764721 0.287984
0.709575 0.773922 0.296391
0.741924 0.781598 0.303868
0.774075 0.78854 0.312963
0.799954 0.793286 0.331258
0.825635 0.797421 0.358022
0.846616 0.800809 0.385687
0.86479 0.803372 0.416495
0.878798 0.804532 0.449943
0.891081 0.806195 0.482826
0.897856 0.807324 0.501884
0.903426 0.808835 0.518822
0.906691 0.81004 0.531365
0.909392 0.810849 0.541878
0.910246 0.811399 0.550942
0.143832 0.692134 0.299458
0.146456 0.695796 0.301579
0.148836 0.697292 0.299214
0.151614 0.697368 0.292988
0.156649 0.696788 0.284016
0.163348 0.696635 0.272389
0.171664 0.69659 0.257404
0.182071 0.697093 0.239902
0.195285 0.699306 0.224277
0.224765 0.705608 0.211765
0.282078 0.713573 0.211872
0.368338 0.723125 0.227863
0.451713 0.728237 0.237827
0.522896 0.733425 0.246311
0.572168 0.741985 0.258122
0.605676 0.751034 0.269795
0.631739 0.759274 0.281392
0.655543 0.767514 0.293019
0.677729 0.775616 0.304082
0.704433 0.78436 0.314611
0.734371 0.793851 0.324056
0.765438 0.800977 0.333364
0.794095 0.806714 0.348516
0.818433 0.810834 0.374197
0.840726 0.814572 0.400488
0.859266 0.8177 0.43183
0.873472 0.819974 0.461036
0.885832 0.821424 0.490578
0.896605 0.822934 0.515435
0.903655 0.824567 0.533684
0.907713 0.825849 0.546578
0.910765 0.826841 0.558541
0.911513 0.826886 0.566629
0.159289 0.711818 0.318395
0.162585 0.71487 0.320012
0.164263 0.71574 0.317418
0.166629 0.715801 0.310903
0.171786 0.715038 0.302785
0.177981 0.714443 0.291646
0.18616 0.714 0.277028
0.197635 0.714702 0.260594
0.214389 0.717174 0.24625
0.237034 0.721736 0.236484
0.288624 0.728557 0.233417
0.361456 0.735958 0.24332
0.444923 0.740444 0.252461
0.520729 0.744427 0.260838
0.57026 0.751995 0.272038
0.606775 0.760861 0.284794
0.634318 0.769467 0.297063
0.657694 0.777508 0.309468
0.680079 0.785702 0.321645
0.702144 0.793515 0.334203
0.729931 0.802182 0.347097
0.758862 0.811276 0.358236
0.786557 0.817472 0.374823
0.811719 0.821607 0.392233
0.834455 0.825513 0.42034
0.853834 0.828824 0.450355
0.868788 0.831373 0.477302
0.881102 0.83357 0.500984
0.891951 0.835294 0.52398
0.900542 0.836805 0.543862
0.906538 0.838392 0.560784
0.909514 0.839323 0.57084
0.910658 0.839841 0.580392
0.174319 0.72755 0.334936
0.177096 0.729549 0.335714
0.178683 0.729931 0.33193
0.180819 0.729732 0.325353
0.185901 0.729152 0.317571
0.192081 0.728573 0.307439
0.199969 0.728267 0.293919
0.213901 0.729274 0.279942
0.233082 0.73167 0.266453
0.255726 0.735637 0.257252
0.300114 0.740719 0.258717
0.362493 0.74612 0.266255
0.441627 0.74963 0.27425
0.515999 0.752544 0.281788
0.569268 0.759823 0.294026
0.607797 0.768658 0.307912
0.637217 0.777203 0.322026
0.662287 0.78555 0.336645
0.684245 0.793378 0.350347
0.706798 0.801495 0.364675
0.729458 0.809232 0.378164
0.75581 0.817761 0.390753
0.78201 0.826001 0.401968
0.806012 0.830121 0.421332
0.828779 0.833692 0.441947
0.847349 0.837232 0.468818
0.86479 0.840574 0.494957
0.8766 0.842954 0.514672
0.887922 0.845304 0.534646
0.896178 0.846967 0.552056
0.903578 0.848493 0.569589
0.907805 0.849653 0.583764
0.909483 0.849882 0.592508
0.188846 0.739666 0.349172
0.191058 0.741024 0.348623
0.192676 0.741268 0.344656
0.194293 0.741115 0.338415
0.199435 0.740444 0.330816
0.205829 0.739986 0.321004
0.213504 0.739696 0.308873
0.229541 0.740917 0.296147
0.250477 0.74374 0.284825
0.278737 0.747219 0.279774
0.315724 0.751202 0.28333
0.371588 0.754635 0.290196
0.442512 0.756954 0.297444
0.51487 0.759777 0.304936
0.569406 0.766552 0.317494
0.609735 0.775265 0.332296
0.64184 0.784497 0.349065
0.667002 0.79263 0.364935
0.689845 0.800488 0.38117
0.711849 0.808545 0.397055
0.733944 0.816068 0.412482
0.755154 0.823346 0.426291
0.780728 0.831174 0.439963
0.802518 0.837339 0.450752
0.824903 0.840879 0.469902
0.84303 0.843427 0.487663
0.859663 0.847059 0.51017
0.87303 0.850034 0.529747
0.884092 0.852796 0.547967
0.892256 0.854902 0.562875
0.899733 0.856596 0.577554
0.90399 0.857755 0.591485
0.90808 0.858518 0.6047
0.202731 0.749554 0.361593
0.204318 0.750332 0.360647
0.205432 0.750347 0.355535
0.207492 0.750179 0.349386
0.212284 0.749493 0.341894
0.218112 0.748974 0.332586
0.228672 0.749157 0.322103
0.246616 0.751003 0.313146
0.268315 0.75378 0.302388
0.302174 0.756359 0.301457
0.340017 0.75903 0.307057
0.381811 0.761151 0.313222
0.4495 0.763012 0.320089
0.518349 0.765942 0.328267
0.571572 0.772778 0.341985
0.614679 0.781796 0.359487
0.646311 0.790494 0.377493
0.673106 0.799207 0.395987
0.696284 0.807065 0.415351
0.71754 0.814618 0.433616
0.739513 0.822278 0.451743
0.759747 0.828946 0.464439
0.779675 0.835401 0.474693
0.801663 0.841932 0.485252
