bundles/resolve-cinematic-luts/Phantom Luts/A7s3 Phntm Film LUTs - G6/ATOMOS Monitor LUTs/Slog2+Sgamut3cine/Bleach A7s3 Sl2sg3c-Legacy AML.cube
TITLE "Generated by Resolve"
LUT_3D_SIZE 33
0.0844892 0.0961776 0.0856794
0.0844892 0.0961776 0.0856794
0.0844892 0.0961776 0.0856794
0.0844892 0.0961776 0.0856794
0.0844892 0.0961776 0.0856794
0.0846418 0.0961929 0.0857099
0.0892653 0.096437 0.0864118
0.0979629 0.0973831 0.086656
0.114107 0.0973068 0.0869917
0.131197 0.0982986 0.0890822
0.150652 0.0985885 0.0905776
0.173907 0.0994888 0.0920729
0.200183 0.10016 0.0932174
0.227665 0.100908 0.0944076
0.257725 0.102022 0.0962539
0.287495 0.102968 0.0993057
0.316838 0.103838 0.103258
0.346746 0.104402 0.107927
0.379202 0.104662 0.11281
0.417243 0.104372 0.118151
0.458 0.103639 0.122118
0.495125 0.103487 0.127764
0.52723 0.104311 0.134417
0.556603 0.105882 0.142199
0.58436 0.107805 0.151308
0.610895 0.110597 0.161563
0.636927 0.113954 0.173678
0.66273 0.117494 0.186206
0.689128 0.122271 0.199985
0.715312 0.128145 0.216175
0.741375 0.134463 0.232837
0.767468 0.14197 0.251514
0.788952 0.150195 0.269352
0.0844892 0.0961776 0.0856794
0.0844892 0.0961776 0.0856794
0.0844892 0.0961776 0.0856794
0.0844892 0.0961776 0.0856794
0.084535 0.0961776 0.0856947
0.0852064 0.0962081 0.0857557
0.0931106 0.0967575 0.0870985
0.109026 0.0977035 0.0872816
0.127169 0.0980697 0.0885634
0.148363 0.0984512 0.0903029
0.17258 0.0995041 0.0920119
0.198856 0.100069 0.09308
0.226963 0.100893 0.0943313
0.25771 0.101991 0.0962692
0.287541 0.102968 0.0991684
0.317357 0.103868 0.103227
0.347784 0.104463 0.107851
0.381277 0.104677 0.112673
0.420401 0.104326 0.118029
0.460517 0.10367 0.12195
0.496971 0.103655 0.127733
0.528908 0.104479 0.134112
0.558068 0.106065 0.141756
0.585367 0.108049 0.15079
0.611505 0.11078 0.160266
0.63714 0.114199 0.171771
0.662562 0.117662 0.183932
0.687922 0.122332 0.196719
0.713848 0.127886 0.211917
0.73814 0.133806 0.227131
0.762982 0.14081 0.244602
0.784924 0.148608 0.261738
0.801129 0.156817 0.277897
0.0844892 0.0961776 0.0856794
0.0844892 0.0961776 0.0856794
0.0844892 0.0961776 0.0856794
0.0844892 0.0961776 0.0856794
0.0845808 0.0961929 0.0856947
0.0888838 0.0964218 0.086305
0.0998245 0.0975967 0.0867475
0.117037 0.0975814 0.0873884
0.137942 0.098497 0.0895094
0.160342 0.09897 0.0910201
0.186419 0.0996719 0.0923171
0.214557 0.100542 0.0936599
0.2448 0.101549 0.0957046
0.275212 0.10277 0.0974136
0.304662 0.103655 0.100649
0.334936 0.104189 0.104738
0.367361 0.104616 0.109743
0.404471 0.104524 0.114412
0.445975 0.103899 0.118532
0.48394 0.103685 0.123064
0.517006 0.104143 0.128847
0.547036 0.105592 0.135805
0.574914 0.107301 0.143587
0.60119 0.109957 0.15259
0.62649 0.112825 0.162402
0.651011 0.116487 0.172595
0.677531 0.121309 0.185641
0.702892 0.126497 0.199756
0.727947 0.132082 0.214588
0.751842 0.138277 0.230442
0.775631 0.145388 0.246723
0.791959 0.152804 0.261967
0.80647 0.161257 0.278706
0.0844892 0.0961776 0.0856794
0.0844892 0.0961776 0.0856794
0.0844892 0.0961776 0.0856794
0.0844892 0.0961776 0.0856794
0.0846113 0.0961776 0.0857099
0.0899519 0.0966964 0.0865644
0.100023 0.0978561 0.0866865
0.117159 0.0978256 0.0871748
0.137606 0.0985122 0.0890364
0.162051 0.0990616 0.0906386
0.190021 0.0997482 0.0919814
0.218921 0.100542 0.0932937
0.249821 0.101656 0.0954604
0.280186 0.102434 0.0981918
0.310445 0.103639 0.10071
0.342077 0.104341 0.104051
0.376867 0.104799 0.108614
0.417578 0.104555 0.112596
0.458824 0.103853 0.116197
0.496574 0.103807 0.121462
0.529442 0.104494 0.127184
0.558679 0.105989 0.134646
0.586328 0.108034 0.142962
0.611612 0.110384 0.151919
0.637873 0.114687 0.161578
0.664164 0.119936 0.171038
0.689189 0.124666 0.184024
0.714382 0.130098 0.198413
0.738186 0.135546 0.213214
0.76054 0.141802 0.228763
0.783612 0.148562 0.245838
0.796902 0.156435 0.261051
0.809293 0.16495 0.276783
0.0844587 0.0963302 0.0856641
0.0844587 0.0963912 0.0856641
0.0844434 0.0964523 0.0856489
0.0844587 0.0964675 0.0856336
0.085008 0.0967727 0.0857404
0.0896315 0.0986954 0.0868238
0.100191 0.100679 0.0882124
0.119127 0.101137 0.0879072
0.14049 0.10135 0.0888838
0.166445 0.102174 0.0904707
0.19823 0.101946 0.0917067
0.229953 0.101854 0.0924239
0.261418 0.10135 0.0922103
0.290715 0.101823 0.0928817
0.320867 0.102617 0.0954604
0.35375 0.103609 0.098146
0.39089 0.104143 0.101152
0.434394 0.103426 0.104967
0.470146 0.102373 0.108049
0.508217 0.103944 0.114214
0.539376 0.105577 0.121416
0.573449 0.107439 0.131548
0.598947 0.109392 0.140246
0.622766 0.111818 0.149966
0.649348 0.11635 0.159609
0.672755 0.119646 0.173022
0.697307 0.123934 0.186679
0.722652 0.131167 0.199268
0.747982 0.138781 0.211765
0.770397 0.145617 0.228138
0.791119 0.15256 0.244343
0.801343 0.160632 0.258656
0.8112 0.169924 0.273625
0.0867018 0.105486 0.0884565
0.0882277 0.109667 0.0899062
0.0888075 0.112078 0.0901198
0.0899672 0.112657 0.0898451
0.0939803 0.113954 0.0903029
0.103731 0.116777 0.0922866
0.116335 0.118441 0.091371
0.137865 0.118715 0.0903029
0.160372 0.118196 0.090959
0.183978 0.118273 0.0921492
0.212238 0.116411 0.0936446
0.243473 0.114626 0.0955062
0.271855 0.111894 0.0959487
0.298543 0.109819 0.0958267
0.326406 0.106966 0.0936141
0.357961 0.105531 0.0932174
0.391669 0.104051 0.0944991
0.431662 0.103014 0.0960403
0.469718 0.101808 0.0987259
0.507088 0.10132 0.103929
0.542916 0.104967 0.112261
0.571939 0.106065 0.119966
0.602579 0.108644 0.131456
0.631952 0.114168 0.143847
0.659037 0.117861 0.15729
0.687327 0.122515 0.172045
0.710506 0.126864 0.185565
0.732555 0.131304 0.201236
0.757336 0.139406 0.214176
0.779721 0.148898 0.22707
0.797894 0.15761 0.241749
0.805631 0.166354 0.254963
0.812772 0.176074 0.268788
0.0916915 0.129747 0.0944381
0.0925917 0.135622 0.0953536
0.0928206 0.138018 0.0948806
0.0939193 0.137804 0.0935531
0.0998703 0.139879 0.0938277
0.11342 0.143893 0.0959487
0.128969 0.144991 0.0969253
0.148638 0.146456 0.0927443
0.17821 0.144335 0.0925917
0.206775 0.143008 0.0935378
0.240894 0.139132 0.0974441
0.268132 0.135363 0.0999466
0.297383 0.131182 0.101762
0.325978 0.125856 0.102663
0.353887 0.121492 0.102022
0.382361 0.118212 0.100618
0.412863 0.114458 0.0985275
0.444205 0.110292 0.0958572
0.482414 0.108248 0.0972915
0.515404 0.106218 0.100008
0.549813 0.10695 0.106737
0.578073 0.10779 0.113725
0.60502 0.109911 0.121889
0.635645 0.113756 0.133822
0.667216 0.119341 0.14815
0.694118 0.124666 0.161883
0.723384 0.131044 0.178988
0.750957 0.137774 0.197436
0.769772 0.142733 0.211872
0.786068 0.148272 0.228244
0.79968 0.158801 0.240391
0.805753 0.165377 0.254963
0.812696 0.174182 0.271504
0.0931563 0.155352 0.0990158
0.0933242 0.160586 0.0996109
0.0935225 0.163195 0.0986648
0.0946975 0.162478 0.095552
0.101427 0.164889 0.0939345
0.118257 0.170275 0.0966812
0.134951 0.17351 0.0984665
0.154086 0.173571 0.0985275
0.179141 0.174701 0.0931868
0.220645 0.171984 0.0930495
0.261021 0.168353 0.0978714
0.30013 0.163439 0.103136
0.334615 0.155352 0.107805
0.364492 0.14963 0.110079
0.394476 0.145663 0.112184
0.430228 0.13991 0.111772
0.463478 0.134722 0.11078
0.493278 0.130129 0.109483
0.518135 0.126665 0.107515
0.541207 0.123262 0.106783
0.562951 0.118639 0.106828
0.589853 0.117815 0.111925
0.619486 0.117678 0.120592
0.648615 0.119936 0.130968
0.677333 0.121965 0.142702
0.703105 0.127108 0.154452
0.72639 0.131106 0.165591
0.756497 0.138354 0.183642
0.777371 0.147189 0.201511
0.793103 0.155291 0.216373
0.800244 0.161685 0.230488
0.80708 0.170993 0.247349
0.814145 0.180224 0.263706
0.0921187 0.182025 0.102174
0.0916304 0.187503 0.102525
0.0922713 0.190433 0.100847
0.0939193 0.189914 0.0967575
0.101427 0.191913 0.0927291
0.119265 0.197879 0.0948653
0.138094 0.20293 0.0977951
0.157107 0.206546 0.0995346
0.184833 0.207782 0.0991684
0.218158 0.210101 0.0934005
0.26865 0.207309 0.0951095
0.317067 0.202945 0.102144
0.363745 0.19646 0.10985
0.41117 0.185336 0.116655
0.451957 0.177462 0.120378
0.483619 0.173846 0.123888
0.513909 0.169848 0.126329
0.541497 0.165042 0.129122
0.565637 0.16231 0.130358
0.586358 0.158206 0.130694
0.604685 0.154009 0.129198
0.621851 0.149355 0.128023
0.642603 0.146441 0.130465
0.664881 0.140612 0.133272
0.689113 0.137804 0.140017
0.716701 0.136767 0.150896
0.740734 0.136889 0.161578
0.763851 0.141649 0.1729
0.776501 0.144076 0.18201
0.794568 0.154955 0.197772
0.801328 0.167163 0.212055
0.808423 0.179629 0.227634
0.815106 0.188937 0.244602
0.090135 0.210651 0.106157
0.0899825 0.21709 0.106798
0.0905013 0.219989 0.103456
0.0922103 0.220035 0.0978561
0.0994736 0.220859 0.0908675
0.116564 0.226398 0.092546
0.137667 0.233356 0.0957198
0.158434 0.239475 0.0983291
0.184802 0.24538 0.101045
0.223117 0.249317 0.0999008
0.263752 0.252674 0.0937667
0.320729 0.25066 0.0978866
0.380011 0.245914 0.107301
0.438163 0.238834 0.115724
0.490684 0.228931 0.125124
0.527138 0.223484 0.133715
0.555627 0.220874 0.141299
0.580941 0.215763 0.147295
0.6038 0.212192 0.153735
0.626307 0.208652 0.158373
0.646525 0.203983 0.161471
0.664988 0.198962 0.162203
0.681544 0.193317 0.160433
0.697871 0.18732 0.158206
0.718212 0.179797 0.158236
0.735592 0.172396 0.157061
0.757977 0.170809 0.165042
0.777905 0.166613 0.172198
0.792294 0.166384 0.179889
0.801892 0.165515 0.186999
0.803021 0.16556 0.192447
0.809186 0.179538 0.204669
0.814603 0.193027 0.218021
0.0876936 0.241581 0.110094
0.087068 0.248463 0.109773
0.088365 0.251682 0.106844
0.0910506 0.25214 0.100267
0.0954147 0.25243 0.0928206
0.108644 0.255619 0.0892653
0.131609 0.264103 0.0926833
0.158297 0.272267 0.0961776
0.184802 0.279713 0.0988479
0.218326 0.287282 0.102083
0.2654 0.294102 0.100542
0.311788 0.29868 0.0938735
0.37351 0.297627 0.098909
0.448157 0.291905 0.110033
0.505257 0.289204 0.123552
0.55082 0.285649 0.138369
0.586694 0.283436 0.152621
0.612543 0.282536 0.162814
0.637263 0.280385 0.173373
0.659419 0.280125 0.183413
0.68249 0.274617 0.191516
0.704707 0.265721 0.199786
0.724804 0.259632 0.202853
0.744091 0.254017 0.204746
0.762264 0.248478 0.204105
0.778881 0.241672 0.201556
0.793072 0.233478 0.197665
0.806867 0.227573 0.198001
0.822171 0.22269 0.200885
0.824369 0.214893 0.199222
0.824979 0.214923 0.20322
0.823697 0.209628 0.203983
0.823529 0.209461 0.208072
0.0852216 0.274067 0.11313
0.0847944 0.280705 0.112856
0.0860914 0.284306 0.110048
0.0887922 0.285573 0.102815
0.092546 0.285695 0.0946365
0.099855 0.286824 0.0883345
0.122118 0.294057 0.0894942
0.151537 0.303441 0.0928664
0.183108 0.311864 0.0959793
0.216388 0.320882 0.0997024
0.254368 0.330861 0.103044
0.310597 0.341253 0.101946
0.361776 0.346731 0.0942245
0.432395 0.347646 0.0996719
0.507469 0.346334 0.115953
0.559442 0.350134 0.136233
0.60145 0.35317 0.157046
0.639933 0.356878 0.177859
0.670542 0.359457 0.195483
0.696254 0.363012 0.211124
0.71873 0.366583 0.224598
0.743587 0.359594 0.238163
0.771466 0.350423 0.253315
0.794446 0.344274 0.261143
0.816159 0.33669 0.267002
0.833936 0.330709 0.269368
0.850767 0.326497 0.271397
0.86183 0.320302 0.269734
0.871412 0.314855 0.267002
0.868177 0.307012 0.262135
0.865339 0.299275 0.258015
0.862928 0.294759 0.254765
0.859358 0.287892 0.251667
0.0828717 0.306584 0.115724
0.0830396 0.313313 0.115908
0.0839399 0.316793 0.112642
0.0868238 0.31809 0.105928
0.0894026 0.318441 0.0977951
0.0932326 0.318715 0.0899519
0.109209 0.322789 0.0859083
0.140902 0.332509 0.0891585
0.175006 0.342351 0.0925307
0.213062 0.352163 0.0959945
0.250401 0.36466 0.100496
0.293919 0.3794 0.104494
0.357885 0.392432 0.104845
0.418524 0.399252 0.0977035
0.489982 0.404364 0.104936
0.557443 0.414313 0.128344
0.609125 0.425757 0.157244
0.65127 0.433906 0.184161
0.68806 0.44097 0.208057
0.719234 0.444312 0.229267
0.749508 0.44744 0.249851
0.768994 0.45182 0.260945
0.794812 0.450721 0.276509
0.82327 0.443229 0.293706
0.84918 0.436728 0.307942
0.869505 0.425849 0.320394
0.885527 0.418082 0.328313
0.896925 0.41413 0.33286
0.903334 0.411017 0.335531
0.902464 0.404273 0.334676
0.901396 0.399344 0.333532
0.900313 0.395712 0.332143
0.899184 0.391516 0.330678
0.0806592 0.338201 0.118547
0.0805982 0.344671 0.118379
0.0813458 0.348104 0.1149
0.0834974 0.34934 0.10808
0.0853742 0.349676 0.100893
0.0874342 0.350317 0.0918746
0.0975052 0.351797 0.0843061
0.126909 0.360403 0.084947
0.162356 0.371817 0.0886702
0.205951 0.384985 0.0931106
0.24686 0.398444 0.0973068
0.28452 0.415427 0.101976
0.335439 0.434882 0.108156
0.412528 0.452033 0.110094
0.480049 0.463066 0.106462
0.541878 0.475822 0.117571
0.599664 0.487846 0.143404
0.647227 0.497032 0.17351
0.686183 0.505806 0.202014
0.719783 0.511391 0.225208
0.752697 0.514672 0.248203
0.783581 0.516167 0.268971
0.802884 0.520104 0.279713
0.821653 0.522972 0.289815
0.84654 0.517296 0.305348
0.866926 0.514565 0.320119
0.884779 0.506462 0.333318
0.899413 0.499763 0.347234
0.903807 0.494377 0.353155
0.90544 0.488823 0.357839
0.906126 0.486275 0.360433
0.906142 0.484672 0.36083
0.906752 0.479622 0.363836
0.0775616 0.369772 0.120317
0.0775769 0.376623 0.120424
0.0773022 0.380392 0.116548
0.0786297 0.381506 0.110384
0.0807507 0.38172 0.103548
0.0835126 0.382452 0.0955978
0.088365 0.382895 0.0838636
0.111894 0.389578 0.0807355
0.145205 0.402289 0.0838178
0.189639 0.417716 0.0888838
0.24036 0.434501 0.0952621
0.28217 0.452522 0.101198
0.330251 0.476081 0.111559
0.397253 0.499748 0.124056
0.483192 0.515312 0.127794
0.538323 0.525856 0.125551
0.589776 0.536721 0.137011
0.638682 0.54609 0.161257
0.682216 0.553491 0.19118
0.719875 0.560372 0.221469
0.753536 0.56524 0.246311
0.784573 0.567834 0.267842
0.815015 0.568856 0.288121
0.834394 0.571374 0.300252
0.848615 0.575555 0.308629
0.866957 0.574868 0.321523
0.881392 0.573526 0.333257
0.894133 0.570306 0.344427
0.899535 0.567498 0.352956
0.903456 0.565347 0.359731
0.903563 0.563439 0.362585
0.903746 0.561425 0.365713
0.904051 0.557763 0.368017
0.0725414 0.403235 0.121706
0.0716564 0.410834 0.121157
0.0723888 0.414618 0.118364
0.0739605 0.415396 0.112764
0.0762341 0.415366 0.105623
0.0785534 0.41648 0.0979934
0.0829175 0.418341 0.0876173
0.0938125 0.420661 0.0768444
0.128557 0.433112 0.0795758
0.172198 0.449668 0.0861982
0.231266 0.470359 0.0962692
0.292195 0.4934 0.108873
0.339162 0.515633 0.119738
0.396262 0.537942 0.13463
0.468956 0.553979 0.143038
0.540093 0.566766 0.14786
0.58616 0.575921 0.146548
0.629572 0.584466 0.157397
0.672847 0.592721 0.179675
0.715038 0.599145 0.2103
0.753277 0.604425 0.242878
0.785321 0.608179 0.267445
0.815244 0.611597 0.290257
0.842802 0.612787 0.309789
0.860883 0.61442 0.324895
0.872114 0.617411 0.333333
0.882643 0.620081 0.34168
0.893538 0.620172 0.352407
0.901289 0.621317 0.360204
0.90483 0.62034 0.366201
0.905898 0.621149 0.370214
0.90605 0.620676 0.372839
0.905837 0.618173 0.375525
0.0689555 0.438514 0.125063
0.0686809 0.445548 0.125566
0.0694285 0.449516 0.123079
0.0708476 0.450233 0.118044
0.0729992 0.450523 0.110719
0.0764019 0.451484 0.102434
0.0805982 0.453285 0.0943008
0.088014 0.454994 0.0818341
0.11313 0.463752 0.078706
0.163165 0.482444 0.0882429
0.227131 0.505791 0.102571
0.299336 0.531884 0.119326
0.358892 0.554574 0.134081
0.404517 0.571237 0.144091
0.467155 0.586389 0.15584
0.529595 0.59884 0.162875
0.586069 0.609384 0.168093
0.627619 0.618235 0.168872
0.665827 0.625818 0.179492
0.705318 0.632563 0.200885
0.74609 0.637751 0.231022
0.785443 0.642435 0.265568
0.814878 0.646418 0.289754
0.840757 0.649409 0.311711
0.862394 0.650431 0.332662
0.879393 0.651118 0.352605
0.887892 0.654002 0.359091
0.894636 0.656855 0.366354
0.901717 0.658763 0.375723
0.905211 0.660563 0.380728
0.906325 0.661448 0.38471
0.906813 0.661189 0.388052
0.90721 0.660853 0.390646
0.0683909 0.473701 0.132998
0.0690166 0.480705 0.134463
0.0705882 0.484688 0.133349
0.0720226 0.485634 0.128191
0.0750591 0.485679 0.121294
0.0789044 0.486305 0.112535
0.0830549 0.48809 0.103944
0.0890669 0.490394 0.0929274
0.110521 0.497948 0.0871901
0.156054 0.514809 0.0935988
0.229801 0.541726 0.112306
0.304723 0.567605 0.132296
0.370077 0.587549 0.146624
0.425376 0.602258 0.15729
0.471534 0.613916 0.165164
0.527031 0.626764 0.175845
0.57734 0.637736 0.183902
0.625986 0.6477 0.189349
0.662486 0.655344 0.192035
0.698451 0.662074 0.202945
0.736217 0.668147 0.223911
0.775708 0.673121 0.252659
0.811551 0.676677 0.287663
0.839002 0.679988 0.313909
0.858869 0.683146 0.337209
0.87599 0.684077 0.357778
0.89015 0.68513 0.378332
0.897093 0.687022 0.388861
0.902632 0.689738 0.396231
0.904509 0.691814 0.401541
0.906294 0.693294 0.406149
0.906569 0.695293 0.407416
0.906828 0.695308 0.410101
0.0728161 0.510628 0.147326
0.0745708 0.517876 0.149737
0.0767529 0.522271 0.149584
0.0786603 0.523156 0.145083
0.0819104 0.523049 0.137728
0.0862593 0.52372 0.128496
0.0911574 0.525246 0.118837
0.0973373 0.527932 0.109453
0.106981 0.532006 0.0952621
0.158999 0.55198 0.10573
0.234012 0.576593 0.124453
0.310719 0.599741 0.144396
0.38204 0.617823 0.160128
0.441962 0.63032 0.169802
0.490623 0.64094 0.177691
0.52987 0.651255 0.186923
0.574258 0.662943 0.198367
0.618265 0.673136 0.20647
0.660792 0.682338 0.211948
0.695003 0.689525 0.217044
0.730098 0.695186 0.227955
0.765652 0.700999 0.248844
0.801205 0.704738 0.276799
0.834043 0.707317 0.311437
0.858061 0.710094 0.34136
0.87425 0.712993 0.364813
0.887709 0.714382 0.386664
0.896208 0.715709 0.405325
0.902998 0.717083 0.421637
0.904616 0.719127 0.427222
0.906203 0.721126 0.43212
0.906447 0.723217 0.433677
0.906615 0.724743 0.434043
0.0840467 0.551354 0.17052
0.0871901 0.560327 0.175036
0.0894789 0.564767 0.175204
0.0921035 0.565621 0.170764
0.0957809 0.565515 0.162921
0.100328 0.566049 0.153292
0.106844 0.567697 0.142336
0.113985 0.571435 0.133562
0.124285 0.575677 0.120638
0.162402 0.589944 0.121263
0.240787 0.611536 0.140414
0.317556 0.631464 0.159487
0.388891 0.646754 0.174289
0.458595 0.657053 0.183719
0.50695 0.666392 0.191272
0.542809 0.676051 0.20029
0.576104 0.685786 0.210422
0.613321 0.696284 0.222232
0.652644 0.706111 0.230518
0.692027 0.714717 0.235828
0.724987 0.720211 0.241108
0.757427 0.725139 0.252689
0.79118 0.73051 0.274617
0.823499 0.734112 0.303868
0.852384 0.736355 0.338674
0.872694 0.738582 0.370581
0.885451 0.740719 0.393668
0.89546 0.74255 0.415808
0.90132 0.743587 0.434226
0.905333 0.745113 0.45034
0.906661 0.746319 0.455756
0.906691 0.748333 0.460014
0.906859 0.74992 0.462135
0.100664 0.596017 0.201999
0.104646 0.604379 0.20737
0.107424 0.608682 0.207248
0.110048 0.60911 0.201633
0.114168 0.60882 0.193271
0.119463 0.60972 0.183474
0.125719 0.610971 0.171283
0.132998 0.612848 0.159625
0.143496 0.617334 0.149096
0.177707 0.628641 0.145342
0.246174 0.645274 0.157351
0.322927 0.661036 0.175357
0.393042 0.672862 0.188907
0.463859 0.681224 0.197238
0.519387 0.689799 0.205509
0.554467 0.698421 0.213993
0.584009 0.707835 0.224018
0.612879 0.717067 0.234424
0.645838 0.726528 0.245167
0.681773 0.735393 0.252171
0.719646 0.744015 0.258045
0.751369 0.749279 0.266911
0.783459 0.753735 0.281392
0.813977 0.758694 0.305913
0.842435 0.762066 0.333623
0.866636 0.763821 0.368246
0.883131 0.765637 0.400275
0.893889 0.766979 0.424964
0.900633 0.768536 0.445792
0.905562 0.770062 0.462043
0.907225 0.770687 0.474556
0.907897 0.771359 0.482628
0.90808 0.772717 0.485557
0.120394 0.638163 0.234867
0.124117 0.644862 0.239246
0.125399 0.647379 0.236759
0.128222 0.647776 0.231266
0.132326 0.6477 0.22327
0.137621 0.64773 0.212955
0.144244 0.648295 0.199496
0.152041 0.650095 0.186618
0.162585 0.653132 0.174533
0.187961 0.661662 0.166812
0.251667 0.674723 0.174502
0.325536 0.68748 0.190661
0.395743 0.697307 0.203189
0.466484 0.703044 0.211276
0.525139 0.710109 0.218692
0.563546 0.718456 0.227985
0.592142 0.72697 0.237354
0.616907 0.735637 0.247044
0.643549 0.743999 0.25713
0.674662 0.753079 0.266941
0.709407 0.761975 0.273732
0.746609 0.770809 0.280186
0.776913 0.775494 0.295354
0.806424 0.779355 0.317113
0.834211 0.783841 0.341085
0.858976 0.78764 0.368048
0.876753 0.788968 0.398291
0.891569 0.790372 0.433631
0.899046 0.791363 0.454612
0.905501 0.792859 0.473869
0.906996 0.793118 0.487251
0.908324 0.793301 0.49752
0.909377 0.793454 0.507057
0.137865 0.67187 0.261265
0.141238 0.677531 0.264714
0.142718 0.679408 0.262592
0.145174 0.679637 0.256977
0.148867 0.679072 0.248386
0.154269 0.679179 0.238056
0.161257 0.679469 0.224857
0.16968 0.680293 0.209812
0.179919 0.683177 0.198398
0.203754 0.69073 0.189807
0.25301 0.700206 0.191012
0.325628 0.710124 0.204639
0.395911 0.718181 0.216678
0.466728 0.722545 0.223865
0.52668 0.728023 0.231891
0.569772 0.735988 0.240711
0.598459 0.743801 0.250294
0.622232 0.751904 0.25977
0.644633 0.759747 0.269368
0.671183 0.768322 0.280385
0.701152 0.777432 0.290944
0.736019 0.786557 0.298817
0.771313 0.794675 0.310948
0.799756 0.799084 0.331212
0.826902 0.801938 0.353414
0.850889 0.806485 0.377935
0.870283 0.809461 0.40325
0.885313 0.810727 0.435248
0.896452 0.811551 0.463249
0.903441 0.812451 0.48397
0.906111 0.81326 0.498314
0.908705 0.813931 0.511467
0.909651 0.813687 0.520378
0.153628 0.699901 0.282902
0.156313 0.703639 0.284337
0.157702 0.705409 0.281895
0.160189 0.705577 0.276661
0.164004 0.704829 0.269352
0.168933 0.704219 0.259373
0.175616 0.704372 0.246281
0.185489 0.705699 0.231846
0.198627 0.708202 0.219501
0.217105 0.713878 0.212116
0.260777 0.721813 0.211032
0.323705 0.729381 0.219684
0.39321 0.735882 0.230259
0.467002 0.739361 0.236835
0.526238 0.743557 0.243458
0.570626 0.750698 0.252872
0.603235 0.75877 0.26273
0.627482 0.766445 0.273213
0.649424 0.774105 0.283742
0.670405 0.781811 0.295094
0.697597 0.790616 0.307851
0.727153 0.799695 0.320378
0.760815 0.80824 0.334142
0.793744 0.815793 0.346868
0.820417 0.819409 0.367971
0.843275 0.821698 0.391211
0.86331 0.824781 0.41709
0.878431 0.827115 0.442069
0.891234 0.828611 0.469596
0.899916 0.829313 0.493172
0.905425 0.829923 0.511543
0.907164 0.830106 0.523232
0.908248 0.829999 0.533059
0.167132 0.721904 0.300175
0.170047 0.724941 0.30135
0.17142 0.725628 0.297765
0.173144 0.725551 0.292332
0.177279 0.724941 0.285481
0.182345 0.724422 0.276005
0.189029 0.724254 0.264256
0.199863 0.725643 0.251408
0.216251 0.729076 0.239506
0.236164 0.733974 0.232441
0.27306 0.739162 0.234379
0.327718 0.744762 0.240864
0.393622 0.749783 0.250019
0.463508 0.751736 0.255085
0.524163 0.755093 0.262501
0.570153 0.761334 0.272786
0.604364 0.769268 0.283162
0.631876 0.777447 0.295491
0.653696 0.785016 0.306935
0.674403 0.792386 0.318151
0.695964 0.800397 0.33022
0.724071 0.809323 0.344289
0.754101 0.818677 0.356649
0.785031 0.826551 0.370993
0.815244 0.833082 0.384695
0.836973 0.835523 0.407187
0.856962 0.837171 0.433173
0.871977 0.839399 0.45626
0.885908 0.841856 0.480354
0.894789 0.842908 0.499962
0.902342 0.843107 0.519661
0.905165 0.843381 0.534707
0.906111 0.843061 0.544442
0.180484 0.739651 0.314946
0.182284 0.741344 0.314427
0.183551 0.741787 0.310872
0.185367 0.74165 0.305455
0.189151 0.741039 0.298756
0.194354 0.740688 0.289921
0.200702 0.740261 0.27895
0.214603 0.742428 0.268177
0.231785 0.745525 0.257877
0.256703 0.749599 0.253468
0.287907 0.75375 0.256855
0.337057 0.757275 0.263249
0.395743 0.760586 0.269978
0.46215 0.761608 0.275029
0.522881 0.764004 0.281239
0.568872 0.770031 0.291814
0.606104 0.778073 0.30399
0.634226 0.786007 0.316182
0.657679 0.793744 0.329091
0.679042 0.801022 0.34165
0.700206 0.808194 0.354208
0.722179 0.816098 0.367453
0.751598 0.825177 0.382727
0.778637 0.833326 0.394369
0.807095 0.839689 0.40943
0.831418 0.844465 0.425269
0.850965 0.846555 0.449973
0.866804 0.848524 0.472938
0.880125 0.850782 0.493675
0.890532 0.852735 0.511635
0.898497 0.854124 0.52813
0.901015 0.854215 0.541939
0.903441 0.853925 0.555779
0.19292 0.753094 0.326696
0.194446 0.754543 0.325978
0.195315 0.754742 0.322057
0.197269 0.754574 0.316564
0.201053 0.753857 0.30988
0.205798 0.753277 0.301839
0.214252 0.753552 0.292454
0.229572 0.755764 0.284321
0.24686 0.758282 0.274617
0.276783 0.761288 0.274205
0.309529 0.764065 0.279026
0.345434 0.766278 0.284611
0.400198 0.768582 0.289937
0.463966 0.768978 0.294652
0.522728 0.771069 0.300603
0.570214 0.777188 0.311437
0.6065 0.784741 0.323796
0.637079 0.792966 0.337102
0.661784 0.800275 0.351415
0.683803 0.807828 0.365682
0.704311 0.81471 0.379812
0.726436 0.822293 0.395132
0.748104 0.829053 0.408957
0.775219 0.837186 0.42359
