bundles/resolve-cinematic-luts/Phantom Luts/A7s3 Phntm Film LUTs - G6/ATOMOS Monitor LUTs/Slog2+Sgamut3cine/EastmanRM A7s3 Sl2sg3c AML.cube
TITLE "Generated by Resolve"
LUT_3D_SIZE 9
0.0940871 0.0894331 0.0903029
0.105303 0.0860914 0.0878614
0.240452 0.0794232 0.087541
0.383139 0.0748455 0.0918746
0.488197 0.0764324 0.103319
0.557458 0.0822461 0.130007
0.632258 0.115389 0.199329
0.747005 0.194308 0.318639
0.81236 0.280537 0.458045
0.0937209 0.113558 0.0943465
0.105226 0.115694 0.0933852
0.223346 0.0995041 0.0925765
0.390661 0.0776989 0.0902266
0.496239 0.0769818 0.100435
0.564843 0.0833906 0.127016
0.647684 0.123629 0.201465
0.754177 0.198154 0.317494
0.803754 0.282124 0.457221
0.102052 0.237049 0.108293
0.124208 0.240833 0.0968185
0.266773 0.26949 0.104616
0.485252 0.215961 0.115877
0.564279 0.16463 0.119661
0.576272 0.0993973 0.117174
0.655085 0.129503 0.192493
0.765225 0.208942 0.328054
0.830869 0.300664 0.456672
0.0958419 0.389563 0.113191
0.0945754 0.390555 0.0987564
0.193652 0.426764 0.0970779
0.494759 0.488975 0.118196
0.68629 0.452674 0.165301
0.77641 0.406134 0.199725
0.814099 0.320623 0.257588
0.775784 0.230167 0.256886
0.845365 0.322988 0.444465
0.106783 0.531899 0.174502
0.104845 0.536355 0.168368
0.132219 0.53724 0.117067
0.425193 0.62266 0.16231
0.662791 0.666743 0.213489
0.804593 0.636545 0.316167
0.847852 0.598917 0.327504
0.853132 0.553964 0.327047
0.848646 0.482109 0.331106
0.19646 0.646677 0.323827
0.190997 0.652506 0.334524
0.210224 0.643656 0.280156
0.380545 0.672709 0.246494
0.60415 0.766964 0.339178
0.777737 0.801129 0.405005
0.872755 0.778149 0.510689
0.877363 0.768551 0.525826
0.87454 0.743343 0.500557
0.304631 0.712489 0.413123
0.298421 0.716869 0.424384
0.310216 0.713069 0.398489
0.39379 0.72253 0.371435
0.583734 0.780453 0.450599
0.742031 0.849363 0.548775
0.846204 0.871015 0.61529
0.88101 0.863462 0.683131
0.881422 0.861646 0.687388
0.371557 0.743832 0.469657
0.382742 0.743175 0.46244
0.41854 0.746715 0.461128
0.504967 0.764355 0.488914
0.623941 0.798795 0.552956
0.755596 0.85359 0.643748
0.834073 0.882826 0.700282
0.874037 0.889921 0.747539
0.869657 0.896819 0.802441
0.56347 0.804486 0.624918
0.576272 0.805814 0.624369
0.591943 0.807355 0.62182
0.643229 0.819791 0.644099
0.711467 0.840085 0.684977
0.788785 0.867231 0.739422
0.835599 0.887022 0.779171
0.862181 0.896315 0.808133
0.865049 0.900435 0.835019
0.091722 0.0892653 0.0952316
0.100404 0.0879225 0.0945449
0.211078 0.0864424 0.114366
0.349523 0.0821393 0.121996
0.460624 0.0799725 0.133471
0.535851 0.0860304 0.162036
0.609705 0.120668 0.229999
0.729122 0.204334 0.355581
0.794461 0.291554 0.492363
0.0933547 0.111833 0.10164
0.103639 0.113069 0.107057
0.234668 0.0915389 0.106691
0.370733 0.0782788 0.106874
0.472175 0.0787518 0.12401
0.546258 0.0870985 0.157992
0.635096 0.135622 0.244327
0.751156 0.219181 0.371374
0.814557 0.320348 0.512032
0.099794 0.243793 0.144366
0.0968185 0.245151 0.118181
0.263737 0.270893 0.114946
0.474311 0.19971 0.125093
0.546746 0.125536 0.120943
0.60354 0.112749 0.157946
0.665721 0.146532 0.239399
0.786221 0.232029 0.370092
0.843107 0.346136 0.511925
0.0947127 0.39855 0.152575
0.0925917 0.399145 0.129412
0.141588 0.41265 0.0936446
0.493996 0.487663 0.119524
0.692119 0.434424 0.172137
0.783475 0.381491 0.212879
0.811093 0.296803 0.265354
0.79826 0.236378 0.302678
0.858412 0.364157 0.508888
0.106523 0.538369 0.212772
0.101396 0.544106 0.212802
0.114549 0.540688 0.142
0.398825 0.613626 0.156634
0.665019 0.667811 0.213153
0.806699 0.632197 0.320012
0.850126 0.591058 0.331853
0.854368 0.540612 0.330571
0.858656 0.454307 0.366995
0.198367 0.651789 0.344411
0.190509 0.659205 0.360235
0.205081 0.650584 0.310216
0.345907 0.663828 0.240726
0.600641 0.766308 0.339757
0.779751 0.801923 0.404746
0.873518 0.777554 0.516289
0.87686 0.767208 0.530495
0.869276 0.735515 0.505425
0.304128 0.717479 0.431037
0.299397 0.720485 0.437537
0.305715 0.716075 0.413138
0.384314 0.72195 0.374121
0.576959 0.77763 0.449866
0.741665 0.849256 0.549447
0.846647 0.871183 0.616297
0.88127 0.863462 0.684245
0.881971 0.861265 0.686931
0.369741 0.748867 0.489372
0.386908 0.746212 0.473243
0.409537 0.746151 0.463706
0.498573 0.763882 0.490944
0.621088 0.798093 0.553155
0.753902 0.852796 0.64358
0.833844 0.88275 0.699962
0.874083 0.889815 0.746853
0.867689 0.896849 0.804273
0.568109 0.806363 0.630976
0.590143 0.810712 0.636103
0.603449 0.811994 0.634501
0.645853 0.821454 0.649149
0.710933 0.840406 0.687434
0.787579 0.866743 0.738674
0.835172 0.886824 0.778012
0.861921 0.896132 0.806622
0.864134 0.900343 0.834913
0.0893721 0.0946212 0.139635
0.112551 0.0902266 0.154574
0.203464 0.0897993 0.151553
0.357046 0.0860609 0.163455
0.467063 0.0861524 0.189456
0.549142 0.0948653 0.209323
0.605173 0.119844 0.247593
0.728023 0.205829 0.37145
0.796017 0.295857 0.511254
0.0895094 0.110521 0.140764
0.0899825 0.105303 0.16939
0.220386 0.0949416 0.182055
0.365362 0.085771 0.161501
0.474525 0.0842298 0.162783
0.551293 0.0918135 0.187274
0.624063 0.130999 0.252689
0.754147 0.223285 0.391485
0.816083 0.325216 0.533227
0.0982071 0.237247 0.185473
0.0961471 0.243183 0.199496
0.265431 0.278447 0.259678
0.487709 0.20737 0.222034
0.566659 0.131472 0.179706
0.594858 0.106264 0.185336
0.661906 0.145586 0.253986
0.800671 0.244327 0.400443
0.855055 0.38114 0.554513
0.0958572 0.411078 0.227558
0.093019 0.415579 0.217639
0.124117 0.424567 0.179171
0.489906 0.491997 0.227695
0.686183 0.415244 0.232044
0.797665 0.346166 0.262043
0.835874 0.286137 0.317235
0.819547 0.251438 0.382589
0.868437 0.406271 0.540139
0.110918 0.552316 0.282948
0.104448 0.559472 0.291768
0.107378 0.549157 0.227085
0.322103 0.580118 0.176852
0.658122 0.66363 0.250782
0.806409 0.613916 0.341512
0.852766 0.569024 0.360204
0.864866 0.51632 0.368673
0.872755 0.448859 0.446159
0.203632 0.658427 0.376501
0.192386 0.66807 0.400793
0.198093 0.664088 0.367926
0.266804 0.652842 0.261143
0.577081 0.756451 0.341558
0.782101 0.802029 0.401556
0.873152 0.773053 0.532723
0.876051 0.760479 0.541772
0.864424 0.719493 0.518074
0.304646 0.723079 0.45565
0.298039 0.727596 0.46804
0.302846 0.723033 0.442206
0.350759 0.719905 0.390082
0.552148 0.76762 0.445197
0.738033 0.847822 0.552651
0.84744 0.871336 0.617182
0.882353 0.862882 0.688319
0.88249 0.860639 0.696498
0.377172 0.753613 0.506981
0.384909 0.755215 0.509896
0.412558 0.752499 0.487419
0.477668 0.76144 0.492729
0.609384 0.794888 0.550896
0.749584 0.850752 0.644556
0.833982 0.882689 0.700725
0.874174 0.889876 0.747066
0.86743 0.897063 0.807233
0.573846 0.809522 0.640787
0.5906 0.814832 0.653239
0.614939 0.817685 0.651209
0.639628 0.82092 0.651225
0.705562 0.839918 0.688594
0.78497 0.865812 0.738445
0.834226 0.886503 0.778515
0.861738 0.896117 0.806638
0.864027 0.900343 0.835172
0.0886397 0.10486 0.200671
0.107149 0.0923018 0.241917
0.201175 0.091371 0.258122
0.347509 0.0894331 0.247288
0.472679 0.0923323 0.266682
0.555962 0.112413 0.303899
0.624537 0.143023 0.321813
0.706294 0.197971 0.400916
0.789517 0.294438 0.541054
0.0887465 0.113436 0.208301
0.0892042 0.1084 0.238727
0.195254 0.0929122 0.300649
0.364614 0.0914321 0.278157
0.486397 0.0946059 0.272602
0.566247 0.114611 0.30045
0.634104 0.147158 0.322713
0.732372 0.215625 0.42565
0.811627 0.326177 0.568154
0.0913863 0.223743 0.256977
0.0904555 0.219104 0.288289
0.173007 0.223682 0.3635
0.444053 0.1906 0.380591
0.549249 0.129503 0.29865
0.589548 0.112505 0.262791
0.652079 0.143587 0.292882
0.782116 0.234318 0.432151
0.856001 0.385016 0.593194
0.0955062 0.407767 0.323796
0.0934615 0.415198 0.34493
0.121813 0.433005 0.370916
0.48481 0.493141 0.466606
0.700877 0.418479 0.427222
0.819776 0.322377 0.394858
0.832502 0.264851 0.396551
0.81944 0.256138 0.417945
0.874647 0.439521 0.593652
0.118364 0.56556 0.380774
0.109926 0.57496 0.406287
0.117601 0.574792 0.37966
0.325872 0.596429 0.384619
0.642832 0.659388 0.446967
0.796384 0.589273 0.426734
0.868696 0.531914 0.422538
0.880171 0.491478 0.465583
0.873838 0.456336 0.569238
0.212421 0.671992 0.445655
0.20119 0.681208 0.470024
0.204822 0.680812 0.449424
0.249256 0.672847 0.381811
0.527642 0.721157 0.431754
0.771527 0.798764 0.504677
0.869062 0.760952 0.557473
0.870787 0.739605 0.554681
0.860716 0.689555 0.549111
0.309728 0.732494 0.496605
0.302342 0.737438 0.510918
0.304707 0.735241 0.494118
0.320668 0.728466 0.446693
0.507118 0.756146 0.459632
0.726101 0.840635 0.573434
0.84976 0.870756 0.61915
0.88368 0.861173 0.699718
0.88275 0.858106 0.713207
0.39443 0.761761 0.534051
0.398581 0.765362 0.546624
0.417395 0.766567 0.543023
0.454154 0.763531 0.514626
0.575097 0.78735 0.546136
0.736828 0.844648 0.643168
0.833432 0.882399 0.701885
0.874098 0.889967 0.747738
0.867369 0.897459 0.8112
0.584512 0.815259 0.660182
0.600397 0.820951 0.674464
0.617014 0.824842 0.680919
0.646586 0.827787 0.675288
0.692912 0.838056 0.689326
0.77702 0.863066 0.736858
0.831937 0.885634 0.779416
0.861723 0.896147 0.807065
0.865415 0.900374 0.834302
0.090135 0.113924 0.278309
0.103243 0.111757 0.320516
0.186404 0.0948653 0.359823
0.327321 0.0937972 0.368307
0.45919 0.0996719 0.360433
0.564218 0.126268 0.372686
0.638041 0.168521 0.415656
0.683162 0.195575 0.449302
0.761242 0.281071 0.574777
0.0897993 0.121141 0.290929
0.090013 0.118364 0.319173
0.157641 0.0953078 0.392599
0.341909 0.0957198 0.39855
0.473289 0.103883 0.378744
0.577844 0.134295 0.384009
0.65066 0.175799 0.428168
0.687999 0.200916 0.462272
0.787488 0.315099 0.612467
0.090425 0.194553 0.332464
0.0902571 0.189517 0.358694
0.106096 0.173648 0.415579
0.363272 0.129915 0.460456
0.50901 0.124712 0.421195
0.607065 0.142824 0.383795
0.676432 0.177279 0.418311
0.727306 0.213596 0.472023
0.842634 0.369009 0.650202
0.092134 0.391852 0.399039
0.091783 0.395239 0.424796
0.0916762 0.391546 0.448783
0.381476 0.432715 0.568902
0.676783 0.417029 0.612039
0.813977 0.327581 0.562371
0.796918 0.252155 0.491463
0.769955 0.236057 0.488014
0.874708 0.426307 0.661006
0.120684 0.560571 0.468147
0.112886 0.568826 0.494926
0.119463 0.572564 0.501488
0.320638 0.607263 0.550774
0.635721 0.64918 0.62089
0.80798 0.593515 0.589075
0.884504 0.530739 0.583886
0.888579 0.477562 0.569955
0.87834 0.468681 0.62359
0.218372 0.678096 0.520912
0.206638 0.68687 0.546334
0.212772 0.69102 0.542321
0.259831 0.696788 0.5187
0.549218 0.737224 0.575158
0.758236 0.786206 0.62771
0.853056 0.742565 0.613947
0.86656 0.706081 0.592142
0.872435 0.675807 0.631189
0.320623 0.74435 0.560769
0.310582 0.749615 0.576303
0.313664 0.7505 0.569787
0.33022 0.749386 0.54078
0.526864 0.776913 0.567208
0.717266 0.828641 0.647028
0.84358 0.86772 0.690044
0.883787 0.858717 0.72488
0.881651 0.851453 0.737285
0.410224 0.774121 0.578439
0.412238 0.779385 0.597818
0.437171 0.782345 0.600549
0.47277 0.784985 0.595773
0.552193 0.793667 0.588876
0.721828 0.838926 0.664073
0.830533 0.882277 0.728176
0.873915 0.891493 0.758923
0.869642 0.89865 0.817578
0.596613 0.823621 0.689357
0.613825 0.829404 0.703441
0.630854 0.833722 0.712566
0.653574 0.838605 0.718456
0.678096 0.839155 0.704143
0.754742 0.857496 0.732815
0.827039 0.883589 0.781674
0.863188 0.896422 0.808835
0.866423 0.90045 0.834684
0.0900893 0.124514 0.347707
0.0973526 0.124987 0.383871
0.15848 0.0979324 0.43357
0.316167 0.100023 0.445747
0.428473 0.105196 0.447044
0.553674 0.140581 0.453132
0.646525 0.18114 0.48304
0.690044 0.204318 0.52462
0.690639 0.227253 0.566491
0.0902419 0.130999 0.356909
0.0904555 0.129717 0.378851
0.135317 0.118837 0.438788
0.323354 0.104372 0.470649
0.437156 0.110124 0.462486
0.565347 0.151858 0.474784
0.659739 0.188891 0.499947
0.688716 0.211017 0.544259
0.724575 0.262211 0.61738
0.0905165 0.174868 0.382605
0.090547 0.168078 0.396994
0.0909438 0.146258 0.418936
0.279255 0.113222 0.495033
0.465721 0.134096 0.505226
0.59144 0.168032 0.499672
0.683955 0.192157 0.504463
0.709606 0.212467 0.547402
0.799191 0.3243 0.683497
0.0919051 0.368643 0.463584
0.0920272 0.369223 0.482322
0.0922408 0.356298 0.495888
0.273747 0.37171 0.615702
0.631083 0.363928 0.727214
0.757107 0.29836 0.673945
0.728725 0.224094 0.550546
0.718181 0.21384 0.547341
0.854154 0.388403 0.733577
0.106706 0.543359 0.525383
0.102892 0.548837 0.547173
0.103258 0.54934 0.556863
0.205753 0.572976 0.619654
0.564034 0.606455 0.710185
0.796887 0.605982 0.74255
0.897261 0.55021 0.722484
0.90338 0.477852 0.717876
0.879057 0.439841 0.738338
0.21799 0.669841 0.586725
0.207172 0.677134 0.607263
0.214572 0.682109 0.613519
0.245243 0.691112 0.621393
0.559243 0.749325 0.700694
0.753887 0.774807 0.745556
0.85832 0.742702 0.725978
0.879728 0.705104 0.72665
0.874266 0.666697 0.718379
0.331395 0.747478 0.622354
0.314336 0.751415 0.63975
0.318242 0.754452 0.640131
0.331777 0.760082 0.634928
0.54876 0.800656 0.677836
0.725078 0.836408 0.735485
0.833661 0.862181 0.76611
0.876463 0.85478 0.778058
0.875517 0.840986 0.773541
0.407813 0.787289 0.643671
0.405234 0.790768 0.658045
0.43505 0.796567 0.664958
0.48423 0.805295 0.672984
0.57998 0.821591 0.689754
0.734524 0.857496 0.746273
0.82948 0.884382 0.791028
0.871778 0.897124 0.81146
0.872038 0.898894 0.825818
0.59968 0.832792 0.724071
0.620981 0.83859 0.736568
0.641642 0.843412 0.745327
0.6692 0.849012 0.754986
0.693049 0.852857 0.757183
0.744411 0.862562 0.76173
0.8262 0.884611 0.801663
0.861997 0.897856 0.826108
0.8663 0.901183 0.841947
0.0903334 0.135058 0.391531
0.094667 0.135882 0.420951
0.141161 0.128038 0.460609
0.283635 0.109834 0.492714
0.408072 0.115511 0.495766
0.512795 0.146685 0.513115
0.632486 0.19823 0.562722
0.677272 0.216861 0.587777
0.68307 0.233722 0.615656
0.0905776 0.13959 0.393286
0.0905318 0.139101 0.407218
0.12282 0.139788 0.455573
0.279393 0.114992 0.504982
0.419196 0.122957 0.510048
0.527977 0.157198 0.529915
0.646159 0.206516 0.580163
0.673213 0.223362 0.605173
0.683009 0.240604 0.630564
0.0906233 0.17499 0.414496
0.0906996 0.170809 0.417166
0.0906539 0.147356 0.420188
0.210346 0.117082 0.508034
0.42649 0.135195 0.533104
0.567269 0.184146 0.570916
0.661601 0.213107 0.594659
0.685802 0.22707 0.613794
0.706935 0.256718 0.653941
0.0925612 0.34052 0.495293
0.0927291 0.339162 0.504891
0.0922866 0.321645 0.504845
0.205982 0.346349 0.640833
0.54667 0.32256 0.748669
0.683619 0.281727 0.702785
0.685389 0.229633 0.61709
0.693126 0.230457 0.621424
0.771969 0.324208 0.726711
0.105348 0.536233 0.573739
0.104753 0.539864 0.585687
0.104494 0.53814 0.592325
0.159579 0.559106 0.662715
0.48957 0.567025 0.742824
0.775845 0.593591 0.837949
0.894804 0.553628 0.840131
0.879133 0.459541 0.823362
0.813123 0.376516 0.770703
0.190433 0.651347 0.625483
0.187335 0.657053 0.638056
0.198505 0.661738 0.64651
0.227359 0.673594 0.670359
0.506889 0.721614 0.747173
0.716472 0.752941 0.804074
0.8486 0.746685 0.815335
0.881575 0.713161 0.813947
0.883528 0.667369 0.820584
0.322148 0.740932 0.671855
0.314488 0.744121 0.681941
0.319631 0.747204 0.68484
0.330678 0.752163 0.689967
0.53669 0.800855 0.746334
0.728099 0.842237 0.803006
0.827359 0.857725 0.828809
0.876738 0.847822 0.817365
0.875181 0.837308 0.823453
0.397375 0.786877 0.692317
0.395789 0.790204 0.702983
0.41445 0.795254 0.708354
0.467475 0.807797 0.721599
0.574411 0.83267 0.750957
0.742382 0.868971 0.802365
0.830579 0.888334 0.832135
0.867048 0.897108 0.844007
0.870451 0.898161 0.848188
0.590051 0.836713 0.75346
0.611124 0.842451 0.765606
0.634943 0.847959 0.774227
0.667842 0.855863 0.785183
0.698512 0.862333 0.793164
0.758816 0.874357 0.809384
0.830365 0.892134 0.838437
0.862882 0.901778 0.854963
0.869444 0.905318 0.863584
0.090547 0.142962 0.41738
0.0923476 0.142428 0.430182
0.126528 0.144396 0.466407
0.244129 0.118425 0.511666
0.385901 0.127062 0.522255
0.483635 0.143847 0.531823
0.619211 0.205097 0.599619
0.663249 0.22562 0.630076
0.675608 0.237675 0.645304
0.0906386 0.146212 0.416831
0.0906386 0.147112 0.421881
0.110292 0.146487 0.461326
0.237797 0.121065 0.517205
0.404196 0.134997 0.53695
0.501671 0.152514 0.546334
0.63505 0.212894 0.614603
0.665019 0.230045 0.640604
0.678645 0.242802 0.654948
0.0906996 0.182666 0.432761
0.0908217 0.180316 0.436606
0.0908064 0.155657 0.428275
0.167407 0.134371 0.504631
0.391821 0.139422 0.545953
0.551629 0.182834 0.590723
0.654185 0.222827 0.633799
0.671138 0.23299 0.646967
0.685969 0.249638 0.665232
0.092607 0.32929 0.509316
0.0925154 0.328084 0.515053
0.092134 0.314702 0.515099
0.153506 0.325216 0.61384
0.466239 0.297536 0.730343
0.649241 0.275608 0.712474
0.673686 0.240696 0.656092
0.676555 0.237797 0.653513
0.700099 0.261692 0.67982
0.104524 0.531731 0.598489
0.104982 0.534905 0.606531
0.104601 0.532128 0.612146
0.146288 0.545693 0.670726
0.442603 0.556146 0.752789
0.734661 0.580423 0.856489
0.877241 0.560204 0.874769
0.8542 0.447791 0.838285
0.738354 0.302403 0.721126
0.168521 0.646159 0.647272
0.168902 0.649973 0.653178
0.169329 0.650614 0.656687
0.211124 0.660777 0.679652
0.458808 0.705776 0.757595
0.682567 0.733059 0.821378
0.834424 0.743801 0.860807
0.874723 0.714717 0.864485
0.879667 0.661097 0.873411
0.311971 0.731411 0.691981
0.30811 0.734966 0.699931
0.317815 0.738994 0.706004
0.340749 0.748226 0.719036
0.512932 0.78706 0.770413
0.708156 0.832059 0.826749
0.820905 0.853498 0.853117
0.872862 0.847181 0.849287
0.870069 0.831083 0.850202
0.38172 0.779583 0.717998
0.385122 0.783749 0.724361
0.403128 0.789822 0.731334
0.451118 0.802075 0.744762
0.564019 0.829099 0.776471
0.734615 0.869612 0.828107
0.828122 0.88896 0.854612
0.863874 0.897276 0.863767
0.871107 0.899596 0.865965
0.575357 0.833936 0.768994
0.591516 0.839277 0.780865
0.618036 0.845838 0.789715
0.654795 0.854795 0.801892
0.689128 0.863172 0.812512
0.754238 0.877852 0.831876
0.834516 0.896132 0.856992
0.86479 0.904982 0.869718
0.87039 0.907134 0.873686
0.0911727 0.148394 0.435447
0.0913558 0.148257 0.437858
0.11458 0.148714 0.469505
0.21471 0.122515 0.519585
0.374914 0.135485 0.539178
0.474311 0.147372 0.548638
0.590799 0.190921 0.594217
0.659205 0.226291 0.639933
0.669932 0.236789 0.65272
0.0905776 0.150515 0.432609
0.0907301 0.151995 0.436301
0.100206 0.149722 0.462226
0.204608 0.123445 0.521614
0.391806 0.14023 0.548775
0.508385 0.160052 0.567956
0.609049 0.200198 0.609064
0.661387 0.228031 0.642222
0.673976 0.23975 0.656489
0.0907912 0.186435 0.443946
0.0907759 0.189563 0.449638
0.0909133 0.174365 0.44329
0.137316 0.151522 0.48719
0.362127 0.13814 0.546273
0.536797 0.17554 0.585687
0.64828 0.219043 0.631037
0.665278 0.229877 0.643778
0.679225 0.244907 0.662394
0.092668 0.33167 0.518837
0.0925612 0.333806 0.525994
0.0925002 0.325887 0.528038
0.106447 0.315129 0.569451
0.399619 0.293645 0.716152
0.645945 0.288441 0.731502
0.668879 0.239918 0.657267
0.676844 0.239017 0.655055
0.685405 0.249561 0.667399
0.105653 0.532708 0.610071
0.106828 0.537392 0.618433
0.1066 0.535088 0.623407
0.121843 0.535286 0.647578
0.390341 0.553994 0.739956
0.676066 0.569543 0.834226
0.866392 0.574777 0.876295
0.864637 0.475792 0.85182
0.696925 0.259388 0.678859
0.1691 0.647166 0.656611
0.170428 0.651438 0.662852
0.170718 0.651942 0.665782
0.19617 0.655787 0.679301
0.433448 0.699657 0.754101
0.664103 0.732601 0.819654
0.821378 0.747311 0.862501
0.876066 0.719875 0.866758
0.882399 0.657938 0.874784
0.287327 0.722225 0.694118
0.286015 0.725673 0.700587
0.29984 0.730098 0.706676
0.325902 0.738567 0.71986
0.494743 0.779736 0.772366
0.694347 0.827512 0.829389
0.810498 0.849836 0.858488
0.867216 0.8477 0.860502
0.869108 0.827939 0.85922
0.38851 0.776776 0.726909
0.389822 0.780163 0.732341
0.409918 0.787686 0.740261
0.472679 0.803769 0.757748
0.587961 0.832105 0.790524
0.719356 0.863951 0.829557
0.822263 0.886198 0.858045
0.861128 0.896681 0.869795
0.869886 0.896132 0.869352
0.562478 0.830472 0.774563
0.575494 0.835081 0.786404
0.603311 0.842039 0.794965
0.642222 0.851896 0.807065
0.681147 0.861433 0.819043
0.749401 0.877592 0.839368
0.832212 0.896742 0.863828
0.864912 0.90602 0.874846
0.874449 0.907012 0.873075
