bundles/resolve-cinematic-luts/Phantom Luts/A7s3 Phntm Film LUTs - G6/ATOMOS Monitor LUTs/Slog2+Sgamut3cine/EastmanRM A7s3 Sl2sg3c-Legacy AML.cube
TITLE "Generated by Resolve"
LUT_3D_SIZE 33
0.0957198 0.0992447 0.0973068
0.0957198 0.0992447 0.0973068
0.096376 0.0989548 0.0968795
0.0976425 0.0982376 0.0957656
0.105486 0.0958877 0.0930648
0.127001 0.0925154 0.0906081
0.160723 0.0897078 0.088426
0.188006 0.0882124 0.0879835
0.213367 0.0874189 0.0883345
0.238483 0.0869154 0.0895705
0.266377 0.0855573 0.0901656
0.301228 0.0836805 0.0907454
0.337194 0.0821393 0.0911574
0.369024 0.0812695 0.0927596
0.396735 0.0808423 0.0948501
0.424598 0.0798047 0.0970016
0.451331 0.0791028 0.0996567
0.476692 0.0788739 0.10309
0.499382 0.0790112 0.107073
0.519249 0.0793927 0.111589
0.537499 0.0805676 0.118013
0.554025 0.0826734 0.12517
0.569436 0.0861067 0.135409
0.585901 0.0910353 0.148226
0.606134 0.0991226 0.166705
0.630884 0.11252 0.190372
0.65594 0.128405 0.214679
0.679576 0.145586 0.239765
0.702922 0.163424 0.26714
0.722835 0.181994 0.299153
0.741604 0.200656 0.332296
0.756786 0.221454 0.37084
0.766583 0.24094 0.405936
0.0970169 0.0985733 0.0962539
0.0961776 0.0990616 0.0970626
0.096376 0.0989548 0.0968795
0.097612 0.0982528 0.0957809
0.104967 0.0963455 0.0937209
0.123354 0.0935073 0.0917372
0.152407 0.0909285 0.090135
0.181964 0.0890059 0.0888838
0.209567 0.087892 0.0886397
0.237354 0.0870222 0.0892805
0.264439 0.0858167 0.0903182
0.298604 0.0839399 0.0911727
0.334707 0.0823529 0.0915389
0.369375 0.0813764 0.0926528
0.399603 0.080766 0.0941482
0.427893 0.0797131 0.0963149
0.454353 0.079057 0.0988937
0.479622 0.0787823 0.102327
0.502586 0.0791028 0.106447
0.522271 0.0795911 0.11078
0.539925 0.0806897 0.11693
0.556023 0.0831159 0.124163
0.571694 0.0864118 0.134127
0.588342 0.0915999 0.147662
0.60856 0.100069 0.166293
0.633066 0.113283 0.189273
0.656748 0.128481 0.213519
0.679362 0.145068 0.237552
0.702129 0.16286 0.264698
0.721584 0.18085 0.295583
0.739391 0.198917 0.328664
0.752514 0.218677 0.365942
0.761379 0.237461 0.400061
0.0970474 0.098558 0.0962081
0.0961776 0.0990616 0.0970474
0.096376 0.0989548 0.0968795
0.0975967 0.0982376 0.0957961
0.10428 0.0965896 0.0937057
0.118547 0.0944076 0.0921492
0.143572 0.0922713 0.0911269
0.169955 0.0901961 0.0902266
0.201221 0.088716 0.0894636
0.232074 0.08748 0.0895094
0.262837 0.0859236 0.0899977
0.296422 0.084123 0.091249
0.332021 0.0826276 0.0919966
0.366461 0.0815747 0.0932631
0.398337 0.0809644 0.0947433
0.429313 0.0797742 0.0962692
0.456657 0.079057 0.0986038
0.48188 0.0787976 0.102113
0.504616 0.0792096 0.106188
0.524224 0.0797284 0.110643
0.541817 0.0808728 0.116762
0.557427 0.0832837 0.12401
0.573205 0.0866407 0.133837
0.590661 0.0920272 0.147845
0.610498 0.100862 0.166308
0.634485 0.113542 0.188251
0.658259 0.128862 0.212924
0.679393 0.144793 0.235569
0.701244 0.162264 0.262013
0.719783 0.179416 0.292393
0.73669 0.197116 0.324239
0.747951 0.215686 0.360403
0.756115 0.234012 0.394751
0.0970474 0.0988479 0.0961166
0.0961471 0.0993973 0.0970016
0.0963455 0.0992752 0.0968338
0.0976425 0.0985428 0.0957504
0.102892 0.0973983 0.0936751
0.114916 0.095613 0.0921492
0.13576 0.0941329 0.0915236
0.161593 0.0923476 0.091249
0.190204 0.0909438 0.0910201
0.224872 0.0889601 0.0904402
0.26041 0.0866865 0.0904402
0.298924 0.0840009 0.0905928
0.334035 0.0821851 0.0916457
0.367041 0.0812543 0.0929122
0.399237 0.0810407 0.0946975
0.432654 0.0798962 0.0967575
0.46154 0.0790417 0.0987716
0.487098 0.0786603 0.101656
0.508888 0.079118 0.105943
0.527581 0.0798352 0.11078
0.544518 0.0809033 0.117021
0.561364 0.0839399 0.124132
0.577447 0.0875257 0.134569
0.594888 0.0935988 0.149004
0.614939 0.102296 0.167544
0.639292 0.116091 0.190692
0.662058 0.131151 0.213977
0.682948 0.147097 0.236408
0.704997 0.164187 0.263981
0.723095 0.181399 0.293812
0.740887 0.199557 0.326726
0.751614 0.218372 0.363256
0.759182 0.237293 0.398444
0.0980087 0.113527 0.098146
0.0969863 0.113771 0.0986038
0.0969558 0.113344 0.0986954
0.098909 0.112902 0.098497
0.104509 0.114153 0.0971847
0.123812 0.110475 0.0960403
0.147463 0.107225 0.093904
0.170809 0.10396 0.0929274
0.193545 0.101717 0.0932479
0.222248 0.0975509 0.0922713
0.260945 0.0919661 0.09131
0.305089 0.0862135 0.0904097
0.341634 0.0829175 0.0901961
0.372869 0.0809491 0.0907607
0.403265 0.0803693 0.092195
0.435752 0.0793317 0.0943465
0.464988 0.0784314 0.0971237
0.491249 0.0786755 0.100313
0.514305 0.0790417 0.104509
0.533043 0.0801862 0.110185
0.549142 0.0816052 0.117098
0.563577 0.0841535 0.124544
0.579644 0.0880751 0.135653
0.599817 0.0955215 0.150088
0.621042 0.105196 0.169924
0.644205 0.119219 0.192645
0.666072 0.134188 0.21532
0.686931 0.149706 0.238422
0.709682 0.16733 0.2663
0.727565 0.184253 0.29633
0.745342 0.202594 0.329702
0.755337 0.221576 0.367071
0.762829 0.240894 0.402548
0.0998703 0.136858 0.101228
0.098436 0.137087 0.101472
0.0983749 0.136492 0.101198
0.100313 0.137026 0.101366
0.106142 0.140581 0.102251
0.121813 0.140871 0.100801
0.152193 0.135851 0.100252
0.179919 0.131151 0.0986496
0.204807 0.127535 0.0971847
0.229953 0.122438 0.0966506
0.260288 0.114611 0.0959182
0.297078 0.10515 0.0943465
0.338827 0.0931716 0.0916152
0.374777 0.0865034 0.0905165
0.406424 0.0819104 0.0907301
0.434073 0.0796979 0.0916762
0.460304 0.0780346 0.0932326
0.485374 0.0776837 0.0962844
0.510887 0.0788586 0.101381
0.533379 0.0802319 0.107149
0.552071 0.0825666 0.115053
0.568109 0.0854963 0.125032
0.583246 0.0891737 0.136294
0.600351 0.0951553 0.151415
0.626261 0.10724 0.171511
0.648783 0.121614 0.194003
0.670787 0.137224 0.217288
0.691798 0.15288 0.24065
0.714336 0.170245 0.26862
0.733349 0.187533 0.29958
0.750027 0.205615 0.332494
0.759319 0.224475 0.370184
0.766903 0.244678 0.406424
0.102296 0.15877 0.105226
0.100679 0.158816 0.105104
0.10013 0.157733 0.103639
0.102892 0.158587 0.103456
0.111101 0.162127 0.104814
0.124392 0.164874 0.105119
0.151446 0.16199 0.101778
0.187396 0.155062 0.100847
0.22269 0.149233 0.0990463
0.256764 0.141558 0.097734
0.289784 0.132937 0.0965896
0.318914 0.123812 0.096849
0.351461 0.112718 0.0958572
0.386114 0.0999313 0.0933242
0.416678 0.0907149 0.0915847
0.441337 0.0851911 0.0915084
0.46424 0.0817731 0.0925917
0.48513 0.0792554 0.0942092
0.506264 0.0785992 0.0982986
0.524697 0.0785687 0.102876
0.547112 0.0824445 0.111681
0.566247 0.0859388 0.122057
0.587152 0.0910201 0.135805
0.607584 0.0975052 0.15346
0.62739 0.106813 0.172961
0.646067 0.119478 0.194125
0.673442 0.138979 0.217746
0.697612 0.156344 0.242374
0.719493 0.173281 0.27013
0.738964 0.190616 0.300328
0.757733 0.208347 0.332143
0.771847 0.227085 0.3664
0.784253 0.246021 0.399435
0.109163 0.177752 0.10515
0.10515 0.178653 0.105898
0.102922 0.178546 0.105425
0.104875 0.179538 0.104692
0.113649 0.183276 0.106081
0.128618 0.187304 0.108095
0.148211 0.189548 0.107332
0.180194 0.18497 0.103868
0.221927 0.178241 0.103578
0.264408 0.169787 0.102098
0.308064 0.159426 0.101137
0.34522 0.147967 0.0992294
0.377005 0.13518 0.0996719
0.401022 0.127764 0.0996567
0.429587 0.117464 0.0986496
0.458457 0.103517 0.0964065
0.482704 0.0938582 0.0952468
0.500313 0.0874342 0.0963607
0.513924 0.0835737 0.098024
0.527001 0.0820172 0.1019
0.540536 0.0817426 0.108248
0.555978 0.0843671 0.117342
0.578698 0.0898451 0.130541
0.607935 0.0992294 0.152041
0.633204 0.111147 0.176761
0.650248 0.123796 0.197742
0.668376 0.136995 0.219059
0.69839 0.158221 0.243793
0.72369 0.176761 0.271336
0.745144 0.194598 0.302663
0.763455 0.211902 0.334371
0.778073 0.231113 0.368978
0.789258 0.250126 0.40177
0.110216 0.200946 0.109667
0.106401 0.201648 0.109911
0.103899 0.201694 0.108934
0.106081 0.202197 0.106432
0.114748 0.205753 0.106722
0.131395 0.210101 0.108553
0.150927 0.214054 0.108995
0.173281 0.218067 0.108553
0.212879 0.215061 0.106432
0.266728 0.206424 0.106523
0.320714 0.197314 0.106157
0.367056 0.18584 0.107149
0.404227 0.174411 0.105898
0.434409 0.161212 0.106752
0.457053 0.151934 0.107347
0.482155 0.143984 0.107256
0.506157 0.134066 0.106844
0.526726 0.117464 0.103716
0.540841 0.102327 0.102953
0.548806 0.0942855 0.105989
0.551171 0.0890516 0.108797
0.559457 0.0879835 0.116808
0.570443 0.0885023 0.125338
0.597833 0.0953841 0.142763
0.627451 0.108003 0.167071
0.654627 0.127718 0.195926
0.672801 0.142443 0.22092
0.692561 0.157351 0.246738
0.719448 0.176379 0.274113
0.744778 0.195621 0.304906
0.76849 0.215503 0.334951
0.784695 0.236164 0.370855
0.795163 0.255512 0.403388
0.109239 0.226413 0.112535
0.105516 0.22707 0.112001
0.103044 0.227192 0.110491
0.104097 0.22739 0.10631
0.111086 0.229831 0.104051
0.126757 0.236225 0.10631
0.149554 0.242145 0.107195
0.171847 0.250431 0.108202
0.200031 0.259663 0.109667
0.256306 0.26009 0.11017
0.326879 0.251575 0.11043
0.387411 0.243198 0.114015
0.433921 0.231464 0.117403
0.473625 0.219318 0.120439
0.502419 0.207279 0.121965
0.526574 0.194415 0.125002
0.546059 0.184421 0.125505
0.567452 0.174014 0.12491
0.58497 0.160632 0.124163
0.592874 0.138521 0.118486
0.593057 0.120668 0.119524
0.586679 0.106752 0.121584
0.586725 0.0993973 0.127459
0.596002 0.0962844 0.137118
0.620584 0.103502 0.155215
0.642115 0.119203 0.177493
0.679088 0.147189 0.214954
0.700069 0.162799 0.245304
0.722301 0.178836 0.275059
0.743114 0.195315 0.306554
0.769833 0.21651 0.336736
0.785061 0.236561 0.372885
0.802014 0.261601 0.404303
0.106081 0.258183 0.112718
0.103014 0.258991 0.111711
0.100771 0.259403 0.109957
0.101137 0.260014 0.105333
0.103838 0.260685 0.101366
0.11603 0.268513 0.103304
0.139025 0.279133 0.106783
0.1673 0.28983 0.109209
0.19675 0.301991 0.110826
0.238544 0.315373 0.113146
0.313146 0.316518 0.113954
0.389868 0.308248 0.113848
0.451026 0.299794 0.120104
0.497337 0.288426 0.124544
0.536583 0.274403 0.13312
0.567346 0.262364 0.136736
0.594888 0.24976 0.14287
0.615396 0.24271 0.145892
0.638056 0.224613 0.149767
0.65536 0.20798 0.151217
0.663813 0.192157 0.152712
0.657877 0.165393 0.145556
0.645304 0.147219 0.147524
0.630503 0.126604 0.147189
0.632975 0.115312 0.1552
0.637293 0.115969 0.163729
0.659998 0.132906 0.187198
0.706538 0.166934 0.232441
0.731441 0.183993 0.267552
0.75227 0.200595 0.30251
0.772 0.218112 0.337194
0.785595 0.236942 0.374441
0.802167 0.262211 0.406592
0.10576 0.297841 0.114611
0.102663 0.299123 0.11426
0.100649 0.299718 0.112215
0.100786 0.300816 0.1075
0.10161 0.301701 0.103349
0.107576 0.304952 0.101564
0.126314 0.31664 0.104936
0.153399 0.328542 0.108217
0.184375 0.340551 0.110262
0.22678 0.355337 0.112169
0.286076 0.371405 0.114763
0.373068 0.374228 0.115618
0.449668 0.366094 0.116045
0.509819 0.358648 0.125765
0.554208 0.34789 0.132601
0.592645 0.332677 0.141009
0.626429 0.318334 0.149035
0.654459 0.306432 0.154452
0.673732 0.302373 0.157443
0.699886 0.282124 0.166339
0.721798 0.261067 0.176089
0.733181 0.241672 0.184665
0.730526 0.219699 0.185657
0.718303 0.196536 0.183627
0.696559 0.171359 0.180941
0.677729 0.151553 0.179202
0.661814 0.136492 0.175586
0.68719 0.155215 0.201389
0.733013 0.186511 0.244907
0.766125 0.208789 0.289815
0.783093 0.224903 0.330175
0.79707 0.244923 0.371176
0.805188 0.264775 0.407095
0.105577 0.33962 0.116289
0.102571 0.341085 0.116884
0.100526 0.341802 0.114855
0.100069 0.342763 0.110369
0.100252 0.34403 0.106676
0.102647 0.344594 0.10132
0.115084 0.351293 0.101335
0.13901 0.36286 0.103593
0.17203 0.375448 0.106645
0.212634 0.389807 0.108614
0.270008 0.409461 0.111421
0.340856 0.42829 0.115831
0.43154 0.430488 0.119478
0.504875 0.422858 0.121584
0.561059 0.416388 0.135363
0.604822 0.406424 0.146502
0.640909 0.38999 0.151934
0.675685 0.372961 0.161761
0.704997 0.359319 0.169009
0.723247 0.356832 0.172915
0.748714 0.340871 0.183398
0.771649 0.316976 0.199481
0.784237 0.295064 0.21706
0.786954 0.277317 0.227771
0.78056 0.249378 0.224277
0.760082 0.223468 0.217258
0.736706 0.2009 0.21088
0.715465 0.181582 0.20557
0.717159 0.179583 0.215015
0.750179 0.202243 0.252979
0.800076 0.241032 0.312032
0.808545 0.25362 0.356741
0.815778 0.274144 0.397757
0.104234 0.37966 0.116136
0.101823 0.381018 0.116808
0.100053 0.381659 0.115251
0.0995041 0.382589 0.112032
0.0989395 0.383841 0.108598
0.0995346 0.384588 0.10341
0.103441 0.386099 0.0979171
0.124422 0.395712 0.0991989
0.155489 0.407736 0.101442
0.198764 0.422187 0.104891
0.254963 0.441596 0.108949
0.321065 0.465095 0.114763
0.397528 0.483925 0.121843
0.485679 0.484596 0.126879
0.554131 0.477729 0.131914
0.607782 0.471611 0.149676
0.64921 0.461967 0.163806
0.683009 0.444846 0.169787
0.715465 0.425422 0.178775
0.747753 0.410407 0.190753
0.765194 0.407828 0.196811
0.786007 0.396017 0.208698
0.807279 0.374914 0.23035
0.819211 0.353399 0.250904
0.820249 0.332265 0.26006
0.81323 0.31191 0.259953
0.802838 0.290303 0.25568
0.791882 0.26096 0.243778
0.772366 0.235126 0.237629
0.762646 0.222004 0.244526
0.769879 0.226139 0.265461
0.808667 0.265354 0.322271
0.82678 0.292943 0.372366
0.10222 0.418158 0.116655
0.100038 0.41976 0.118486
0.098558 0.420661 0.118364
0.0981308 0.421637 0.115633
0.097673 0.422965 0.112963
0.0979629 0.423987 0.108614
0.0998398 0.424125 0.101076
0.109316 0.427451 0.0963149
0.140215 0.439216 0.0982071
0.183047 0.452338 0.102266
0.242191 0.47068 0.108278
0.308965 0.495277 0.116625
0.379095 0.520226 0.125444
0.4542 0.53637 0.134447
0.53579 0.535805 0.141436
0.59913 0.528649 0.148852
0.650156 0.522866 0.168124
0.689113 0.512779 0.184985
0.720745 0.495888 0.194537
0.750957 0.475639 0.205509
0.781033 0.459464 0.222507
0.797467 0.456382 0.230274
0.814069 0.449287 0.242466
0.830182 0.434714 0.259907
0.838224 0.413748 0.274571
0.838285 0.391577 0.280613
0.834699 0.374273 0.280324
0.829221 0.353613 0.278309
0.821927 0.331807 0.275334
0.812055 0.307607 0.273976
0.801602 0.275685 0.268208
0.799115 0.273106 0.28658
0.818173 0.300816 0.329839
0.102007 0.455802 0.122179
0.100191 0.457527 0.125124
0.0988479 0.458778 0.126085
0.0985428 0.459541 0.124117
0.0983749 0.460563 0.121706
0.0991531 0.461936 0.118746
0.100603 0.462623 0.111437
0.10518 0.46276 0.102037
0.124743 0.469123 0.0986801
0.170779 0.48159 0.102235
0.229313 0.497429 0.109163
0.298924 0.521462 0.120974
0.368444 0.548623 0.132723
0.434211 0.570306 0.142962
0.50605 0.584268 0.151965
0.580407 0.582254 0.160403
0.640101 0.574365 0.169665
0.689708 0.568719 0.191913
0.725933 0.558328 0.215854
0.754849 0.541573 0.230381
0.780697 0.521935 0.238819
0.807126 0.505425 0.256413
0.821286 0.502052 0.265324
0.834272 0.49752 0.275441
0.842771 0.488182 0.283848
0.847181 0.475395 0.289509
0.846891 0.459724 0.290318
0.846723 0.44062 0.2925
0.844236 0.417517 0.293141
0.840635 0.396933 0.291737
0.836652 0.373724 0.293111
0.826688 0.349111 0.297307
0.822507 0.341238 0.315114
0.105043 0.491722 0.137026
0.102983 0.49395 0.141054
0.10161 0.495659 0.144076
0.101503 0.496712 0.142565
0.101579 0.497459 0.139101
0.102449 0.498024 0.133593
0.104234 0.498985 0.128023
0.107378 0.499123 0.118074
0.117662 0.500664 0.107561
0.155627 0.510491 0.106981
0.220523 0.524483 0.112352
0.288243 0.544671 0.124727
0.360891 0.572793 0.141329
0.424216 0.597833 0.155322
0.484535 0.6168 0.166125
0.551644 0.628992 0.175113
0.620935 0.626871 0.184375
0.677226 0.618235 0.197055
0.724819 0.612207 0.226215
0.759594 0.602213 0.255695
0.786313 0.585779 0.272328
0.806943 0.568231 0.278035
0.828092 0.549966 0.290547
0.840345 0.54522 0.298482
0.848829 0.541924 0.307439
0.852293 0.535927 0.309239
0.852583 0.527153 0.307942
0.852171 0.515892 0.305653
0.851423 0.501915 0.302831
0.85156 0.483909 0.30251
0.850675 0.459586 0.302388
0.847517 0.439994 0.306844
0.840574 0.418647 0.315709
0.1122 0.527123 0.163684
0.109361 0.529305 0.16907
0.107271 0.531472 0.17261
0.107179 0.532662 0.172091
0.107454 0.533547 0.168856
0.109316 0.533776 0.160678
0.111635 0.534188 0.151598
0.115023 0.534585 0.141817
0.121553 0.534234 0.128069
0.1449 0.538888 0.119249
0.207858 0.549905 0.120577
0.281132 0.568246 0.131472
0.35404 0.594583 0.150851
0.421637 0.621973 0.169406
0.476173 0.643854 0.18439
0.529534 0.660914 0.19675
0.592081 0.671824 0.207187
0.658579 0.669856 0.217639
0.711772 0.660517 0.235355
0.756985 0.654078 0.268696
0.789563 0.644419 0.300404
0.811887 0.629496 0.317952
0.828504 0.614115 0.323751
0.843702 0.596231 0.328191
0.854063 0.589929 0.33164
0.857694 0.587671 0.331258
0.857771 0.581231 0.329992
0.85771 0.571832 0.329595
0.856809 0.561196 0.328588
0.856428 0.54873 0.32636
0.855512 0.534417 0.32137
0.852491 0.518334 0.320485
0.84741 0.502144 0.324849
0.125231 0.560342 0.194736
0.121401 0.563226 0.202564
0.118807 0.565774 0.208896
0.118029 0.566857 0.208881
0.118318 0.567926 0.206302
0.12018 0.567941 0.198245
0.123629 0.56762 0.186969
0.128511 0.567559 0.176272
0.135454 0.567361 0.161501
0.15198 0.568276 0.145159
0.200198 0.575555 0.13756
0.273213 0.590799 0.145357
0.347448 0.614786 0.164797
0.419333 0.643687 0.187747
0.476341 0.668086 0.206638
0.52224 0.686717 0.223484
0.571023 0.702266 0.239277
0.630137 0.712612 0.251743
0.692927 0.711406 0.262623
0.742992 0.700664 0.2804
0.78558 0.694011 0.314321
0.815763 0.6851 0.34728
0.833417 0.671626 0.367544
0.845731 0.658824 0.373312
0.854887 0.645655 0.375479
0.85919 0.63978 0.373617
0.860441 0.639719 0.3691
0.860349 0.633631 0.364538
0.860761 0.62295 0.359548
0.860731 0.610407 0.35494
0.860685 0.596216 0.351247
0.857618 0.581155 0.351644
0.852674 0.566766 0.355871
0.146181 0.592248 0.231418
0.141527 0.595193 0.240452
0.138308 0.597971 0.247456
0.138048 0.599527 0.249073
0.138338 0.600198 0.24715
0.140642 0.599985 0.240757
0.144732 0.599145 0.230243
0.151049 0.597986 0.216602
0.158404 0.597742 0.204608
0.170138 0.596124 0.185504
0.203983 0.600488 0.171664
0.268421 0.613245 0.172137
0.342153 0.633707 0.187991
0.409964 0.659449 0.210712
0.474357 0.687007 0.234318
0.523232 0.70869 0.25362
0.564157 0.725475 0.27126
0.609918 0.739986 0.287236
0.665629 0.750362 0.301457
0.724666 0.750698 0.313115
0.771817 0.740215 0.330938
0.811337 0.733516 0.365148
0.838727 0.725521 0.399191
0.853758 0.714107 0.419486
0.861753 0.70399 0.426886
0.864912 0.695018 0.429572
0.865278 0.691569 0.428382
0.866194 0.692119 0.42475
0.865431 0.687526 0.419181
0.864012 0.678355 0.412406
0.863401 0.666468 0.403632
0.861021 0.650797 0.396338
0.856565 0.634684 0.393469
0.176883 0.62269 0.270237
0.173068 0.625132 0.278462
0.169863 0.627497 0.285908
0.169192 0.629023 0.288304
0.169558 0.629679 0.287816
0.17203 0.629404 0.282139
0.176196 0.628168 0.272618
0.181842 0.626444 0.259098
0.18912 0.625025 0.245274
0.198505 0.624018 0.232197
0.220432 0.625696 0.217166
0.269169 0.634913 0.209842
0.338201 0.651652 0.217716
0.404959 0.673945 0.237446
0.465599 0.69955 0.260441
0.521538 0.724727 0.282506
0.565652 0.744076 0.301625
0.603235 0.759319 0.319127
0.646525 0.773129 0.335912
0.69926 0.783688 0.350668
0.755276 0.78529 0.363622
0.797436 0.775906 0.385641
0.833921 0.76965 0.419684
0.858442 0.761654 0.450401
0.869886 0.753094 0.469673
0.874403 0.746166 0.479118
0.873869 0.740475 0.483009
0.873411 0.737469 0.483024
0.873884 0.738628 0.479316
0.873869 0.734997 0.474739
0.872541 0.727428 0.468391
0.870436 0.717403 0.460746
0.867628 0.705272 0.452537
0.214237 0.647334 0.301823
0.213458 0.648798 0.304875
0.210452 0.650629 0.311131
0.208835 0.652399 0.315145
0.208225 0.653284 0.316228
0.210559 0.652995 0.312032
0.214084 0.652277 0.304768
0.219593 0.650675 0.293034
0.226017 0.648951 0.278431
0.236057 0.647852 0.264576
0.252186 0.649897 0.254994
0.285283 0.655634 0.24538
0.343069 0.669291 0.24535
0.408377 0.689769 0.259815
0.467094 0.712947 0.28159
0.52256 0.737911 0.304219
0.572305 0.760479 0.324575
0.611017 0.777127 0.342489
0.645823 0.790631 0.359472
0.68632 0.803784 0.376379
0.735729 0.813214 0.392981
0.786587 0.815442 0.409934
0.823087 0.806897 0.432837
0.855909 0.799893 0.462394
0.876112 0.792233 0.489677
0.88336 0.785855 0.507439
0.88426 0.781384 0.516823
0.883558 0.776959 0.523049
0.882414 0.775433 0.525658
0.881376 0.776608 0.525063
0.880385 0.774075 0.522927
0.879255 0.768277 0.518563
0.878767 0.760159 0.511635
0.245945 0.670237 0.335668
0.246159 0.670939 0.336156
0.24445 0.673152 0.342718
0.242847 0.675013 0.347448
0.242283 0.676173 0.349401
0.243641 0.676143 0.34641
0.246189 0.675273 0.340093
0.250309 0.673671 0.330068
0.256046 0.67158 0.316915
0.266575 0.670848 0.30341
0.283452 0.672755 0.29398
0.302831 0.676326 0.286137
0.34696 0.68574 0.283619
0.402975 0.700816 0.289799
0.458015 0.720104 0.307362
0.509865 0.741756 0.32929
0.560815 0.764996 0.352361
0.605325 0.785748 0.372946
0.643061 0.802197 0.392248
0.677516 0.815793 0.410849
0.718074 0.828473 0.430961
0.765621 0.838422 0.450706
0.809842 0.841428 0.469505
0.841154 0.832898 0.4907
0.868986 0.825956 0.515511
0.88304 0.81976 0.53756
0.88777 0.815 0.552605
0.887205 0.81149 0.561013
0.886198 0.807568 0.568215
0.885176 0.806958 0.571389
0.884337 0.807828 0.56878
0.884321 0.805737 0.565255
0.88481 0.800671 0.560159
0.275441 0.689509 0.362982
0.275654 0.69015 0.363943
0.273686 0.692012 0.369635
0.271534 0.693843 0.374884
0.270481 0.694942 0.377401
0.271794 0.694743 0.374868
0.274159 0.694087 0.369329
0.27805 0.692821 0.360845
0.283482 0.691325 0.350286
0.293507 0.691234 0.338979
0.310262 0.693034 0.329717
0.32903 0.695979 0.32256
0.358419 0.702693 0.322164
0.402945 0.712993 0.323903
0.452003 0.727321 0.335668
0.500084 0.745037 0.3552
0.548012 0.765454 0.379522
0.594278 0.786954 0.403189
0.637201 0.807126 0.425666
0.673793 0.822858 0.446052
0.709987 0.836484 0.466743
0.750347 0.849058 0.488228
0.791592 0.858122 0.508125
0.828229 0.860746 0.527718
0.855085 0.854063 0.547265
0.876554 0.847623 0.566705
0.885496 0.843183 0.583627
0.886778 0.839887 0.595529
0.886336 0.837308 0.604212
0.885985 0.834989 0.612177
0.885283 0.835264 0.61326
0.8851 0.835615 0.60914
0.885878 0.833219 0.604028
0.301411 0.705333 0.384619
0.301259 0.705821 0.385275
0.298589 0.707469 0.390875
0.296223 0.709209 0.396124
0.295232 0.710262 0.39881
0.295995 0.710216 0.397147
0.297871 0.709453 0.393256
0.300633 0.708247 0.386099
0.307195 0.707607 0.37818
0.317082 0.707973 0.3691
0.332174 0.709407 0.360143
0.352361 0.712383 0.353414
0.37557 0.717556 0.352605
0.406256 0.723842 0.354513
0.448386 0.734249 0.362783
0.495354 0.748638 0.380636
0.540917 0.765881 0.403494
0.586511 0.785733 0.429343
0.629786 0.805646 0.454429
0.669474 0.82356 0.476829
0.707149 0.839094 0.498619
0.74284 0.852018 0.519478
0.778912 0.86302 0.539498
0.812833 0.87097 0.559701
0.84184 0.873182 0.57995
0.865049 0.869062 0.600458
0.878752 0.865339 0.617441
0.882078 0.862562 0.629786
0.882429 0.860227 0.640299
0.882246 0.858824 0.647974
0.882506 0.856855 0.653819
0.882261 0.857893 0.650645
0.882582 0.85745 0.645792
0.317861 0.717494 0.405035
0.318059 0.71751 0.404288
0.315526 0.718654 0.408316
0.313664 0.719631 0.411688
0.311788 0.720455 0.414405
0.312169 0.720394 0.412665
0.314229 0.719951 0.409705
0.318288 0.7196 0.404242
0.323705 0.718914 0.397452
0.331426 0.718471 0.389136
0.346349 0.719676 0.381521
0.367056 0.722652 0.375662
0.3906 0.726986 0.375174
0.413947 0.731609 0.37969
0.448768 0.739269 0.388083
0.491356 0.750622 0.403082
0.537469 0.765743 0.425147
0.582071 0.783551 0.450614
0.625925 0.802808 0.477317
0.663706 0.820188 0.501106
0.70251 0.837232 0.52488
0.738872 0.851469 0.546059
0.772732 0.863005 0.565377
0.802625 0.871519 0.582574
0.830625 0.877317 0.602487
0.855756 0.877821 0.623545
0.872999 0.876661 0.64596
0.877287 0.876173 0.66128
0.877043 0.876356 0.673777
0.876738 0.876295 0.684596
0.87689 0.875166 0.690745
0.877089 0.874296 0.693904
0.877272 0.875212 0.688624
0.322408 0.723873 0.419959
0.322606 0.723629 0.418555
0.321675 0.72398 0.419867
0.320439 0.724269 0.420829
0.319265 0.72459 0.42208
0.319585 0.72433 0.420188
0.322423 0.724346 0.41799
0.326543 0.724254 0.414389
0.331884 0.723857 0.408545
0.342184 0.72433 0.401923
0.359915 0.726955 0.397879
0.382132 0.730053 0.396323
0.405524 0.734035 0.39765
0.429679 0.738521 0.402335
0.456184 0.744503 0.412665
0.49398 0.753918 0.427237
0.536858 0.766491 0.447105
0.580941 0.782406 0.471321
0.624292 0.800549 0.498253
0.663218 0.818524 0.523552
0.698177 0.83389 0.547112
0.735073 0.849531 0.570047
0.768933 0.861845 0.590219
0.796887 0.870665 0.604959
0.822187 0.87718 0.620523
0.843992 0.879866 0.636103
0.866972 0.879561 0.659312
0.874937 0.880369 0.679393
