bundles/resolve-cinematic-luts/Phantom Luts/A7s3 Phntm Film LUTs - G6/ATOMOS Monitor LUTs/Slog2+Sgamut3cine/Eastman A7s3 Sl2sg3c-Legacy AML.cube
TITLE "Generated by Resolve"
LUT_3D_SIZE 33
0.0975204 0.0875563 0.0900587
0.0975204 0.0875563 0.0900587
0.0975204 0.0875563 0.0900587
0.0977951 0.0875563 0.0899977
0.105913 0.087602 0.0910658
0.121889 0.0874952 0.0919966
0.141192 0.0876326 0.0935378
0.161013 0.0875563 0.0932326
0.183658 0.0874647 0.0932784
0.210346 0.0877241 0.0919356
0.238224 0.0890211 0.0886549
0.265995 0.0897231 0.0875257
0.291661 0.0907759 0.0878614
0.316258 0.0906996 0.0896315
0.339986 0.090547 0.0911269
0.362936 0.0906539 0.0922408
0.384848 0.0925307 0.093019
0.405875 0.0945449 0.0944839
0.42533 0.0961929 0.0955062
0.444114 0.097261 0.0972
0.46244 0.0982223 0.0990311
0.480674 0.0973983 0.101472
0.498177 0.0929274 0.105455
0.517906 0.0887617 0.115038
0.538338 0.0910811 0.134478
0.56109 0.101274 0.162295
0.586587 0.114504 0.192737
0.609232 0.128298 0.221546
0.628626 0.141924 0.248829
0.643549 0.156771 0.275105
0.658213 0.172107 0.300603
0.673259 0.187289 0.324666
0.691112 0.201831 0.34786
0.0967575 0.0875563 0.0903639
0.0972763 0.0875563 0.0901656
0.0975204 0.0875563 0.0900587
0.0979324 0.0875563 0.090074
0.104875 0.087602 0.0911879
0.118166 0.08748 0.0918898
0.136477 0.0876326 0.0934005
0.157076 0.0874952 0.0933242
0.179904 0.0874647 0.0932784
0.207736 0.0883955 0.0917678
0.23563 0.0894026 0.0885939
0.263691 0.0905165 0.0875257
0.290501 0.0925917 0.0875257
0.315663 0.0935683 0.0893416
0.339513 0.0927443 0.0906386
0.363134 0.0935073 0.0918593
0.385534 0.0952773 0.0929122
0.406424 0.0971084 0.0937972
0.426062 0.0996719 0.0949569
0.44509 0.101823 0.0963912
0.463966 0.103563 0.0982834
0.482933 0.10486 0.100221
0.500313 0.102464 0.103777
0.519402 0.0992142 0.112322
0.539635 0.0946975 0.125887
0.562051 0.101793 0.152361
0.586725 0.114382 0.182788
0.609003 0.128054 0.212497
0.627558 0.140764 0.239734
0.641947 0.155108 0.266011
0.656001 0.170153 0.290776
0.670024 0.184558 0.315511
0.687663 0.198901 0.338598
0.0967575 0.0875563 0.0903639
0.0972457 0.0875563 0.0901656
0.0975662 0.0875563 0.0900587
0.098146 0.0875563 0.0901503
0.103349 0.087602 0.0911116
0.114122 0.0874189 0.0918288
0.130602 0.0875715 0.0930343
0.1505 0.0874647 0.0935836
0.17464 0.0876478 0.0936751
0.203174 0.0892195 0.0921187
0.233051 0.0901503 0.0885328
0.26125 0.0906996 0.0875257
0.288411 0.0926986 0.0874952
0.314229 0.0945449 0.0888838
0.339132 0.0938888 0.0905928
0.362844 0.0944991 0.0915694
0.385977 0.096376 0.0928054
0.406699 0.0986343 0.0936141
0.426642 0.101061 0.0948043
0.44651 0.103685 0.0961166
0.465431 0.105608 0.0979171
0.485344 0.10898 0.100008
0.504097 0.107637 0.103487
0.524025 0.105928 0.11281
0.54464 0.102953 0.126452
0.566384 0.103944 0.147189
0.591791 0.116976 0.179553
0.6121 0.129717 0.208911
0.62977 0.142992 0.236942
0.644175 0.157137 0.263447
0.658808 0.172168 0.28983
0.670283 0.18793 0.314595
0.682231 0.204395 0.337331
0.0955062 0.0879377 0.0933242
0.0953841 0.087892 0.0932479
0.096376 0.0877546 0.0930495
0.0993668 0.0884718 0.0929732
0.105562 0.0888685 0.0931563
0.116136 0.0887465 0.0937819
0.132479 0.0894942 0.0949111
0.150454 0.090486 0.0957809
0.172702 0.0928054 0.0958724
0.203418 0.0929122 0.0922866
0.236088 0.0932784 0.0875105
0.264881 0.0940414 0.0874647
0.290547 0.0961776 0.0874342
0.316533 0.0979324 0.0878462
0.343023 0.0987564 0.0894789
0.37145 0.099321 0.0909743
0.393179 0.10074 0.0924392
0.413764 0.102556 0.0933852
0.433234 0.105043 0.0944533
0.452049 0.107683 0.0959029
0.470909 0.109743 0.0977798
0.489891 0.111788 0.0997635
0.509483 0.113115 0.103532
0.528374 0.1093 0.113313
0.552316 0.112261 0.128359
0.573678 0.107942 0.145327
0.597833 0.120348 0.178286
0.617014 0.13315 0.208408
0.63418 0.146136 0.23682
0.648249 0.159594 0.263172
0.662745 0.175006 0.29012
0.673564 0.190707 0.314855
0.684108 0.206653 0.336416
0.102007 0.106676 0.101259
0.101198 0.105791 0.100389
0.101701 0.105104 0.0999924
0.105653 0.106737 0.100816
0.114488 0.108217 0.100511
0.129656 0.106752 0.100175
0.145708 0.104997 0.100496
0.162936 0.103243 0.100267
0.181643 0.103716 0.0993973
0.209125 0.102968 0.0958419
0.237385 0.102571 0.0909133
0.264912 0.102632 0.0874647
0.291325 0.101732 0.0875868
0.316396 0.10251 0.0875105
0.342748 0.103899 0.0882887
0.368215 0.104128 0.0894484
0.38938 0.105241 0.0905776
0.413062 0.108934 0.0925002
0.43621 0.112703 0.0932631
0.458686 0.116197 0.095201
0.476631 0.1187 0.0967117
0.496803 0.119509 0.099443
0.513909 0.116976 0.104173
0.532418 0.113344 0.113985
0.551583 0.107424 0.128084
0.577737 0.111406 0.147005
0.604273 0.124453 0.178042
0.621485 0.136599 0.206653
0.63743 0.149416 0.234699
0.651743 0.162966 0.261799
0.66601 0.177813 0.289113
0.677165 0.193729 0.313588
0.688746 0.210315 0.336782
0.106569 0.127443 0.107652
0.105898 0.126131 0.106554
0.106111 0.124971 0.105333
0.110491 0.126955 0.106081
0.120729 0.12961 0.107134
0.132891 0.128389 0.104738
0.152041 0.126207 0.103975
0.172747 0.121935 0.104143
0.196246 0.118654 0.103349
0.224948 0.115572 0.100298
0.249149 0.114366 0.0970779
0.273899 0.112749 0.0920729
0.29807 0.112078 0.0880446
0.321767 0.112291 0.0877699
0.344366 0.11043 0.0880751
0.365118 0.110704 0.088716
0.386572 0.111315 0.0896315
0.409232 0.112718 0.0907912
0.429709 0.114549 0.092134
0.450248 0.117815 0.0931868
0.475029 0.125292 0.0951247
0.497734 0.128756 0.097673
0.52163 0.129335 0.104082
0.540413 0.127794 0.114458
0.561425 0.121111 0.131075
0.581094 0.11397 0.148989
0.60621 0.126207 0.178531
0.620691 0.136767 0.20676
0.640818 0.152209 0.23389
0.657008 0.166995 0.260151
0.671321 0.181964 0.287541
0.682734 0.198093 0.311818
0.692302 0.213916 0.334295
0.107607 0.144411 0.111803
0.107088 0.143252 0.110033
0.111849 0.141176 0.10724
0.11603 0.142901 0.107134
0.128603 0.146975 0.109178
0.141283 0.149859 0.110063
0.156588 0.14757 0.107713
0.180133 0.14493 0.108049
0.211337 0.139361 0.107591
0.246616 0.132723 0.106828
0.275166 0.13051 0.104295
0.300816 0.127199 0.0999313
0.321584 0.12697 0.0969406
0.343008 0.12578 0.0927901
0.36347 0.126726 0.0910201
0.381262 0.127794 0.090425
0.399222 0.124529 0.0908522
0.413993 0.122728 0.0911421
0.432868 0.12311 0.0918441
0.453193 0.125109 0.0929122
0.473793 0.127779 0.0937209
0.494926 0.132326 0.0957504
0.515694 0.135256 0.0983902
0.544091 0.137819 0.109392
0.572061 0.137194 0.130007
0.593179 0.128878 0.151202
0.609598 0.127474 0.175586
0.621729 0.136736 0.205097
0.642741 0.15285 0.232517
0.660807 0.167941 0.258976
0.679179 0.184619 0.283391
0.692592 0.200641 0.309392
0.704112 0.215839 0.332189
0.112123 0.165484 0.116503
0.111879 0.163882 0.114061
0.112444 0.16202 0.111589
0.118029 0.163836 0.110536
0.13135 0.168811 0.112352
0.145678 0.174273 0.114672
0.159564 0.177707 0.115312
0.181094 0.174868 0.113085
0.213855 0.171038 0.112276
0.256168 0.164477 0.114
0.295415 0.156847 0.114473
0.328466 0.153063 0.112978
0.353643 0.149706 0.109468
0.37261 0.149538 0.107591
0.392569 0.149065 0.104372
0.411322 0.149462 0.101625
0.42855 0.150027 0.0996109
0.442847 0.149889 0.0971389
0.455085 0.146792 0.0947127
0.468101 0.144091 0.0936751
0.480949 0.142184 0.0936294
0.500221 0.143282 0.0954452
0.51783 0.142733 0.0971084
0.536294 0.143191 0.101335
0.566445 0.147295 0.118975
0.59411 0.148302 0.143404
0.614725 0.140291 0.166003
0.629877 0.144076 0.194598
0.643168 0.154498 0.227451
0.657923 0.166995 0.259785
0.679927 0.18584 0.282582
0.695735 0.203372 0.306172
0.709087 0.220661 0.326055
0.112764 0.191989 0.121233
0.112688 0.18996 0.118105
0.113069 0.188098 0.114473
0.118318 0.189456 0.112093
0.130251 0.194568 0.113619
0.145876 0.201266 0.116594
0.163363 0.208927 0.120577
0.183078 0.215442 0.12192
0.216083 0.214359 0.1196
0.259022 0.210452 0.11899
0.307225 0.207065 0.123644
0.349706 0.197604 0.130327
0.385306 0.192157 0.130617
0.413153 0.188083 0.130358
0.434394 0.185534 0.129412
0.452827 0.184405 0.127825
0.471504 0.183932 0.125948
0.487922 0.183398 0.123369
0.5019 0.18291 0.121141
0.512322 0.18117 0.118242
0.521385 0.179034 0.11664
0.526329 0.171496 0.109163
0.539223 0.167086 0.108202
0.551476 0.16144 0.108995
0.568002 0.158755 0.116014
0.584436 0.156024 0.127306
0.609598 0.160891 0.151293
0.633799 0.159854 0.178805
0.652842 0.162966 0.211719
0.665522 0.173404 0.246433
0.679683 0.186404 0.279026
0.69131 0.200504 0.309285
0.706294 0.218051 0.331472
0.114946 0.224979 0.129
0.113634 0.223255 0.12491
0.112612 0.222293 0.120974
0.115114 0.222873 0.116655
0.124392 0.227527 0.117678
0.144137 0.236927 0.122499
0.168109 0.247349 0.128618
0.191974 0.25713 0.13257
0.220966 0.265538 0.133669
0.266041 0.266392 0.131029
0.313436 0.263005 0.128954
0.361044 0.261341 0.135546
0.40499 0.255131 0.144366
0.443046 0.245258 0.153277
0.472694 0.240482 0.154574
0.498131 0.235767 0.155795
0.516762 0.233875 0.15642
0.534478 0.231495 0.156298
0.551431 0.226047 0.155566
0.566461 0.223484 0.154635
0.579141 0.220829 0.154055
0.5897 0.218799 0.153185
0.59498 0.21445 0.151064
0.601053 0.20621 0.149203
0.602228 0.194141 0.141436
0.607217 0.184848 0.140246
0.608911 0.175174 0.144106
0.618204 0.173266 0.155444
0.639689 0.173831 0.179019
0.676692 0.183917 0.220111
0.688319 0.194507 0.259052
0.699443 0.207584 0.29192
0.710216 0.222171 0.321996
0.123827 0.267445 0.143267
0.121935 0.266133 0.138705
0.121355 0.265782 0.134447
0.121538 0.265843 0.128771
0.128374 0.268986 0.128313
0.143557 0.278676 0.132433
0.171191 0.29221 0.140185
0.199649 0.303181 0.145068
0.231998 0.31339 0.146975
0.270085 0.321035 0.14435
0.3187 0.320378 0.140642
0.366766 0.317128 0.137591
0.411276 0.315633 0.143099
0.456168 0.312352 0.154314
0.496101 0.305776 0.166369
0.528466 0.296101 0.175372
0.555444 0.289677 0.176516
0.576226 0.287449 0.17818
0.594568 0.285344 0.179736
0.613382 0.276753 0.181292
0.630152 0.271382 0.182254
0.645106 0.266697 0.18407
0.657221 0.263081 0.186114
0.665187 0.258366 0.18819
0.670039 0.253361 0.190234
0.670375 0.240421 0.188296
0.661158 0.226108 0.180941
0.6495 0.209964 0.173449
0.641917 0.198688 0.170855
0.652308 0.194476 0.185809
0.694575 0.213031 0.228107
0.710018 0.218799 0.261021
0.720516 0.233829 0.297414
0.137255 0.316716 0.162249
0.136278 0.31632 0.158419
0.135927 0.316045 0.15349
0.136065 0.316991 0.148882
0.13698 0.316991 0.143603
0.147784 0.322637 0.144091
0.171115 0.335424 0.150332
0.200717 0.347814 0.156146
0.236408 0.357382 0.158022
0.275257 0.365866 0.154559
0.318196 0.372229 0.14966
0.367987 0.371954 0.146441
0.414405 0.367239 0.14258
0.458808 0.366659 0.148318
0.501884 0.365118 0.160113
0.542016 0.360555 0.174609
0.576028 0.352041 0.184771
0.605631 0.340047 0.194339
0.628183 0.33669 0.196643
0.646616 0.336599 0.199115
0.669078 0.327535 0.202274
0.687877 0.320546 0.206561
0.703792 0.312963 0.210239
0.715831 0.307485 0.214054
0.725368 0.302998 0.21648
0.730785 0.296849 0.21912
0.722072 0.286412 0.218967
0.71133 0.275868 0.216663
0.697734 0.259007 0.212085
0.688273 0.243122 0.207584
0.679286 0.228809 0.204578
0.698512 0.234943 0.228443
0.723613 0.248035 0.262058
0.149157 0.364706 0.180392
0.14818 0.364492 0.176928
0.146975 0.364355 0.172107
0.146777 0.365606 0.16762
0.149035 0.365682 0.160906
0.152407 0.366613 0.15491
0.172305 0.376043 0.157855
0.200565 0.388815 0.163333
0.237263 0.399924 0.167285
0.280003 0.407858 0.163958
0.319265 0.415198 0.157504
0.365087 0.421088 0.151507
0.412116 0.418448 0.149935
0.458015 0.412802 0.146242
0.500099 0.411994 0.152621
0.540993 0.41146 0.16524
0.580682 0.407919 0.18233
0.614893 0.401877 0.195285
0.645731 0.391257 0.208118
0.672297 0.382055 0.21854
0.690135 0.381308 0.221698
0.710719 0.375311 0.226078
0.730465 0.369619 0.232242
0.747753 0.359075 0.237903
0.76022 0.3514 0.243244
0.768093 0.34464 0.245243
0.763607 0.334386 0.244526
0.758007 0.325536 0.241428
0.75053 0.315694 0.237797
0.740764 0.30544 0.236225
0.725475 0.291859 0.233814
0.711681 0.275898 0.233082
0.708629 0.266056 0.23743
0.158724 0.411978 0.19884
0.157366 0.411429 0.194125
0.156832 0.411154 0.189471
0.157504 0.412146 0.185855
0.158694 0.413901 0.181247
0.160876 0.414496 0.173541
0.169696 0.416922 0.166598
0.197055 0.428641 0.171008
0.231876 0.439826 0.175051
0.279026 0.447501 0.173907
0.323064 0.454719 0.165957
0.361196 0.461311 0.160021
0.405005 0.465248 0.15523
0.452537 0.461158 0.156893
0.495567 0.454994 0.154635
0.535302 0.454261 0.161288
0.575006 0.454154 0.17435
0.614054 0.451499 0.192767
0.647303 0.446143 0.207401
0.679118 0.43798 0.222736
0.709056 0.427756 0.237705
0.726726 0.424781 0.244739
0.744656 0.421042 0.250507
0.763119 0.415259 0.255772
0.779599 0.407095 0.26183
0.791058 0.397375 0.267384
0.789014 0.38497 0.269062
0.785382 0.376684 0.268315
0.780682 0.366949 0.265873
0.774166 0.355749 0.261585
0.766415 0.344228 0.257969
0.755352 0.331853 0.25359
0.742092 0.319554 0.251682
0.166262 0.456886 0.218082
0.165515 0.456397 0.213703
0.165301 0.456306 0.208927
0.165728 0.456794 0.204623
0.166751 0.458183 0.200641
0.168658 0.459068 0.193271
0.17435 0.459953 0.183978
0.190234 0.46511 0.178988
0.227207 0.477287 0.184176
0.273854 0.485496 0.185565
0.324788 0.491386 0.179919
0.364248 0.497612 0.172503
0.401801 0.502724 0.167559
0.443549 0.505791 0.163745
0.48925 0.500954 0.166629
0.529625 0.494926 0.165316
0.567361 0.493767 0.171832
0.605539 0.493172 0.18439
0.644327 0.491341 0.20415
0.678065 0.486976 0.221897
0.709041 0.480858 0.239506
0.736889 0.471748 0.254414
0.756298 0.467353 0.263676
0.771878 0.46482 0.271244
0.788006 0.457893 0.278553
0.800397 0.451881 0.281987
0.807614 0.443168 0.286305
0.80499 0.433997 0.286778
0.801602 0.423041 0.285908
0.797314 0.410971 0.285145
0.790997 0.396719 0.28191
0.78294 0.38436 0.278599
0.772168 0.370169 0.274907
0.173404 0.499229 0.240314
0.1729 0.498802 0.235706
0.172793 0.498726 0.231083
0.173144 0.498619 0.226307
0.174334 0.499031 0.221759
0.176638 0.500343 0.21593
0.179721 0.500633 0.206119
0.189761 0.502922 0.195666
0.218631 0.512108 0.195575
0.270985 0.52018 0.198062
0.323018 0.526207 0.196399
0.370748 0.531395 0.186374
0.403906 0.537148 0.180819
0.440925 0.541787 0.177066
0.479118 0.543725 0.173083
0.522316 0.537896 0.177615
0.561364 0.532219 0.177752
0.598321 0.530312 0.185153
0.634333 0.53019 0.197208
0.672404 0.528359 0.217868
0.705257 0.52491 0.237751
0.732738 0.52108 0.255924
0.758175 0.513069 0.271183
0.777859 0.507164 0.282307
0.792325 0.504891 0.288518
0.805203 0.500404 0.294331
0.814786 0.495369 0.298772
0.815824 0.488014 0.30161
0.814893 0.479286 0.302617
0.812497 0.469581 0.301946
0.809247 0.457633 0.301091
0.803189 0.442817 0.299611
0.794308 0.425361 0.296391
0.183902 0.539315 0.26746
0.183474 0.538705 0.262852
0.183734 0.538201 0.258518
0.184604 0.537896 0.253147
0.185992 0.537743 0.247211
0.188342 0.537774 0.238788
0.191119 0.538933 0.231891
0.195804 0.538781 0.218387
0.215534 0.544228 0.21178
0.263386 0.553872 0.213703
0.321996 0.55906 0.21088
0.371649 0.564828 0.204685
0.411627 0.570047 0.195224
0.441108 0.575387 0.191913
0.477134 0.578851 0.187915
0.51162 0.579583 0.185138
0.55314 0.573861 0.189776
0.591959 0.568811 0.19292
0.626902 0.566155 0.200397
0.661372 0.565774 0.212161
0.697292 0.563195 0.234043
0.726986 0.560845 0.254932
0.751141 0.558206 0.273976
0.774395 0.551659 0.289921
0.792737 0.545495 0.302159
0.804547 0.542916 0.3075
0.813596 0.539803 0.311025
0.816449 0.538445 0.310903
0.817685 0.531289 0.312352
0.81799 0.521874 0.31342
0.816831 0.510674 0.314519
0.81413 0.497658 0.315908
0.809232 0.482902 0.314824
0.196704 0.57818 0.296254
0.196414 0.577539 0.291768
0.196658 0.576761 0.288167
0.19736 0.576165 0.283192
0.198795 0.575494 0.2757
0.201556 0.574838 0.265873
0.204395 0.574945 0.256748
0.207919 0.575418 0.245823
0.217197 0.576593 0.231601
0.255421 0.586267 0.23093
0.319326 0.591821 0.227436
0.372168 0.596948 0.222156
0.417411 0.60174 0.212406
0.449165 0.60676 0.206958
0.47602 0.611658 0.204852
0.510933 0.614054 0.202152
0.542535 0.614298 0.20058
0.583169 0.609171 0.205615
0.619654 0.602716 0.209125
0.653056 0.599359 0.217166
0.685222 0.598825 0.229221
0.718181 0.596643 0.252216
0.744991 0.594156 0.276524
0.766476 0.591943 0.294667
0.786801 0.587106 0.309941
0.801556 0.581933 0.322637
0.810147 0.579858 0.32726
0.814221 0.577981 0.328161
0.814404 0.577386 0.325185
0.815534 0.570413 0.326345
0.816022 0.561242 0.326848
0.815915 0.549996 0.327947
0.814435 0.537331 0.328481
0.210437 0.616114 0.325902
0.209903 0.615015 0.321736
0.210193 0.614099 0.31841
0.210925 0.613321 0.313375
0.212497 0.612451 0.305959
0.215228 0.611505 0.29543
0.218128 0.610605 0.283803
0.221729 0.610391 0.271946
0.226947 0.610132 0.257053
0.254475 0.618387 0.250477
0.317372 0.624781 0.247044
0.3729 0.629648 0.242939
0.420264 0.634562 0.23415
0.457145 0.63859 0.226322
0.48481 0.643305 0.222568
0.510475 0.647425 0.221759
0.541756 0.64921 0.219425
0.572106 0.647959 0.218662
0.610178 0.642664 0.223056
0.645106 0.635264 0.227131
0.677119 0.631434 0.236805
0.706386 0.630488 0.251102
0.735317 0.627863 0.275914
0.760845 0.625238 0.300618
0.780545 0.623667 0.316594
0.795834 0.620752 0.331273
0.807523 0.616541 0.342443
0.811795 0.614008 0.346258
0.811704 0.613077 0.345403
0.811627 0.612131 0.341573
0.812558 0.605661 0.341802
0.812802 0.596597 0.342229
0.812543 0.58616 0.343023
0.225254 0.652796 0.35404
0.224765 0.651743 0.350393
0.224964 0.651041 0.347784
0.225818 0.649729 0.343618
0.226902 0.648615 0.337087
0.228885 0.64651 0.325673
0.232136 0.645197 0.31284
0.235874 0.644663 0.299504
0.240558 0.644099 0.284566
0.257206 0.64889 0.27187
0.313893 0.65658 0.267582
0.374945 0.660777 0.263462
0.421973 0.66566 0.258564
0.46247 0.669688 0.248859
0.492973 0.67335 0.243122
0.5178 0.676814 0.241306
0.541512 0.679789 0.240726
0.570611 0.680354 0.238499
0.599756 0.678843 0.238605
0.636103 0.673899 0.243336
0.66949 0.666804 0.25008
0.698909 0.662425 0.261769
0.725216 0.66096 0.279805
0.751049 0.658473 0.302083
0.775296 0.655512 0.325292
0.791516 0.653101 0.339193
0.802747 0.650568 0.35137
0.810239 0.646983 0.361212
0.810529 0.645014 0.363729
0.810269 0.643671 0.361913
0.81001 0.642451 0.35819
0.809827 0.636027 0.358144
0.80975 0.628016 0.358694
0.240574 0.686336 0.380346
0.240177 0.685405 0.376974
0.240375 0.684627 0.375051
0.24094 0.683528 0.371588
0.241718 0.681941 0.365591
0.243503 0.679515 0.355169
0.246387 0.677501 0.341924
0.249866 0.675517 0.325994
0.25478 0.675044 0.312352
0.267018 0.677913 0.296895
0.309545 0.685725 0.289326
0.375051 0.689967 0.285191
0.424582 0.693996 0.281636
0.465492 0.697398 0.274006
0.498741 0.700313 0.265675
0.525185 0.703059 0.261707
0.547448 0.705882 0.260487
0.57023 0.708125 0.260685
0.597528 0.707927 0.259297
0.62533 0.706188 0.259754
0.660655 0.70135 0.264668
0.6916 0.694682 0.276081
0.718746 0.690333 0.293889
0.743511 0.688472 0.31078
0.766903 0.685634 0.330327
0.788251 0.682033 0.349386
0.801389 0.679576 0.361532
0.80972 0.676707 0.371496
0.813001 0.672709 0.378256
0.815442 0.669841 0.3785
0.816571 0.668055 0.374594
0.81651 0.665293 0.370184
0.816159 0.659678 0.36997
0.25684 0.716274 0.39968
0.256458 0.715084 0.396841
0.256077 0.714107 0.39501
0.256367 0.712749 0.392142
0.25745 0.711208 0.386984
0.258991 0.709056 0.378363
0.261326 0.706416 0.365881
0.264851 0.703578 0.349432
0.270954 0.702876 0.333822
0.281773 0.705409 0.322316
0.312993 0.711345 0.308812
0.376547 0.715724 0.302785
0.427268 0.718837 0.299504
0.469078 0.721828 0.294697
0.504509 0.724041 0.286534
0.533867 0.726436 0.279713
0.556115 0.728527 0.278096
0.5776 0.730312 0.277943
0.600061 0.731929 0.278553
0.625437 0.731609 0.277806
0.653117 0.729427 0.280232
0.68661 0.725353 0.288533
0.714824 0.718914 0.304173
0.740307 0.713909 0.320653
0.763607 0.711177 0.336202
0.785321 0.707927 0.35462
0.802991 0.703975 0.370581
0.81207 0.700771 0.381491
0.816434 0.697566 0.389883
0.818067 0.693721 0.395697
0.818784 0.691508 0.396597
0.817731 0.690257 0.390814
0.817212 0.686946 0.388022
0.271748 0.742306 0.421271
0.271397 0.741192 0.419013
0.271351 0.740337 0.417502
0.271733 0.739208 0.414527
0.272404 0.737179 0.409857
0.273686 0.735317 0.402884
0.275532 0.73228 0.391104
0.278248 0.729 0.375051
0.286183 0.728374 0.360006
0.298039 0.730724 0.347005
0.322103 0.734661 0.334752
0.372885 0.738643 0.325338
0.42768 0.741527 0.321889
0.469642 0.743893 0.317906
0.506142 0.746105 0.311681
0.535668 0.747829 0.305943
0.560754 0.749462 0.301335
0.581064 0.751278 0.300786
0.601801 0.752529 0.301442
0.625055 0.753552 0.303243
0.648737 0.753384 0.305455
0.674907 0.751141 0.311528
0.706691 0.747372 0.319905
0.733196 0.740414 0.334096
0.75671 0.735073 0.349432
0.778714 0.731517 0.363668
0.796857 0.727779 0.379385
0.81059 0.723415 0.394125
0.816205 0.720668 0.403738
0.818173 0.71696 0.411185
0.820035 0.713695 0.415442
0.820066 0.711376 0.414633
0.81854 0.710765 0.407843
0.285344 0.763378 0.440253
0.285222 0.762219 0.437934
0.285161 0.761425 0.436332
0.285176 0.760143 0.433692
0.285557 0.758221 0.428565
0.286824 0.755718 0.421393
0.288594 0.753063 0.411566
0.291188 0.750195 0.398062
0.300511 0.750164 0.384237
0.313283 0.7514 0.370306
0.334585 0.754498 0.361883
0.374533 0.758434 0.355001
0.426307 0.760159 0.351232
0.469047 0.761852 0.348363
0.504509 0.763317 0.344686
0.535531 0.765408 0.33933
0.560815 0.767422 0.335683
0.583886 0.76907 0.333898
0.604532 0.770367 0.333547
0.625422 0.771237 0.333639
0.647532 0.772076 0.334722
0.671046 0.771115 0.335225
0.695491 0.769284 0.340963
0.725765 0.765682 0.348562
0.749813 0.758709 0.362051
0.771847 0.752651 0.376135
0.790738 0.749386 0.389258
0.804379 0.74551 0.404318
0.81146 0.741802 0.418357
0.812665 0.739239 0.428504
0.814282 0.735759 0.436011
0.815656 0.733288 0.438178
0.816693 0.731136 0.434867
0.298695 0.781003 0.457816
0.297887 0.779492 0.454231
0.297642 0.7785 0.452155
0.297734 0.777234 0.449256
0.298222 0.775326 0.445701
0.299321 0.77319 0.439094
0.301122 0.770535 0.429572
0.304509 0.768154 0.418189
0.314565 0.767758 0.405661
0.328405 0.76849 0.392691
0.351003 0.770764 0.385824
0.378134 0.77406 0.382544
0.424918 0.775738 0.378759
0.467872 0.776501 0.37557
0.503059 0.777722 0.373205
0.534783 0.779812 0.369268
0.562066 0.781674 0.36585
0.585412 0.783841 0.363561
0.606348 0.784512 0.361822
0.626871 0.785489 0.361486
0.647639 0.785641 0.361334
0.668132 0.785657 0.361334
0.69099 0.785245 0.362646
0.714366 0.78294 0.36791
0.741527 0.779171 0.375021
0.764202 0.772137 0.388006
0.784543 0.766567 0.401404
0.801129 0.763394 0.414435
0.809567 0.759838 0.430213
0.810727 0.757534 0.443244
0.81207 0.755642 0.452399
0.813519 0.752621 0.459617
0.814664 0.750607 0.459419
0.309804 0.794064 0.474388
0.309346 0.792859 0.469337
0.309148 0.791547 0.466361
0.309239 0.790326 0.462638
0.309651 0.788754 0.459495
0.310445 0.786557 0.453468
0.313085 0.784298 0.445686
0.317586 0.782269 0.435508
0.327108 0.781247 0.423957
0.34284 0.781353 0.412009
0.366094 0.783139 0.406638
0.390265 0.785565 0.40441
0.422095 0.787427 0.402975
0.464332 0.787945 0.400397
0.501015 0.788998 0.397955
0.532479 0.790372 0.395651
0.5617 0.792508 0.392035
0.58555 0.794461 0.389425
0.606836 0.795346 0.388525
0.627085 0.79559 0.387472
0.647318 0.796017 0.386923
0.667948 0.795895 0.386618
0.686305 0.796124 0.386587
0.707805 0.795148 0.387671
0.729122 0.793454 0.393698
0.754665 0.78909 0.400488
0.776532 0.782361 0.412924
0.795361 0.778927 0.426459
0.807614 0.776211 0.439643
0.809644 0.774197 0.455955
0.811276 0.772763 0.467247
0.812863 0.770977 0.476219
0.814527 0.768765 0.48304
0.319417 0.802472 0.486427
0.318746 0.801541 0.482399
0.318257 0.800275 0.478264
0.317769 0.799054 0.474434
0.318425 0.797482 0.469718
0.320424 0.795682 0.464469
0.324071 0.793957 0.457786
0.329946 0.792142 0.449546
0.338506 0.790097 0.439857
0.356237 0.789471 0.429648
0.378836 0.790448 0.424399
0.400214 0.791959 0.423056
0.424964 0.793515 0.4224
0.460426 0.794186 0.421393
0.496315 0.794736 0.419547
0.527993 0.795895 0.417914
0.557366 0.797513 0.415671
0.583169 0.798871 0.41265
0.605371 0.800229 0.411093
0.625818 0.80119 0.410849
0.645747 0.801373 0.4103
0.665934 0.801236 0.409827
0.683757 0.801404 0.4094
0.701732 0.801419 0.409689
0.722362 0.801907 0.410986
0.743313 0.800397 0.417151
0.767102 0.796094 0.425361
0.78793 0.79237 0.438956
0.802029 0.790021 0.452705
0.809613 0.788357 0.465568
0.812833 0.787289 0.47837
