bundles/resolve-cinematic-luts/Phantom Luts/A7s3 Phntm Film LUTs - G6/ATOMOS Monitor LUTs/Slog2+Sgamut3cine/EastmanRM A7s3 Sl2sg3c-Legacy AML.cube
TITLE "Generated by Resolve"
LUT_3D_SIZE 9
0.0957198 0.0992447 0.0973068
0.105486 0.0958877 0.0930648
0.213367 0.0874189 0.0883345
0.337194 0.0821393 0.0911574
0.451331 0.0791028 0.0996567
0.537499 0.0805676 0.118013
0.606134 0.0991226 0.166705
0.702922 0.163424 0.26714
0.766583 0.24094 0.405936
0.0980087 0.113527 0.098146
0.104509 0.114153 0.0971847
0.193545 0.101717 0.0932479
0.341634 0.0829175 0.0901961
0.464988 0.0784314 0.0971237
0.549142 0.0816052 0.117098
0.621042 0.105196 0.169924
0.709682 0.16733 0.2663
0.762829 0.240894 0.402548
0.110216 0.200946 0.109667
0.114748 0.205753 0.106722
0.212879 0.215061 0.106432
0.404227 0.174411 0.105898
0.506157 0.134066 0.106844
0.551171 0.0890516 0.108797
0.627451 0.108003 0.167071
0.719448 0.176379 0.274113
0.795163 0.255512 0.403388
0.105577 0.33962 0.116289
0.100252 0.34403 0.106676
0.17203 0.375448 0.106645
0.43154 0.430488 0.119478
0.640909 0.38999 0.151934
0.748714 0.340871 0.183398
0.78056 0.249378 0.224277
0.717159 0.179583 0.215015
0.815778 0.274144 0.397757
0.105043 0.491722 0.137026
0.101579 0.497459 0.139101
0.117662 0.500664 0.107561
0.360891 0.572793 0.141329
0.620935 0.626871 0.184375
0.786313 0.585779 0.272328
0.848829 0.541924 0.307439
0.851423 0.501915 0.302831
0.840574 0.418647 0.315709
0.176883 0.62269 0.270237
0.169558 0.629679 0.287816
0.18912 0.625025 0.245274
0.338201 0.651652 0.217716
0.565652 0.744076 0.301625
0.755276 0.78529 0.363622
0.869886 0.753094 0.469673
0.873884 0.738628 0.479316
0.867628 0.705272 0.452537
0.301411 0.705333 0.384619
0.295232 0.710262 0.39881
0.307195 0.707607 0.37818
0.37557 0.717556 0.352605
0.540917 0.765881 0.403494
0.707149 0.839094 0.498619
0.84184 0.873182 0.57995
0.882429 0.860227 0.640299
0.882582 0.85745 0.645792
0.345022 0.736782 0.446006
0.359121 0.734127 0.43006
0.386389 0.736416 0.42298
0.457389 0.749172 0.437766
0.567254 0.778225 0.489555
0.717174 0.838926 0.587137
0.823102 0.878172 0.654826
0.878248 0.883558 0.707637
0.869749 0.892103 0.772107
0.504433 0.783673 0.564691
0.51693 0.784878 0.563638
0.531807 0.786236 0.560998
0.583062 0.797787 0.581003
0.655207 0.818494 0.622889
0.753063 0.852369 0.688518
0.822248 0.881041 0.741817
0.865354 0.892699 0.780285
0.863569 0.896712 0.812573
0.0953689 0.0988479 0.0996414
0.103838 0.0973831 0.0974746
0.186557 0.095613 0.108522
0.299748 0.0910048 0.113603
0.418585 0.0845502 0.123552
0.511208 0.0843214 0.144549
0.581888 0.10193 0.193133
0.685435 0.172412 0.300649
0.756252 0.24892 0.428794
0.097322 0.1122 0.102998
0.103578 0.112902 0.106126
0.199985 0.0975204 0.103868
0.32256 0.0861067 0.103624
0.437491 0.0814679 0.115908
0.526879 0.0838178 0.13959
0.60412 0.113024 0.205844
0.705348 0.185519 0.316747
0.781628 0.273243 0.455543
0.107836 0.204578 0.134356
0.103624 0.207355 0.119677
0.210544 0.215564 0.112291
0.397543 0.163851 0.111452
0.498482 0.106584 0.108766
0.572351 0.0967269 0.138216
0.637263 0.123171 0.203449
0.740307 0.196948 0.313863
0.816541 0.292561 0.458762
0.103655 0.346532 0.143801
0.0978408 0.350545 0.129412
0.139239 0.364477 0.102724
0.430793 0.428611 0.120134
0.648005 0.372732 0.159274
0.753704 0.312657 0.195422
0.765011 0.225437 0.225254
0.75108 0.198138 0.261738
0.837736 0.306844 0.455207
0.104646 0.496345 0.166949
0.0994888 0.503487 0.170077
0.107179 0.503243 0.123232
0.335683 0.564233 0.135821
0.622599 0.627832 0.184131
0.788983 0.579995 0.27483
0.851514 0.53727 0.311299
0.853223 0.486976 0.308476
0.846265 0.397574 0.341451
0.177066 0.626078 0.289677
0.168826 0.635996 0.312184
0.184588 0.630716 0.269749
0.307988 0.645151 0.214679
0.560784 0.74284 0.301396
0.757412 0.78645 0.363668
0.870558 0.752163 0.474342
0.873945 0.736461 0.481209
0.864607 0.693477 0.45005
0.298802 0.708812 0.40061
0.295384 0.71342 0.410803
0.302037 0.709987 0.390372
0.367346 0.716609 0.355596
0.533989 0.763317 0.402502
0.706371 0.838758 0.49926
0.842374 0.873365 0.580453
0.882841 0.860044 0.640986
0.882704 0.857069 0.647013
0.346624 0.739818 0.455558
0.361959 0.736706 0.438056
0.379187 0.736187 0.42623
0.451789 0.748943 0.440421
0.564034 0.777523 0.489708
0.714809 0.83798 0.586709
0.82269 0.877974 0.654444
0.878233 0.883513 0.707408
0.86981 0.892042 0.771679
0.508873 0.785916 0.571252
0.529747 0.789685 0.576242
0.54313 0.790677 0.573495
0.584817 0.799344 0.586526
0.654902 0.818921 0.625696
0.75169 0.85182 0.687739
0.821515 0.880796 0.740505
0.865034 0.892424 0.778073
0.863828 0.89662 0.81149
0.0924392 0.102937 0.130404
0.110231 0.101305 0.14081
0.179431 0.0992905 0.134157
0.306737 0.0957198 0.13991
0.424445 0.0909285 0.153521
0.51986 0.0895094 0.1673
0.579141 0.101503 0.202045
0.684413 0.172854 0.307698
0.760174 0.25304 0.441718
0.0934157 0.111818 0.130327
0.0926833 0.10927 0.152026
0.188357 0.104082 0.15877
0.315801 0.0947127 0.139879
0.435035 0.0872969 0.138476
0.526665 0.0870527 0.157748
0.593759 0.108614 0.208789
0.70869 0.189151 0.328298
0.783612 0.277073 0.468055
0.10631 0.199939 0.161639
0.101717 0.204318 0.174517
0.20766 0.221759 0.203677
0.405127 0.167269 0.168353
0.512078 0.111101 0.143435
0.56643 0.0930648 0.153735
0.632349 0.121553 0.213565
0.75581 0.207675 0.341238
0.83447 0.322942 0.497459
0.106706 0.354421 0.19263
0.100465 0.361379 0.187869
0.128176 0.373175 0.167224
0.431006 0.431022 0.197848
0.639475 0.360723 0.199573
0.762844 0.286076 0.229068
0.795132 0.236271 0.280415
0.774456 0.214954 0.328481
0.855787 0.347173 0.48838
0.107057 0.507225 0.22948
0.100267 0.514122 0.235584
0.103426 0.507195 0.183322
0.275654 0.539742 0.15053
0.614939 0.621729 0.213016
0.789517 0.560296 0.292454
0.855634 0.519799 0.328878
0.863279 0.462287 0.343877
0.864897 0.395422 0.404593
0.176699 0.632883 0.323186
0.166964 0.643702 0.350225
0.176349 0.641718 0.321828
0.241199 0.636118 0.234699
0.537209 0.732738 0.30071
0.759564 0.786801 0.361685
0.86978 0.745342 0.486122
0.873335 0.726925 0.487266
0.861082 0.66894 0.456077
0.29633 0.714519 0.423697
0.290623 0.719448 0.43827
0.298238 0.716289 0.41622
0.339986 0.714611 0.371557
0.508858 0.754025 0.397421
0.701442 0.836469 0.501564
0.843687 0.87335 0.580148
0.883711 0.858824 0.64651
0.883558 0.855161 0.658366
0.351629 0.743999 0.469566
0.356069 0.745586 0.473381
0.379309 0.741146 0.446906
0.433188 0.747021 0.444007
0.552102 0.774365 0.487953
0.708873 0.834806 0.586892
0.822126 0.87776 0.655177
0.878248 0.883589 0.707774
0.869429 0.892576 0.775204
0.515068 0.789502 0.582376
0.5299 0.794644 0.595895
0.554131 0.796124 0.590707
0.578851 0.799023 0.58941
0.649226 0.818402 0.627375
0.747723 0.850431 0.68719
0.819852 0.880278 0.741054
0.864668 0.892393 0.778103
0.863767 0.896635 0.811688
0.0907759 0.112016 0.178164
0.106813 0.107073 0.202609
0.173648 0.104707 0.214984
0.299687 0.0998856 0.200229
0.431586 0.0986954 0.221485
0.527977 0.102708 0.254917
0.602701 0.123186 0.264363
0.678676 0.172503 0.331945
0.75555 0.252216 0.467201
0.0894789 0.115648 0.184161
0.0904402 0.11696 0.208179
0.16492 0.105821 0.25243
0.317159 0.101747 0.23003
0.447349 0.0987564 0.226596
0.541039 0.103075 0.251164
0.611658 0.126696 0.264179
0.700313 0.187381 0.353231
0.77969 0.277943 0.497185
0.0944686 0.191852 0.210285
0.0914321 0.189456 0.239612
0.143908 0.188968 0.295766
0.364752 0.159945 0.301167
0.500938 0.11368 0.235706
0.564874 0.0990768 0.210468
0.624262 0.11931 0.233204
0.744259 0.202167 0.356329
0.833448 0.325719 0.527062
0.108049 0.350988 0.276875
0.101549 0.359731 0.297642
0.125689 0.37496 0.318624
0.423987 0.432074 0.406683
0.649744 0.360601 0.367727
0.783032 0.263066 0.333761
0.789288 0.225452 0.342885
0.775723 0.218494 0.357931
0.865583 0.380011 0.540032
0.114 0.522194 0.328939
0.105898 0.531884 0.354452
0.110979 0.530144 0.326726
0.280598 0.554696 0.337667
0.600412 0.613367 0.392737
0.775677 0.53846 0.375769
0.871046 0.481102 0.387717
0.88217 0.434745 0.420172
0.869245 0.396033 0.520562
0.182727 0.64567 0.395071
0.17293 0.656718 0.423911
0.176333 0.656626 0.401694
0.217029 0.649287 0.337804
0.48011 0.693248 0.374304
0.744366 0.776181 0.451316
0.865675 0.727642 0.503136
0.868818 0.695674 0.492546
0.861189 0.637507 0.495415
0.297475 0.721904 0.460838
0.290455 0.728222 0.477226
0.293812 0.726238 0.461753
0.312215 0.721233 0.420935
0.462043 0.743435 0.412497
0.686625 0.828275 0.519234
0.846265 0.872511 0.581247
0.884978 0.855467 0.661418
0.884108 0.849775 0.674754
0.363668 0.750118 0.490654
0.36231 0.754314 0.505104
0.377325 0.754467 0.499016
0.412268 0.749401 0.465812
0.518257 0.767651 0.485328
0.691783 0.826307 0.583108
0.819944 0.877012 0.656886
0.878279 0.883696 0.708492
0.86949 0.893339 0.780499
0.52108 0.794858 0.601724
0.537041 0.800443 0.616648
0.554528 0.804364 0.623301
0.58616 0.806165 0.614328
0.634836 0.816388 0.62855
0.736431 0.846525 0.684245
0.816098 0.87866 0.741909
0.864164 0.892317 0.778332
0.865415 0.89662 0.810391
0.0902419 0.121782 0.246738
0.101381 0.121645 0.278401
0.154574 0.105425 0.313726
0.278416 0.103288 0.323644
0.42298 0.104677 0.315038
0.537438 0.116014 0.329946
0.61912 0.151675 0.363867
0.66775 0.173907 0.385077
0.733593 0.24361 0.50251
0.0902113 0.125551 0.26421
0.0902113 0.126452 0.289311
0.129061 0.107637 0.346349
0.294469 0.104234 0.357046
0.439323 0.106981 0.334844
0.551827 0.121447 0.341085
0.633097 0.158984 0.37438
0.671 0.179706 0.39855
0.759838 0.273548 0.544717
0.0900893 0.174304 0.287587
0.0901045 0.170596 0.315496
0.0989548 0.160601 0.364599
0.302678 0.126162 0.411093
0.471855 0.117281 0.375113
0.584115 0.12697 0.337133
0.660655 0.160006 0.360647
0.70631 0.18967 0.403403
0.817548 0.318379 0.581338
0.0927138 0.331502 0.343069
0.0912337 0.335042 0.369345
0.0926986 0.333043 0.396033
0.32166 0.374624 0.510597
0.616938 0.356954 0.549798
0.771756 0.27335 0.489296
0.763043 0.218357 0.411429
0.74078 0.206226 0.410269
0.85864 0.367346 0.59617
0.116091 0.518029 0.42359
0.107301 0.525643 0.451148
0.11281 0.528771 0.458183
0.275715 0.56376 0.507607
0.591546 0.602625 0.575357
0.787411 0.541665 0.541665
0.890318 0.470985 0.534371
0.891737 0.416526 0.520104
0.873121 0.408911 0.569665
0.188357 0.652583 0.47985
0.177035 0.662699 0.506737
0.183429 0.667506 0.503395
0.223514 0.67068 0.476799
0.496696 0.70367 0.523339
0.729015 0.757137 0.5794
0.851133 0.697978 0.557534
0.869154 0.661799 0.539712
0.878218 0.622889 0.583017
0.304768 0.733516 0.523232
0.295384 0.740032 0.542443
0.298222 0.741115 0.535775
0.30959 0.739239 0.504997
0.470298 0.758144 0.509651
0.671412 0.810681 0.588586
0.837934 0.865721 0.648997
0.885603 0.849882 0.686702
0.883803 0.838621 0.699886
0.375921 0.762402 0.536995
0.375036 0.767803 0.556893
0.39234 0.769329 0.555596
0.420356 0.769345 0.544259
0.495079 0.773983 0.52845
0.668528 0.817685 0.600046
0.814176 0.876127 0.684321
0.879179 0.884947 0.71873
0.871412 0.894453 0.787945
0.535012 0.804486 0.635935
0.552087 0.810132 0.650858
0.568765 0.814771 0.660838
0.591424 0.819104 0.665095
0.619699 0.818387 0.645991
0.70692 0.838911 0.678386
0.808713 0.875883 0.744778
0.864668 0.892409 0.780072
0.865629 0.896712 0.811734
0.0899977 0.131807 0.321096
0.0956283 0.131945 0.350378
0.132311 0.1196 0.38822
0.263798 0.108232 0.411399
0.395758 0.109209 0.418387
0.532296 0.126833 0.414481
0.635096 0.170367 0.436866
0.686137 0.194995 0.474647
0.679896 0.214771 0.519249
0.0901808 0.137331 0.337087
0.0903944 0.137041 0.357855
0.118242 0.135286 0.402411
0.273228 0.110613 0.44271
0.409003 0.112612 0.439429
0.544198 0.136095 0.436942
0.652079 0.179629 0.453941
0.684611 0.200946 0.496452
0.708309 0.243107 0.5664
0.0903182 0.162341 0.349004
0.0903487 0.157946 0.37203
0.0907149 0.148562 0.403113
0.222385 0.116503 0.473716
0.43418 0.126864 0.481575
0.571481 0.151415 0.460319
0.680705 0.184115 0.455879
0.705272 0.201144 0.497871
0.77911 0.290883 0.625452
0.0913863 0.306584 0.40795
0.0918898 0.307729 0.431846
0.0921035 0.296407 0.449607
0.218891 0.320043 0.559838
0.564752 0.308415 0.666255
0.715694 0.25919 0.614008
0.718715 0.208331 0.492302
0.714534 0.201892 0.496223
0.834974 0.345129 0.675273
0.0983597 0.500557 0.486366
0.0955978 0.505592 0.510811
0.0952316 0.506127 0.52108
0.166232 0.529519 0.584329
0.512703 0.557534 0.672084
0.774044 0.55758 0.707897
0.900328 0.495796 0.676173
0.896696 0.425391 0.664286
0.86392 0.390295 0.681514
0.187732 0.643549 0.553582
0.175845 0.651987 0.577722
0.1823 0.657145 0.584268
0.210269 0.664057 0.591196
0.509712 0.715618 0.663966
0.722957 0.741466 0.711971
0.859724 0.697215 0.687297
0.886259 0.654276 0.6869
0.881621 0.614084 0.679744
0.314611 0.738369 0.592233
0.297948 0.744091 0.61323
0.302266 0.747417 0.61355
0.313207 0.752194 0.606622
0.49192 0.781552 0.629191
0.678935 0.81854 0.689479
0.827131 0.85481 0.732677
0.882017 0.838468 0.742809
0.877302 0.818418 0.734035
0.383398 0.7794 0.61146
0.377951 0.783475 0.628016
0.399405 0.78761 0.631128
0.438071 0.792462 0.632624
0.520333 0.803143 0.638682
0.684321 0.839185 0.69456
0.814069 0.87718 0.756298
0.87715 0.89398 0.783886
0.871656 0.896559 0.805493
0.544228 0.817365 0.683452
0.564477 0.823011 0.696483
0.585534 0.828 0.706188
0.613733 0.833616 0.715526
0.63856 0.837018 0.715618
0.697017 0.845624 0.715419
0.807996 0.875639 0.769284
0.861784 0.895079 0.802335
0.864317 0.897581 0.821683
0.0903334 0.142596 0.380728
0.0927138 0.14168 0.404974
0.119646 0.1411 0.435843
0.229358 0.112993 0.474159
0.378729 0.115206 0.48249
0.495033 0.138537 0.496086
0.626108 0.18912 0.529152
0.680812 0.209064 0.553552
0.679591 0.224765 0.585733
0.0903639 0.146914 0.389227
0.0905776 0.147234 0.404807
0.105104 0.145022 0.442054
0.225635 0.116762 0.494652
0.393469 0.121508 0.503365
0.508476 0.148333 0.513573
0.643915 0.200473 0.552056
0.675624 0.216327 0.576699
0.678798 0.231647 0.603922
0.0905623 0.166583 0.399954
0.0904707 0.164157 0.407858
0.0907149 0.154742 0.422858
0.165301 0.134783 0.494896
0.392981 0.135439 0.529549
0.540002 0.172152 0.551431
0.665141 0.208713 0.570504
0.69041 0.218708 0.585138
0.702037 0.244434 0.626352
0.0916915 0.283894 0.453941
0.0916457 0.284016 0.467964
0.0913558 0.267903 0.470558
0.15993 0.29955 0.592584
0.456886 0.270436 0.694957
0.637812 0.252201 0.669825
0.684688 0.221408 0.590249
0.697993 0.222278 0.595407
0.760952 0.299351 0.697276
0.0948348 0.490532 0.539834
0.0944381 0.494118 0.555642
0.094377 0.491829 0.563821
0.131685 0.513191 0.640757
0.422812 0.517617 0.719219
0.742489 0.544747 0.829511
0.895262 0.5093 0.82887
0.868086 0.417594 0.79585
0.795956 0.343191 0.73785
0.16643 0.623987 0.6047
0.161578 0.629816 0.619745
0.16379 0.634577 0.629496
0.187533 0.644297 0.652979
0.437095 0.681865 0.72253
0.670085 0.710323 0.787396
0.851057 0.710643 0.810468
0.892943 0.673655 0.809491
0.893111 0.625727 0.813107
0.305196 0.730953 0.656535
0.297841 0.735439 0.668452
0.30277 0.738415 0.67219
0.312917 0.743557 0.677165
0.486336 0.785702 0.72575
0.686732 0.82829 0.784161
0.81973 0.84744 0.81767
0.880827 0.831434 0.802441
0.879225 0.816587 0.815885
0.385748 0.785061 0.677745
0.380591 0.788418 0.689067
0.393637 0.792889 0.694163
0.432715 0.802243 0.702953
0.524529 0.822385 0.725322
0.698558 0.859266 0.777447
0.815229 0.884825 0.817563
0.869902 0.898726 0.83714
0.869657 0.898787 0.842405
0.548058 0.826444 0.725582
0.558953 0.830747 0.740642
0.582132 0.836194 0.749355
0.616571 0.844419 0.760906
0.648722 0.850874 0.768734
0.716487 0.863523 0.785061
0.811337 0.885603 0.8215
0.859144 0.898665 0.844938
0.866789 0.902571 0.855787
0.0907149 0.15108 0.419165
0.0911727 0.1505 0.429496
0.106462 0.149706 0.457206
0.186007 0.121324 0.505333
0.347265 0.127993 0.518822
0.461921 0.141619 0.528069
0.604959 0.200412 0.585031
0.663706 0.22472 0.621927
0.671946 0.23386 0.634836
0.0906081 0.154192 0.41915
0.0907607 0.155261 0.425376
0.0982376 0.152651 0.454078
0.179431 0.126986 0.51075
0.361807 0.137407 0.535531
0.478325 0.15227 0.544762
0.626673 0.211353 0.60621
0.6645 0.229313 0.635798
0.675532 0.238453 0.645853
0.0906844 0.173922 0.421286
0.0907454 0.173159 0.426474
0.0907759 0.164279 0.434882
0.139681 0.156542 0.489052
0.338582 0.141985 0.545663
0.522393 0.179278 0.587076
0.652354 0.224063 0.63267
0.669917 0.232044 0.644251
0.681132 0.244648 0.657725
0.0915847 0.275975 0.475807
0.0915999 0.275013 0.483101
0.0914473 0.265614 0.484291
0.124376 0.279057 0.566506
0.365942 0.251377 0.678325
0.592248 0.247913 0.685664
0.667613 0.237476 0.650675
0.674311 0.236469 0.650629
0.692729 0.254231 0.670863
0.0950179 0.485603 0.57438
0.0954604 0.48864 0.58439
0.0961166 0.485557 0.592737
0.126665 0.498085 0.653437
0.372656 0.508232 0.737697
0.678203 0.523445 0.843153
0.872496 0.519661 0.869734
0.831189 0.413397 0.81532
0.725643 0.287266 0.707683
0.145617 0.616388 0.631922
0.14641 0.620584 0.639261
0.147509 0.621347 0.644114
0.175097 0.630503 0.667445
0.384787 0.663035 0.743709
0.622126 0.684871 0.808865
0.835111 0.708614 0.872297
0.890776 0.678065 0.877714
0.888823 0.622415 0.882811
0.294286 0.720012 0.688167
0.29337 0.723964 0.695857
0.300954 0.72755 0.701549
0.321904 0.736629 0.714977
0.458656 0.768704 0.760403
0.658381 0.812634 0.817746
0.803525 0.838621 0.853529
0.874662 0.831418 0.853498
0.874037 0.810086 0.855604
0.373831 0.778531 0.715267
0.377676 0.783017 0.721965
0.390463 0.788632 0.72874
0.423239 0.798627 0.739452
0.517876 0.820981 0.765255
0.692424 0.86305 0.817212
0.813855 0.888182 0.851911
0.864683 0.898863 0.8663
0.869673 0.901549 0.869154
0.526665 0.823575 0.754925
0.54139 0.828199 0.766934
0.567391 0.834592 0.775937
0.602487 0.84329 0.78732
0.638025 0.852079 0.797955
0.711345 0.869017 0.820233
0.817533 0.891783 0.852201
0.862654 0.903502 0.868711
0.874739 0.905043 0.869795
0.0908675 0.157855 0.438392
0.090959 0.157977 0.439704
0.0997635 0.154864 0.462211
0.168215 0.145113 0.50544
0.322362 0.137072 0.537743
0.445655 0.148348 0.549874
0.578302 0.193774 0.594614
0.66041 0.228244 0.641108
0.667552 0.235584 0.650278
0.0906539 0.159823 0.436042
0.0907759 0.161532 0.440452
0.0942855 0.158526 0.45977
0.164813 0.15314 0.505226
0.336141 0.143435 0.549126
0.479988 0.163653 0.573861
0.598825 0.202792 0.611124
0.661662 0.229374 0.642481
0.671336 0.238132 0.65362
0.0907759 0.178882 0.434318
0.0907759 0.181247 0.43978
0.0909285 0.174716 0.444022
0.111238 0.15874 0.480644
0.29955 0.139712 0.545037
0.508385 0.176623 0.589334
0.649531 0.222736 0.634485
0.664881 0.230381 0.64329
0.674907 0.241642 0.657755
0.0915847 0.279637 0.487694
0.0916457 0.283253 0.495964
0.0915236 0.277653 0.499718
0.0972305 0.270787 0.532326
0.318456 0.270832 0.659632
0.581979 0.256397 0.700694
0.659388 0.236179 0.652705
0.673991 0.237461 0.652155
0.68011 0.245151 0.662196
0.0964218 0.486625 0.590188
0.0976577 0.491371 0.600977
0.0982528 0.489433 0.608209
0.110216 0.487938 0.633631
0.323018 0.507836 0.726619
0.608637 0.509422 0.817121
0.861875 0.533104 0.874189
0.845701 0.439124 0.832776
0.689601 0.252872 0.671595
0.148363 0.618036 0.646082
0.149966 0.623346 0.653864
0.150439 0.623621 0.657633
0.166796 0.626368 0.671153
0.361822 0.658076 0.740749
0.601541 0.685679 0.805188
0.816999 0.711223 0.871626
0.89134 0.683406 0.878798
0.888792 0.61973 0.882979
0.272419 0.711437 0.694194
0.273106 0.715648 0.700359
0.2851 0.719402 0.705928
0.307057 0.725383 0.716609
0.434241 0.760189 0.76022
0.641596 0.806836 0.818067
0.790234 0.833402 0.85626
0.869947 0.830228 0.863279
0.871839 0.80528 0.864103
0.374044 0.774685 0.729717
0.376486 0.778286 0.734554
0.390448 0.784985 0.740948
0.433143 0.79826 0.753323
0.532311 0.821744 0.778393
0.668681 0.855024 0.817914
0.801587 0.884627 0.855848
0.862119 0.898177 0.870604
0.868666 0.895872 0.869902
0.515923 0.820233 0.76582
0.526741 0.824216 0.775509
0.553429 0.830884 0.783169
0.590433 0.84007 0.793652
0.629313 0.849943 0.804791
0.705425 0.868193 0.827054
0.813153 0.892149 0.858106
0.86215 0.904143 0.873167
0.87744 0.904784 0.868101
