bundles/resolve-cinematic-luts/Phantom Luts/A7s3 Phntm Film LUTs - G6/ATOMOS Monitor LUTs/Slog2+Sgamut3cine/Eastman A7s3 Sl2sg3c AML.cube
TITLE "Generated by Resolve"
LUT_3D_SIZE 9
0.0896468 0.0875105 0.0875105
0.102724 0.087602 0.087602
0.215686 0.0875715 0.0875715
0.331899 0.087602 0.0893568
0.421042 0.0893568 0.0948501
0.494331 0.0875257 0.106813
0.566445 0.105715 0.193896
0.657618 0.166308 0.307256
0.72108 0.232578 0.399481
0.0984817 0.110643 0.0994583
0.118868 0.113573 0.0983749
0.219623 0.106661 0.09308
0.334905 0.10602 0.0874342
0.424521 0.109575 0.0918593
0.506401 0.118456 0.100435
0.574701 0.110079 0.172503
0.667597 0.174197 0.289891
0.717372 0.241627 0.385458
0.113848 0.239368 0.129335
0.145388 0.24506 0.117556
0.273381 0.27332 0.126665
0.452171 0.242695 0.146044
0.535698 0.222797 0.146593
0.57731 0.208331 0.141085
0.594018 0.175357 0.134096
0.683238 0.188724 0.257603
0.733577 0.250767 0.377279
0.150927 0.42211 0.200031
0.15227 0.420356 0.17113
0.274037 0.451255 0.166064
0.457664 0.463279 0.148821
0.618036 0.454459 0.187015
0.71751 0.436088 0.236347
0.779889 0.405646 0.263111
0.777584 0.360876 0.265202
0.745922 0.320897 0.27631
0.190433 0.584817 0.306538
0.194095 0.580163 0.277073
0.232563 0.584619 0.225284
0.449943 0.606256 0.199908
0.5888 0.608408 0.203861
0.715175 0.599649 0.250523
0.785718 0.592493 0.317586
0.807828 0.582818 0.327352
0.807874 0.53753 0.332036
0.25211 0.715541 0.420478
0.252964 0.708873 0.403128
0.266972 0.697627 0.33994
0.459007 0.711757 0.295766
0.578164 0.723018 0.283223
0.684627 0.716548 0.292958
0.771328 0.705959 0.361685
0.8121 0.697627 0.412039
0.813642 0.687327 0.401801
0.31043 0.789899 0.490486
0.309575 0.783169 0.475471
0.327855 0.770871 0.427634
0.45211 0.775876 0.401389
0.588205 0.783093 0.39266
0.672282 0.78471 0.391775
0.750561 0.775982 0.412375
0.81265 0.768902 0.475731
0.821714 0.765225 0.50869
0.360815 0.812284 0.520928
0.358389 0.807584 0.50721
0.390265 0.799069 0.484215
0.474876 0.800031 0.47657
0.589975 0.806073 0.486778
0.680385 0.812146 0.490806
0.742 0.81355 0.492393
0.804959 0.810498 0.523644
0.837995 0.822339 0.59411
0.467689 0.820752 0.586999
0.462531 0.817792 0.57174
0.476295 0.814542 0.56141
0.526665 0.81619 0.562814
0.609476 0.825437 0.580438
0.697047 0.835874 0.597833
0.75967 0.840986 0.606989
0.804486 0.844068 0.620295
0.848402 0.8486 0.664134
0.0875105 0.0875105 0.0890822
0.100923 0.0876173 0.0934157
0.204807 0.0874647 0.125628
0.318486 0.087541 0.124163
0.405035 0.0874647 0.130922
0.476097 0.0875257 0.162875
0.543832 0.105821 0.221393
0.64506 0.172091 0.32517
0.706432 0.238102 0.410956
0.0968185 0.109071 0.108415
0.117983 0.111192 0.117433
0.239765 0.0944228 0.0977646
0.337301 0.0913863 0.0901961
0.415839 0.0933852 0.0942092
0.489754 0.0874952 0.112291
0.572045 0.122683 0.218082
0.663737 0.186862 0.330877
0.726467 0.262272 0.424506
0.115053 0.245533 0.160723
0.112276 0.243473 0.135073
0.272236 0.27396 0.136812
0.448692 0.226947 0.154269
0.51809 0.200259 0.143267
0.581491 0.187655 0.150652
0.628351 0.152026 0.189288
0.685695 0.196521 0.31284
0.749279 0.282338 0.408453
0.15346 0.431983 0.241108
0.148882 0.427344 0.207752
0.215473 0.445579 0.171954
0.455772 0.461067 0.150698
0.627176 0.445106 0.201114
0.721111 0.417502 0.248539
0.78172 0.383597 0.271855
0.7738 0.34902 0.278523
0.765774 0.309087 0.328008
0.193896 0.59443 0.34197
0.190646 0.588922 0.317388
0.206424 0.580896 0.243992
0.438453 0.605158 0.20325
0.588891 0.607538 0.203265
0.719661 0.596033 0.261707
0.788434 0.586053 0.330388
0.811032 0.56965 0.341573
0.809644 0.511025 0.34548
0.255467 0.721447 0.442313
0.252811 0.715923 0.427314
0.260609 0.701534 0.367346
0.434318 0.710353 0.300771
0.57322 0.722148 0.283467
0.684031 0.715434 0.291966
0.772763 0.703212 0.367453
0.812482 0.695171 0.419654
0.809934 0.683803 0.411627
0.313466 0.794629 0.510826
0.31017 0.788357 0.493355
0.315297 0.77409 0.448798
0.425711 0.775448 0.405493
0.58114 0.782086 0.394522
0.668421 0.783627 0.390555
0.749081 0.774731 0.409567
0.813611 0.767025 0.476478
0.821866 0.763653 0.50898
0.363851 0.816785 0.544411
0.360037 0.811688 0.52401
0.37435 0.801923 0.492897
0.461387 0.798657 0.476783
0.579721 0.805829 0.487526
0.675044 0.811688 0.489815
0.739132 0.813031 0.490639
0.803571 0.809781 0.52079
0.832837 0.82298 0.598688
0.467918 0.823224 0.594018
0.465553 0.820508 0.580972
0.467613 0.815213 0.562585
0.518456 0.816037 0.563607
0.602014 0.824613 0.578546
0.692622 0.835142 0.59646
0.757504 0.840665 0.605463
0.80206 0.843153 0.616342
0.845136 0.848005 0.66244
0.0876173 0.0876173 0.13933
0.12636 0.0874495 0.155978
0.202335 0.087541 0.161318
0.316503 0.0876326 0.18497
0.40322 0.0875868 0.214603
0.482643 0.0919966 0.236866
0.549844 0.115145 0.271962
0.633005 0.16585 0.344167
0.700236 0.232319 0.429862
0.0875105 0.105501 0.147585
0.0874952 0.0955825 0.181445
0.227695 0.0874952 0.184665
0.327993 0.08748 0.176944
0.4121 0.0876173 0.18378
0.48835 0.0897078 0.211093
0.553948 0.114382 0.256764
0.653101 0.181918 0.355077
0.724636 0.259709 0.449775
0.107286 0.242069 0.200107
0.107561 0.245228 0.205051
0.290974 0.29099 0.288533
0.453254 0.230762 0.261631
0.531395 0.167773 0.217426
0.583505 0.148104 0.221378
0.600458 0.13608 0.246067
0.682857 0.19556 0.351507
0.751034 0.288472 0.45391
0.160418 0.451789 0.308965
0.158709 0.449577 0.292424
0.207874 0.459052 0.272496
0.468071 0.479698 0.27953
0.628855 0.43212 0.293416
0.724392 0.380529 0.290684
0.782177 0.366598 0.31783
0.778653 0.330587 0.333501
0.761624 0.300145 0.41503
0.205676 0.61445 0.40058
0.202365 0.609186 0.387015
0.205356 0.591012 0.331197
0.400702 0.60827 0.286885
0.583383 0.605264 0.261814
0.729641 0.587442 0.318532
0.787945 0.574594 0.361135
0.817533 0.534432 0.37969
0.808637 0.476265 0.392691
0.265522 0.734218 0.481971
0.262333 0.728542 0.471458
0.260044 0.71664 0.432502
0.355734 0.711269 0.352239
0.556527 0.722103 0.322011
0.681041 0.713878 0.313939
0.779629 0.698299 0.392309
0.817136 0.691508 0.44271
0.816037 0.675059 0.444953
0.322499 0.803647 0.540856
0.318746 0.798657 0.531624
0.312398 0.787259 0.494636
0.378058 0.773465 0.42211
0.562676 0.780941 0.408408
0.662608 0.783383 0.397574
0.747845 0.773495 0.407965
0.817792 0.765652 0.490959
0.825467 0.763409 0.523964
0.373495 0.8262 0.570199
0.36846 0.821836 0.560128
0.365896 0.811261 0.52607
0.42977 0.798871 0.487266
0.555856 0.805539 0.494194
0.667826 0.81268 0.49662
0.73724 0.814115 0.494743
0.802991 0.809537 0.519554
0.835203 0.824186 0.60676
0.472313 0.829557 0.610697
0.469245 0.826566 0.60322
0.470375 0.820783 0.583749
0.500832 0.815991 0.566827
0.585504 0.824521 0.579828
0.683864 0.835172 0.601511
0.755245 0.841413 0.608469
0.801328 0.843565 0.616861
0.844419 0.847425 0.660639
0.0875715 0.0879225 0.216236
0.115267 0.0886702 0.251972
0.218097 0.0876173 0.256855
0.310964 0.0875715 0.255375
0.406195 0.0875563 0.277562
0.485176 0.096437 0.31313
0.55584 0.122698 0.343816
0.607355 0.148394 0.374166
0.675227 0.209613 0.451347
0.0875257 0.0975662 0.226368
0.0874342 0.0918288 0.257084
0.214481 0.0874342 0.296422
0.332372 0.0875257 0.27364
0.414618 0.087602 0.279545
0.493553 0.100282 0.313664
0.56553 0.128435 0.342046
0.614008 0.154482 0.378164
0.707332 0.238865 0.478813
0.0920272 0.228077 0.273014
0.08748 0.220859 0.292699
0.205676 0.235126 0.375082
0.424399 0.190234 0.37406
0.487083 0.135302 0.335622
0.539956 0.124804 0.315923
0.580377 0.130755 0.325109
0.640208 0.167651 0.382315
0.735286 0.261341 0.488167
0.148898 0.454765 0.376379
0.151232 0.461128 0.384588
0.198764 0.48043 0.411505
0.484947 0.498924 0.486717
0.624582 0.433814 0.451545
0.720516 0.362005 0.416541
0.775738 0.32221 0.394339
0.764385 0.280919 0.414115
0.76022 0.298207 0.472877
0.207919 0.6318 0.467338
0.210468 0.63357 0.468772
0.225681 0.627894 0.450217
0.410437 0.624964 0.467048
0.599481 0.628504 0.463432
0.730083 0.585534 0.458595
0.793683 0.530327 0.436133
0.812329 0.490806 0.438819
0.801297 0.455619 0.455406
0.274067 0.752712 0.539986
0.275502 0.750469 0.537957
0.279728 0.741909 0.515572
0.363882 0.719463 0.473671
0.545357 0.729442 0.482795
0.683238 0.721416 0.45449
0.79585 0.694392 0.481804
0.823682 0.684337 0.483085
0.82327 0.652338 0.494102
0.333669 0.821607 0.591272
0.33286 0.816968 0.585397
0.329839 0.806378 0.560449
0.372015 0.784939 0.509316
0.528161 0.784161 0.501671
0.656962 0.790417 0.49279
0.750423 0.778363 0.474388
0.825925 0.765484 0.52343
0.8336 0.764019 0.553735
0.387411 0.843732 0.611444
0.385 0.839063 0.603464
0.384314 0.829755 0.583978
0.385687 0.811399 0.536248
0.513558 0.80824 0.516838
0.655787 0.816831 0.519921
0.735393 0.817609 0.510796
0.803357 0.809796 0.521553
0.84033 0.82768 0.62623
0.48574 0.841474 0.641184
0.482506 0.838682 0.635096
0.481514 0.832853 0.621897
0.486748 0.822889 0.59498
0.554238 0.822751 0.587579
0.66363 0.835615 0.611749
0.750317 0.843397 0.617517
0.800595 0.845319 0.621759
0.844297 0.84715 0.659648
0.0876478 0.0943923 0.283558
0.105089 0.094728 0.32163
0.213016 0.087541 0.339422
0.320653 0.0875563 0.328801
0.403891 0.0874952 0.338689
0.489311 0.102632 0.366583
0.560586 0.125124 0.401114
0.609339 0.147707 0.437903
0.62829 0.17055 0.460029
0.0876326 0.101808 0.298604
0.0875105 0.0975052 0.321599
0.190555 0.0874647 0.374624
0.336431 0.08748 0.353674
0.417227 0.087541 0.350362
0.501991 0.106569 0.374334
0.572198 0.13051 0.40972
0.613245 0.151202 0.443275
0.666651 0.200824 0.496422
0.0875105 0.193896 0.338323
0.08748 0.186297 0.353185
0.132784 0.175189 0.413077
0.372442 0.126284 0.425528
0.454795 0.105318 0.383948
0.524361 0.117357 0.388739
0.583825 0.135454 0.415274
0.619425 0.151904 0.44152
0.703792 0.224887 0.523583
0.134813 0.447395 0.440253
0.133944 0.449882 0.454215
0.144442 0.447959 0.477836
0.420249 0.462867 0.579828
0.618509 0.411078 0.565972
0.705882 0.343923 0.539193
0.752682 0.290715 0.519371
0.729061 0.240909 0.502724
0.734722 0.252903 0.527092
0.198016 0.630426 0.527169
0.200885 0.63299 0.534005
0.214313 0.634165 0.538293
0.413565 0.647242 0.584329
0.614038 0.636271 0.617273
0.728664 0.585565 0.588861
0.791348 0.526421 0.552911
0.809277 0.473915 0.526497
0.796658 0.425849 0.530495
0.269825 0.758801 0.595376
0.272908 0.758694 0.598108
0.281712 0.758999 0.592416
0.391058 0.756848 0.591928
0.569314 0.736889 0.608118
0.703593 0.737926 0.60499
0.7953 0.703075 0.597559
0.833494 0.665995 0.571176
0.828397 0.618402 0.565942
0.335607 0.835431 0.644862
0.33753 0.833417 0.643702
0.340337 0.830167 0.632624
0.398962 0.815671 0.608515
0.54313 0.792935 0.606378
0.668971 0.804807 0.620249
0.766598 0.798535 0.603418
0.839399 0.777798 0.619226
0.843366 0.762997 0.603586
0.39556 0.868254 0.667384
0.39443 0.864454 0.661433
0.399802 0.858351 0.648966
0.417014 0.842634 0.620401
0.527398 0.823514 0.610422
0.651759 0.834852 0.627573
0.752392 0.841856 0.623835
0.815854 0.833234 0.618784
0.849744 0.835203 0.663142
0.501442 0.865202 0.686824
0.500877 0.860456 0.680293
0.504158 0.853147 0.670069
0.510643 0.842344 0.652674
0.526299 0.829129 0.620966
0.639231 0.840314 0.640085
0.745144 0.852628 0.654795
0.803067 0.852537 0.648219
0.84651 0.850462 0.669093
0.087541 0.0994583 0.335164
0.0991989 0.100038 0.368963
0.202716 0.0876326 0.398032
0.323445 0.0874647 0.389548
0.406729 0.0875868 0.389227
0.490913 0.110674 0.415351
0.562432 0.136446 0.444846
0.604273 0.156176 0.47274
0.619547 0.170504 0.499687
0.0875105 0.105135 0.347997
0.0875715 0.103243 0.370321
0.176104 0.0938277 0.423331
0.337026 0.087602 0.419257
0.420813 0.0883955 0.405509
0.505089 0.116289 0.427451
0.575113 0.142473 0.455985
0.608835 0.160342 0.483558
0.626505 0.176516 0.509422
0.0875105 0.172686 0.380163
0.0875563 0.164782 0.390188
0.0944686 0.14107 0.430213
0.319326 0.0977951 0.460472
0.449302 0.105898 0.442908
0.53312 0.129885 0.451835
0.588357 0.148486 0.466819
0.613596 0.161563 0.490578
0.639063 0.185458 0.519524
0.125811 0.436423 0.493446
0.124117 0.43444 0.504997
0.125902 0.421775 0.521202
0.366476 0.430686 0.640757
0.604196 0.371328 0.657252
0.701213 0.318135 0.613016
0.727047 0.261128 0.583474
0.665766 0.201831 0.531716
0.673259 0.210513 0.540902
0.177966 0.618112 0.571328
0.179049 0.619623 0.577844
0.182391 0.619455 0.588739
0.356985 0.637232 0.66096
0.571115 0.615274 0.699763
0.729747 0.576577 0.683757
0.788663 0.522744 0.656748
0.80499 0.464851 0.633371
0.790341 0.403388 0.617121
0.262562 0.753368 0.643931
0.264439 0.75375 0.646265
0.271427 0.755123 0.648981
0.371054 0.767193 0.673793
0.579934 0.751736 0.700038
0.715938 0.74168 0.718517
0.798962 0.708385 0.699825
0.835096 0.655543 0.668208
0.824216 0.600549 0.637491
0.32961 0.837232 0.692912
0.330999 0.83592 0.692378
0.334798 0.83563 0.688304
0.388067 0.84007 0.687221
0.572412 0.819303 0.701869
0.688792 0.812375 0.717479
0.783246 0.814191 0.715526
0.844297 0.790768 0.707378
0.854734 0.761395 0.6916
0.386145 0.879225 0.712322
0.388815 0.877974 0.709987
0.39498 0.876463 0.704005
0.424689 0.875547 0.696361
0.559487 0.849867 0.696162
0.665385 0.847608 0.713817
0.764599 0.8598 0.729732
0.831083 0.857466 0.723293
0.863478 0.852171 0.736797
0.503853 0.893111 0.736233
0.507561 0.890272 0.732418
0.51838 0.885893 0.727703
0.537392 0.875227 0.718013
0.562188 0.856489 0.698009
0.655131 0.857374 0.716411
0.755505 0.872068 0.741299
0.823789 0.878477 0.742428
0.861372 0.876326 0.747967
0.0875563 0.104311 0.373999
0.0960708 0.104585 0.404501
0.19324 0.093843 0.439963
0.318654 0.0875715 0.43595
0.407813 0.0886091 0.431586
0.490837 0.114733 0.452888
0.567788 0.144808 0.48603
0.606622 0.163165 0.508659
0.621012 0.17435 0.527276
0.0875105 0.108385 0.381201
0.0875563 0.107881 0.40145
0.164736 0.100649 0.454353
0.326741 0.0888685 0.466072
0.423957 0.0943618 0.452873
0.506111 0.121706 0.46865
0.581598 0.151369 0.499352
0.610941 0.166751 0.520058
0.627466 0.180011 0.538781
0.0875868 0.161959 0.406516
0.0875563 0.153063 0.411734
0.087541 0.120394 0.427985
0.286351 0.0998245 0.492378
0.440146 0.110323 0.486763
0.535698 0.138155 0.49749
0.595605 0.159701 0.513451
0.613413 0.169512 0.52694
0.631266 0.183658 0.545678
0.118822 0.42208 0.527047
0.11754 0.417838 0.535042
0.116976 0.397574 0.543893
0.329381 0.412512 0.679515
0.574899 0.354284 0.722728
0.693614 0.299916 0.667018
0.703975 0.2448 0.613397
0.644144 0.191653 0.549004
0.634104 0.185565 0.547829
0.176394 0.615274 0.611566
0.176638 0.615427 0.617914
0.174929 0.610468 0.624216
0.317128 0.626383 0.703929
0.536568 0.601129 0.753231
0.72314 0.558175 0.756252
0.794553 0.515526 0.71989
0.810422 0.456306 0.704616
0.791241 0.384161 0.683268
0.242267 0.739513 0.669261
0.244541 0.739818 0.672648
0.255192 0.742718 0.682322
0.344747 0.757214 0.724849
0.556054 0.744411 0.761273
0.688106 0.72781 0.776806
0.798566 0.701579 0.765576
0.835355 0.652018 0.738125
0.825849 0.591775 0.712902
0.32372 0.832486 0.724529
0.324483 0.831128 0.725078
0.327535 0.830915 0.725261
0.372686 0.837537 0.7364
0.572152 0.836698 0.76849
0.696025 0.81976 0.778347
0.79173 0.816541 0.791485
0.850462 0.794003 0.778927
0.861021 0.759518 0.762356
0.377981 0.879347 0.74696
0.379141 0.878569 0.745708
0.385092 0.879103 0.744015
0.41149 0.883619 0.746471
0.572473 0.884504 0.769802
0.685618 0.862348 0.776745
0.774716 0.866163 0.7944
0.841535 0.868177 0.794232
0.872282 0.859083 0.790829
0.491814 0.908339 0.773007
0.498772 0.907515 0.772198
0.51458 0.906767 0.772091
0.542016 0.904295 0.771603
0.584085 0.895445 0.767452
0.682612 0.87657 0.775753
0.76672 0.884764 0.798276
0.837781 0.893874 0.809827
0.871351 0.893828 0.810254
0.0875715 0.109056 0.404517
0.0919966 0.10927 0.430365
0.178973 0.102068 0.470069
0.310887 0.0919814 0.479698
0.401907 0.0941787 0.46862
0.479805 0.109743 0.476341
0.569131 0.150317 0.515709
0.609033 0.168032 0.53843
0.620905 0.177554 0.552453
0.0873884 0.113481 0.406531
0.0873884 0.113146 0.422629
0.148943 0.107912 0.474235
0.310887 0.097322 0.500969
0.424033 0.102388 0.492958
0.497124 0.117281 0.492073
0.582406 0.15671 0.528557
0.612696 0.171786 0.548959
0.626932 0.182879 0.562768
0.0874037 0.162127 0.427848
0.0874647 0.154833 0.431464
0.0875715 0.119768 0.431586
0.25452 0.104311 0.510796
0.42298 0.11136 0.514519
0.532815 0.140887 0.52723
0.601343 0.167773 0.546654
0.614893 0.174212 0.555505
0.630335 0.185946 0.568322
0.115953 0.410285 0.548684
0.114748 0.403326 0.554498
0.11162 0.379629 0.555322
0.296864 0.404089 0.698833
0.539254 0.353292 0.759594
0.679606 0.295323 0.704234
0.699779 0.248127 0.643854
0.636133 0.189914 0.57174
0.633539 0.188312 0.572106
0.176333 0.612375 0.639521
0.176318 0.611124 0.644511
0.174304 0.603693 0.649638
0.293904 0.616831 0.730022
0.50837 0.593652 0.787533
0.699382 0.551308 0.812619
0.795163 0.508736 0.768307
0.813443 0.451637 0.745937
0.788342 0.366094 0.717632
0.227405 0.728939 0.687205
0.226047 0.72697 0.68896
0.230549 0.726635 0.696315
0.288304 0.744274 0.740139
0.525933 0.738705 0.794079
0.659937 0.714961 0.814649
0.79234 0.686732 0.813458
0.838056 0.644984 0.782727
0.830701 0.581216 0.768338
0.312612 0.823941 0.743938
0.312901 0.822568 0.744472
0.320211 0.822156 0.748592
0.365332 0.830091 0.769894
0.557061 0.829755 0.81265
0.677043 0.814801 0.819699
0.773648 0.80708 0.831693
0.848798 0.788617 0.824491
0.860548 0.753933 0.808728
0.370642 0.875212 0.770687
0.371008 0.87422 0.770642
0.375021 0.874144 0.770962
0.397635 0.879973 0.779065
0.564385 0.889876 0.813489
0.685893 0.876158 0.823667
0.779507 0.868635 0.835065
0.846632 0.869657 0.843427
0.87953 0.859831 0.840116
0.471611 0.912215 0.799893
0.481102 0.913725 0.801846
0.499428 0.915557 0.804898
0.531975 0.917174 0.810452
0.580682 0.916411 0.816052
0.690898 0.90312 0.825498
0.778531 0.892256 0.836683
0.84329 0.899001 0.851377
0.876066 0.90045 0.851331
0.0874037 0.114046 0.43212
0.0874342 0.114031 0.443381
0.161135 0.108934 0.486259
0.299077 0.0999466 0.509544
0.399496 0.10135 0.500893
0.469688 0.112016 0.497398
0.554559 0.14403 0.524376
0.609079 0.170825 0.554803
0.619242 0.178363 0.56585
0.0875715 0.117632 0.428733
0.0875715 0.11899 0.432486
0.127153 0.113725 0.480812
0.291508 0.10399 0.5205
0.4206 0.108995 0.519753
0.502251 0.123537 0.517769
0.566201 0.149325 0.534234
0.611368 0.172473 0.558358
0.623301 0.181735 0.569848
0.0873732 0.171908 0.446326
0.0876173 0.167239 0.449577
0.0874495 0.13518 0.438132
0.218585 0.111879 0.519127
0.403189 0.112627 0.531182
0.523934 0.140291 0.540002
0.598138 0.166659 0.554177
0.613825 0.174334 0.560647
0.626291 0.183886 0.572747
0.116442 0.407813 0.564645
0.11516 0.39971 0.569253
0.111467 0.379095 0.567041
0.248402 0.393668 0.679622
0.500175 0.357855 0.765652
0.661906 0.299611 0.718715
0.70016 0.254643 0.66006
0.639261 0.193744 0.585077
0.62977 0.186755 0.576074
0.177462 0.611368 0.656596
0.177691 0.609857 0.662135
0.174975 0.600717 0.666346
0.26305 0.610086 0.732509
0.484398 0.595026 0.796201
0.669734 0.560052 0.833707
0.787625 0.514 0.789273
0.815747 0.460121 0.760342
0.781826 0.350942 0.72137
0.22623 0.727581 0.702159
0.225284 0.72575 0.704082
0.222766 0.719997 0.705516
0.27892 0.737118 0.751614
0.505043 0.736049 0.810483
0.63798 0.709911 0.832105
0.77528 0.683528 0.843885
0.837461 0.639887 0.807385
0.835279 0.574228 0.790402
0.291447 0.812055 0.747646
0.290822 0.810071 0.748699
0.30219 0.811841 0.757794
0.343267 0.819059 0.780835
0.523644 0.828656 0.830686
0.654902 0.810361 0.839734
0.753567 0.799451 0.852064
0.845197 0.780163 0.8495
0.860548 0.746746 0.833005
0.360845 0.87277 0.778195
0.360784 0.871321 0.778912
0.370367 0.872023 0.782971
0.425498 0.882185 0.80415
0.548455 0.885786 0.832868
0.668864 0.872679 0.846067
0.766415 0.865492 0.855573
0.841215 0.866285 0.867582
0.878553 0.856794 0.865675
0.449744 0.909346 0.814481
0.456977 0.910887 0.817365
0.47982 0.91429 0.823651
0.519203 0.917784 0.832822
0.574701 0.919356 0.843107
0.685206 0.908873 0.852262
0.776165 0.899626 0.860883
0.842832 0.898222 0.87216
0.879301 0.901335 0.87393
