bundles/resolve-cinematic-luts/Phantom Luts/A7s3 Phntm Film LUTs - G6/ATOMOS Monitor LUTs/Slog2+Sgamut3cine/Eastman A7s3 Sl2sg3c-Legacy AML.cube
TITLE "Generated by Resolve"
LUT_3D_SIZE 9
0.0975204 0.0875563 0.0900587
0.105913 0.087602 0.0910658
0.183658 0.0874647 0.0932784
0.291661 0.0907759 0.0878614
0.384848 0.0925307 0.093019
0.46244 0.0982223 0.0990311
0.538338 0.0910811 0.134478
0.628626 0.141924 0.248829
0.691112 0.201831 0.34786
0.102007 0.106676 0.101259
0.114488 0.108217 0.100511
0.181643 0.103716 0.0993973
0.291325 0.101732 0.0875868
0.38938 0.105241 0.0905776
0.476631 0.1187 0.0967117
0.551583 0.107424 0.128084
0.63743 0.149416 0.234699
0.688746 0.210315 0.336782
0.112764 0.191989 0.121233
0.130251 0.194568 0.113619
0.216083 0.214359 0.1196
0.385306 0.192157 0.130617
0.471504 0.183932 0.125948
0.521385 0.179034 0.11664
0.568002 0.158755 0.116014
0.652842 0.162966 0.211719
0.706294 0.218051 0.331472
0.149157 0.364706 0.180392
0.149035 0.365682 0.160906
0.237263 0.399924 0.167285
0.412116 0.418448 0.149935
0.580682 0.407919 0.18233
0.690135 0.381308 0.221698
0.76022 0.3514 0.243244
0.75053 0.315694 0.237797
0.708629 0.266056 0.23743
0.183902 0.539315 0.26746
0.185992 0.537743 0.247211
0.215534 0.544228 0.21178
0.411627 0.570047 0.195224
0.55314 0.573861 0.189776
0.697292 0.563195 0.234043
0.792737 0.545495 0.302159
0.817685 0.531289 0.312352
0.809232 0.482902 0.314824
0.240574 0.686336 0.380346
0.241718 0.681941 0.365591
0.25478 0.675044 0.312352
0.424582 0.693996 0.281636
0.547448 0.705882 0.260487
0.660655 0.70135 0.264668
0.766903 0.685634 0.330327
0.813001 0.672709 0.378256
0.816159 0.659678 0.36997
0.298695 0.781003 0.457816
0.298222 0.775326 0.445701
0.314565 0.767758 0.405661
0.424918 0.775738 0.378759
0.562066 0.781674 0.36585
0.647639 0.785641 0.361334
0.741527 0.779171 0.375021
0.809567 0.759838 0.430213
0.814664 0.750607 0.459419
0.338216 0.807279 0.48957
0.336767 0.802487 0.476463
0.365225 0.796918 0.454231
0.441276 0.798642 0.444205
0.550805 0.801328 0.447288
0.64416 0.806424 0.445777
0.717891 0.806607 0.44535
0.799542 0.798367 0.46949
0.824628 0.808392 0.53254
0.429236 0.815961 0.548714
0.425071 0.812757 0.533806
0.437858 0.809674 0.522026
0.483207 0.809781 0.519295
0.558938 0.815702 0.530449
0.650538 0.823743 0.546349
0.728069 0.82858 0.553872
0.785153 0.82739 0.55819
0.833982 0.827329 0.59939
0.0919203 0.0875257 0.0953078
0.103899 0.0876173 0.0973526
0.17409 0.088365 0.120714
0.28011 0.0874495 0.113497
0.370382 0.087602 0.106569
0.444022 0.0874495 0.115129
0.514794 0.091249 0.162737
0.616724 0.147448 0.269108
0.677607 0.207965 0.359197
0.100603 0.105364 0.107012
0.11368 0.106645 0.112612
0.199496 0.0950942 0.102571
0.296712 0.0934615 0.0889906
0.381247 0.09691 0.0928054
0.459068 0.102205 0.099382
0.543221 0.105089 0.158343
0.633906 0.161303 0.274815
0.701534 0.229664 0.376715
0.11284 0.194217 0.141115
0.11194 0.194232 0.12517
0.215045 0.213581 0.125826
0.381781 0.181521 0.133791
0.457481 0.170077 0.119005
0.534081 0.165362 0.120531
0.600641 0.146517 0.157992
0.65449 0.16936 0.259403
0.729137 0.246983 0.363104
0.150637 0.370291 0.20676
0.147295 0.370916 0.186755
0.196246 0.390555 0.165942
0.411231 0.415717 0.152148
0.589654 0.396521 0.192828
0.691279 0.366827 0.225437
0.7579 0.335607 0.245212
0.743679 0.304356 0.248554
0.748226 0.270695 0.291157
0.185794 0.54493 0.296849
0.183093 0.543481 0.277745
0.19556 0.540383 0.224308
0.399649 0.568521 0.199008
0.552636 0.572885 0.189364
0.702113 0.559167 0.24271
0.795514 0.536568 0.312108
0.819974 0.516426 0.323766
0.80502 0.4607 0.320775
0.242054 0.690929 0.401221
0.240558 0.687312 0.388373
0.249317 0.677058 0.333898
0.400244 0.692302 0.284291
0.542412 0.704601 0.260853
0.659083 0.699641 0.262867
0.768627 0.68191 0.334737
0.812345 0.668788 0.385031
0.81181 0.654078 0.379675
0.299535 0.783764 0.476112
0.297765 0.779507 0.461311
0.303136 0.768826 0.423041
0.399176 0.77499 0.382483
0.55407 0.780392 0.367681
0.643336 0.784375 0.360754
0.739239 0.777386 0.372274
0.809796 0.757259 0.430457
0.81503 0.748318 0.4598
0.33959 0.810956 0.512551
0.337377 0.806928 0.492424
0.350317 0.799191 0.462654
0.429282 0.798032 0.445441
0.540871 0.801205 0.44802
0.639475 0.806256 0.444999
0.7149 0.806348 0.443839
0.797848 0.798123 0.467079
0.819425 0.8094 0.538537
0.429541 0.817639 0.55584
0.426963 0.815549 0.542092
0.430442 0.810727 0.524178
0.47602 0.809857 0.520699
0.55172 0.815274 0.52903
0.645457 0.823423 0.545724
0.724758 0.828 0.552361
0.782406 0.826932 0.554925
0.8309 0.827222 0.598901
0.0883955 0.0888533 0.127764
0.120684 0.0896315 0.138994
0.172641 0.0914626 0.143908
0.279774 0.087541 0.156725
0.369039 0.087541 0.176989
0.449897 0.0876478 0.190311
0.520226 0.0990616 0.21944
0.606149 0.142229 0.288136
0.674891 0.207446 0.376776
0.0924544 0.102983 0.132998
0.0925765 0.0976577 0.153246
0.191684 0.0924392 0.158663
0.291585 0.0876326 0.149813
0.378668 0.0875105 0.143801
0.455146 0.0876326 0.161044
0.526909 0.0983597 0.202502
0.624857 0.156664 0.299458
0.70193 0.23183 0.4
0.108507 0.190906 0.164111
0.108919 0.193423 0.167819
0.227955 0.224735 0.223041
0.385122 0.181094 0.202396
0.469871 0.136095 0.15642
0.533486 0.12163 0.156756
0.57113 0.115023 0.186435
0.652232 0.168688 0.295827
0.734005 0.253986 0.40621
0.15642 0.381857 0.257282
0.154818 0.382864 0.244816
0.193622 0.399298 0.23508
0.421302 0.428321 0.244923
0.586496 0.382559 0.259693
0.691081 0.338109 0.256153
0.764294 0.328298 0.284993
0.764187 0.290059 0.29543
0.747494 0.262531 0.370398
0.195392 0.562753 0.354818
0.191012 0.559014 0.341299
0.194858 0.544305 0.289754
0.364233 0.569314 0.261662
0.548196 0.568963 0.234684
0.710887 0.548287 0.292149
0.790707 0.522972 0.335088
0.818357 0.484199 0.350576
0.801907 0.43743 0.359167
0.248615 0.700282 0.438529
0.245487 0.695979 0.428519
0.246098 0.68719 0.3935
0.328191 0.69044 0.325048
0.527291 0.702831 0.292348
0.655192 0.696223 0.281636
0.774762 0.674388 0.357
0.81677 0.661524 0.405798
0.8168 0.638636 0.408957
0.303716 0.790173 0.502953
0.301198 0.785794 0.495247
0.299336 0.778119 0.462165
0.356008 0.77203 0.399313
0.531762 0.779324 0.382177
0.635935 0.783902 0.366842
0.737926 0.775784 0.370687
0.81236 0.753582 0.443259
0.818601 0.745785 0.473869
0.345006 0.819562 0.535927
0.342473 0.815274 0.52723
0.342153 0.807187 0.49308
0.400763 0.798138 0.456107
0.516167 0.801022 0.454459
0.631678 0.806821 0.450828
0.712001 0.807034 0.447669
0.797116 0.798001 0.465751
0.821164 0.810056 0.545968
0.432105 0.822889 0.570901
0.429801 0.820386 0.564187
0.431662 0.815793 0.542885
0.459648 0.810178 0.525154
0.535653 0.81532 0.530846
0.634577 0.823423 0.550622
0.720623 0.828641 0.55523
0.780941 0.827588 0.55552
0.830228 0.826719 0.596857
0.0876631 0.0943313 0.18407
0.112169 0.0959182 0.210636
0.181216 0.0900587 0.221363
0.271366 0.0874647 0.219165
0.372244 0.0874647 0.239963
0.449439 0.0924392 0.269749
0.531106 0.114626 0.298589
0.598321 0.141802 0.328817
0.653986 0.192599 0.399222
0.0874495 0.0983902 0.193774
0.0875257 0.0977798 0.22385
0.17322 0.0912337 0.260166
0.292424 0.087602 0.237766
0.380484 0.0875105 0.241123
0.458595 0.0946059 0.269963
0.544533 0.119707 0.296132
0.604013 0.14667 0.332143
0.683085 0.215808 0.426291
0.0906996 0.179934 0.226642
0.087541 0.176898 0.247822
0.158099 0.185885 0.308125
0.354177 0.153414 0.306325
0.434104 0.115846 0.277668
0.500908 0.110018 0.263539
0.560204 0.118288 0.275624
0.624613 0.153933 0.331655
0.713573 0.234592 0.437354
0.146944 0.384558 0.319814
0.147601 0.391287 0.327535
0.182925 0.410391 0.351751
0.432883 0.442832 0.43299
0.5794 0.38323 0.403754
0.690669 0.316747 0.369863
0.764691 0.282322 0.349401
0.74641 0.245106 0.368612
0.746654 0.263478 0.425208
0.201297 0.581827 0.423285
0.202426 0.583764 0.424338
0.212772 0.57586 0.404211
0.371725 0.581643 0.425101
0.561013 0.586572 0.423194
0.703212 0.538979 0.41796
0.789578 0.473411 0.394888
0.812039 0.44387 0.400122
0.798779 0.408576 0.413169
0.260533 0.718166 0.499062
0.260197 0.715434 0.496971
0.260792 0.706386 0.473304
0.331395 0.691829 0.43592
0.508186 0.701839 0.441642
0.651621 0.693843 0.413687
0.786053 0.662058 0.437446
0.822965 0.646143 0.441611
0.822782 0.59704 0.448493
0.316075 0.805631 0.554421
0.313848 0.800748 0.549004
0.308904 0.791623 0.523964
0.345541 0.778454 0.476677
0.488121 0.77641 0.462058
0.621118 0.781933 0.44831
0.732189 0.771527 0.426291
0.819242 0.748272 0.472068
0.826078 0.741344 0.502663
0.357961 0.834943 0.576074
0.354955 0.830579 0.568292
0.35314 0.822751 0.548989
0.358999 0.807858 0.502647
0.475196 0.80354 0.476051
0.614404 0.809125 0.473396
0.706859 0.809461 0.462791
0.796948 0.798505 0.467597
0.825376 0.813138 0.564263
0.441184 0.833173 0.599069
0.438041 0.830564 0.593042
0.439429 0.82533 0.581262
0.446067 0.816892 0.553719
0.507103 0.81442 0.539528
0.611841 0.823606 0.559091
0.712474 0.830808 0.564645
0.778927 0.829236 0.560433
0.830274 0.826413 0.595819
0.0874342 0.0998245 0.251453
0.100282 0.100984 0.280552
0.170047 0.0927291 0.302785
0.280385 0.087602 0.294835
0.367712 0.087602 0.304234
0.455726 0.0949874 0.327642
0.539437 0.118669 0.35903
0.603861 0.14548 0.397024
0.616693 0.164111 0.415763
0.0875563 0.103838 0.269032
0.0876173 0.103166 0.291402
0.149706 0.0977035 0.337072
0.2972 0.0876173 0.321935
0.38056 0.0876173 0.315343
0.468452 0.0978561 0.335241
0.553918 0.124834 0.367727
0.606668 0.148623 0.402045
0.649256 0.187793 0.449287
0.087541 0.161547 0.294881
0.0874342 0.156771 0.310933
0.106996 0.150057 0.358709
0.315694 0.112123 0.378515
0.412879 0.0981308 0.343587
0.49163 0.106554 0.34786
0.570336 0.130159 0.374136
0.612772 0.147997 0.398947
0.681514 0.206058 0.472023
0.122377 0.373999 0.377218
0.120485 0.37705 0.391241
0.132418 0.377157 0.417563
0.367193 0.406683 0.520714
0.567514 0.362158 0.515496
0.669001 0.300114 0.491035
0.739406 0.256809 0.472038
0.709957 0.216464 0.450767
0.712215 0.228092 0.474464
0.191318 0.581079 0.484367
0.193393 0.584314 0.491554
0.203464 0.583978 0.494194
0.372229 0.599496 0.538323
0.572061 0.591775 0.574807
0.697032 0.539345 0.545007
0.783658 0.472358 0.502129
0.808667 0.423926 0.478996
0.792798 0.379965 0.483543
0.257771 0.725124 0.556786
0.260014 0.724941 0.559838
0.267033 0.724483 0.553536
0.354345 0.721721 0.549615
0.526741 0.703685 0.565789
0.668528 0.703609 0.561959
0.78204 0.660304 0.551034
0.833051 0.612329 0.519738
0.825437 0.563973 0.513649
0.322072 0.8206 0.611505
0.322332 0.817365 0.609751
0.323919 0.813367 0.598352
0.364263 0.79968 0.570138
0.496132 0.776654 0.56054
0.624353 0.786847 0.572412
0.742412 0.779644 0.549401
0.838575 0.748501 0.565438
0.838575 0.733257 0.552575
0.370871 0.859449 0.634256
0.369451 0.85568 0.628672
0.371679 0.849088 0.614404
0.381796 0.833829 0.582727
0.481727 0.817533 0.565957
0.599954 0.825086 0.57319
0.717937 0.831235 0.568231
0.802533 0.818326 0.554314
0.835325 0.818692 0.602228
0.457267 0.853407 0.645426
0.455879 0.849531 0.638941
0.457969 0.843153 0.628092
0.463157 0.833738 0.609949
0.480018 0.820981 0.576852
0.585611 0.827893 0.586007
0.704707 0.838254 0.599145
0.780621 0.835996 0.585458
0.832685 0.828687 0.604166
0.0874189 0.104494 0.305669
0.09337 0.105348 0.332235
0.159136 0.0974441 0.363149
0.2822 0.0876173 0.36141
0.37174 0.0874952 0.359442
0.456107 0.102403 0.379889
0.545129 0.126757 0.410544
0.604318 0.148928 0.441306
0.613336 0.161898 0.465995
0.0876173 0.109209 0.32369
0.0876631 0.108217 0.343023
0.136156 0.103136 0.386877
0.294591 0.0875105 0.392615
0.386069 0.0887922 0.376135
0.470939 0.107042 0.392294
0.562127 0.133364 0.422751
0.607294 0.152712 0.452247
0.618692 0.16701 0.475349
0.0875715 0.148638 0.341039
0.087602 0.144442 0.354299
0.0875715 0.131731 0.392569
0.269169 0.0987869 0.431266
0.410574 0.0993362 0.410056
0.500023 0.118929 0.415244
0.578408 0.140017 0.433524
0.613306 0.153216 0.4598
0.631205 0.173663 0.484749
0.111513 0.362173 0.429725
0.109957 0.360433 0.44184
0.114092 0.349996 0.461357
0.312657 0.37377 0.578317
0.54873 0.324086 0.606912
0.660151 0.277928 0.566049
0.707759 0.231968 0.539437
0.656779 0.184375 0.492988
0.660395 0.192432 0.500603
0.169894 0.570047 0.532021
0.16939 0.570993 0.538994
0.171344 0.57026 0.549981
0.313603 0.588952 0.617029
0.526741 0.570382 0.660929
0.697063 0.530938 0.646372
0.777401 0.471168 0.614969
0.802457 0.415778 0.592157
0.784131 0.360052 0.576257
0.247562 0.719478 0.608057
0.249866 0.719509 0.612253
0.255482 0.719875 0.613733
0.336324 0.731136 0.636179
0.538003 0.71725 0.663264
0.680751 0.705837 0.683803
0.781155 0.661738 0.656504
0.830884 0.595728 0.614755
0.820829 0.542123 0.585077
0.316014 0.822873 0.663111
0.317632 0.821134 0.663111
0.320531 0.82002 0.65832
0.361334 0.823514 0.65388
0.526085 0.799771 0.661692
0.644984 0.791196 0.676661
0.759365 0.792203 0.672541
0.841718 0.755444 0.658717
0.850523 0.719448 0.641382
0.369451 0.875212 0.685313
0.370901 0.873243 0.682353
0.374929 0.871183 0.674891
0.397681 0.868101 0.665049
0.507149 0.840909 0.651453
0.611368 0.837003 0.664744
0.728954 0.849928 0.681117
0.817716 0.844297 0.669596
0.857237 0.836072 0.689342
0.465751 0.884733 0.702098
0.469047 0.881575 0.697978
0.477165 0.875669 0.691279
0.490974 0.863828 0.677226
0.509361 0.845777 0.652842
0.600473 0.84509 0.667689
0.712139 0.859068 0.693004
0.801251 0.864302 0.690059
0.852842 0.856931 0.694789
0.0875868 0.109133 0.347555
0.0896773 0.10898 0.372702
0.150072 0.102586 0.405554
0.274693 0.0883803 0.410758
0.372839 0.0880293 0.40618
0.457374 0.107042 0.423255
0.548302 0.136843 0.455695
0.604318 0.159197 0.484245
0.615076 0.168185 0.501259
0.08748 0.113344 0.363073
0.0875105 0.11339 0.381369
0.126696 0.10837 0.422599
0.282032 0.0924086 0.445243
0.390387 0.0925917 0.430884
0.473823 0.113085 0.439399
0.568414 0.145708 0.473793
0.607111 0.162814 0.496696
0.620661 0.173281 0.51426
0.0876326 0.144228 0.37557
0.0874952 0.13962 0.386786
0.0876173 0.122286 0.410224
0.237003 0.10576 0.472297
0.401831 0.104707 0.465415
0.503182 0.12723 0.469703
0.58616 0.154696 0.490089
0.610437 0.165286 0.505867
0.624063 0.176471 0.521996
0.105959 0.347875 0.466072
0.104768 0.34551 0.477378
0.104997 0.328603 0.491508
0.27538 0.357061 0.623133
0.511467 0.310292 0.681834
0.64979 0.264698 0.633356
0.681575 0.224414 0.578622
0.634638 0.181704 0.520409
0.626856 0.17821 0.524361
0.158328 0.565484 0.573465
0.158556 0.565545 0.580957
0.156924 0.560098 0.589929
0.274876 0.576669 0.670176
0.487114 0.556146 0.726787
0.688106 0.513436 0.738567
0.785077 0.46746 0.694804
0.805371 0.412177 0.680919
0.780728 0.346303 0.656214
0.228473 0.705531 0.644022
0.22977 0.705135 0.647715
0.236728 0.706523 0.656397
0.306065 0.720333 0.69781
0.509804 0.708736 0.736629
0.646799 0.689845 0.756222
0.781888 0.656641 0.74052
0.831113 0.596704 0.70457
0.820768 0.537774 0.679194
0.308919 0.817548 0.70457
0.309743 0.816129 0.70544
0.311803 0.815259 0.704982
0.34638 0.821057 0.714366
0.531258 0.822477 0.747005
0.657099 0.802991 0.75671
0.770703 0.795758 0.771374
0.846632 0.760327 0.748775
0.855482 0.715557 0.727962
0.363424 0.877943 0.72987
0.364874 0.877028 0.728618
0.36846 0.876799 0.725475
0.389364 0.881178 0.725383
0.531884 0.88307 0.744656
0.64033 0.858 0.748653
0.740673 0.859113 0.767086
0.832761 0.861021 0.766308
0.869459 0.8477 0.762753
0.459312 0.905074 0.750179
0.465522 0.904173 0.748852
0.479393 0.903258 0.747433
0.503624 0.900313 0.744869
0.540215 0.890929 0.738598
0.633143 0.870176 0.743618
0.725521 0.875364 0.767102
0.819974 0.88629 0.781033
0.867933 0.883391 0.77734
0.087541 0.114611 0.386954
0.0873579 0.113512 0.407691
0.138125 0.109285 0.442084
0.264897 0.0962692 0.460746
0.367239 0.0936904 0.45066
0.450263 0.106065 0.45864
0.550683 0.143923 0.497704
0.608728 0.167086 0.527276
0.617914 0.174166 0.540413
0.08748 0.119203 0.395636
0.0875257 0.119844 0.411322
0.11397 0.114961 0.449928
0.262181 0.102922 0.489204
0.389227 0.102388 0.484932
0.470436 0.115358 0.482094
0.57084 0.152987 0.516548
0.612207 0.171267 0.541375
0.622858 0.179248 0.552697
0.0874647 0.146746 0.403876
0.0874037 0.143557 0.413306
0.0874952 0.127749 0.427436
0.203052 0.112871 0.496269
0.382376 0.111452 0.511009
0.500816 0.133501 0.516594
0.594415 0.165011 0.53817
0.614237 0.173632 0.550561
0.625971 0.181888 0.55906
0.10428 0.340505 0.497765
0.102998 0.335348 0.506325
0.100252 0.314656 0.511345
0.243076 0.349096 0.649744
0.469596 0.313497 0.727016
0.629938 0.264302 0.684657
0.677714 0.230518 0.623911
0.63035 0.184878 0.560327
0.628641 0.184176 0.562676
0.157931 0.561761 0.609995
0.157763 0.560128 0.617014
0.156237 0.55169 0.624186
0.253132 0.566384 0.70779
0.455283 0.550271 0.775051
0.65243 0.508827 0.813672
0.785504 0.464088 0.762615
0.808743 0.4121 0.738125
0.775952 0.33283 0.703685
0.210742 0.694194 0.669581
0.209003 0.692042 0.671519
0.211292 0.690074 0.678172
0.25478 0.705104 0.721492
0.470649 0.700786 0.782025
0.611872 0.675669 0.807706
0.773373 0.641184 0.810376
0.836774 0.592859 0.76817
0.829557 0.531167 0.757794
0.298833 0.807462 0.733181
0.299321 0.8056 0.734859
0.303609 0.803784 0.738109
0.337087 0.810864 0.759106
0.511025 0.813962 0.80441
0.63241 0.796033 0.813153
0.743938 0.782773 0.826825
0.846326 0.753811 0.812802
0.856962 0.710948 0.792538
0.356664 0.873594 0.763516
0.35668 0.872175 0.762997
0.359457 0.871717 0.762737
0.377508 0.87715 0.770108
0.526284 0.891981 0.805844
0.64654 0.879484 0.818051
0.750866 0.867414 0.827985
0.841901 0.86537 0.839246
0.880873 0.8495 0.833127
0.441932 0.912932 0.7888
0.449928 0.913863 0.790051
0.465858 0.915541 0.792386
0.496117 0.91841 0.79823
0.541848 0.919646 0.804685
0.649973 0.909285 0.81622
0.745251 0.893294 0.825422
0.82884 0.898299 0.842741
0.878523 0.899397 0.840986
0.0875563 0.120775 0.421073
0.0874647 0.120455 0.43032
0.122118 0.117144 0.46511
0.248035 0.106584 0.498695
0.359503 0.101991 0.493996
0.438865 0.109758 0.489616
0.536797 0.141009 0.518395
0.610315 0.172137 0.554879
0.617777 0.177935 0.564508
0.08748 0.125658 0.424369
0.0874952 0.127947 0.43061
0.100145 0.121614 0.464378
0.237964 0.112688 0.514458
0.378576 0.111299 0.522957
0.475273 0.124163 0.52221
0.555734 0.150164 0.536339
0.612253 0.173663 0.559396
0.621149 0.180362 0.567834
0.0874647 0.156008 0.426993
0.08748 0.15436 0.434592
0.0874037 0.140963 0.44126
0.167712 0.120546 0.504646
0.35523 0.116289 0.536233
0.490974 0.136477 0.542107
0.592981 0.167041 0.555734
0.613779 0.175021 0.560662
0.623224 0.182116 0.569802
0.104677 0.341527 0.519799
0.10428 0.336599 0.528054
0.100481 0.316503 0.52958
0.199741 0.337484 0.628824
0.429923 0.317784 0.729931
0.606531 0.268666 0.701671
0.674769 0.236072 0.643931
0.633478 0.189563 0.579614
0.626047 0.183993 0.572519
0.159701 0.560311 0.633906
0.15964 0.558572 0.641459
0.156741 0.547799 0.647181
0.227771 0.557183 0.713069
0.431418 0.551659 0.78526
0.61799 0.519188 0.832303
0.773983 0.469841 0.78529
0.810788 0.420203 0.751919
0.767315 0.319142 0.706081
0.209583 0.692805 0.690135
0.209384 0.691112 0.693904
0.207401 0.684321 0.695766
0.250004 0.69688 0.738201
0.45095 0.695888 0.801724
0.586282 0.671473 0.827436
0.748318 0.63917 0.846922
0.837308 0.588434 0.79939
0.834897 0.52491 0.784009
0.2804 0.795285 0.744701
0.278431 0.792111 0.745327
0.283803 0.790692 0.751293
0.312352 0.796979 0.773068
0.472282 0.810391 0.825086
0.608316 0.789059 0.838392
0.717662 0.772305 0.85304
0.841688 0.743404 0.847471
0.858091 0.701808 0.825925
0.346685 0.868727 0.777111
0.346395 0.867002 0.778042
0.352972 0.867109 0.781552
0.396246 0.878309 0.801862
0.508385 0.885527 0.833387
0.628794 0.874235 0.85214
0.732616 0.863279 0.859266
0.829465 0.858351 0.870954
0.879133 0.844877 0.86685
0.423804 0.912077 0.8121
0.428946 0.913314 0.814206
0.448371 0.916899 0.820249
0.483421 0.922576 0.830503
0.536477 0.927138 0.84332
0.645563 0.921416 0.856535
0.742824 0.908675 0.862226
0.830655 0.903075 0.874159
0.883192 0.905211 0.877882
