bundles/resolve-cinematic-luts/Phantom Luts/A7s3 Phntm Film LUTs - G6/ATOMOS Monitor LUTs/Slog2+Sgamut3cine/EastmanRM A7s3 Sl2sg3c-Legacy AML.cube
TITLE "Generated by Resolve"
LUT_3D_SIZE 5
0.0957198 0.0992447 0.0973068
0.213367 0.0874189 0.0883345
0.451331 0.0791028 0.0996567
0.606134 0.0991226 0.166705
0.766583 0.24094 0.405936
0.110216 0.200946 0.109667
0.212879 0.215061 0.106432
0.506157 0.134066 0.106844
0.627451 0.108003 0.167071
0.795163 0.255512 0.403388
0.105043 0.491722 0.137026
0.117662 0.500664 0.107561
0.620935 0.626871 0.184375
0.848829 0.541924 0.307439
0.840574 0.418647 0.315709
0.301411 0.705333 0.384619
0.307195 0.707607 0.37818
0.540917 0.765881 0.403494
0.84184 0.873182 0.57995
0.882582 0.85745 0.645792
0.504433 0.783673 0.564691
0.531807 0.786236 0.560998
0.655207 0.818494 0.622889
0.822248 0.881041 0.741817
0.863569 0.896712 0.812573
0.0924392 0.102937 0.130404
0.179431 0.0992905 0.134157
0.424445 0.0909285 0.153521
0.579141 0.101503 0.202045
0.760174 0.25304 0.441718
0.10631 0.199939 0.161639
0.20766 0.221759 0.203677
0.512078 0.111101 0.143435
0.632349 0.121553 0.213565
0.83447 0.322942 0.497459
0.107057 0.507225 0.22948
0.103426 0.507195 0.183322
0.614939 0.621729 0.213016
0.855634 0.519799 0.328878
0.864897 0.395422 0.404593
0.29633 0.714519 0.423697
0.298238 0.716289 0.41622
0.508858 0.754025 0.397421
0.843687 0.87335 0.580148
0.883558 0.855161 0.658366
0.515068 0.789502 0.582376
0.554131 0.796124 0.590707
0.649226 0.818402 0.627375
0.819852 0.880278 0.741054
0.863767 0.896635 0.811688
0.0902419 0.121782 0.246738
0.154574 0.105425 0.313726
0.42298 0.104677 0.315038
0.61912 0.151675 0.363867
0.733593 0.24361 0.50251
0.0900893 0.174304 0.287587
0.0989548 0.160601 0.364599
0.471855 0.117281 0.375113
0.660655 0.160006 0.360647
0.817548 0.318379 0.581338
0.116091 0.518029 0.42359
0.11281 0.528771 0.458183
0.591546 0.602625 0.575357
0.890318 0.470985 0.534371
0.873121 0.408911 0.569665
0.304768 0.733516 0.523232
0.298222 0.741115 0.535775
0.470298 0.758144 0.509651
0.837934 0.865721 0.648997
0.883803 0.838621 0.699886
0.535012 0.804486 0.635935
0.568765 0.814771 0.660838
0.619699 0.818387 0.645991
0.808713 0.875883 0.744778
0.865629 0.896712 0.811734
0.0903334 0.142596 0.380728
0.119646 0.1411 0.435843
0.378729 0.115206 0.48249
0.626108 0.18912 0.529152
0.679591 0.224765 0.585733
0.0905623 0.166583 0.399954
0.0907149 0.154742 0.422858
0.392981 0.135439 0.529549
0.665141 0.208713 0.570504
0.702037 0.244434 0.626352
0.0948348 0.490532 0.539834
0.094377 0.491829 0.563821
0.422812 0.517617 0.719219
0.895262 0.5093 0.82887
0.795956 0.343191 0.73785
0.305196 0.730953 0.656535
0.30277 0.738415 0.67219
0.486336 0.785702 0.72575
0.81973 0.84744 0.81767
0.879225 0.816587 0.815885
0.548058 0.826444 0.725582
0.582132 0.836194 0.749355
0.648722 0.850874 0.768734
0.811337 0.885603 0.8215
0.866789 0.902571 0.855787
0.0908675 0.157855 0.438392
0.0997635 0.154864 0.462211
0.322362 0.137072 0.537743
0.578302 0.193774 0.594614
0.667552 0.235584 0.650278
0.0907759 0.178882 0.434318
0.0909285 0.174716 0.444022
0.29955 0.139712 0.545037
0.649531 0.222736 0.634485
0.674907 0.241642 0.657755
0.0964218 0.486625 0.590188
0.0982528 0.489433 0.608209
0.323018 0.507836 0.726619
0.861875 0.533104 0.874189
0.689601 0.252872 0.671595
0.272419 0.711437 0.694194
0.2851 0.719402 0.705928
0.434241 0.760189 0.76022
0.790234 0.833402 0.85626
0.871839 0.80528 0.864103
0.515923 0.820233 0.76582
0.553429 0.830884 0.783169
0.629313 0.849943 0.804791
0.813153 0.892149 0.858106
0.87744 0.904784 0.868101
