bundles/resolve-cinematic-luts/Phantom Luts/A7s3 Phntm Film LUTs - G6/ATOMOS Monitor LUTs/Slog2+Sgamut3cine/Eastman A7s3 Sl2sg3c-Legacy AML.cube
TITLE "Generated by Resolve"
LUT_3D_SIZE 5
0.0975204 0.0875563 0.0900587
0.183658 0.0874647 0.0932784
0.384848 0.0925307 0.093019
0.538338 0.0910811 0.134478
0.691112 0.201831 0.34786
0.112764 0.191989 0.121233
0.216083 0.214359 0.1196
0.471504 0.183932 0.125948
0.568002 0.158755 0.116014
0.706294 0.218051 0.331472
0.183902 0.539315 0.26746
0.215534 0.544228 0.21178
0.55314 0.573861 0.189776
0.792737 0.545495 0.302159
0.809232 0.482902 0.314824
0.298695 0.781003 0.457816
0.314565 0.767758 0.405661
0.562066 0.781674 0.36585
0.741527 0.779171 0.375021
0.814664 0.750607 0.459419
0.429236 0.815961 0.548714
0.437858 0.809674 0.522026
0.558938 0.815702 0.530449
0.728069 0.82858 0.553872
0.833982 0.827329 0.59939
0.0883955 0.0888533 0.127764
0.172641 0.0914626 0.143908
0.369039 0.087541 0.176989
0.520226 0.0990616 0.21944
0.674891 0.207446 0.376776
0.108507 0.190906 0.164111
0.227955 0.224735 0.223041
0.469871 0.136095 0.15642
0.57113 0.115023 0.186435
0.734005 0.253986 0.40621
0.195392 0.562753 0.354818
0.194858 0.544305 0.289754
0.548196 0.568963 0.234684
0.790707 0.522972 0.335088
0.801907 0.43743 0.359167
0.303716 0.790173 0.502953
0.299336 0.778119 0.462165
0.531762 0.779324 0.382177
0.737926 0.775784 0.370687
0.818601 0.745785 0.473869
0.432105 0.822889 0.570901
0.431662 0.815793 0.542885
0.535653 0.81532 0.530846
0.720623 0.828641 0.55523
0.830228 0.826719 0.596857
0.0874342 0.0998245 0.251453
0.170047 0.0927291 0.302785
0.367712 0.087602 0.304234
0.539437 0.118669 0.35903
0.616693 0.164111 0.415763
0.087541 0.161547 0.294881
0.106996 0.150057 0.358709
0.412879 0.0981308 0.343587
0.570336 0.130159 0.374136
0.681514 0.206058 0.472023
0.191318 0.581079 0.484367
0.203464 0.583978 0.494194
0.572061 0.591775 0.574807
0.783658 0.472358 0.502129
0.792798 0.379965 0.483543
0.322072 0.8206 0.611505
0.323919 0.813367 0.598352
0.496132 0.776654 0.56054
0.742412 0.779644 0.549401
0.838575 0.733257 0.552575
0.457267 0.853407 0.645426
0.457969 0.843153 0.628092
0.480018 0.820981 0.576852
0.704707 0.838254 0.599145
0.832685 0.828687 0.604166
0.0875868 0.109133 0.347555
0.150072 0.102586 0.405554
0.372839 0.0880293 0.40618
0.548302 0.136843 0.455695
0.615076 0.168185 0.501259
0.0876326 0.144228 0.37557
0.0876173 0.122286 0.410224
0.401831 0.104707 0.465415
0.58616 0.154696 0.490089
0.624063 0.176471 0.521996
0.158328 0.565484 0.573465
0.156924 0.560098 0.589929
0.487114 0.556146 0.726787
0.785077 0.46746 0.694804
0.780728 0.346303 0.656214
0.308919 0.817548 0.70457
0.311803 0.815259 0.704982
0.531258 0.822477 0.747005
0.770703 0.795758 0.771374
0.855482 0.715557 0.727962
0.459312 0.905074 0.750179
0.479393 0.903258 0.747433
0.540215 0.890929 0.738598
0.725521 0.875364 0.767102
0.867933 0.883391 0.77734
0.0875563 0.120775 0.421073
0.122118 0.117144 0.46511
0.359503 0.101991 0.493996
0.536797 0.141009 0.518395
0.617777 0.177935 0.564508
0.0874647 0.156008 0.426993
0.0874037 0.140963 0.44126
0.35523 0.116289 0.536233
0.592981 0.167041 0.555734
0.623224 0.182116 0.569802
0.159701 0.560311 0.633906
0.156741 0.547799 0.647181
0.431418 0.551659 0.78526
0.773983 0.469841 0.78529
0.767315 0.319142 0.706081
0.2804 0.795285 0.744701
0.283803 0.790692 0.751293
0.472282 0.810391 0.825086
0.717662 0.772305 0.85304
0.858091 0.701808 0.825925
0.423804 0.912077 0.8121
0.448371 0.916899 0.820249
0.536477 0.927138 0.84332
0.742824 0.908675 0.862226
0.883192 0.905211 0.877882
