bundles/resolve-cinematic-luts/Phantom Luts/A7s3 Phntm Film LUTs - G6/ATOMOS Monitor LUTs/Slog2+Sgamut3cine/EastmanRM A7s3 Sl2sg3c AML.cube
TITLE "Generated by Resolve"
LUT_3D_SIZE 5
0.0940871 0.0894331 0.0903029
0.240452 0.0794232 0.087541
0.488197 0.0764324 0.103319
0.632258 0.115389 0.199329
0.81236 0.280537 0.458045
0.102052 0.237049 0.108293
0.266773 0.26949 0.104616
0.564279 0.16463 0.119661
0.655085 0.129503 0.192493
0.830869 0.300664 0.456672
0.106783 0.531899 0.174502
0.132219 0.53724 0.117067
0.662791 0.666743 0.213489
0.847852 0.598917 0.327504
0.848646 0.482109 0.331106
0.304631 0.712489 0.413123
0.310216 0.713069 0.398489
0.583734 0.780453 0.450599
0.846204 0.871015 0.61529
0.881422 0.861646 0.687388
0.56347 0.804486 0.624918
0.591943 0.807355 0.62182
0.711467 0.840085 0.684977
0.835599 0.887022 0.779171
0.865049 0.900435 0.835019
0.0893721 0.0946212 0.139635
0.203464 0.0897993 0.151553
0.467063 0.0861524 0.189456
0.605173 0.119844 0.247593
0.796017 0.295857 0.511254
0.0982071 0.237247 0.185473
0.265431 0.278447 0.259678
0.566659 0.131472 0.179706
0.661906 0.145586 0.253986
0.855055 0.38114 0.554513
0.110918 0.552316 0.282948
0.107378 0.549157 0.227085
0.658122 0.66363 0.250782
0.852766 0.569024 0.360204
0.872755 0.448859 0.446159
0.304646 0.723079 0.45565
0.302846 0.723033 0.442206
0.552148 0.76762 0.445197
0.84744 0.871336 0.617182
0.88249 0.860639 0.696498
0.573846 0.809522 0.640787
0.614939 0.817685 0.651209
0.705562 0.839918 0.688594
0.834226 0.886503 0.778515
0.864027 0.900343 0.835172
0.090135 0.113924 0.278309
0.186404 0.0948653 0.359823
0.45919 0.0996719 0.360433
0.638041 0.168521 0.415656
0.761242 0.281071 0.574777
0.090425 0.194553 0.332464
0.106096 0.173648 0.415579
0.50901 0.124712 0.421195
0.676432 0.177279 0.418311
0.842634 0.369009 0.650202
0.120684 0.560571 0.468147
0.119463 0.572564 0.501488
0.635721 0.64918 0.62089
0.884504 0.530739 0.583886
0.87834 0.468681 0.62359
0.320623 0.74435 0.560769
0.313664 0.7505 0.569787
0.526864 0.776913 0.567208
0.84358 0.86772 0.690044
0.881651 0.851453 0.737285
0.596613 0.823621 0.689357
0.630854 0.833722 0.712566
0.678096 0.839155 0.704143
0.827039 0.883589 0.781674
0.866423 0.90045 0.834684
0.0903334 0.135058 0.391531
0.141161 0.128038 0.460609
0.408072 0.115511 0.495766
0.632486 0.19823 0.562722
0.68307 0.233722 0.615656
0.0906233 0.17499 0.414496
0.0906539 0.147356 0.420188
0.42649 0.135195 0.533104
0.661601 0.213107 0.594659
0.706935 0.256718 0.653941
0.105348 0.536233 0.573739
0.104494 0.53814 0.592325
0.48957 0.567025 0.742824
0.894804 0.553628 0.840131
0.813123 0.376516 0.770703
0.322148 0.740932 0.671855
0.319631 0.747204 0.68484
0.53669 0.800855 0.746334
0.827359 0.857725 0.828809
0.875181 0.837308 0.823453
0.590051 0.836713 0.75346
0.634943 0.847959 0.774227
0.698512 0.862333 0.793164
0.830365 0.892134 0.838437
0.869444 0.905318 0.863584
0.0911727 0.148394 0.435447
0.11458 0.148714 0.469505
0.374914 0.135485 0.539178
0.590799 0.190921 0.594217
0.669932 0.236789 0.65272
0.0907912 0.186435 0.443946
0.0909133 0.174365 0.44329
0.362127 0.13814 0.546273
0.64828 0.219043 0.631037
0.679225 0.244907 0.662394
0.105653 0.532708 0.610071
0.1066 0.535088 0.623407
0.390341 0.553994 0.739956
0.866392 0.574777 0.876295
0.696925 0.259388 0.678859
0.287327 0.722225 0.694118
0.29984 0.730098 0.706676
0.494743 0.779736 0.772366
0.810498 0.849836 0.858488
0.869108 0.827939 0.85922
0.562478 0.830472 0.774563
0.603311 0.842039 0.794965
0.681147 0.861433 0.819043
0.832212 0.896742 0.863828
0.874449 0.907012 0.873075
