bundles/resolve-cinematic-luts/Phantom Luts/A7s3 Phntm Film LUTs - G6/ATOMOS Monitor LUTs/Slog2+Sgamut3cine/EastmanRM A7s3 Sl2sg3c AML.cube
TITLE "Generated by Resolve"
LUT_3D_SIZE 33
0.0940871 0.0894331 0.0903029
0.0943465 0.0892653 0.090013
0.0948653 0.0889143 0.0894789
0.0963607 0.0881971 0.0886244
0.105303 0.0860914 0.0878614
0.132113 0.0833753 0.0867475
0.170184 0.0815747 0.0860914
0.20647 0.080415 0.0863966
0.240452 0.0794232 0.087541
0.27364 0.0780041 0.0890974
0.311513 0.076173 0.0902724
0.348913 0.075227 0.0909285
0.383139 0.0748455 0.0918746
0.412634 0.0749065 0.0935683
0.439078 0.0754101 0.0959945
0.464698 0.0759899 0.0993362
0.488197 0.0764324 0.103319
0.509102 0.0771038 0.107866
0.526879 0.0775616 0.113542
0.543343 0.0793164 0.121386
0.557458 0.0822461 0.130007
0.571969 0.086305 0.141192
0.588724 0.0918593 0.156695
0.60885 0.101381 0.176394
0.632258 0.115389 0.199329
0.66041 0.13431 0.226978
0.691081 0.155367 0.257557
0.719768 0.174807 0.287098
0.747005 0.194308 0.318639
0.769802 0.215 0.354192
0.788907 0.236255 0.390066
0.802258 0.258717 0.426032
0.81236 0.280537 0.458045
0.0944076 0.0892195 0.0899519
0.0944839 0.0891737 0.0898604
0.0948653 0.0889143 0.0894789
0.0963607 0.0881819 0.0886244
0.105455 0.0863203 0.0882429
0.127871 0.0841688 0.0874189
0.162417 0.0825971 0.087541
0.199741 0.0812085 0.0873121
0.236454 0.0798352 0.087892
0.272358 0.0782177 0.0887007
0.310369 0.0763714 0.090135
0.346654 0.0751812 0.091249
0.380423 0.0746929 0.0923323
0.411643 0.0751202 0.0938125
0.440314 0.0755474 0.0956436
0.467247 0.0759594 0.0984512
0.490944 0.076524 0.102541
0.511803 0.0772106 0.107118
0.52929 0.07776 0.112642
0.545174 0.0794537 0.119982
0.559457 0.0823529 0.128237
0.57377 0.0864881 0.139605
0.591394 0.0925612 0.155444
0.611093 0.102007 0.175006
0.634348 0.116106 0.198062
0.66186 0.13463 0.225269
0.691829 0.155322 0.255726
0.719326 0.174029 0.284413
0.745953 0.19353 0.315526
0.76817 0.213489 0.350484
0.786328 0.234226 0.385168
0.798062 0.255161 0.419883
0.807584 0.276677 0.451392
0.0944533 0.0891737 0.0898909
0.0944991 0.0891585 0.0898451
0.0948653 0.0889143 0.0894789
0.0962692 0.0881819 0.0886549
0.104417 0.0869917 0.0883345
0.122225 0.0853132 0.0877394
0.152071 0.0843061 0.088365
0.184878 0.0822919 0.0883955
0.224491 0.0807813 0.0886397
0.265415 0.0788128 0.0890974
0.308125 0.0766461 0.0897536
0.345144 0.0751049 0.0911269
0.378622 0.0746319 0.0923934
0.409461 0.0752575 0.094316
0.438666 0.0757458 0.0964065
0.467018 0.0760815 0.0991073
0.492164 0.0766155 0.102373
0.513634 0.0773175 0.107042
0.530953 0.0778973 0.112383
0.546334 0.0796063 0.119631
0.560647 0.0825818 0.127886
0.575586 0.0869154 0.139742
0.59324 0.0933242 0.155764
0.612573 0.102312 0.174334
0.636133 0.117342 0.197971
0.663432 0.135378 0.224796
0.692912 0.15555 0.254627
0.719371 0.1738 0.282231
0.744823 0.192523 0.312795
0.765957 0.211856 0.346563
0.783658 0.231861 0.381201
0.793515 0.252827 0.41709
0.79942 0.273686 0.448432
0.0930648 0.0914778 0.0915694
0.0928664 0.0917372 0.0918746
0.0929732 0.0915847 0.0916915
0.0941329 0.0908675 0.0910658
0.0990311 0.0906233 0.0898451
0.115175 0.0886702 0.0886549
0.144533 0.0869001 0.0886549
0.176333 0.0856336 0.0895247
0.211154 0.0833448 0.0901045
0.254917 0.0804913 0.0903334
0.304234 0.0777905 0.0901656
0.347921 0.0757763 0.0905928
0.381384 0.074815 0.0917983
0.410834 0.0753643 0.093431
0.44004 0.0758984 0.0960555
0.469245 0.0763867 0.0995956
0.494621 0.0768139 0.102922
0.516472 0.077348 0.107042
0.533913 0.0780041 0.112154
0.548409 0.0797131 0.119387
0.561837 0.0826123 0.127794
0.580072 0.0881056 0.140124
0.597269 0.094789 0.155917
0.617044 0.10457 0.175418
0.640879 0.119936 0.198856
0.668559 0.138003 0.226734
0.696971 0.157717 0.255833
0.723354 0.176318 0.284245
0.749111 0.195132 0.314931
0.770504 0.21474 0.348943
0.787488 0.234836 0.383215
0.795499 0.255772 0.419394
0.801083 0.27776 0.452613
0.0937209 0.113558 0.0943465
0.0932479 0.113405 0.0943008
0.0938735 0.112825 0.0939651
0.0964981 0.112718 0.0941482
0.105226 0.115694 0.0933852
0.132494 0.11223 0.0933242
0.163455 0.108309 0.0918135
0.194232 0.104234 0.0916915
0.223346 0.0995041 0.0925765
0.261952 0.0902876 0.09131
0.309667 0.0829938 0.0905623
0.355291 0.0797131 0.0906081
0.390661 0.0776989 0.0902266
0.418708 0.076936 0.0909895
0.445823 0.0759747 0.0924697
0.472847 0.0765393 0.0962844
0.496239 0.0769818 0.100435
0.51751 0.0775616 0.106096
0.535454 0.0788434 0.111971
0.551293 0.0805524 0.119142
0.564843 0.0833906 0.127016
0.581384 0.0881208 0.139925
0.598962 0.0951247 0.156283
0.622568 0.107317 0.176303
0.647684 0.123629 0.201465
0.674693 0.142107 0.229221
0.70251 0.161501 0.258381
0.728695 0.179614 0.286702
0.754177 0.198154 0.317494
0.775341 0.217945 0.352132
0.791882 0.237888 0.386526
0.799298 0.259724 0.423453
0.803754 0.282124 0.457221
0.0957046 0.147265 0.0988937
0.09514 0.147127 0.0985733
0.0960708 0.14612 0.0975967
0.0996414 0.146715 0.0973831
0.108873 0.153277 0.0996872
0.132586 0.153872 0.0985428
0.172045 0.149203 0.099794
0.209842 0.143145 0.0995956
0.245045 0.136126 0.0973983
0.282368 0.124559 0.0961624
0.319875 0.110719 0.0964828
0.357549 0.0979629 0.0939498
0.393011 0.0883497 0.0916915
0.425208 0.082414 0.0907759
0.453223 0.0788586 0.0908522
0.475242 0.0768444 0.0919356
0.494789 0.0770123 0.0954147
0.511925 0.0775769 0.100252
0.531441 0.0789502 0.107973
0.549142 0.0816968 0.116869
0.566629 0.0852827 0.127047
0.583963 0.0896315 0.140444
0.600809 0.0960555 0.157458
0.620844 0.105959 0.177279
0.652674 0.126299 0.20235
0.679316 0.144717 0.230884
0.7075 0.164416 0.259678
0.734005 0.182986 0.288594
0.759808 0.201724 0.32076
0.780331 0.221271 0.354772
0.79646 0.241627 0.389258
0.801968 0.26331 0.42562
0.806561 0.286748 0.461051
0.0982223 0.1785 0.104479
0.0973068 0.178241 0.103563
0.0998856 0.175311 0.0988479
0.10602 0.176028 0.0975357
0.123232 0.181796 0.100313
0.14786 0.187335 0.101442
0.181094 0.184115 0.0994888
0.22652 0.177386 0.10074
0.273854 0.167529 0.0995499
0.320485 0.153811 0.0980392
0.35761 0.140932 0.0971389
0.384527 0.129397 0.097322
0.412894 0.117021 0.0972
0.440528 0.104295 0.0957046
0.466987 0.0912947 0.0926986
0.487572 0.0850385 0.0931106
0.503761 0.0813916 0.0944839
0.51577 0.0792706 0.097322
0.527977 0.0791485 0.103029
0.539895 0.0803693 0.110155
0.562142 0.0859998 0.122698
0.582956 0.0908522 0.1364
0.605905 0.0989395 0.15697
0.625208 0.109026 0.179797
0.648859 0.125368 0.205798
0.673075 0.142504 0.232837
0.70956 0.166705 0.26186
0.739116 0.186679 0.291463
0.76466 0.205051 0.32221
0.786374 0.224491 0.355795
0.803693 0.244236 0.388769
0.814282 0.266255 0.422492
0.822553 0.288899 0.453758
0.103105 0.205463 0.10605
0.100786 0.205463 0.104921
0.100374 0.204639 0.102281
0.108003 0.204913 0.0992142
0.128618 0.210132 0.100847
0.154498 0.217319 0.102388
0.175616 0.222705 0.102556
0.218738 0.220203 0.102052
0.279881 0.2103 0.101915
0.337911 0.199786 0.103151
0.383825 0.184543 0.104387
0.416999 0.171359 0.102647
0.443565 0.155642 0.103288
0.463706 0.14464 0.104036
0.486534 0.134661 0.103639
0.5075 0.121996 0.103304
0.526345 0.102113 0.0994736
0.537118 0.0931868 0.100862
0.543008 0.0882887 0.103593
0.546014 0.0853285 0.107485
0.555032 0.0851453 0.115755
0.571694 0.0885481 0.126696
0.597467 0.0960403 0.145174
0.628336 0.111467 0.174334
0.655848 0.130526 0.206912
0.677562 0.147234 0.234989
0.702159 0.164767 0.264454
0.739025 0.189258 0.294347
0.76846 0.209201 0.325277
0.790753 0.22858 0.357671
0.808896 0.248707 0.390143
0.819303 0.270985 0.424063
0.82623 0.294453 0.45565
0.102052 0.237049 0.108293
0.0996414 0.236561 0.105638
0.0982528 0.235355 0.102159
0.104326 0.235492 0.0972152
0.124208 0.240833 0.0968185
0.152605 0.250629 0.0994278
0.176226 0.260136 0.100954
0.204898 0.270069 0.102831
0.266773 0.26949 0.104616
0.342214 0.25948 0.104784
0.40383 0.248631 0.10927
0.449348 0.232517 0.113481
0.485252 0.215961 0.115877
0.509499 0.201984 0.117098
0.528267 0.192706 0.119234
0.546029 0.175311 0.119982
0.564279 0.16463 0.119661
0.578195 0.150851 0.119234
0.58352 0.125612 0.112352
0.583413 0.111482 0.115343
0.576272 0.0993973 0.117174
0.578836 0.0945754 0.124529
0.588174 0.0935988 0.133822
0.617502 0.104829 0.156374
0.655085 0.129503 0.192493
0.686763 0.153307 0.230838
0.709117 0.169986 0.264149
0.734447 0.187839 0.296117
0.765225 0.208942 0.328054
0.791302 0.229816 0.359655
0.813703 0.252567 0.389761
0.82475 0.27686 0.424659
0.830869 0.300664 0.456672
0.0999313 0.27396 0.109697
0.0970169 0.273243 0.106706
0.0951095 0.272374 0.102525
0.0968643 0.271702 0.0958724
0.108919 0.277241 0.0936294
0.136233 0.288899 0.097612
0.167941 0.300191 0.100008
0.201389 0.312596 0.10219
0.246235 0.325628 0.105165
0.32488 0.325948 0.106859
0.403983 0.316716 0.105943
0.465446 0.305852 0.113008
0.509575 0.291157 0.118257
0.546746 0.273869 0.127153
0.574716 0.260014 0.131426
0.597299 0.248692 0.136172
0.616205 0.237842 0.140703
0.635386 0.219303 0.145922
0.649271 0.203296 0.14844
0.654887 0.187442 0.148836
0.647288 0.159777 0.139712
0.633997 0.140337 0.140322
0.619593 0.120714 0.140398
0.620432 0.11043 0.148501
0.650294 0.127474 0.175204
0.674372 0.143816 0.203677
0.719829 0.176318 0.253361
0.742794 0.193149 0.291524
0.767987 0.210864 0.326894
0.790036 0.229526 0.361074
0.81474 0.253834 0.391501
0.825101 0.277424 0.427039
0.835706 0.307622 0.455833
0.0994583 0.313817 0.111543
0.0968185 0.313619 0.109361
0.0948959 0.312657 0.105394
0.0947585 0.31165 0.0975814
0.0995651 0.313008 0.0915236
0.12018 0.323796 0.0936141
0.151705 0.33637 0.0974899
0.188983 0.349325 0.0999313
0.235264 0.365026 0.102373
0.295232 0.380713 0.10544
0.384207 0.381537 0.107561
0.461799 0.373129 0.106935
0.521447 0.364187 0.118151
0.564691 0.352209 0.125414
0.600336 0.335195 0.13315
0.632425 0.318898 0.143313
0.657115 0.308049 0.149722
0.674846 0.304173 0.152773
0.696773 0.284047 0.162539
0.715312 0.262699 0.172885
0.724193 0.241398 0.181659
0.722789 0.224582 0.185458
0.708217 0.194949 0.176577
0.689876 0.171344 0.175814
0.676402 0.151583 0.179049
0.676478 0.148608 0.187778
0.703029 0.165835 0.218692
0.752758 0.198795 0.272114
0.777401 0.216159 0.31516
0.798383 0.234714 0.354498
0.816312 0.255482 0.391516
0.825711 0.27808 0.428717
0.835966 0.308583 0.459068
0.0975662 0.352239 0.112352
0.0954147 0.352377 0.111009
0.093904 0.35172 0.107607
0.0935073 0.351293 0.100343
0.0950637 0.351431 0.0940414
0.104143 0.355825 0.0915236
0.129809 0.368719 0.0942397
0.163638 0.381521 0.0975357
0.20911 0.396963 0.100343
0.273213 0.417304 0.103136
0.347524 0.435767 0.106706
0.440757 0.435966 0.110063
0.514946 0.428916 0.11165
0.570199 0.421515 0.125872
0.613046 0.411322 0.138537
0.646845 0.394934 0.145937
0.678767 0.377218 0.156359
0.705623 0.363821 0.164736
0.721202 0.362325 0.168505
0.74229 0.347845 0.177035
0.763546 0.323369 0.192874
0.775372 0.300557 0.208881
0.778515 0.28101 0.219989
0.77499 0.260426 0.224903
0.762249 0.22974 0.217243
0.734462 0.200061 0.212543
0.716869 0.182452 0.210575
0.737133 0.193957 0.235523
0.780865 0.221775 0.282612
0.810925 0.242878 0.332723
0.825803 0.262974 0.378866
0.834852 0.287251 0.421347
0.838437 0.312154 0.459205
0.0958419 0.389563 0.113191
0.0942245 0.390051 0.113115
0.0931411 0.389532 0.110201
0.0930495 0.389593 0.10399
0.0945754 0.390555 0.0987564
0.0977646 0.390784 0.0920729
0.114702 0.398856 0.091249
0.147402 0.411551 0.0933852
0.193652 0.426764 0.0970779
0.254398 0.447074 0.10042
0.325521 0.471473 0.105669
0.403555 0.489677 0.111955
0.494759 0.488975 0.118196
0.561776 0.482628 0.122652
0.614511 0.476677 0.140276
0.654047 0.467201 0.15668
0.68629 0.452674 0.165301
0.715557 0.434562 0.17319
0.742916 0.41825 0.18555
0.758953 0.415885 0.190829
0.77641 0.406134 0.199725
0.795392 0.388968 0.214847
0.809796 0.365667 0.234745
0.815778 0.341268 0.251316
0.814099 0.320623 0.257588
0.805051 0.296651 0.257053
0.794018 0.264408 0.246693
0.772595 0.23534 0.241993
0.775784 0.230167 0.256886
0.80058 0.246677 0.292348
0.837568 0.28275 0.347967
0.843 0.296605 0.398489
0.845365 0.322988 0.444465
0.0946059 0.425666 0.115023
0.0936446 0.426413 0.115434
0.0932479 0.426322 0.112596
0.0937667 0.427497 0.108339
0.0945449 0.428809 0.104143
0.095964 0.428901 0.0976425
0.101015 0.430076 0.0910353
0.129564 0.440787 0.0918746
0.17435 0.454582 0.0949722
0.23917 0.474083 0.100282
0.311147 0.499977 0.107744
0.383032 0.524483 0.115496
0.460655 0.54049 0.124697
0.543069 0.538735 0.133104
0.604822 0.531746 0.139315
0.654658 0.526497 0.159792
0.691127 0.518364 0.179049
0.720073 0.503975 0.19144
0.74583 0.487022 0.199481
0.772717 0.469871 0.215
0.786465 0.466865 0.222263
0.802365 0.458686 0.231708
0.816861 0.447211 0.243519
0.830625 0.429557 0.259678
0.837751 0.407385 0.273854
0.836912 0.383032 0.279957
0.831144 0.360327 0.278492
0.825818 0.338659 0.278218
0.817319 0.311666 0.277852
0.813031 0.285267 0.278065
0.819074 0.285023 0.30074
0.844648 0.318517 0.357641
0.851316 0.343236 0.409995
0.0955062 0.462165 0.124285
0.0948653 0.463172 0.124895
0.0946059 0.463737 0.123278
0.0952163 0.464591 0.119066
0.0957504 0.465827 0.11519
0.0969406 0.466316 0.109178
0.0997177 0.46595 0.0995956
0.11371 0.469459 0.09308
0.158434 0.482155 0.0959487
0.221912 0.498558 0.102113
0.297581 0.524208 0.11223
0.373098 0.552316 0.124346
0.439384 0.573388 0.133577
0.513115 0.586648 0.143954
0.587228 0.583749 0.154482
0.644694 0.576455 0.163134
0.691188 0.572076 0.184817
0.725643 0.564019 0.210147
0.751598 0.550484 0.228214
0.773419 0.534874 0.236011
0.794949 0.517067 0.246387
0.808103 0.513558 0.253178
0.820249 0.506981 0.265095
0.831998 0.498177 0.273655
0.841596 0.486458 0.282185
0.847501 0.470527 0.28954
0.847776 0.451484 0.291936
0.846448 0.42594 0.293736
0.844038 0.40502 0.2934
0.840818 0.37966 0.295979
0.836027 0.353964 0.30135
0.836851 0.345037 0.320714
0.850553 0.362081 0.36553
0.0992905 0.497963 0.143908
0.0986038 0.499535 0.144274
0.0983291 0.500343 0.144106
0.0984512 0.50071 0.139712
0.0988022 0.501305 0.13547
0.0997177 0.502358 0.129519
0.10219 0.50277 0.119539
0.109819 0.502541 0.106691
0.140291 0.509377 0.101045
0.207019 0.522957 0.105165
0.281804 0.54464 0.116915
0.361837 0.574441 0.133089
0.429191 0.599832 0.147875
0.49012 0.618051 0.15906
0.558206 0.630045 0.169024
0.626596 0.626291 0.17969
0.681071 0.61915 0.191257
0.724926 0.614908 0.219516
0.756588 0.606882 0.250629
0.780346 0.594553 0.271382
0.797833 0.580621 0.278096
0.815213 0.564126 0.283818
0.82649 0.558694 0.287343
0.836194 0.552056 0.294377
0.844099 0.543496 0.30341
0.848661 0.533883 0.307317
0.851102 0.522942 0.307454
0.851011 0.509438 0.305089
0.851469 0.491356 0.303365
0.850919 0.467552 0.303563
0.851682 0.445167 0.307286
0.8486 0.419989 0.31574
0.847044 0.406897 0.338888
0.106783 0.531899 0.174502
0.104799 0.533684 0.177691
0.103929 0.535149 0.178607
0.104097 0.535912 0.174914
0.104845 0.536355 0.168368
0.106676 0.536568 0.158419
0.109331 0.537072 0.148806
0.1149 0.536278 0.132326
0.132219 0.53724 0.117067
0.189944 0.546822 0.113542
0.27013 0.564813 0.123079
0.350698 0.592889 0.142046
0.425193 0.62266 0.16231
0.480949 0.643671 0.177356
0.535683 0.660548 0.190692
0.598962 0.671016 0.201526
0.662791 0.666743 0.213489
0.714015 0.659922 0.231159
0.755322 0.655116 0.263462
0.784726 0.647791 0.295109
0.804593 0.636545 0.316167
0.81857 0.62504 0.323339
0.830564 0.611399 0.326787
0.840162 0.604501 0.325765
0.847852 0.598917 0.327504
0.852506 0.589883 0.328511
0.854047 0.57882 0.328695
0.853574 0.566705 0.327459
0.853132 0.553964 0.327047
0.853346 0.53901 0.323247
0.853986 0.52163 0.318883
0.851911 0.503441 0.320958
0.848646 0.482109 0.331106
0.11902 0.563516 0.210117
0.116091 0.566003 0.215656
0.113924 0.567987 0.219211
0.113985 0.568689 0.216373
0.114611 0.569131 0.211246
0.116945 0.568734 0.200183
0.120562 0.568276 0.186923
0.126406 0.567758 0.171862
0.138018 0.566461 0.149142
0.17464 0.569574 0.132204
0.254932 0.5841 0.13518
0.33904 0.609461 0.154665
0.419364 0.641245 0.179126
0.480644 0.666651 0.198245
0.527291 0.684977 0.215915
0.577401 0.70016 0.232349
0.636622 0.709438 0.24538
0.695781 0.706142 0.259449
0.74377 0.698299 0.278279
0.78204 0.693431 0.30869
0.809094 0.686229 0.33933
0.825666 0.676341 0.361578
0.836362 0.666224 0.37261
0.844862 0.655421 0.377844
0.851225 0.650553 0.377249
0.854688 0.647639 0.372854
0.855741 0.640574 0.367529
0.856123 0.629358 0.361807
0.856107 0.616007 0.356039
0.855634 0.600885 0.350729
0.856016 0.584451 0.347204
0.853101 0.567742 0.347326
0.84863 0.553048 0.351568
0.138628 0.59353 0.248005
0.134585 0.596094 0.254948
0.131563 0.598367 0.259846
0.131365 0.59942 0.259205
0.132158 0.599924 0.255543
0.134936 0.59913 0.245045
0.139528 0.597955 0.230869
0.145922 0.596872 0.216114
0.156634 0.594659 0.195377
0.180499 0.5944 0.171588
0.240635 0.602747 0.159747
0.326024 0.624063 0.173999
0.405692 0.65359 0.199313
0.475563 0.683314 0.223728
0.527214 0.705318 0.244831
0.56939 0.721691 0.26421
0.615854 0.735943 0.281239
0.671107 0.744961 0.296071
0.726116 0.742641 0.309239
0.770016 0.734585 0.326101
0.80499 0.729503 0.354894
0.829694 0.722911 0.386572
0.844114 0.71426 0.411688
0.85272 0.706142 0.424033
0.857816 0.697292 0.429572
0.860822 0.693523 0.430243
0.862013 0.693355 0.426062
0.861234 0.688563 0.4206
0.860243 0.679744 0.414527
0.858885 0.668528 0.405692
0.858228 0.653895 0.395346
0.85626 0.636484 0.388617
0.851957 0.618936 0.386938
0.166476 0.621836 0.285817
0.162142 0.624369 0.292912
0.159106 0.626856 0.299504
0.158984 0.627848 0.300008
0.160143 0.628107 0.297276
0.162875 0.627008 0.288579
0.167239 0.625162 0.27483
0.173816 0.622644 0.257771
0.182116 0.621012 0.242329
0.195163 0.61799 0.217441
0.237186 0.622309 0.198459
0.31397 0.638071 0.200778
0.393896 0.663661 0.222736
0.463569 0.692882 0.249195
0.52221 0.718959 0.27245
0.567895 0.738582 0.293217
0.607141 0.753811 0.311772
0.651759 0.766949 0.330129
0.702953 0.77557 0.344808
0.753552 0.774105 0.357931
0.792813 0.766522 0.375479
0.825269 0.761929 0.405707
0.847639 0.755627 0.438788
0.860502 0.748867 0.461936
0.866804 0.742657 0.474693
0.869978 0.736812 0.482872
0.869474 0.734157 0.483116
0.870237 0.734707 0.47924
0.869322 0.730922 0.474403
0.867979 0.723751 0.469062
0.866636 0.714473 0.461906
0.863035 0.703166 0.454078
0.858747 0.690105 0.447883
0.19646 0.646677 0.323827
0.193668 0.648569 0.328298
0.191318 0.651072 0.334264
0.190799 0.652262 0.335882
0.190997 0.652506 0.334524
0.193515 0.651255 0.327398
0.197208 0.64918 0.315328
0.202396 0.64651 0.298817
0.210224 0.643656 0.280156
0.220203 0.642084 0.263722
0.24445 0.642161 0.242664
0.302586 0.652155 0.233234
0.380545 0.672709 0.246494
0.449165 0.698344 0.271244
0.511452 0.72607 0.296834
0.562951 0.749462 0.319661
0.60415 0.766964 0.339178
0.642649 0.781704 0.358587
0.68397 0.793622 0.375555
0.732296 0.80209 0.391119
0.777737 0.801129 0.405005
0.812818 0.79527 0.429389
0.842145 0.790234 0.460639
0.862837 0.784268 0.490028
0.872755 0.778149 0.510689
0.876295 0.773709 0.522911
0.876982 0.770047 0.530007
0.876844 0.76788 0.531258
0.877363 0.768551 0.525826
0.877638 0.765698 0.520607
0.877043 0.760159 0.514763
0.87628 0.752865 0.508141
0.87454 0.743343 0.500557
0.231983 0.6654 0.344625
0.230152 0.66656 0.346517
0.227146 0.668849 0.353506
0.225864 0.670283 0.357458
0.225177 0.671153 0.358068
0.227024 0.670375 0.352209
0.229953 0.668727 0.34255
0.234974 0.666163 0.328634
0.242145 0.663401 0.311025
0.252491 0.661509 0.292821
0.26949 0.662181 0.278416
0.307988 0.667704 0.2645
0.376059 0.683787 0.26717
0.444373 0.706752 0.288609
0.505653 0.73254 0.314839
0.561273 0.757824 0.339071
0.606729 0.778347 0.360433
0.64477 0.794003 0.379431
0.680537 0.80705 0.397147
0.720317 0.81799 0.41503
0.763775 0.825101 0.432029
0.801999 0.824231 0.450721
0.832441 0.818738 0.477592
0.859068 0.813886 0.505211
0.875761 0.80798 0.53051
0.883375 0.802884 0.548745
0.885863 0.799176 0.559167
0.885466 0.796551 0.566659
0.884703 0.795102 0.568689
0.884138 0.795819 0.565728
0.883574 0.793988 0.562646
0.883101 0.789593 0.558679
0.882536 0.783642 0.552819
0.259678 0.683772 0.371359
0.258579 0.684627 0.373037
0.255375 0.686824 0.379446
0.253574 0.688579 0.383749
0.252964 0.689494 0.385183
0.254566 0.688838 0.380667
0.257481 0.687327 0.372808
0.261219 0.685161 0.360754
0.266865 0.68249 0.345083
0.277745 0.680766 0.328664
0.294392 0.681498 0.314366
0.316396 0.683711 0.301732
0.369665 0.694392 0.299107
0.432334 0.712093 0.312123
0.491218 0.733669 0.336675
0.545861 0.757351 0.364263
0.595239 0.780468 0.389227
0.6374 0.799237 0.411383
0.675441 0.814649 0.431388
0.712032 0.827482 0.451621
0.750256 0.838087 0.470497
0.78764 0.844739 0.489418
0.818692 0.842985 0.509133
0.845747 0.839063 0.535103
0.867842 0.834272 0.558892
0.881239 0.829526 0.579751
0.886687 0.826032 0.595514
0.887587 0.823774 0.604242
0.886717 0.820859 0.610361
0.886412 0.819959 0.611933
0.886183 0.820447 0.607446
0.886458 0.818631 0.603937
0.886915 0.814771 0.598947
0.285084 0.699275 0.392859
0.283787 0.700191 0.395056
0.280507 0.70193 0.401068
0.27837 0.703395 0.404929
0.277272 0.704265 0.406821
0.278096 0.70396 0.403388
0.280507 0.702754 0.396933
0.283665 0.700984 0.387213
0.288838 0.698833 0.374182
0.299886 0.697688 0.35964
0.317586 0.698695 0.346716
0.338338 0.700832 0.336477
0.375463 0.708476 0.337575
0.427466 0.720165 0.345449
0.483497 0.737179 0.365972
0.536217 0.757427 0.392584
0.585504 0.779522 0.420691
0.629709 0.799985 0.446632
0.670756 0.817945 0.470207
0.708659 0.833143 0.491325
0.744213 0.845243 0.510765
0.777996 0.854719 0.528588
0.808133 0.86009 0.546151
0.833814 0.858671 0.564401
0.855909 0.855848 0.58822
0.872892 0.851896 0.608835
0.882124 0.848707 0.627619
0.884916 0.846387 0.641291
0.884581 0.844678 0.648966
0.884504 0.843381 0.656046
0.884382 0.843366 0.655711
0.884871 0.843244 0.65069
0.885756 0.840818 0.645121
0.304631 0.712489 0.413123
0.304265 0.712825 0.413092
0.302281 0.714458 0.41825
0.299901 0.715999 0.422873
0.298421 0.716869 0.424384
0.299077 0.716655 0.421759
0.300938 0.715557 0.416754
0.303258 0.713985 0.408225
0.310216 0.713069 0.398489
0.32137 0.712505 0.386847
0.339635 0.714092 0.376303
0.363668 0.71693 0.368505
0.39379 0.72253 0.371435
0.432837 0.730602 0.380804
0.4822 0.743313 0.396948
0.534401 0.760845 0.422538
0.583734 0.780453 0.450599
0.629664 0.801343 0.479149
0.667964 0.818845 0.504067
0.706127 0.835447 0.527352
0.742031 0.849363 0.548775
0.773281 0.859846 0.566293
0.800046 0.867414 0.581048
0.824811 0.872038 0.597772
0.846204 0.871015 0.61529
0.864332 0.868818 0.638025
0.87541 0.86656 0.656184
0.880888 0.864424 0.671702
0.88101 0.863462 0.683131
0.880308 0.862898 0.691157
0.880308 0.862058 0.696468
0.880461 0.862394 0.693141
0.881422 0.861646 0.687388
0.31931 0.72462 0.43386
0.320729 0.72401 0.431205
0.318746 0.724865 0.433326
0.317159 0.725826 0.436484
0.315129 0.72665 0.438392
0.315572 0.72639 0.436072
0.317342 0.725612 0.43183
0.322576 0.725185 0.425467
0.33051 0.724895 0.41854
0.340169 0.724254 0.409308
0.358755 0.72549 0.401205
0.386282 0.729183 0.398886
0.417212 0.734462 0.403464
0.446601 0.74078 0.413306
0.488609 0.750652 0.428977
0.53698 0.764843 0.451286
0.585657 0.782605 0.478401
0.63032 0.801526 0.506157
0.670634 0.819944 0.533089
0.704128 0.835096 0.556374
0.740322 0.850202 0.580087
0.770932 0.861372 0.598901
0.796277 0.86949 0.612024
0.818143 0.875471 0.625727
0.838026 0.87953 0.642191
0.856626 0.879927 0.661952
0.868666 0.879057 0.682139
0.875151 0.878477 0.698207
0.876173 0.87834 0.711513
0.876005 0.878126 0.721736
0.875944 0.877943 0.728466
0.876081 0.877653 0.732357
0.876173 0.877913 0.72697
0.325475 0.732601 0.452384
0.32639 0.732265 0.449683
0.326741 0.732097 0.448341
0.326772 0.731975 0.447364
0.326177 0.732006 0.44715
0.327031 0.731609 0.445197
0.330327 0.73138 0.441779
0.335668 0.730953 0.437125
0.342763 0.730358 0.43093
0.356832 0.730983 0.425254
0.380316 0.733913 0.424674
0.409751 0.73846 0.427649
0.43917 0.743755 0.433509
0.469383 0.750317 0.443976
0.501488 0.75819 0.458961
0.543008 0.76968 0.47895
0.588876 0.784497 0.503914
0.6327 0.801846 0.530953
0.672099 0.819211 0.557519
0.705943 0.834653 0.581094
0.738537 0.848692 0.604288
0.768917 0.8607 0.624323
0.793744 0.869505 0.638376
0.814389 0.876005 0.650462
0.831785 0.880827 0.663172
0.847181 0.882475 0.676844
0.863508 0.884581 0.698268
