bundles/resolve-cinematic-luts/Phantom Luts/A7s3 Phntm Film LUTs - G6/ATOMOS Monitor LUTs/Slog2+Sgamut3cine/Eastman A7s3 Sl2sg3c AML.cube
TITLE "Generated by Resolve"
LUT_3D_SIZE 5
0.0896468 0.0875105 0.0875105
0.215686 0.0875715 0.0875715
0.421042 0.0893568 0.0948501
0.566445 0.105715 0.193896
0.72108 0.232578 0.399481
0.113848 0.239368 0.129335
0.273381 0.27332 0.126665
0.535698 0.222797 0.146593
0.594018 0.175357 0.134096
0.733577 0.250767 0.377279
0.190433 0.584817 0.306538
0.232563 0.584619 0.225284
0.5888 0.608408 0.203861
0.785718 0.592493 0.317586
0.807874 0.53753 0.332036
0.31043 0.789899 0.490486
0.327855 0.770871 0.427634
0.588205 0.783093 0.39266
0.750561 0.775982 0.412375
0.821714 0.765225 0.50869
0.467689 0.820752 0.586999
0.476295 0.814542 0.56141
0.609476 0.825437 0.580438
0.75967 0.840986 0.606989
0.848402 0.8486 0.664134
0.0876173 0.0876173 0.13933
0.202335 0.087541 0.161318
0.40322 0.0875868 0.214603
0.549844 0.115145 0.271962
0.700236 0.232319 0.429862
0.107286 0.242069 0.200107
0.290974 0.29099 0.288533
0.531395 0.167773 0.217426
0.600458 0.13608 0.246067
0.751034 0.288472 0.45391
0.205676 0.61445 0.40058
0.205356 0.591012 0.331197
0.583383 0.605264 0.261814
0.787945 0.574594 0.361135
0.808637 0.476265 0.392691
0.322499 0.803647 0.540856
0.312398 0.787259 0.494636
0.562676 0.780941 0.408408
0.747845 0.773495 0.407965
0.825467 0.763409 0.523964
0.472313 0.829557 0.610697
0.470375 0.820783 0.583749
0.585504 0.824521 0.579828
0.755245 0.841413 0.608469
0.844419 0.847425 0.660639
0.0876478 0.0943923 0.283558
0.213016 0.087541 0.339422
0.403891 0.0874952 0.338689
0.560586 0.125124 0.401114
0.62829 0.17055 0.460029
0.0875105 0.193896 0.338323
0.132784 0.175189 0.413077
0.454795 0.105318 0.383948
0.583825 0.135454 0.415274
0.703792 0.224887 0.523583
0.198016 0.630426 0.527169
0.214313 0.634165 0.538293
0.614038 0.636271 0.617273
0.791348 0.526421 0.552911
0.796658 0.425849 0.530495
0.335607 0.835431 0.644862
0.340337 0.830167 0.632624
0.54313 0.792935 0.606378
0.766598 0.798535 0.603418
0.843366 0.762997 0.603586
0.501442 0.865202 0.686824
0.504158 0.853147 0.670069
0.526299 0.829129 0.620966
0.745144 0.852628 0.654795
0.84651 0.850462 0.669093
0.0875563 0.104311 0.373999
0.19324 0.093843 0.439963
0.407813 0.0886091 0.431586
0.567788 0.144808 0.48603
0.621012 0.17435 0.527276
0.0875868 0.161959 0.406516
0.087541 0.120394 0.427985
0.440146 0.110323 0.486763
0.595605 0.159701 0.513451
0.631266 0.183658 0.545678
0.176394 0.615274 0.611566
0.174929 0.610468 0.624216
0.536568 0.601129 0.753231
0.794553 0.515526 0.71989
0.791241 0.384161 0.683268
0.32372 0.832486 0.724529
0.327535 0.830915 0.725261
0.572152 0.836698 0.76849
0.79173 0.816541 0.791485
0.861021 0.759518 0.762356
0.491814 0.908339 0.773007
0.51458 0.906767 0.772091
0.584085 0.895445 0.767452
0.76672 0.884764 0.798276
0.871351 0.893828 0.810254
0.0874037 0.114046 0.43212
0.161135 0.108934 0.486259
0.399496 0.10135 0.500893
0.554559 0.14403 0.524376
0.619242 0.178363 0.56585
0.0873732 0.171908 0.446326
0.0874495 0.13518 0.438132
0.403189 0.112627 0.531182
0.598138 0.166659 0.554177
0.626291 0.183886 0.572747
0.177462 0.611368 0.656596
0.174975 0.600717 0.666346
0.484398 0.595026 0.796201
0.787625 0.514 0.789273
0.781826 0.350942 0.72137
0.291447 0.812055 0.747646
0.30219 0.811841 0.757794
0.523644 0.828656 0.830686
0.753567 0.799451 0.852064
0.860548 0.746746 0.833005
0.449744 0.909346 0.814481
0.47982 0.91429 0.823651
0.574701 0.919356 0.843107
0.776165 0.899626 0.860883
0.879301 0.901335 0.87393
