bundles/resolve-cinematic-luts/Phantom Luts/A7s3 Phntm Film LUTs - G6/ATOMOS Monitor LUTs/Slog2+Sgamut3cine/Eastman A7s3 Sl2sg3c AML.cube
TITLE "Generated by Resolve"
LUT_3D_SIZE 33
0.0896468 0.0875105 0.0875105
0.0896468 0.0875105 0.0875105
0.0896468 0.0875105 0.0875105
0.0903182 0.0875105 0.0875105
0.102724 0.087602 0.087602
0.126192 0.0875257 0.0875257
0.153124 0.0874952 0.0874952
0.182193 0.0874495 0.0874495
0.215686 0.0875715 0.0875715
0.248615 0.0875715 0.0875715
0.278874 0.0876326 0.0876326
0.306767 0.0885786 0.0875868
0.331899 0.087602 0.0893568
0.355749 0.08748 0.0908217
0.378744 0.0876173 0.0922103
0.400534 0.087602 0.093431
0.421042 0.0893568 0.0948501
0.440482 0.0904097 0.0962539
0.459556 0.0902876 0.0985428
0.477409 0.0876478 0.101518
0.494331 0.0875257 0.106813
0.510536 0.0875105 0.120363
0.527291 0.087602 0.142199
0.546578 0.0948196 0.167865
0.566445 0.105715 0.193896
0.589166 0.119112 0.221881
0.613336 0.134295 0.250935
0.636347 0.1505 0.279698
0.657618 0.166308 0.307256
0.673228 0.182315 0.331579
0.689021 0.199802 0.356466
0.704234 0.216449 0.378775
0.72108 0.232578 0.399481
0.0889143 0.0875105 0.0875105
0.0893721 0.0875105 0.0875105
0.089662 0.0875105 0.0875105
0.0906233 0.0875105 0.0875105
0.101289 0.087602 0.087602
0.121111 0.08748 0.08748
0.147585 0.0874495 0.0874495
0.176104 0.0876326 0.0876326
0.210071 0.0876478 0.0876478
0.244678 0.0876326 0.0876326
0.275227 0.0876326 0.0876326
0.303288 0.089601 0.0875868
0.330419 0.0905318 0.0886244
0.354498 0.0896773 0.0901808
0.377798 0.0892348 0.091371
0.399741 0.0911574 0.0927596
0.421439 0.0934005 0.0942702
0.441581 0.0957504 0.0957046
0.460777 0.0968643 0.0976577
0.478447 0.0961929 0.0999466
0.49601 0.0930343 0.103334
0.512093 0.0876326 0.109499
0.52932 0.0875868 0.126085
0.547967 0.09514 0.154131
0.567468 0.106096 0.181598
0.589334 0.118761 0.209979
0.613169 0.133867 0.240253
0.635157 0.149004 0.268772
0.655726 0.164584 0.296544
0.671611 0.18056 0.322957
0.686183 0.196979 0.347112
0.701656 0.214191 0.370336
0.71812 0.229206 0.390738
0.0890364 0.0875105 0.0875105
0.0894789 0.0875105 0.0875105
0.0899214 0.0875105 0.0875105
0.0910964 0.0875105 0.0875105
0.0991989 0.0875563 0.0875563
0.116152 0.08748 0.08748
0.140002 0.0876173 0.0876173
0.167437 0.0875868 0.0877546
0.20235 0.087602 0.087602
0.239384 0.0876173 0.0876173
0.272541 0.0884413 0.0875715
0.301167 0.0897688 0.087541
0.327794 0.0909285 0.0883803
0.353491 0.0910658 0.0899367
0.37673 0.0908064 0.0909743
0.399573 0.0926223 0.0926223
0.421363 0.0954452 0.0939803
0.441321 0.0980087 0.0952926
0.46067 0.0991073 0.0971389
0.479118 0.0992599 0.0995499
0.497047 0.0966506 0.102861
0.514412 0.0935225 0.10898
0.53283 0.0902876 0.121187
0.55169 0.0971847 0.147555
0.57145 0.108186 0.175326
0.593683 0.121752 0.204456
0.616602 0.135988 0.234714
0.63888 0.151522 0.264836
0.658854 0.167041 0.293736
0.674739 0.182727 0.319768
0.690059 0.199847 0.345617
0.701686 0.217365 0.368292
0.71162 0.234958 0.387778
0.0896773 0.0875105 0.0878767
0.0897536 0.0875105 0.0875563
0.0910048 0.0875105 0.0875105
0.0954452 0.0875563 0.0875563
0.103822 0.087602 0.0885939
0.120668 0.08748 0.0904402
0.143816 0.0875563 0.0918593
0.169436 0.0898909 0.0919203
0.202396 0.0910658 0.0879835
0.240589 0.0912795 0.0873884
0.275486 0.094255 0.0875715
0.305318 0.0965286 0.0875257
0.330922 0.0970016 0.0875715
0.355642 0.0977951 0.0885939
0.38085 0.0979324 0.0902876
0.407141 0.0993515 0.092134
0.427939 0.101656 0.0933394
0.447349 0.103731 0.0946975
0.465873 0.104921 0.0965133
0.483452 0.105592 0.0988632
0.500114 0.102724 0.101946
0.516838 0.0975357 0.108324
0.537118 0.0996109 0.121035
0.55404 0.0983444 0.143526
0.577935 0.112428 0.17023
0.599863 0.125414 0.200229
0.623728 0.140383 0.232136
0.643397 0.155154 0.262638
0.662562 0.170169 0.291264
0.679026 0.186389 0.319203
0.693294 0.202426 0.344579
0.704356 0.220554 0.367422
0.714717 0.238178 0.387549
0.0984817 0.110643 0.0994583
0.0979477 0.109255 0.0981003
0.0996872 0.108278 0.0973831
0.106188 0.110979 0.0987259
0.118868 0.113573 0.0983749
0.139971 0.112215 0.0984207
0.16347 0.109133 0.0996872
0.191196 0.107439 0.0977951
0.219623 0.106661 0.09308
0.251896 0.106172 0.08748
0.282292 0.105791 0.087541
0.309819 0.105226 0.0875105
0.334905 0.10602 0.0874342
0.358663 0.10695 0.0876783
0.382605 0.107179 0.0892195
0.405661 0.108293 0.090547
0.424521 0.109575 0.0918593
0.446647 0.11339 0.093019
0.469261 0.11696 0.095079
0.490089 0.119707 0.0973831
0.506401 0.118456 0.100435
0.523827 0.111818 0.10782
0.539742 0.10428 0.120394
0.556207 0.0996872 0.140276
0.574701 0.110079 0.172503
0.602609 0.128099 0.199252
0.629099 0.144381 0.229404
0.649149 0.159228 0.260868
0.667597 0.174197 0.289891
0.682979 0.189441 0.317067
0.697581 0.206256 0.343267
0.708568 0.224033 0.365927
0.717372 0.241627 0.385458
0.102541 0.138689 0.106798
0.102159 0.137057 0.105226
0.103792 0.135683 0.103182
0.112413 0.138277 0.104158
0.128115 0.143786 0.105913
0.146105 0.143359 0.104143
0.173587 0.141115 0.103838
0.209369 0.134539 0.105241
0.244373 0.129854 0.102831
0.277882 0.125246 0.0975814
0.301457 0.123644 0.0933089
0.324941 0.122057 0.0893568
0.347646 0.121813 0.088716
0.368307 0.12079 0.0888533
0.387549 0.118746 0.089128
0.405249 0.118379 0.0897841
0.423941 0.118975 0.0906691
0.444343 0.120211 0.0917678
0.463523 0.122606 0.0933547
0.481376 0.126299 0.0944533
0.505791 0.132479 0.0979171
0.526177 0.130861 0.104601
0.54902 0.127749 0.1205
0.565927 0.119432 0.137087
0.582742 0.115633 0.164172
0.603906 0.12932 0.198749
0.629664 0.145861 0.228733
0.647684 0.159564 0.261067
0.669261 0.176883 0.286915
0.688411 0.194186 0.313573
0.70248 0.210208 0.338994
0.712276 0.22829 0.361837
0.721416 0.246082 0.382742
0.105089 0.1673 0.113405
0.104448 0.165148 0.11104
0.108644 0.161776 0.106065
0.11957 0.16466 0.106325
0.141222 0.172244 0.109682
0.158785 0.17821 0.111315
0.18265 0.176318 0.109697
0.219501 0.172183 0.108568
0.266255 0.163607 0.11075
0.30779 0.154681 0.109758
0.336797 0.150805 0.107317
0.359976 0.146273 0.102739
0.378805 0.14461 0.099443
0.397879 0.144015 0.0958724
0.41474 0.143114 0.0931106
0.429541 0.143145 0.0922408
0.44332 0.141283 0.0920272
0.453407 0.135912 0.092195
0.469429 0.135225 0.092958
0.48542 0.135622 0.0938125
0.503426 0.137057 0.0953231
0.523735 0.140215 0.0987716
0.542458 0.140627 0.10634
0.569467 0.140368 0.128023
0.595651 0.133211 0.154345
0.614954 0.134554 0.188464
0.633768 0.147005 0.224826
0.649226 0.159274 0.258625
0.671626 0.177218 0.285039
0.692119 0.195285 0.311543
0.710933 0.214313 0.333654
0.722255 0.230945 0.357015
0.73138 0.248249 0.378058
0.108293 0.200214 0.118944
0.107454 0.197421 0.114168
0.107897 0.194705 0.109804
0.118547 0.197757 0.108095
0.144564 0.206134 0.112657
0.166003 0.214649 0.116075
0.186389 0.221714 0.118059
0.22237 0.220508 0.115953
0.268193 0.216403 0.115007
0.318776 0.21001 0.120089
0.361868 0.196887 0.125765
0.395163 0.189639 0.124178
0.419699 0.183246 0.122072
0.437095 0.181155 0.120668
0.454307 0.177447 0.116777
0.470375 0.175448 0.113512
0.48368 0.174212 0.110491
0.496056 0.173648 0.108248
0.503258 0.171252 0.10486
0.509972 0.164874 0.101305
0.514641 0.157733 0.0976272
0.531029 0.156008 0.100633
0.543938 0.153048 0.10399
0.559228 0.15227 0.112535
0.589441 0.154742 0.138338
0.622995 0.15407 0.171405
0.641245 0.153613 0.204135
0.658259 0.167056 0.243748
0.673457 0.1794 0.279545
0.689632 0.19408 0.312795
0.711482 0.215381 0.331975
0.725078 0.234424 0.351995
0.736248 0.253651 0.370565
0.113848 0.239368 0.129335
0.112535 0.236423 0.122698
0.112047 0.233478 0.117388
0.120607 0.235233 0.113024
0.145388 0.24506 0.117556
0.172656 0.255848 0.123796
0.198062 0.265965 0.128084
0.227192 0.274022 0.129091
0.273381 0.27332 0.126665
0.323247 0.269383 0.124178
0.372122 0.264958 0.129732
0.416754 0.255238 0.1393
0.452171 0.242695 0.146044
0.479576 0.236393 0.147158
0.500359 0.2318 0.147814
0.518273 0.226535 0.147204
0.535698 0.222797 0.146593
0.550378 0.217594 0.145617
0.563104 0.215579 0.144823
0.571649 0.212161 0.14313
0.57731 0.208331 0.141085
0.579324 0.201816 0.138643
0.583139 0.192813 0.133242
0.585016 0.182727 0.128588
0.594018 0.175357 0.134096
0.611475 0.172244 0.15053
0.642191 0.17705 0.180529
0.665263 0.174136 0.211337
0.683238 0.188724 0.257603
0.6972 0.201526 0.29575
0.711055 0.215793 0.328237
0.72134 0.230945 0.357092
0.733577 0.250767 0.377279
0.123537 0.286046 0.14667
0.120974 0.282963 0.139651
0.118868 0.281117 0.132967
0.122667 0.28101 0.12462
0.14023 0.288411 0.126604
0.172427 0.300145 0.133104
0.204868 0.310674 0.138888
0.238376 0.320211 0.140078
0.274937 0.32723 0.137697
0.325139 0.325582 0.133928
0.374792 0.32163 0.130022
0.421714 0.318776 0.136095
0.465858 0.31313 0.147387
0.504616 0.303593 0.15967
0.534859 0.293141 0.168688
0.560113 0.287526 0.170474
0.579309 0.285466 0.172305
0.597192 0.280598 0.173129
0.614282 0.272053 0.17528
0.627787 0.26479 0.175769
0.639185 0.25951 0.177157
0.649104 0.25626 0.179599
0.652949 0.250446 0.180606
0.654948 0.244816 0.182528
0.653468 0.232181 0.179385
0.654826 0.219547 0.177371
0.645121 0.20293 0.172656
0.652689 0.197192 0.18381
0.673579 0.195285 0.209674
0.709178 0.214603 0.259083
0.71902 0.225086 0.300786
0.728496 0.239399 0.334844
0.736904 0.255131 0.36492
0.135286 0.332937 0.164736
0.132433 0.330556 0.1579
0.129702 0.328954 0.150515
0.128756 0.327443 0.140261
0.138766 0.330953 0.137224
0.164218 0.342046 0.142351
0.199374 0.353979 0.148608
0.237736 0.363302 0.151049
0.279622 0.371679 0.146838
0.32253 0.377859 0.141344
0.373281 0.375402 0.138125
0.421241 0.370733 0.133654
0.466224 0.368673 0.13901
0.509575 0.366674 0.152056
0.549172 0.360922 0.167849
0.583001 0.35201 0.179889
0.610483 0.340581 0.189807
0.630274 0.338262 0.191653
0.648341 0.335744 0.19379
0.669032 0.32781 0.197757
0.68542 0.317922 0.201572
0.698131 0.308904 0.206287
0.70779 0.304479 0.208331
0.714199 0.298589 0.210727
0.717998 0.292744 0.213138
0.719341 0.285405 0.215915
0.710994 0.275639 0.21799
0.698085 0.255604 0.21355
0.689326 0.237613 0.209842
0.690486 0.226871 0.217426
0.725673 0.248219 0.259129
0.738125 0.252537 0.29453
0.746059 0.268482 0.334966
0.143587 0.377905 0.18143
0.140963 0.376135 0.175341
0.138689 0.374914 0.167514
0.138857 0.375097 0.159762
0.141848 0.375021 0.151812
0.158419 0.381201 0.151278
0.190402 0.394125 0.156771
0.230533 0.405753 0.161257
0.277668 0.412711 0.156832
0.31957 0.419211 0.148653
0.366567 0.424308 0.141634
0.416831 0.421164 0.140978
0.463264 0.415564 0.13727
0.50634 0.41471 0.143557
0.547509 0.414099 0.157946
0.58616 0.410407 0.176394
0.618418 0.404776 0.189899
0.647074 0.395026 0.202838
0.669398 0.388571 0.21268
0.686137 0.387472 0.218036
0.706813 0.379721 0.22208
0.724376 0.371878 0.227604
0.739513 0.36286 0.233509
0.750439 0.354757 0.237552
0.758556 0.345632 0.242008
0.763241 0.338277 0.242817
0.759533 0.328588 0.242557
0.75256 0.318441 0.239704
0.742687 0.307088 0.239292
0.728634 0.293599 0.240345
0.723949 0.280934 0.245457
0.734096 0.28275 0.263951
0.750607 0.290852 0.297093
0.150927 0.42211 0.200031
0.148791 0.420478 0.193668
0.147341 0.419471 0.186419
0.148516 0.420294 0.180575
0.15227 0.420356 0.17113
0.158038 0.421103 0.16199
0.184817 0.431739 0.1635
0.223362 0.44329 0.16759
0.274037 0.451255 0.166064
0.32256 0.457298 0.15642
0.361685 0.463325 0.149844
0.408026 0.468223 0.145052
0.457664 0.463279 0.148821
0.501442 0.457557 0.146059
0.542351 0.457481 0.153887
0.580407 0.45684 0.167224
0.618036 0.454459 0.187015
0.649592 0.451148 0.202335
0.678416 0.443626 0.217563
0.702525 0.437018 0.230213
0.71751 0.436088 0.236347
0.735546 0.428473 0.245441
0.752285 0.423194 0.252125
0.767163 0.414542 0.257755
0.779889 0.405646 0.263111
0.789349 0.394339 0.268086
0.788861 0.384268 0.269093
0.783948 0.372961 0.268284
0.777584 0.360876 0.265202
0.770886 0.349859 0.263828
0.761547 0.336248 0.261006
0.751263 0.324727 0.262959
0.745922 0.320897 0.27631
0.157534 0.465278 0.220111
0.156313 0.463752 0.213367
0.157366 0.463004 0.205951
0.158999 0.463554 0.199939
0.160449 0.464866 0.19353
0.164096 0.465003 0.182589
0.176501 0.467567 0.172686
0.214038 0.479194 0.175433
0.26392 0.487816 0.177142
0.320439 0.493217 0.171191
0.364538 0.499458 0.162249
0.403433 0.504738 0.15758
0.446021 0.508324 0.154559
0.494179 0.502876 0.159838
0.535729 0.497475 0.158206
0.573541 0.497047 0.164874
0.610315 0.496757 0.178714
0.646799 0.495171 0.199008
0.676936 0.492699 0.216648
0.704906 0.487373 0.233616
0.728939 0.480308 0.248844
0.742214 0.480171 0.254719
0.757061 0.477775 0.262119
0.772305 0.472023 0.271122
0.78616 0.462882 0.28011
0.797986 0.454963 0.284916
0.806394 0.443992 0.288197
0.804822 0.43331 0.288685
0.800839 0.421057 0.288319
0.795254 0.406165 0.286778
0.789151 0.393545 0.283864
0.779904 0.378195 0.282536
0.769299 0.364675 0.282032
0.165667 0.507164 0.244327
0.1664 0.505776 0.236286
0.166613 0.505089 0.229221
0.167651 0.505028 0.222416
0.16936 0.505623 0.216037
0.172366 0.505928 0.20621
0.180743 0.506783 0.194003
0.202762 0.512001 0.186404
0.255192 0.522057 0.190784
0.314275 0.527764 0.188739
0.3682 0.532952 0.177478
0.40444 0.538521 0.171557
0.44332 0.543236 0.167941
0.482567 0.546136 0.165957
0.528557 0.540307 0.172641
0.567636 0.535164 0.17232
0.603449 0.534417 0.179583
0.638315 0.534218 0.192844
0.673121 0.532662 0.213916
0.701106 0.530968 0.232959
0.725399 0.527428 0.250736
0.747372 0.522194 0.2663
0.762173 0.520317 0.274601
0.77322 0.519387 0.280156
0.785611 0.515663 0.286625
0.797559 0.510399 0.293645
0.809491 0.501381 0.301106
0.812863 0.491371 0.304768
0.813764 0.48014 0.306691
0.81207 0.4692 0.30573
0.808087 0.454215 0.30425
0.801129 0.437552 0.302495
0.792554 0.42121 0.300862
0.178271 0.546761 0.274662
0.178134 0.545388 0.266636
0.178561 0.544564 0.2598
0.179202 0.543725 0.252064
0.180697 0.54342 0.244572
0.183627 0.543816 0.236164
0.188113 0.543847 0.222766
0.202716 0.546212 0.208988
0.241443 0.554482 0.205951
0.308751 0.560342 0.205035
0.366186 0.565377 0.197772
0.410452 0.570199 0.186786
0.442847 0.575601 0.183597
0.480995 0.580148 0.180896
0.516548 0.581582 0.180148
0.559716 0.574853 0.186892
0.597299 0.570504 0.18851
0.631373 0.569162 0.196796
0.663996 0.568994 0.209384
0.696147 0.567224 0.230915
0.721477 0.566125 0.250477
0.74255 0.564019 0.267933
0.760983 0.560159 0.282902
0.775494 0.558007 0.294347
0.786236 0.557015 0.299062
0.795895 0.555047 0.303563
0.804761 0.551537 0.307698
0.809613 0.54432 0.311772
0.811704 0.535439 0.314244
0.812284 0.524727 0.316777
0.812207 0.511894 0.318624
0.810575 0.495384 0.320516
0.807202 0.479301 0.319203
0.190433 0.584817 0.306538
0.190448 0.58352 0.300084
0.190768 0.582162 0.29398
0.192081 0.581003 0.286412
0.194095 0.580163 0.277073
0.197452 0.579599 0.26569
0.201434 0.579705 0.254307
0.20708 0.578897 0.235889
0.232563 0.584619 0.225284
0.298222 0.591546 0.222705
0.362234 0.596201 0.217197
0.415442 0.601068 0.206226
0.449943 0.606256 0.199908
0.4795 0.611612 0.198383
0.514458 0.614878 0.196292
0.547448 0.614786 0.196689
0.5888 0.608408 0.203861
0.625025 0.604501 0.207416
0.656992 0.602243 0.216236
0.686458 0.601587 0.228168
0.715175 0.599649 0.250523
0.73817 0.59823 0.271138
0.756085 0.597452 0.28893
0.772519 0.594781 0.304738
0.785718 0.592493 0.317586
0.794324 0.591882 0.322255
0.801785 0.590402 0.325933
0.805966 0.588952 0.325551
0.807828 0.582818 0.327352
0.808621 0.574746 0.328664
0.809247 0.564309 0.329915
0.808957 0.552544 0.331228
0.807874 0.53753 0.332036
0.204364 0.621439 0.33846
0.204059 0.620127 0.332387
0.204715 0.618647 0.327535
0.205768 0.617044 0.320699
0.207935 0.615228 0.310658
0.210651 0.61384 0.297032
0.214527 0.612955 0.282994
0.219242 0.612634 0.267643
0.231327 0.613062 0.247501
0.285786 0.621347 0.243198
0.358404 0.6262 0.237522
0.413993 0.631251 0.228824
0.456565 0.635996 0.219593
0.486671 0.640757 0.216236
0.514641 0.645441 0.216358
0.545937 0.647578 0.21471
0.577356 0.646815 0.216419
0.616739 0.640864 0.223636
0.650339 0.635569 0.228214
0.679744 0.6327 0.237232
0.705852 0.63238 0.250156
0.731228 0.630426 0.273533
0.751842 0.628489 0.297276
0.767742 0.627573 0.313832
0.781704 0.626078 0.328634
0.793439 0.623728 0.341054
0.800671 0.623117 0.346044
0.804944 0.622034 0.34728
0.805142 0.621347 0.344656
0.805783 0.615808 0.345678
0.806348 0.608377 0.34638
0.806058 0.599481 0.347784
0.805524 0.588434 0.348119
0.219669 0.656397 0.368002
0.219196 0.654887 0.363043
0.220005 0.653559 0.359396
0.221103 0.652155 0.353704
0.222675 0.65008 0.344717
0.224918 0.647364 0.33048
0.22884 0.645762 0.315328
0.233433 0.644419 0.298161
0.24065 0.643305 0.277333
0.277485 0.650782 0.265873
0.35433 0.655314 0.259419
0.412512 0.659846 0.253086
0.459419 0.664088 0.242771
0.493187 0.668193 0.236881
0.52079 0.672755 0.236561
0.546838 0.676402 0.23743
0.575326 0.67776 0.236179
0.604471 0.676081 0.238682
0.641459 0.67039 0.244846
0.673243 0.664714 0.250813
0.699565 0.661738 0.261799
0.722805 0.660792 0.276921
0.744686 0.658488 0.302083
0.764553 0.656855 0.324773
0.778759 0.655314 0.339544
0.790585 0.654154 0.353292
0.801007 0.652293 0.365408
0.805402 0.651438 0.369574
0.805554 0.650446 0.368475
0.804898 0.649378 0.364065
0.804929 0.644404 0.364279
0.804608 0.637644 0.365286
0.80444 0.629145 0.365972
0.235721 0.687938 0.395392
0.235431 0.686473 0.39147
0.235615 0.685374 0.388617
0.236713 0.684001 0.384085
0.237766 0.68162 0.376043
0.239796 0.678614 0.36347
0.242741 0.6757 0.346654
0.247333 0.673686 0.329717
0.253193 0.671763 0.308522
0.275761 0.675654 0.289311
0.348379 0.681208 0.281376
0.411795 0.685389 0.277104
0.460426 0.689494 0.269306
0.497627 0.69337 0.26154
0.526131 0.696666 0.258686
0.550851 0.700069 0.25893
0.575631 0.702434 0.260548
0.60148 0.702953 0.259922
0.629099 0.700633 0.263416
0.664591 0.695079 0.268925
0.692699 0.690044 0.277272
0.717418 0.687282 0.2916
0.738674 0.686412 0.311559
0.758038 0.684504 0.332052
0.776761 0.682383 0.352956
0.789029 0.680827 0.366155
0.798932 0.67924 0.378607
0.806699 0.677424 0.389364
0.807324 0.675822 0.392081
0.807218 0.674769 0.390204
0.806394 0.673243 0.385199
0.805997 0.668727 0.384512
0.805173 0.662196 0.384009
0.25211 0.715541 0.420478
0.251469 0.714168 0.416724
0.251606 0.712963 0.414298
0.252216 0.71133 0.410224
0.252964 0.708873 0.403128
0.254627 0.706035 0.392248
0.257313 0.702846 0.377249
0.260945 0.699138 0.357763
0.266972 0.697627 0.33994
0.282429 0.698589 0.316854
0.340002 0.704143 0.303868
0.408865 0.708064 0.300755
0.459007 0.711757 0.295766
0.499855 0.715038 0.288014
0.529641 0.718181 0.283253
0.554894 0.720958 0.282124
0.578164 0.723018 0.283223
0.60029 0.724926 0.284947
0.625467 0.724605 0.28452
0.651987 0.72195 0.287968
0.684627 0.716548 0.292958
0.710735 0.712581 0.306859
0.733455 0.71014 0.326253
0.752926 0.708507 0.343465
0.771328 0.705959 0.361685
0.788647 0.703334 0.380957
0.799191 0.70219 0.39353
0.807141 0.700282 0.404211
0.8121 0.697627 0.412039
0.81474 0.695689 0.41297
0.815106 0.693919 0.407996
0.814023 0.691615 0.40235
0.813642 0.687327 0.401801
0.268238 0.739773 0.438209
0.267491 0.738231 0.434562
0.267185 0.736889 0.432731
0.267674 0.735363 0.428717
0.268833 0.733059 0.422873
0.270161 0.730083 0.413306
0.272206 0.726421 0.399527
0.275563 0.722362 0.380667
0.282567 0.719814 0.361196
0.295583 0.720546 0.345006
0.336507 0.725185 0.3252
0.40737 0.728145 0.320073
0.459037 0.731014 0.317266
0.501732 0.733959 0.310903
0.534066 0.736492 0.305531
0.560388 0.739147 0.302907
0.583368 0.740993 0.302724
0.606134 0.742184 0.303899
0.626749 0.743313 0.305425
0.651453 0.742885 0.305592
0.676432 0.740047 0.311376
0.706142 0.734981 0.319356
0.730129 0.730953 0.33756
0.751507 0.728252 0.354376
0.769223 0.725994 0.370504
0.786786 0.723644 0.388998
0.802029 0.720989 0.406744
0.811292 0.719478 0.418173
0.817807 0.717388 0.428351
0.819913 0.715099 0.434836
0.819989 0.713222 0.434974
0.818998 0.712077 0.428397
0.817975 0.709209 0.42472
0.283391 0.760281 0.458106
0.282612 0.758785 0.454627
0.282124 0.757549 0.452689
0.28249 0.755932 0.448829
0.283192 0.753613 0.443442
0.284092 0.750866 0.434806
0.28603 0.746868 0.422156
0.288914 0.742428 0.404486
0.297414 0.740108 0.386465
0.311818 0.740169 0.369268
0.340993 0.742794 0.352773
0.400473 0.745754 0.343801
0.456504 0.748226 0.341054
0.499306 0.750515 0.336767
0.534203 0.753185 0.331838
0.561639 0.755489 0.328908
0.584543 0.756939 0.327901
0.606653 0.758114 0.328161
0.629587 0.759213 0.329931
0.649027 0.759777 0.33138
0.672892 0.759274 0.334081
0.695171 0.756954 0.343664
0.722133 0.751415 0.352346
0.744671 0.747509 0.368505
0.76434 0.744579 0.384192
0.781201 0.742367 0.400397
0.797284 0.740154 0.417716
0.810636 0.737606 0.434089
0.818372 0.73611 0.445335
0.820844 0.734142 0.453361
0.823301 0.732189 0.458457
0.823529 0.730083 0.457465
0.821729 0.728939 0.449317
0.297078 0.776318 0.474723
0.296605 0.774762 0.471901
0.296086 0.773724 0.469291
0.296101 0.772061 0.46598
0.296742 0.769787 0.460945
0.297642 0.766979 0.452567
0.299046 0.763195 0.440818
0.301854 0.758679 0.424949
0.312627 0.75668 0.408026
0.327337 0.756039 0.390967
0.352544 0.758358 0.380682
0.399756 0.761746 0.375647
0.454398 0.763363 0.373617
0.497307 0.764874 0.370138
0.53402 0.767391 0.36672
0.561929 0.769574 0.363165
0.586084 0.771466 0.361715
0.608835 0.772412 0.361425
0.631037 0.7729 0.361471
0.651926 0.773251 0.361761
0.671489 0.773434 0.363119
0.692287 0.772869 0.366049
0.713466 0.770199 0.374441
0.736675 0.76463 0.383413
0.757778 0.761242 0.398535
0.776532 0.758846 0.413794
0.792187 0.756863 0.428931
0.805768 0.755245 0.446525
0.815869 0.754101 0.462684
0.817548 0.753414 0.474098
0.819776 0.751705 0.482536
0.820981 0.749538 0.484215
0.821393 0.747326 0.479957
0.31043 0.789899 0.490486
0.309926 0.788479 0.487114
0.30959 0.787396 0.484108
0.308965 0.785473 0.480598
0.309575 0.783169 0.475471
0.310246 0.780468 0.467948
0.31249 0.776959 0.457145
0.316258 0.7729 0.442954
0.327855 0.770871 0.427634
0.344411 0.770123 0.412222
0.369924 0.771969 0.405692
0.401816 0.774838 0.404425
0.45211 0.775876 0.401389
0.496071 0.777142 0.39968
0.532372 0.779095 0.396979
0.563638 0.781064 0.394186
0.588205 0.783093 0.39266
0.610956 0.78407 0.39234
0.632593 0.784253 0.391745
0.654276 0.784588 0.391928
0.672282 0.78471 0.391775
0.690044 0.78497 0.392645
0.708949 0.784482 0.395331
0.729992 0.781582 0.403464
0.750561 0.775982 0.412375
0.770443 0.773205 0.42707
0.788052 0.771328 0.442771
0.80177 0.769879 0.457649
0.81265 0.768902 0.475731
0.816754 0.768566 0.490776
0.81915 0.768185 0.501091
0.821073 0.766964 0.509163
0.821714 0.765225 0.50869
0.323369 0.800122 0.504692
0.322637 0.798795 0.500526
0.321859 0.79733 0.496483
0.321584 0.795819 0.492699
0.321691 0.794034 0.487846
0.323323 0.791547 0.481132
0.326635 0.788388 0.472236
0.331365 0.784863 0.460075
0.34287 0.782757 0.446738
0.3608 0.781659 0.433097
0.387335 0.782879 0.42829
0.41529 0.785214 0.428031
0.450843 0.786389 0.427726
0.494118 0.787106 0.42591
0.531136 0.788571 0.424964
0.563058 0.790173 0.422339
0.589822 0.792248 0.420981
0.612253 0.793835 0.420798
0.633539 0.794308 0.42063
0.65507 0.79443 0.420737
0.674571 0.794842 0.42121
0.69102 0.79498 0.42063
0.706813 0.795056 0.421164
0.724895 0.794446 0.423468
0.744228 0.79202 0.431144
0.763745 0.786603 0.440635
0.782757 0.784131 0.455665
0.797894 0.782895 0.471153
0.810254 0.782376 0.48629
0.817334 0.782925 0.505547
0.819471 0.783291 0.518944
0.821424 0.783032 0.527977
0.823468 0.782437 0.535424
0.334569 0.806958 0.515496
0.333715 0.805829 0.511772
0.333318 0.804868 0.507698
0.332769 0.803357 0.503243
0.332937 0.801541 0.49807
0.335164 0.799603 0.491814
0.339956 0.79733 0.484398
0.347509 0.79469 0.474952
0.357626 0.791928 0.463432
0.37818 0.790341 0.454124
0.403677 0.790906 0.449516
0.427314 0.792218 0.448875
0.455589 0.793698 0.4495
0.492744 0.794675 0.45034
0.529763 0.795972 0.450126
0.561883 0.797375 0.44921
0.5906 0.799481 0.447532
0.614511 0.801343 0.446815
0.634928 0.802716 0.448127
0.656184 0.803052 0.448249
0.676707 0.803159 0.4486
0.693004 0.803647 0.449317
0.707652 0.803693 0.448432
0.722637 0.803723 0.448661
0.738933 0.803342 0.451301
0.758144 0.801022 0.45832
0.777111 0.796063 0.469154
0.793637 0.794812 0.485115
0.807889 0.794797 0.501396
0.817853 0.794614 0.516625
0.822965 0.796307 0.533074
0.827726 0.796826 0.542519
