bundles/resolve-cinematic-luts/Phantom Luts/A7s3 Phntm Film LUTs - G6/ATOMOS Monitor LUTs/Slog2+Sgamut3cine/Vision A7s3 Sl2sg3c-Legacy AML.cube
TITLE "Generated by Resolve"
LUT_3D_SIZE 9
0.0809339 0.091249 0.0835737
0.0850843 0.091371 0.0830243
0.171542 0.0900587 0.0805829
0.322148 0.0841535 0.0830549
0.466102 0.0786297 0.102434
0.641016 0.105013 0.176791
0.770993 0.162661 0.308202
0.788083 0.236545 0.398108
0.804456 0.317082 0.471504
0.0814679 0.10837 0.0871748
0.0897993 0.107866 0.0864576
0.176257 0.097322 0.0814069
0.327626 0.0910506 0.0778668
0.477638 0.085771 0.0881666
0.664118 0.106645 0.174044
0.765576 0.155932 0.316396
0.790204 0.240513 0.386969
0.807477 0.322087 0.461997
0.0791485 0.21091 0.109728
0.0922713 0.207095 0.0983902
0.181262 0.226001 0.0895705
0.39469 0.175982 0.113603
0.521904 0.151354 0.113664
0.659266 0.115251 0.12372
0.774868 0.154192 0.23975
0.790524 0.23331 0.364309
0.808606 0.327703 0.451102
0.110033 0.39321 0.188525
0.113802 0.386587 0.159945
0.179416 0.403571 0.158022
0.388724 0.417044 0.114687
0.573251 0.384207 0.179416
0.70132 0.34432 0.230457
0.780591 0.280797 0.217029
0.794018 0.244083 0.240085
0.814908 0.34699 0.408026
0.172564 0.570367 0.326009
0.175235 0.564294 0.297276
0.18233 0.559609 0.257984
0.348379 0.577142 0.26389
0.561868 0.593347 0.184741
0.729717 0.561059 0.292439
0.780468 0.556344 0.337896
0.776883 0.513329 0.339117
0.778897 0.410147 0.316167
0.277531 0.732647 0.46183
0.276249 0.729809 0.44419
0.279484 0.724208 0.411276
0.368933 0.731762 0.385992
0.508476 0.743694 0.383841
0.693324 0.749401 0.327352
0.808927 0.727642 0.413016
0.810864 0.718898 0.433341
0.797269 0.664942 0.422568
0.372549 0.810727 0.555337
0.369436 0.809644 0.544152
0.380133 0.807034 0.530465
0.446189 0.806195 0.519554
0.564004 0.808911 0.533608
0.651728 0.81886 0.523812
0.776745 0.820768 0.504524
0.823758 0.812497 0.559838
0.826474 0.79733 0.542443
0.497276 0.819638 0.623713
0.485695 0.817853 0.611948
0.48867 0.816449 0.604913
0.528984 0.818158 0.608072
0.599496 0.822248 0.620142
0.681498 0.828229 0.629847
0.746899 0.838621 0.61532
0.825605 0.838727 0.621393
0.833692 0.853529 0.678691
0.63389 0.837461 0.711666
0.617426 0.834943 0.697932
0.613535 0.833555 0.692897
0.621561 0.833158 0.690761
0.653895 0.836728 0.699184
0.710979 0.843046 0.715877
0.761517 0.855985 0.734447
0.807248 0.868345 0.729717
0.843809 0.877791 0.763149
0.0776532 0.0906996 0.0899977
0.0907301 0.0911421 0.0898909
0.195743 0.0875715 0.119539
0.339193 0.0798352 0.109957
0.485512 0.0810101 0.128069
0.65539 0.10901 0.210391
0.774853 0.167407 0.330938
0.79086 0.244175 0.414847
0.808179 0.325658 0.483879
0.07953 0.106706 0.0939498
0.0937514 0.105882 0.0968338
0.215396 0.0915084 0.0815595
0.359548 0.0860151 0.0839704
0.496468 0.0792248 0.102693
0.664988 0.108705 0.198642
0.777661 0.170001 0.319799
0.794369 0.253437 0.414008
0.811399 0.339559 0.486229
0.0750134 0.213733 0.132799
0.0803845 0.210437 0.110597
0.178195 0.221561 0.0887922
0.395346 0.164096 0.112016
0.529061 0.13669 0.109682
0.702449 0.114244 0.15581
0.77911 0.171023 0.299641
0.795438 0.260777 0.403616
0.814511 0.35552 0.474388
0.109804 0.398642 0.223911
0.110018 0.3935 0.188937
0.145632 0.396429 0.155749
0.387701 0.415778 0.114672
0.579324 0.373495 0.186252
0.71632 0.323827 0.230274
0.78735 0.259495 0.221759
0.803952 0.282658 0.32372
0.817807 0.374975 0.476783
0.174838 0.572595 0.349508
0.171191 0.569787 0.324727
0.180011 0.563088 0.282765
0.33228 0.576593 0.266438
0.561166 0.592447 0.183993
0.732006 0.557137 0.301549
0.780591 0.548638 0.342611
0.774945 0.493156 0.34609
0.807294 0.446845 0.40145
0.27921 0.732967 0.476371
0.275319 0.732815 0.460166
0.276646 0.728603 0.431479
0.337163 0.730556 0.383825
0.504143 0.742199 0.384909
0.691676 0.747387 0.324224
0.808454 0.724758 0.416953
0.810239 0.715465 0.436866
0.79321 0.644541 0.422889
0.374243 0.812161 0.564446
0.370367 0.811093 0.553933
0.372183 0.808423 0.536461
0.430976 0.805234 0.517937
0.557641 0.808438 0.533089
0.647776 0.818357 0.523354
0.775464 0.820142 0.501823
0.824155 0.810987 0.558465
0.827131 0.793622 0.540734
0.499229 0.820645 0.628489
0.488823 0.818982 0.618616
0.484428 0.817014 0.608331
0.521996 0.817868 0.608103
0.595315 0.822034 0.619699
0.679072 0.827909 0.630365
0.744442 0.83801 0.613855
0.824994 0.83798 0.618738
0.833387 0.853223 0.677089
0.638575 0.838605 0.716655
0.62826 0.836561 0.708095
0.624521 0.835859 0.702327
0.626215 0.834669 0.697063
0.656641 0.837598 0.703792
0.711666 0.844007 0.719692
0.761151 0.855833 0.735866
0.806653 0.868467 0.730465
0.843839 0.878004 0.763699
0.0834974 0.0925917 0.171389
0.121035 0.0916304 0.160922
0.192599 0.0887312 0.160357
0.33576 0.0863355 0.195743
0.482979 0.0945449 0.216571
0.642725 0.113985 0.272801
0.774792 0.18526 0.389899
0.791455 0.267353 0.467613
0.809339 0.351995 0.530602
0.0815442 0.100893 0.163592
0.0869001 0.0946059 0.200061
0.205982 0.087892 0.168521
0.337072 0.087068 0.172747
0.485115 0.0863966 0.166567
0.660899 0.115358 0.256748
0.778866 0.188205 0.381033
0.797406 0.286381 0.473243
0.817517 0.390524 0.55433
0.0698711 0.203708 0.17763
0.0696422 0.20557 0.180179
0.219471 0.23592 0.216358
0.438422 0.171374 0.170138
0.563485 0.119127 0.155169
0.695155 0.122225 0.22269
0.782574 0.189334 0.347372
0.799878 0.297917 0.454047
0.825788 0.429129 0.569253
0.0983444 0.397467 0.268711
0.103243 0.397772 0.247349
0.126665 0.393149 0.203586
0.386862 0.417945 0.167468
0.570214 0.363088 0.215076
0.735515 0.30782 0.247196
0.797971 0.267185 0.275151
0.803372 0.303441 0.416083
0.830686 0.443519 0.552026
0.165927 0.573281 0.38294
0.171054 0.572564 0.363088
0.178378 0.565789 0.326497
0.298451 0.571283 0.2748
0.555795 0.587823 0.189914
0.731334 0.553536 0.325261
0.780774 0.536553 0.365026
0.781811 0.472938 0.363989
0.841016 0.464027 0.490959
0.279927 0.732448 0.494682
0.277333 0.732891 0.483299
0.277134 0.731716 0.459983
0.301411 0.725353 0.39237
0.49546 0.73904 0.390005
0.689265 0.745266 0.322164
0.807889 0.720989 0.428702
0.80943 0.709545 0.450599
0.792905 0.620966 0.432807
0.374975 0.813779 0.578302
0.371283 0.81326 0.569482
0.370169 0.811002 0.552911
0.403174 0.805081 0.519982
0.546242 0.807874 0.533669
0.643122 0.817334 0.524239
0.774319 0.819013 0.498039
0.82536 0.808835 0.559762
0.828733 0.789166 0.5402
0.499352 0.821393 0.636423
0.488029 0.821393 0.627024
0.485878 0.818601 0.617319
0.511986 0.817136 0.610193
0.585611 0.822034 0.618265
0.674891 0.826795 0.630869
0.741268 0.837461 0.612985
0.82446 0.836774 0.614435
0.832975 0.852247 0.674083
0.635203 0.838773 0.717617
0.625589 0.836805 0.709087
0.630869 0.836713 0.709377
0.629435 0.835843 0.701946
0.656062 0.837461 0.705959
0.706859 0.843244 0.717586
0.758556 0.854307 0.732555
0.803861 0.867857 0.72697
0.844038 0.876509 0.75877
0.090837 0.0964523 0.29424
0.132784 0.0925612 0.299428
0.212772 0.0913558 0.272129
0.333913 0.0847486 0.276234
0.484688 0.10222 0.328344
0.643656 0.13843 0.3991
0.759838 0.179828 0.439399
0.78764 0.261524 0.501137
0.807248 0.34435 0.550515
0.0858625 0.098558 0.300908
0.0949416 0.0983291 0.326772
0.201358 0.0915541 0.304173
0.339635 0.0852674 0.281254
0.485573 0.100725 0.322255
0.65127 0.142184 0.383124
0.768093 0.187335 0.431739
0.792462 0.28014 0.508156
0.813626 0.374517 0.566171
0.0724346 0.184268 0.324697
0.0812085 0.176974 0.352544
0.173907 0.172564 0.398001
0.397665 0.131563 0.336782
0.504494 0.109163 0.319081
0.671382 0.132708 0.335836
0.774075 0.196582 0.423209
0.798459 0.315877 0.518563
0.825681 0.437003 0.60116
0.0749523 0.384298 0.367514
0.0747997 0.385138 0.368124
0.082063 0.381964 0.365469
0.416968 0.430716 0.407019
0.632731 0.355535 0.361959
0.76878 0.29163 0.352331
0.790158 0.234836 0.378531
0.80354 0.329747 0.481392
0.831662 0.478019 0.60885
0.130449 0.570489 0.44979
0.136461 0.570138 0.439796
0.160021 0.567422 0.41767
0.321462 0.578271 0.408362
0.555383 0.592828 0.370611
0.721645 0.550393 0.397375
0.792248 0.50634 0.414237
0.812711 0.467796 0.428916
0.836362 0.487663 0.592737
0.259541 0.727901 0.535958
0.261372 0.728435 0.527504
0.271 0.728634 0.511025
0.301656 0.721736 0.465187
0.50312 0.737026 0.474861
0.681224 0.740322 0.404654
0.807706 0.713939 0.47187
0.808316 0.698497 0.492317
0.803037 0.591852 0.503517
0.369131 0.812604 0.604028
0.368017 0.812772 0.596796
0.371923 0.812726 0.585794
0.377111 0.809308 0.553567
0.510399 0.808789 0.544335
0.637613 0.816373 0.536385
0.772488 0.817746 0.496742
0.829419 0.806073 0.574624
0.832044 0.783673 0.565499
0.494102 0.823163 0.651164
0.484535 0.822766 0.643336
0.487266 0.821851 0.637232
0.495644 0.819684 0.621088
0.564904 0.821134 0.619974
0.666194 0.825925 0.636103
0.737621 0.837461 0.617639
0.824262 0.836332 0.612177
0.834211 0.854109 0.680735
0.628748 0.839521 0.721904
0.619898 0.837705 0.713726
0.625467 0.837888 0.714305
0.635203 0.837507 0.712032
0.649683 0.837156 0.707866
0.698695 0.843 0.717494
0.757015 0.85362 0.733806
0.801785 0.867811 0.727214
0.843778 0.876081 0.757488
0.105074 0.105623 0.405264
0.145617 0.106096 0.416938
0.22472 0.0946975 0.399207
0.346654 0.0990463 0.381628
0.489204 0.106188 0.418067
0.657557 0.141283 0.482475
0.749203 0.158404 0.538506
0.76965 0.19321 0.553002
0.799649 0.308827 0.585397
0.098909 0.109087 0.424445
0.112505 0.108995 0.435325
0.205829 0.0970779 0.433677
0.347478 0.100252 0.394202
0.496117 0.107683 0.424414
0.660441 0.140352 0.481529
0.750637 0.15935 0.536065
0.779614 0.220295 0.562676
0.811887 0.372702 0.610025
0.0956588 0.157641 0.453315
0.0971695 0.152468 0.467063
0.147555 0.13962 0.500084
0.353841 0.111055 0.445029
0.522179 0.114672 0.446723
0.663523 0.138445 0.476097
0.750607 0.163638 0.523888
0.787564 0.26186 0.564767
0.822843 0.432059 0.633768
0.0700999 0.363149 0.493217
0.0703593 0.361181 0.507439
0.0757305 0.350958 0.533852
0.375509 0.363043 0.592309
0.605509 0.32401 0.540459
0.735698 0.242481 0.527306
0.761654 0.188327 0.490318
0.796811 0.310231 0.558846
0.831083 0.482322 0.651652
0.0946822 0.556527 0.555123
0.0943313 0.55671 0.555032
0.101549 0.555932 0.554025
0.243626 0.570733 0.560327
0.579538 0.593729 0.574395
0.773861 0.539269 0.545464
0.842115 0.490227 0.52285
0.822507 0.420462 0.540398
0.842756 0.539757 0.660197
0.18436 0.7252 0.61265
0.18706 0.725261 0.606928
0.198566 0.724483 0.596719
0.256748 0.715572 0.562722
0.538079 0.73283 0.591424
0.689342 0.737881 0.559686
0.802243 0.706172 0.563745
0.812696 0.666743 0.555886
0.859648 0.578195 0.586343
0.33814 0.811093 0.656489
0.338384 0.810162 0.64979
0.342718 0.809155 0.639689
0.363058 0.808057 0.617121
0.530541 0.810697 0.622583
0.663859 0.815671 0.634348
0.772213 0.82002 0.583734
0.838911 0.801572 0.608103
0.838087 0.775097 0.616846
0.47895 0.826261 0.682002
0.471199 0.82565 0.674327
0.47602 0.825101 0.668116
0.495537 0.824826 0.65864
0.525277 0.82179 0.635096
0.645747 0.827909 0.651987
0.732326 0.838987 0.633478
0.82417 0.836408 0.613733
0.83743 0.858915 0.697627
0.618616 0.841749 0.73286
0.611048 0.839673 0.725841
0.617761 0.840269 0.726574
0.627588 0.840421 0.724666
0.64654 0.839048 0.719234
0.684764 0.842191 0.720211
0.754116 0.852689 0.737774
0.799985 0.868391 0.732006
0.843717 0.875929 0.756695
0.122896 0.120241 0.505257
0.15996 0.120485 0.51928
0.236316 0.103395 0.513954
0.356085 0.105257 0.483558
0.50042 0.126009 0.510658
0.663935 0.143786 0.572381
0.765011 0.202274 0.631525
0.768902 0.202441 0.650813
0.781247 0.24744 0.661555
0.117479 0.124407 0.52546
0.129259 0.124483 0.532158
0.209964 0.104601 0.538018
0.361135 0.109438 0.509789
0.502663 0.128878 0.51751
0.670253 0.145525 0.578271
0.765423 0.202274 0.632303
0.769955 0.202518 0.652811
0.792981 0.298131 0.681498
0.1075 0.152972 0.551171
0.109285 0.151186 0.565042
0.142412 0.138415 0.591302
0.340658 0.11664 0.563851
0.533211 0.150622 0.564523
0.681025 0.148989 0.587198
0.764843 0.202335 0.634501
0.770443 0.206058 0.655344
0.806745 0.389242 0.701244
0.112963 0.345983 0.623011
0.120317 0.340841 0.635431
0.125444 0.323919 0.657237
0.33875 0.321935 0.709957
0.572412 0.27483 0.664439
0.716518 0.197665 0.623545
0.765255 0.203754 0.621973
0.771054 0.225849 0.646174
0.820081 0.458473 0.704982
0.0720226 0.533623 0.652689
0.0708629 0.531701 0.658915
0.0708934 0.528222 0.669398
0.153429 0.541711 0.717433
0.555657 0.545068 0.741924
0.761227 0.532662 0.709499
0.824048 0.483711 0.697124
0.802289 0.366323 0.643015
0.834913 0.518547 0.709056
0.150423 0.710063 0.711894
0.148379 0.709667 0.711208
0.151492 0.709026 0.710643
0.175006 0.703502 0.702968
0.479606 0.724681 0.707851
0.711635 0.730175 0.713664
0.844099 0.692149 0.694316
0.868345 0.643534 0.675517
0.847791 0.563012 0.672648
0.259556 0.813443 0.744564
0.254887 0.812924 0.738964
0.256397 0.811826 0.731548
0.268421 0.809506 0.714534
0.491875 0.81001 0.700999
0.692042 0.814832 0.727108
0.781231 0.82208 0.708232
0.851423 0.799359 0.696849
0.849424 0.778653 0.720851
0.406989 0.837919 0.739818
0.401434 0.837247 0.733211
0.41236 0.836072 0.72668
0.448737 0.834195 0.717723
0.515923 0.831205 0.701961
0.67158 0.842359 0.726497
0.76141 0.856092 0.739635
0.829038 0.863584 0.713726
0.84242 0.867933 0.733639
0.598184 0.846632 0.752804
0.592493 0.844923 0.747097
0.603845 0.845808 0.74815
0.616297 0.845365 0.74667
0.636805 0.845594 0.744518
0.667002 0.842939 0.732097
0.742641 0.852613 0.74464
0.799359 0.870329 0.7458
0.843961 0.877409 0.761334
0.143511 0.138033 0.598138
0.170672 0.13817 0.610956
0.240055 0.113909 0.611063
0.374426 0.121904 0.58996
0.502251 0.141405 0.586664
0.662989 0.158236 0.642008
0.764538 0.180743 0.697002
0.769665 0.190402 0.707271
0.773831 0.196933 0.706645
0.137224 0.142916 0.613825
0.143908 0.144533 0.622995
0.230625 0.141039 0.633112
0.375525 0.126467 0.617517
0.507515 0.142504 0.601755
0.667933 0.159823 0.649546
0.765698 0.182544 0.702022
0.770001 0.193698 0.709422
0.774533 0.198657 0.707134
0.121187 0.171511 0.638209
0.12401 0.173098 0.653407
0.149722 0.163821 0.687785
0.331838 0.128283 0.661845
0.529183 0.149874 0.656916
0.695079 0.169268 0.680125
0.763897 0.188357 0.70811
0.769726 0.199115 0.712688
0.795148 0.289906 0.755856
0.136385 0.335637 0.703471
0.138857 0.329229 0.713359
0.143206 0.311757 0.735729
0.311345 0.311284 0.790326
0.544472 0.257191 0.756558
0.697902 0.20293 0.70367
0.769116 0.193774 0.708858
0.77055 0.201236 0.713283
0.813596 0.384543 0.779202
0.0761425 0.535637 0.739178
0.0811475 0.533593 0.749065
0.0897688 0.529793 0.761929
0.19939 0.531945 0.807492
0.536614 0.531121 0.830976
0.744305 0.512184 0.798703
0.828321 0.463081 0.787137
0.802136 0.333516 0.75584
0.829679 0.46598 0.781155
0.106981 0.689586 0.782498
0.103487 0.687449 0.783505
0.107225 0.685786 0.788525
0.136767 0.684321 0.79852
0.43946 0.698314 0.818326
0.6916 0.695888 0.827924
0.837247 0.689235 0.806806
0.861006 0.645167 0.79585
0.832975 0.514549 0.745373
0.23827 0.808179 0.816159
0.23476 0.80679 0.813962
0.235935 0.804746 0.81181
0.242176 0.801328 0.807324
0.448585 0.802625 0.799969
0.646174 0.81593 0.801648
0.798566 0.822095 0.807202
0.872419 0.795727 0.792752
0.872068 0.763592 0.799054
0.348577 0.847715 0.810483
0.346822 0.846708 0.806958
0.355856 0.846525 0.801999
0.383536 0.846128 0.794797
0.445411 0.84625 0.782376
0.633005 0.857389 0.778653
0.778637 0.87306 0.804471
0.839399 0.884062 0.807919
0.852918 0.875807 0.794034
0.557412 0.85304 0.787533
0.550698 0.852491 0.783123
0.56611 0.853758 0.781353
0.582177 0.854276 0.778393
0.609827 0.854978 0.774716
0.647868 0.854795 0.770291
0.746212 0.865812 0.787655
0.822232 0.88365 0.812085
0.850034 0.890318 0.813306
0.167666 0.160891 0.684199
0.174533 0.16025 0.686381
0.258518 0.156054 0.690288
0.385595 0.135836 0.674952
0.502541 0.140917 0.649714
0.652216 0.181659 0.68629
0.766278 0.182574 0.735851
0.770718 0.189578 0.741772
0.773724 0.196735 0.743893
0.159121 0.163409 0.689525
0.164294 0.167712 0.703166
0.233204 0.160632 0.705333
0.37734 0.137209 0.692714
0.521889 0.146532 0.679164
0.656336 0.1879 0.697032
0.76643 0.182666 0.73666
0.770993 0.190204 0.742153
0.774777 0.198627 0.744961
0.13434 0.192996 0.702754
0.136828 0.196155 0.715694
0.149233 0.194598 0.754574
0.304067 0.135424 0.72015
0.515526 0.150881 0.707835
0.705745 0.19527 0.729809
0.767193 0.183703 0.737499
0.771649 0.192309 0.742885
0.778851 0.210559 0.750408
0.146685 0.338247 0.748775
0.149523 0.333242 0.759121
0.152239 0.320302 0.780972
0.255192 0.301564 0.8065
0.512001 0.255512 0.779858
0.678676 0.229206 0.741024
0.772442 0.194156 0.743923
0.772503 0.194186 0.743969
0.798062 0.298695 0.775692
0.101289 0.53959 0.788495
0.110414 0.537606 0.798611
0.127123 0.533425 0.815183
0.210056 0.520058 0.850782
0.513008 0.529885 0.866789
0.722393 0.509438 0.833951
0.82916 0.466407 0.813016
0.799832 0.308125 0.777783
0.814008 0.383444 0.79469
0.0724956 0.683665 0.823713
0.0714885 0.682094 0.827512
0.071519 0.678904 0.832578
0.0831617 0.676036 0.848371
0.424475 0.689601 0.876097
0.673991 0.685985 0.890013
0.821881 0.675853 0.864195
0.86273 0.630823 0.852766
0.834272 0.483925 0.817273
0.217243 0.799191 0.860792
0.213443 0.796582 0.860334
0.214176 0.793896 0.861692
0.234424 0.78822 0.863005
0.403265 0.791684 0.871
0.620752 0.79762 0.880751
0.780163 0.800504 0.885084
0.869596 0.785672 0.865293
0.871229 0.725765 0.850889
0.319112 0.848051 0.863157
0.314702 0.84715 0.861646
0.324727 0.847166 0.86099
0.346548 0.847776 0.860273
0.42211 0.848432 0.855817
0.606119 0.857694 0.85185
0.748837 0.875151 0.858396
0.855894 0.889204 0.873655
0.872267 0.888289 0.879164
0.527214 0.856046 0.836439
0.523049 0.855619 0.833127
0.540215 0.856809 0.831601
0.556176 0.858045 0.829786
0.582086 0.860059 0.827253
0.614511 0.863386 0.823514
0.7252 0.877379 0.830091
0.831128 0.89662 0.862196
0.875166 0.900999 0.877211
0.181186 0.178408 0.736797
0.180056 0.178164 0.735943
0.24921 0.16907 0.732891
0.379416 0.141238 0.716625
0.516075 0.150011 0.703929
0.646723 0.185397 0.717723
0.763897 0.180484 0.734905
0.768566 0.186572 0.739376
0.772457 0.194064 0.743923
0.172107 0.178943 0.73463
0.175372 0.182391 0.745464
0.219409 0.175494 0.741878
0.360906 0.139757 0.717906
0.524788 0.15111 0.706813
0.651118 0.187442 0.71986
0.762814 0.179309 0.733608
0.768627 0.18674 0.739483
0.772839 0.19498 0.744305
0.140902 0.204639 0.737316
0.143557 0.209323 0.749142
0.145754 0.209964 0.761044
0.260746 0.168582 0.734325
0.482643 0.148638 0.709575
0.691112 0.200153 0.72784
0.764508 0.180194 0.734752
0.768719 0.186908 0.739574
0.77525 0.199512 0.747143
0.152285 0.342046 0.770901
0.154376 0.341283 0.781216
0.160967 0.34165 0.808743
0.16405 0.313375 0.803708
0.462165 0.273838 0.795621
0.649409 0.235874 0.748257
0.771466 0.194171 0.743862
0.769619 0.188479 0.74049
0.777066 0.203372 0.749035
0.119295 0.54136 0.81294
0.129961 0.540597 0.82475
0.144137 0.540444 0.844297
0.166201 0.523369 0.854231
0.427955 0.52871 0.867094
0.670497 0.516884 0.851286
0.817166 0.489174 0.816541
0.805356 0.341283 0.784863
0.778027 0.20705 0.750729
0.071519 0.685344 0.847272
0.0715496 0.684596 0.852506
0.0714122 0.681712 0.859159
0.0749065 0.671168 0.865293
0.349157 0.679744 0.876097
0.635096 0.685206 0.890623
0.793057 0.678691 0.87332
0.863935 0.63975 0.855421
0.828779 0.458579 0.811109
0.162127 0.792401 0.882887
0.150515 0.789273 0.883894
0.14815 0.786252 0.886229
0.182345 0.78117 0.884504
0.375341 0.781781 0.880873
0.599405 0.790982 0.889708
0.758785 0.792737 0.896696
0.861341 0.780194 0.876478
0.868467 0.713054 0.867857
0.317708 0.838376 0.883177
0.311391 0.836774 0.884047
0.311086 0.835599 0.883909
0.338552 0.83566 0.881865
0.457282 0.838392 0.875975
0.595148 0.845426 0.875563
0.730571 0.861769 0.882811
0.837751 0.879576 0.890105
0.869795 0.859037 0.887282
0.508705 0.853635 0.871595
0.504021 0.853468 0.871748
0.519738 0.854398 0.870832
0.536995 0.855848 0.870039
0.565515 0.857816 0.86981
0.602853 0.862119 0.869947
0.708965 0.877363 0.874189
0.819852 0.898741 0.885023
0.872755 0.904891 0.889448
