bundles/resolve-cinematic-luts/Phantom Luts/A7s3 Phntm Film LUTs - G6/ATOMOS Monitor LUTs/Slog2+Sgamut3cine/Vision A7s3 Sl2sg3c AML.cube
TITLE "Generated by Resolve"
LUT_3D_SIZE 5
0.0745403 0.0837262 0.075639
0.207401 0.0823529 0.0721294
0.517082 0.0772412 0.123217
0.778836 0.190646 0.358465
0.807095 0.365286 0.522301
0.0802014 0.265721 0.124208
0.241382 0.278614 0.0862898
0.579751 0.178973 0.128969
0.78555 0.181582 0.269566
0.811734 0.376059 0.498573
0.181308 0.614954 0.366537
0.196139 0.601022 0.279744
0.60145 0.631479 0.204791
0.780667 0.604059 0.359319
0.779049 0.469902 0.350652
0.393103 0.809415 0.584283
0.404623 0.805417 0.558495
0.602136 0.810895 0.565942
0.786877 0.82182 0.547021
0.832685 0.806714 0.590738
0.670451 0.843519 0.740826
0.655497 0.838621 0.725261
0.696803 0.843763 0.73283
0.787564 0.867674 0.767971
0.849119 0.88925 0.79939
0.0803082 0.0835126 0.208621
0.231342 0.0747234 0.185153
0.535973 0.104433 0.280812
0.779141 0.21799 0.44332
0.814221 0.398245 0.577539
0.0697337 0.255573 0.233036
0.277455 0.293462 0.271183
0.628458 0.142641 0.207965
0.785473 0.226093 0.394522
0.828916 0.480781 0.617472
0.170443 0.617288 0.430747
0.190478 0.611093 0.367895
0.596292 0.625635 0.21236
0.781353 0.589151 0.390768
0.844694 0.517403 0.545907
0.389395 0.809659 0.605356
0.390738 0.809384 0.582086
0.583398 0.809689 0.565942
0.784604 0.819638 0.540459
0.83592 0.800565 0.589517
0.670344 0.845029 0.745998
0.667201 0.842618 0.738598
0.699733 0.844694 0.739467
0.785245 0.866377 0.767239
0.848478 0.888457 0.795041
0.10721 0.0972763 0.448875
0.270069 0.0867323 0.433829
0.545144 0.110475 0.474372
0.762188 0.183505 0.594903
0.801526 0.354299 0.628443
0.0975052 0.189303 0.520607
0.17583 0.15494 0.562173
0.577935 0.121798 0.50367
0.759564 0.173846 0.573007
0.825223 0.484047 0.677958
0.0933242 0.603464 0.607477
0.101671 0.603189 0.605997
0.626184 0.641825 0.623468
0.846159 0.542428 0.576486
0.847272 0.588998 0.703197
0.331395 0.814115 0.689052
0.340932 0.811307 0.672068
0.571969 0.814618 0.657389
0.785336 0.825956 0.628931
0.845121 0.7944 0.65977
0.653941 0.848356 0.75906
0.654414 0.846937 0.754299
0.6822 0.845747 0.747723
0.781811 0.864668 0.769985
0.847898 0.887953 0.793637
0.153277 0.131411 0.630854
0.288899 0.107271 0.634897
0.557153 0.145006 0.628107
0.765423 0.185245 0.712581
0.774243 0.207156 0.721691
0.129549 0.195727 0.693614
0.151904 0.153826 0.701442
0.58407 0.156573 0.681666
0.767102 0.186084 0.722286
0.797498 0.3178 0.763867
0.0713664 0.583108 0.766751
0.0796216 0.57763 0.783154
0.585016 0.577386 0.842268
0.833906 0.507149 0.797375
0.836103 0.510353 0.793652
0.267216 0.811749 0.824247
0.265202 0.809781 0.821271
0.493721 0.811292 0.811231
0.80975 0.836347 0.819577
0.867536 0.789425 0.812985
0.600473 0.85655 0.801022
0.608972 0.857328 0.796002
0.648356 0.861295 0.791287
0.772747 0.875212 0.80853
0.861128 0.896941 0.841031
0.189517 0.161196 0.731289
0.2822 0.151476 0.724651
0.56788 0.14905 0.705608
0.765347 0.176349 0.735866
0.774578 0.19588 0.746212
0.142931 0.220859 0.759594
0.14548 0.219852 0.771389
0.533013 0.141695 0.70486
0.765774 0.176211 0.735882
0.777386 0.203616 0.749401
0.0953078 0.588006 0.820752
0.109316 0.586679 0.842954
0.469306 0.575799 0.866484
0.82475 0.53341 0.823514
0.780041 0.213672 0.753002
0.177905 0.801755 0.875196
0.167346 0.796796 0.877638
0.428092 0.794568 0.874418
0.776989 0.81239 0.889769
0.863478 0.745159 0.865751
0.549538 0.855299 0.865202
0.561074 0.856153 0.865827
0.608103 0.861524 0.867735
0.746395 0.883543 0.875608
0.875441 0.907073 0.892088
