bundles/resolve-cinematic-luts/Phantom Luts/A7s3 Phntm Film LUTs - G6/ATOMOS Monitor LUTs/Slog2+Sgamut3cine/Vision A7s3 Sl2sg3c-Legacy AML.cube
TITLE "Generated by Resolve"
LUT_3D_SIZE 5
0.0809339 0.091249 0.0835737
0.171542 0.0900587 0.0805829
0.466102 0.0786297 0.102434
0.770993 0.162661 0.308202
0.804456 0.317082 0.471504
0.0791485 0.21091 0.109728
0.181262 0.226001 0.0895705
0.521904 0.151354 0.113664
0.774868 0.154192 0.23975
0.808606 0.327703 0.451102
0.172564 0.570367 0.326009
0.18233 0.559609 0.257984
0.561868 0.593347 0.184741
0.780468 0.556344 0.337896
0.778897 0.410147 0.316167
0.372549 0.810727 0.555337
0.380133 0.807034 0.530465
0.564004 0.808911 0.533608
0.776745 0.820768 0.504524
0.826474 0.79733 0.542443
0.63389 0.837461 0.711666
0.613535 0.833555 0.692897
0.653895 0.836728 0.699184
0.761517 0.855985 0.734447
0.843809 0.877791 0.763149
0.0834974 0.0925917 0.171389
0.192599 0.0887312 0.160357
0.482979 0.0945449 0.216571
0.774792 0.18526 0.389899
0.809339 0.351995 0.530602
0.0698711 0.203708 0.17763
0.219471 0.23592 0.216358
0.563485 0.119127 0.155169
0.782574 0.189334 0.347372
0.825788 0.429129 0.569253
0.165927 0.573281 0.38294
0.178378 0.565789 0.326497
0.555795 0.587823 0.189914
0.780774 0.536553 0.365026
0.841016 0.464027 0.490959
0.374975 0.813779 0.578302
0.370169 0.811002 0.552911
0.546242 0.807874 0.533669
0.774319 0.819013 0.498039
0.828733 0.789166 0.5402
0.635203 0.838773 0.717617
0.630869 0.836713 0.709377
0.656062 0.837461 0.705959
0.758556 0.854307 0.732555
0.844038 0.876509 0.75877
0.105074 0.105623 0.405264
0.22472 0.0946975 0.399207
0.489204 0.106188 0.418067
0.749203 0.158404 0.538506
0.799649 0.308827 0.585397
0.0956588 0.157641 0.453315
0.147555 0.13962 0.500084
0.522179 0.114672 0.446723
0.750607 0.163638 0.523888
0.822843 0.432059 0.633768
0.0946822 0.556527 0.555123
0.101549 0.555932 0.554025
0.579538 0.593729 0.574395
0.842115 0.490227 0.52285
0.842756 0.539757 0.660197
0.33814 0.811093 0.656489
0.342718 0.809155 0.639689
0.530541 0.810697 0.622583
0.772213 0.82002 0.583734
0.838087 0.775097 0.616846
0.618616 0.841749 0.73286
0.617761 0.840269 0.726574
0.64654 0.839048 0.719234
0.754116 0.852689 0.737774
0.843717 0.875929 0.756695
0.143511 0.138033 0.598138
0.240055 0.113909 0.611063
0.502251 0.141405 0.586664
0.764538 0.180743 0.697002
0.773831 0.196933 0.706645
0.121187 0.171511 0.638209
0.149722 0.163821 0.687785
0.529183 0.149874 0.656916
0.763897 0.188357 0.70811
0.795148 0.289906 0.755856
0.0761425 0.535637 0.739178
0.0897688 0.529793 0.761929
0.536614 0.531121 0.830976
0.828321 0.463081 0.787137
0.829679 0.46598 0.781155
0.23827 0.808179 0.816159
0.235935 0.804746 0.81181
0.448585 0.802625 0.799969
0.798566 0.822095 0.807202
0.872068 0.763592 0.799054
0.557412 0.85304 0.787533
0.56611 0.853758 0.781353
0.609827 0.854978 0.774716
0.746212 0.865812 0.787655
0.850034 0.890318 0.813306
0.181186 0.178408 0.736797
0.24921 0.16907 0.732891
0.516075 0.150011 0.703929
0.763897 0.180484 0.734905
0.772457 0.194064 0.743923
0.140902 0.204639 0.737316
0.145754 0.209964 0.761044
0.482643 0.148638 0.709575
0.764508 0.180194 0.734752
0.77525 0.199512 0.747143
0.119295 0.54136 0.81294
0.144137 0.540444 0.844297
0.427955 0.52871 0.867094
0.817166 0.489174 0.816541
0.778027 0.20705 0.750729
0.162127 0.792401 0.882887
0.14815 0.786252 0.886229
0.375341 0.781781 0.880873
0.758785 0.792737 0.896696
0.868467 0.713054 0.867857
0.508705 0.853635 0.871595
0.519738 0.854398 0.870832
0.565515 0.857816 0.86981
0.708965 0.877363 0.874189
0.872755 0.904891 0.889448
