bundles/resolve-cinematic-luts/Phantom Luts/A7s3 Phntm Film LUTs - G6/ATOMOS Monitor LUTs/Slog2+Sgamut3cine/Vision A7s3 Sl2sg3c AML.cube
TITLE "Generated by Resolve"
LUT_3D_SIZE 9
0.0745403 0.0837262 0.075639
0.0847181 0.0827955 0.0732738
0.207401 0.0823529 0.0721294
0.366842 0.0690318 0.0822919
0.517082 0.0772412 0.123217
0.688319 0.118547 0.230533
0.778836 0.190646 0.358465
0.790356 0.277424 0.44654
0.807095 0.365286 0.522301
0.0746166 0.109895 0.0825055
0.088777 0.110124 0.080705
0.222538 0.0924849 0.0747234
0.38056 0.0890211 0.0773175
0.531304 0.0803082 0.093019
0.705501 0.119112 0.219623
0.773907 0.181155 0.367315
0.79266 0.28307 0.4336
0.810788 0.370977 0.51223
0.0802014 0.265721 0.124208
0.10219 0.2607 0.101686
0.241382 0.278614 0.0862898
0.450187 0.220478 0.124681
0.579751 0.178973 0.128969
0.704417 0.136049 0.138048
0.78555 0.181582 0.269566
0.793072 0.275944 0.408865
0.811734 0.376059 0.498573
0.109957 0.445243 0.219989
0.118166 0.437736 0.176608
0.212284 0.451286 0.168185
0.440726 0.461585 0.11873
0.616144 0.432319 0.196155
0.712215 0.407416 0.25716
0.774792 0.335027 0.25304
0.793103 0.308034 0.277455
0.82063 0.395071 0.453483
0.181308 0.614954 0.366537
0.185733 0.607752 0.33164
0.196139 0.601022 0.279744
0.385824 0.616419 0.274662
0.60145 0.631479 0.204791
0.7467 0.605005 0.30341
0.780667 0.604059 0.359319
0.777951 0.566522 0.357763
0.779049 0.469902 0.350652
0.293477 0.750835 0.499031
0.294179 0.747555 0.480385
0.298177 0.740734 0.442969
0.404257 0.743786 0.408591
0.54052 0.759152 0.405676
0.719951 0.761883 0.36144
0.811566 0.748852 0.454353
0.816388 0.742687 0.473289
0.803586 0.702037 0.452155
0.393103 0.809415 0.584283
0.390555 0.808331 0.573251
0.404623 0.805417 0.558495
0.481132 0.805692 0.548409
0.602136 0.810895 0.565942
0.687846 0.822843 0.554162
0.786877 0.82182 0.547021
0.831952 0.820233 0.608713
0.832685 0.806714 0.590738
0.537743 0.821546 0.656703
0.525582 0.820081 0.646021
0.528328 0.818998 0.639231
0.571496 0.8215 0.642542
0.641718 0.826246 0.655894
0.714717 0.83595 0.664836
0.766705 0.847578 0.657053
0.82887 0.853864 0.674311
0.843381 0.869963 0.730327
0.670451 0.843519 0.740826
0.656855 0.839902 0.729702
0.655497 0.838621 0.725261
0.664836 0.839307 0.724468
0.696803 0.843763 0.73283
0.748867 0.853254 0.751278
0.787564 0.867674 0.767971
0.818952 0.880568 0.770352
0.849119 0.88925 0.79939
0.0724651 0.0798199 0.0900282
0.0918441 0.0810712 0.0883955
0.233692 0.0768902 0.128359
0.382681 0.0725719 0.127062
0.536782 0.0815595 0.159915
0.700023 0.125078 0.26775
0.781506 0.197055 0.382055
0.793378 0.285603 0.464698
0.810178 0.373816 0.534829
0.0725719 0.107179 0.0928969
0.0958114 0.10724 0.0991226
0.264668 0.0873274 0.0793317
0.408652 0.0727092 0.0811017
0.548913 0.0785229 0.123323
0.707012 0.123186 0.252384
0.785046 0.202441 0.371328
0.796857 0.296864 0.462837
0.814755 0.389029 0.537575
0.0730449 0.270848 0.160739
0.0800183 0.264912 0.124956
0.238178 0.27454 0.0871901
0.45597 0.207019 0.12755
0.593194 0.161257 0.12845
0.736431 0.131151 0.17615
0.786908 0.20293 0.345693
0.797452 0.305653 0.450614
0.818906 0.404791 0.525841
0.106538 0.450965 0.263432
0.109529 0.44538 0.220218
0.164355 0.447898 0.167254
0.439826 0.460533 0.118547
0.620584 0.423209 0.207279
0.729793 0.380377 0.263478
0.784161 0.315892 0.259648
0.808042 0.332784 0.357015
0.823423 0.424048 0.529427
0.181628 0.618128 0.394919
0.179721 0.614389 0.364843
0.192981 0.605859 0.313603
0.372045 0.614389 0.284443
0.60058 0.630854 0.20383
0.74847 0.602365 0.315526
0.780331 0.597391 0.363638
0.778759 0.547539 0.364675
0.811276 0.492699 0.447425
0.294957 0.751629 0.515129
0.291386 0.751202 0.497673
0.298436 0.745388 0.466957
0.368307 0.743801 0.406867
0.535256 0.75761 0.407034
0.718242 0.760891 0.358679
0.811749 0.746609 0.457282
0.816083 0.740001 0.476234
0.80029 0.687541 0.456214
0.39382 0.809659 0.593133
0.390661 0.809628 0.582956
0.393896 0.806973 0.565225
0.46569 0.804974 0.547082
0.595056 0.810025 0.564538
0.684627 0.82208 0.553368
0.78587 0.82118 0.544289
0.832227 0.818662 0.607523
0.833906 0.80383 0.589487
0.537377 0.822293 0.660899
0.52845 0.820615 0.65211
0.524544 0.819532 0.64155
0.567605 0.820478 0.644541
0.637858 0.826307 0.65568
0.712062 0.835035 0.664912
0.765698 0.847303 0.655863
0.828061 0.8533 0.671489
0.843 0.869368 0.728603
0.674144 0.844892 0.745068
0.665171 0.841932 0.737133
0.66424 0.840711 0.733318
0.669535 0.840299 0.730404
0.701411 0.844694 0.738781
0.749493 0.854002 0.754162
0.78735 0.867536 0.769039
0.818708 0.880705 0.77084
0.849165 0.889342 0.799802
0.0803082 0.0835126 0.208621
0.133577 0.0820478 0.188449
0.231342 0.0747234 0.185153
0.376379 0.0755779 0.233631
0.535973 0.104433 0.280812
0.687282 0.131914 0.3402
0.779141 0.21799 0.44332
0.794293 0.306676 0.519066
0.814221 0.398245 0.577539
0.0768292 0.0987869 0.198581
0.0843061 0.0862745 0.244312
0.246906 0.0748913 0.198718
0.377997 0.0778668 0.210697
0.53698 0.0910048 0.221332
0.702602 0.133623 0.319539
0.782071 0.223056 0.431907
0.798932 0.330388 0.525154
0.82356 0.437766 0.59971
0.0697337 0.255573 0.233036
0.069688 0.257252 0.235966
0.277455 0.293462 0.271183
0.510094 0.205631 0.214282
0.628458 0.142641 0.207965
0.729366 0.13991 0.274601
0.785473 0.226093 0.394522
0.802304 0.344457 0.503273
0.828916 0.480781 0.617472
0.0886854 0.450065 0.319554
0.0959945 0.4495 0.294194
0.136629 0.447272 0.242023
0.440604 0.468666 0.193484
0.612909 0.415915 0.246342
0.745632 0.363119 0.288304
0.799496 0.334813 0.32163
0.806332 0.351247 0.460258
0.83209 0.499214 0.605524
0.170443 0.617288 0.430747
0.175204 0.616678 0.408774
0.190478 0.611093 0.367895
0.336706 0.611063 0.299367
0.596292 0.625635 0.21236
0.748638 0.602045 0.355688
0.781353 0.589151 0.390768
0.782696 0.529244 0.401282
0.844694 0.517403 0.545907
0.288304 0.749386 0.532204
0.289616 0.750561 0.52134
0.29453 0.750286 0.497932
0.325338 0.739651 0.41854
0.527367 0.755123 0.411841
0.71635 0.759213 0.356298
0.812451 0.744183 0.470268
0.815488 0.736492 0.49041
0.79585 0.669551 0.472343
0.389395 0.809659 0.605356
0.388464 0.809628 0.597101
0.390738 0.809384 0.582086
0.433967 0.804395 0.548409
0.583398 0.809689 0.565942
0.680461 0.821332 0.554177
0.784604 0.819638 0.540459
0.833326 0.816846 0.608377
0.83592 0.800565 0.589517
0.532937 0.823056 0.667216
0.522774 0.821653 0.657771
0.525567 0.820356 0.649805
0.553323 0.820218 0.643702
0.628565 0.826276 0.654398
0.70869 0.833906 0.664744
0.763073 0.846494 0.653864
0.82623 0.852079 0.667308
0.842268 0.868254 0.72517
0.670344 0.845029 0.745998
0.661158 0.842359 0.737881
0.667201 0.842618 0.738598
0.671717 0.840955 0.734096
0.699733 0.844694 0.739467
0.745434 0.853147 0.752529
0.785245 0.866377 0.767239
0.817105 0.879438 0.767895
0.848478 0.888457 0.795041
0.0885481 0.0878004 0.340215
0.14902 0.081178 0.3393
0.255192 0.0818341 0.310079
0.37966 0.0753185 0.318471
0.541451 0.108263 0.387976
0.682399 0.138949 0.453788
0.76405 0.186984 0.490379
0.791699 0.291447 0.545708
0.811688 0.390463 0.596185
0.0797742 0.094789 0.348775
0.0938888 0.0894942 0.371374
0.243275 0.0811627 0.339117
0.384649 0.0759747 0.323812
0.541634 0.106081 0.380911
0.688945 0.143893 0.439078
0.771939 0.205249 0.48542
0.796139 0.314565 0.552117
0.818601 0.421088 0.611048
0.0696574 0.233661 0.38938
0.0760815 0.224231 0.416754
0.228855 0.217075 0.472663
0.473426 0.159686 0.410315
0.560891 0.113817 0.378744
0.706172 0.151888 0.40325
0.774807 0.227237 0.476463
0.802594 0.357794 0.562783
0.829725 0.489113 0.647364
0.0706035 0.437018 0.428092
0.0706035 0.437827 0.429496
0.0790875 0.438056 0.427756
0.473854 0.487282 0.465171
0.681086 0.409812 0.418067
0.784604 0.341238 0.39704
0.79266 0.277058 0.424491
0.807263 0.378561 0.532357
0.835828 0.529458 0.654246
0.123507 0.615747 0.503151
0.130114 0.615763 0.491936
0.159243 0.613077 0.467735
0.366659 0.623545 0.454566
0.598657 0.638621 0.419059
0.741924 0.601251 0.441138
0.793759 0.554391 0.457954
0.815 0.515587 0.477516
0.838087 0.541222 0.643397
0.266835 0.748348 0.576852
0.268528 0.748547 0.56791
0.280262 0.747539 0.550423
0.327642 0.743587 0.50457
0.546593 0.756939 0.515496
0.712139 0.760601 0.447379
0.813458 0.740368 0.513313
0.815778 0.729793 0.532982
0.807172 0.651041 0.548684
0.379461 0.809628 0.631922
0.377493 0.809277 0.624689
0.382025 0.808637 0.612726
0.399573 0.807919 0.582773
0.549599 0.810086 0.576486
0.673381 0.819898 0.565988
0.782589 0.818173 0.538872
0.836988 0.816434 0.622797
0.841108 0.798383 0.6121
0.526909 0.824842 0.682811
0.516518 0.823835 0.674601
0.517128 0.823056 0.667292
0.535836 0.821744 0.654276
0.607843 0.824887 0.655436
0.703563 0.833066 0.671473
0.760342 0.846525 0.657374
0.824918 0.851087 0.664591
0.843442 0.86891 0.730327
0.665003 0.845853 0.75024
0.655253 0.843442 0.742473
0.661295 0.844053 0.743038
0.671519 0.843473 0.741039
0.692088 0.844236 0.740093
0.738979 0.852476 0.75227
0.7841 0.865568 0.767529
0.81622 0.879179 0.768078
0.848005 0.888121 0.79411
0.10721 0.0972763 0.448875
0.159335 0.0868391 0.458351
0.270069 0.0867323 0.433829
0.400183 0.0961929 0.427832
0.545144 0.110475 0.474372
0.700725 0.159197 0.545617
0.762188 0.183505 0.594903
0.774273 0.221164 0.60058
0.801526 0.354299 0.628443
0.0964065 0.103532 0.470344
0.117433 0.100771 0.478538
0.248432 0.0885939 0.466728
0.400931 0.0977798 0.439231
0.550698 0.112062 0.479423
0.702571 0.15816 0.543832
0.762432 0.181811 0.591669
0.780133 0.253422 0.606287
0.815259 0.423743 0.653696
0.0975052 0.189303 0.520607
0.0997787 0.18056 0.533654
0.17583 0.15494 0.562173
0.416495 0.119158 0.4972
0.577935 0.121798 0.50367
0.704036 0.155886 0.538216
0.759564 0.173846 0.573007
0.788586 0.297978 0.607874
0.825223 0.484047 0.677958
0.0705272 0.421118 0.555383
0.0706188 0.419959 0.569024
0.0704662 0.408988 0.593469
0.433341 0.418067 0.647303
0.656641 0.378363 0.595834
0.755306 0.281941 0.576913
0.767178 0.190555 0.534478
0.798627 0.351064 0.602029
0.835813 0.533852 0.695842
0.0933242 0.603464 0.607477
0.0927901 0.603723 0.607309
0.101671 0.603189 0.605997
0.283955 0.617502 0.608301
0.626184 0.641825 0.623468
0.794781 0.590204 0.596994
0.846159 0.542428 0.576486
0.824735 0.47364 0.592538
0.847272 0.588998 0.703197
0.183627 0.751522 0.659358
0.183612 0.752041 0.654215
0.194629 0.751263 0.64387
0.265736 0.742611 0.606332
0.586984 0.760266 0.637644
0.724346 0.765484 0.606744
0.811429 0.739834 0.607111
0.818524 0.712123 0.59997
0.861799 0.625742 0.633631
0.331395 0.814115 0.689052
0.331411 0.813382 0.682368
0.340932 0.811307 0.672068
0.374746 0.807248 0.646738
0.571969 0.814618 0.657389
0.700755 0.82182 0.669642
0.785336 0.825956 0.628931
0.846464 0.815839 0.655558
0.845121 0.7944 0.65977
0.505104 0.829328 0.712047
0.497826 0.828382 0.70515
0.505791 0.827543 0.699565
0.527382 0.826947 0.690532
0.567224 0.825055 0.669779
0.686732 0.834257 0.688182
0.757061 0.848188 0.67335
0.824323 0.851118 0.665705
0.845441 0.871183 0.744533
0.653941 0.848356 0.75906
0.646479 0.84596 0.752956
0.654414 0.846937 0.754299
0.664485 0.846784 0.752819
0.6822 0.845747 0.747723
0.72604 0.850675 0.753475
0.781811 0.864668 0.769985
0.815549 0.879454 0.771542
0.847898 0.887953 0.793637
0.129702 0.113375 0.547478
0.185794 0.114199 0.558648
0.284977 0.0964828 0.545144
0.41207 0.106386 0.526497
0.552514 0.12221 0.558602
0.701747 0.150805 0.621714
0.766766 0.180865 0.665354
0.77171 0.192035 0.681498
0.784543 0.25478 0.694423
0.121035 0.118761 0.566613
0.137621 0.117723 0.572
0.254765 0.0973068 0.569833
0.417075 0.108003 0.549844
0.55523 0.126833 0.566064
0.705379 0.151904 0.625925
0.766751 0.181353 0.665858
0.772564 0.193301 0.682918
0.797147 0.32256 0.712902
0.112383 0.174395 0.612665
0.113588 0.170336 0.62324
0.153079 0.134981 0.628351
0.397238 0.115557 0.600931
0.589929 0.155673 0.615915
0.713619 0.155566 0.634409
0.766979 0.182223 0.667826
0.773785 0.198093 0.685496
0.814954 0.429435 0.735378
0.102083 0.407065 0.680308
0.109667 0.402243 0.691417
0.128573 0.384939 0.716838
0.39527 0.372213 0.750851
0.624659 0.318181 0.703761
0.741878 0.217075 0.665843
0.770459 0.197101 0.662867
0.776471 0.219043 0.681193
0.826612 0.504189 0.739147
0.0712444 0.580728 0.69865
0.0712902 0.579309 0.704479
0.0711681 0.57702 0.714565
0.16672 0.590448 0.753964
0.603296 0.595361 0.772564
0.783963 0.582223 0.74551
0.829038 0.533471 0.732921
0.80557 0.415229 0.684199
0.839994 0.568109 0.743633
0.1635 0.740871 0.748577
0.1617 0.74078 0.74818
0.166018 0.740291 0.747387
0.198108 0.735729 0.740063
0.530526 0.757626 0.74377
0.743206 0.761608 0.746517
0.841443 0.732479 0.731289
0.865934 0.688334 0.71664
0.851484 0.610391 0.713237
0.274556 0.816449 0.771908
0.272129 0.816251 0.767666
0.276097 0.814847 0.76141
0.288426 0.81239 0.746365
0.521279 0.818601 0.732341
0.725124 0.825605 0.754452
0.794522 0.835798 0.746487
0.855177 0.820127 0.734325
0.853284 0.801968 0.75317
0.435065 0.839368 0.764416
0.425086 0.838972 0.759014
0.435355 0.838529 0.753704
0.471275 0.83827 0.745678
0.541573 0.83624 0.731044
0.712535 0.85008 0.757504
0.78735 0.867704 0.771954
0.830518 0.875639 0.759319
0.84828 0.875746 0.771282
0.631632 0.85301 0.772946
0.625422 0.851499 0.768734
0.637095 0.852354 0.769497
0.649912 0.852552 0.769207
0.671992 0.853086 0.768154
0.702815 0.850553 0.759838
0.772854 0.863981 0.774884
0.816129 0.881071 0.781521
0.849332 0.888991 0.797818
0.153277 0.131411 0.630854
0.195727 0.131304 0.639399
0.288899 0.107271 0.634897
0.430594 0.120592 0.623026
0.557153 0.145006 0.628107
0.700313 0.159655 0.675975
0.765423 0.185245 0.712581
0.770672 0.196048 0.721431
0.774243 0.207156 0.721691
0.143847 0.137041 0.645548
0.151415 0.137621 0.651377
0.253147 0.106966 0.650202
0.431266 0.124147 0.64358
0.563058 0.147723 0.64062
0.70454 0.161547 0.682002
0.765743 0.185275 0.715801
0.771801 0.197299 0.724086
0.775082 0.210086 0.722637
0.129549 0.195727 0.693614
0.130999 0.193912 0.702907
0.151904 0.153826 0.701442
0.385718 0.124147 0.675135
0.58407 0.156573 0.681666
0.723445 0.169085 0.703243
0.767102 0.186084 0.722286
0.772793 0.201083 0.727352
0.797498 0.3178 0.763867
0.137423 0.394934 0.751797
0.139574 0.387335 0.759121
0.144488 0.367132 0.776104
0.36083 0.354253 0.80795
0.598138 0.291569 0.766033
0.729091 0.211765 0.724071
0.771206 0.196323 0.723842
0.773999 0.203189 0.728252
0.818357 0.427787 0.788174
0.0713664 0.583108 0.766751
0.0734722 0.581048 0.77351
0.0796216 0.57763 0.783154
0.189441 0.581003 0.819699
0.585016 0.577386 0.842268
0.771832 0.56083 0.808179
0.833906 0.507149 0.797375
0.806332 0.369985 0.76791
0.836103 0.510353 0.793652
0.116121 0.723156 0.800458
0.112749 0.721263 0.802304
0.1187 0.720455 0.805325
0.163439 0.7196 0.813199
0.497078 0.732036 0.826368
0.724804 0.73431 0.835462
0.83653 0.723659 0.815656
0.861631 0.684352 0.808988
0.840894 0.559136 0.770413
0.267216 0.811749 0.824247
0.263874 0.811078 0.823407
0.265202 0.809781 0.821271
0.274037 0.807446 0.818097
0.493721 0.811292 0.811231
0.686 0.826658 0.812222
0.80975 0.836347 0.819577
0.863966 0.818387 0.812284
0.867536 0.789425 0.812985
0.389075 0.84332 0.818143
0.385199 0.843168 0.816205
0.392905 0.842832 0.812436
0.421469 0.844099 0.807889
0.487282 0.846021 0.797253
0.670573 0.86099 0.794415
0.798337 0.877348 0.822797
0.847852 0.886473 0.831785
0.855436 0.880079 0.816663
0.600473 0.85655 0.801022
0.593881 0.855833 0.797513
0.608972 0.857328 0.796002
0.624262 0.858732 0.794018
0.648356 0.861295 0.791287
0.684169 0.862074 0.788281
0.772747 0.875212 0.80853
0.837888 0.890318 0.832959
0.861128 0.896941 0.841031
0.177752 0.148531 0.69604
0.188754 0.147158 0.696056
0.279255 0.115007 0.689174
0.439078 0.130571 0.684092
0.55819 0.147005 0.674983
0.686992 0.160311 0.700374
0.767987 0.180774 0.737713
0.772396 0.189975 0.743603
0.775677 0.19968 0.746838
0.165255 0.152041 0.701457
0.170108 0.155108 0.709789
0.267399 0.149599 0.707683
0.430549 0.131746 0.695583
0.576089 0.151629 0.69366
0.690333 0.164096 0.706508
0.76817 0.18114 0.73872
0.772686 0.191043 0.743984
0.776745 0.202457 0.747936
0.138613 0.213474 0.738628
0.140017 0.214328 0.745846
0.143969 0.189227 0.755947
0.355657 0.126864 0.712352
0.566781 0.148684 0.70721
0.729397 0.17525 0.732494
0.768551 0.181903 0.7393
0.77377 0.194171 0.745235
0.780316 0.217578 0.752529
0.14696 0.394537 0.784115
0.14931 0.387549 0.792004
0.153841 0.371252 0.808606
0.290333 0.340627 0.82092
0.567056 0.288624 0.782574
0.715038 0.236835 0.746273
0.774655 0.196094 0.746258
0.774655 0.196094 0.746288
0.800076 0.328984 0.778943
0.0859083 0.586892 0.803098
0.0910201 0.584619 0.810636
0.100481 0.580026 0.82269
0.180072 0.570504 0.851255
0.560204 0.576486 0.869673
0.755306 0.558724 0.837552
0.834241 0.51075 0.819593
0.80206 0.339727 0.781262
0.818967 0.42678 0.801465
0.0801862 0.716396 0.831434
0.0793011 0.715511 0.834638
0.076524 0.711009 0.837751
0.100557 0.709987 0.848768
0.46128 0.727214 0.86949
0.708553 0.72369 0.884428
0.82594 0.713222 0.861295
0.861204 0.671122 0.852155
0.83975 0.527947 0.823468
0.239185 0.806043 0.856794
0.237842 0.804623 0.857343
0.242557 0.802594 0.857969
0.270695 0.798093 0.857954
0.453574 0.80235 0.862943
0.662852 0.812421 0.873167
0.794614 0.819181 0.875807
0.862974 0.807797 0.861158
0.865705 0.756344 0.84947
0.355001 0.841733 0.856855
0.351278 0.840803 0.856046
0.363256 0.840742 0.855207
0.387655 0.841627 0.8542
0.468849 0.843641 0.850874
0.651484 0.858763 0.850904
0.775586 0.877104 0.859998
0.855222 0.888624 0.872602
0.874113 0.88777 0.877394
0.572824 0.857359 0.837812
0.568139 0.856931 0.83595
0.58497 0.858625 0.834043
0.601831 0.860288 0.832853
0.627726 0.863584 0.831968
0.659953 0.867353 0.829541
0.759136 0.884474 0.840391
0.843153 0.900008 0.869062
0.878157 0.903288 0.881865
0.189517 0.161196 0.731289
0.188083 0.161242 0.730922
0.2822 0.151476 0.724651
0.43093 0.133806 0.709743
0.56788 0.14905 0.705608
0.687739 0.179538 0.723308
0.765347 0.176349 0.735866
0.770397 0.186191 0.741283
0.774578 0.19588 0.746212
0.176669 0.163012 0.731106
0.179019 0.164675 0.737041
0.244205 0.156329 0.729809
0.412955 0.132891 0.710948
0.576623 0.151614 0.708736
0.69044 0.178927 0.724834
0.764492 0.174395 0.735225
0.770443 0.18645 0.741421
0.775662 0.197742 0.747539
0.142931 0.220859 0.759594
0.143908 0.222721 0.766323
0.14548 0.219852 0.771389
0.284474 0.134325 0.721035
0.533013 0.141695 0.70486
0.718898 0.175174 0.729946
0.765774 0.176211 0.735882
0.770596 0.18677 0.74168
0.777386 0.203616 0.749401
0.151141 0.395972 0.800229
0.153613 0.393576 0.808026
0.15845 0.38996 0.826688
0.168734 0.358999 0.823453
0.518791 0.31165 0.7991
0.69276 0.260121 0.752499
0.773922 0.196033 0.74612
0.771908 0.189166 0.743053
0.778073 0.208972 0.750896
0.0953078 0.588006 0.820752
0.100923 0.586801 0.829343
0.109316 0.586679 0.842954
0.123613 0.571038 0.85127
0.469306 0.575799 0.866484
0.711803 0.565805 0.853223
0.82475 0.53341 0.823514
0.809369 0.378454 0.789578
0.780041 0.213672 0.753002
0.0753033 0.715938 0.847456
0.0745556 0.715419 0.851453
0.0724651 0.712657 0.855955
0.0727245 0.703624 0.859739
0.383886 0.716182 0.86894
0.674296 0.722881 0.887587
0.803311 0.716884 0.8701
0.861585 0.679179 0.856092
0.83418 0.502846 0.817578
0.177905 0.801755 0.875196
0.165331 0.79913 0.876051
0.167346 0.796796 0.877638
0.214984 0.792874 0.876753
0.428092 0.794568 0.874418
0.642115 0.805737 0.884428
0.776989 0.81239 0.889769
0.855421 0.802792 0.876234
0.863478 0.745159 0.865751
0.34316 0.834546 0.873732
0.337179 0.833295 0.87509
0.33724 0.8327 0.875746
0.369619 0.832883 0.874678
0.499748 0.837049 0.870008
0.636255 0.847684 0.874235
0.759121 0.866987 0.882475
0.84036 0.881636 0.889281
0.868574 0.867536 0.887465
0.549538 0.855299 0.865202
0.545052 0.854582 0.8645
0.561074 0.856153 0.865827
0.578912 0.857679 0.86659
0.608103 0.861524 0.867735
0.645701 0.866758 0.86891
0.746395 0.883543 0.875608
0.834485 0.902434 0.888487
0.875441 0.907073 0.892088
