bundles/resolve-cinematic-luts/Phantom Luts/A7s3 Phntm Film LUTs - G6/ATOMOS Monitor LUTs/Slog2+Sgamut3cine/VisionTeal A7s3 Sl2sg3c AML.cube
TITLE "Generated by Resolve"
LUT_3D_SIZE 33
0.0723278 0.0846418 0.0833295
0.0723125 0.0846265 0.0833143
0.0723125 0.0846113 0.0833143
0.0723278 0.0844434 0.0833295
0.0813001 0.0824445 0.0842145
0.104784 0.0802014 0.0834058
0.135683 0.0766461 0.0800488
0.171832 0.0754711 0.0767376
0.215885 0.0722362 0.0735027
0.258991 0.0673533 0.0714427
0.300298 0.0645609 0.0742962
0.336767 0.0641184 0.0800488
0.371099 0.0638437 0.0877394
0.407279 0.0636301 0.0884718
0.442878 0.0636759 0.0998398
0.477958 0.0666209 0.112123
0.517052 0.0695048 0.126802
0.554696 0.0735332 0.145769
0.593576 0.0799878 0.174456
0.639902 0.094255 0.205554
0.678935 0.109819 0.23917
0.71368 0.128878 0.273259
0.740353 0.147326 0.30547
0.759106 0.167575 0.336446
0.768109 0.188724 0.362463
0.769558 0.208484 0.382055
0.770169 0.230426 0.399649
0.771695 0.25185 0.418219
0.773907 0.272389 0.437461
0.776547 0.293339 0.456977
0.780102 0.316808 0.476127
0.784512 0.340902 0.495872
0.787884 0.363195 0.512749
0.0723278 0.0846418 0.0833295
0.0723278 0.0846418 0.0833295
0.0723125 0.0846265 0.0833143
0.0723125 0.0845045 0.0833753
0.0842756 0.0825666 0.0843977
0.107439 0.0803235 0.0832685
0.138827 0.0768292 0.0801251
0.174426 0.0752422 0.0768902
0.219654 0.0717327 0.0734264
0.263478 0.0673533 0.0717784
0.3037 0.0646372 0.0747539
0.339025 0.0640879 0.0800946
0.373465 0.0638437 0.0886091
0.408927 0.0635386 0.0890669
0.446113 0.0645304 0.0946365
0.485466 0.0662394 0.107439
0.523186 0.0690776 0.124025
0.560479 0.0733501 0.144045
0.599466 0.0803998 0.172686
0.644373 0.0942702 0.205676
0.680797 0.10837 0.242664
0.715099 0.127932 0.270924
0.741955 0.147021 0.301198
0.760433 0.169543 0.33341
0.768292 0.189929 0.358633
0.770199 0.21001 0.37908
0.771282 0.232181 0.397116
0.772351 0.253223 0.415412
0.774548 0.274174 0.434043
0.776715 0.294942 0.454124
0.780789 0.318563 0.474449
0.784604 0.34258 0.493202
0.788846 0.365469 0.511727
0.0723125 0.0846723 0.0833295
0.0723125 0.0846723 0.0833143
0.0723125 0.0846876 0.0833448
0.0723125 0.084535 0.0834516
0.0820783 0.0839704 0.084062
0.105455 0.0814221 0.0831617
0.137148 0.0779583 0.0801404
0.173007 0.0763409 0.0772412
0.219104 0.0725872 0.0736858
0.263554 0.06804 0.0717479
0.304204 0.0648966 0.074052
0.341085 0.0640116 0.078233
0.377691 0.0637064 0.0807355
0.413718 0.0635538 0.0805219
0.452705 0.0648814 0.088014
0.492729 0.0666056 0.103365
0.526101 0.0689555 0.117372
0.564157 0.0742504 0.136828
0.607965 0.0823377 0.167285
0.647715 0.0938888 0.205295
0.683818 0.107576 0.242908
0.716884 0.127153 0.272618
0.741787 0.14464 0.303868
0.759915 0.166537 0.331136
0.768582 0.190784 0.354345
0.771298 0.211612 0.375723
0.771847 0.233646 0.393912
0.772747 0.25452 0.411597
0.775326 0.2757 0.431846
0.777676 0.296757 0.452064
0.781704 0.320653 0.471595
0.785336 0.344656 0.490822
0.789136 0.367102 0.509896
0.0725719 0.0874495 0.0830396
0.0725872 0.0873884 0.082887
0.0725872 0.0871443 0.082948
0.0725872 0.0869001 0.0834669
0.0785382 0.0872358 0.0840314
0.0969406 0.0857099 0.0840162
0.133883 0.0823987 0.0806134
0.171939 0.080705 0.0785534
0.220768 0.0783398 0.075639
0.267674 0.0754101 0.0729992
0.312306 0.0719005 0.0720531
0.349813 0.0676432 0.0718547
0.382925 0.0677958 0.0734112
0.418769 0.0654459 0.0748608
0.457816 0.0648051 0.0809339
0.491463 0.0651408 0.0907759
0.526757 0.0693217 0.105745
0.56994 0.0757153 0.129793
0.613123 0.0831769 0.159899
0.653376 0.0962844 0.196078
0.690547 0.110536 0.237385
0.718517 0.126467 0.274128
0.742718 0.143404 0.306081
0.759396 0.16495 0.33254
0.762768 0.177783 0.376104
0.770245 0.209735 0.377096
0.772488 0.234958 0.389166
0.773159 0.256016 0.407889
0.775723 0.276967 0.427726
0.778256 0.298238 0.447608
0.782422 0.322927 0.468513
0.785992 0.346242 0.488609
0.789975 0.36875 0.507439
0.0712749 0.112337 0.0845197
0.0713207 0.110414 0.0833448
0.0712902 0.107958 0.0823377
0.0769055 0.106996 0.0846113
0.090959 0.108827 0.0860456
0.114961 0.107179 0.0841382
0.144121 0.104326 0.0849775
0.184329 0.0988479 0.082063
0.231373 0.091722 0.0779889
0.277134 0.0861677 0.0751812
0.321233 0.0849012 0.075639
0.356527 0.0826429 0.0757305
0.387701 0.0797742 0.0747539
0.421408 0.0755932 0.0744945
0.458259 0.0691997 0.0751812
0.488731 0.0637827 0.0770886
0.527916 0.069749 0.0926986
0.568856 0.0732586 0.115587
0.613092 0.0838636 0.144732
0.660685 0.0999466 0.184787
0.696284 0.112993 0.227634
0.725719 0.129549 0.266667
0.747295 0.145846 0.301854
0.759655 0.16379 0.333074
0.76199 0.175463 0.376989
0.770092 0.204715 0.378882
0.772534 0.236713 0.383322
0.774166 0.257832 0.402121
0.776181 0.279179 0.422797
0.778637 0.299809 0.443122
0.782574 0.324941 0.464286
0.786831 0.348455 0.484077
0.790295 0.370626 0.503716
0.0704662 0.146181 0.0876936
0.0705577 0.14435 0.0861372
0.0706493 0.140078 0.0820478
0.079469 0.139345 0.0859236
0.0978408 0.144015 0.0904555
0.125368 0.143847 0.0891432
0.15169 0.140459 0.0846265
0.197894 0.133074 0.0857862
0.245609 0.12282 0.0846113
0.2916 0.110582 0.0822766
0.330541 0.102358 0.080293
0.363897 0.095613 0.0779278
0.394842 0.092256 0.0771649
0.430533 0.0903029 0.0785687
0.461936 0.0849775 0.0782177
0.492653 0.0789197 0.0797436
0.529061 0.0717479 0.0836805
0.562402 0.0684062 0.0962387
0.61207 0.0834058 0.12903
0.655131 0.0930343 0.161532
0.698207 0.11339 0.205478
0.732921 0.132555 0.253849
0.753597 0.149264 0.290608
0.763775 0.167437 0.323735
0.767803 0.185061 0.350683
0.770123 0.203418 0.37554
0.772168 0.230457 0.382193
0.775082 0.260288 0.396353
0.776394 0.281224 0.416281
0.779507 0.302861 0.436774
0.783108 0.327459 0.458351
0.787839 0.351461 0.479774
0.791333 0.373342 0.499275
0.0699931 0.180911 0.0906691
0.0699321 0.178302 0.0882277
0.0697948 0.1738 0.0846876
0.0795758 0.170855 0.0841535
0.102602 0.176959 0.0894636
0.13022 0.180514 0.0919966
0.157275 0.178653 0.0868696
0.193683 0.172885 0.0835431
0.258213 0.161883 0.0876173
0.316915 0.146197 0.0894179
0.355016 0.135744 0.0882429
0.388052 0.124285 0.086244
0.418173 0.116564 0.0851148
0.44596 0.108537 0.0832837
0.474693 0.103929 0.0838941
0.50663 0.101869 0.0873121
0.539071 0.0936141 0.0896773
0.568933 0.0829786 0.0925307
0.604257 0.0753948 0.106203
0.643519 0.0815595 0.134051
0.696681 0.108049 0.1794
0.731655 0.126772 0.225971
0.759625 0.155581 0.272725
0.766827 0.171527 0.306996
0.77023 0.189334 0.337728
0.771817 0.207813 0.361242
0.772091 0.227359 0.383566
0.774823 0.254017 0.390066
0.775998 0.277256 0.421286
0.780819 0.306386 0.429282
0.783413 0.329351 0.452064
0.788174 0.354635 0.47071
0.792065 0.376471 0.49102
0.0696422 0.221073 0.0915389
0.0693675 0.217487 0.0876326
0.0693523 0.212024 0.0859388
0.073167 0.206516 0.0787213
0.0989242 0.213855 0.0846876
0.130602 0.219257 0.0898756
0.156359 0.224674 0.0915389
0.197269 0.224247 0.0843824
0.245426 0.217014 0.0817884
0.315831 0.208972 0.0924849
0.373877 0.193591 0.103365
0.421668 0.176501 0.10486
0.449561 0.166735 0.104784
0.48014 0.156619 0.104265
0.507439 0.147189 0.103182
0.533318 0.136431 0.101823
0.560296 0.128557 0.103456
0.591546 0.123995 0.110185
0.62089 0.107149 0.113603
0.649927 0.090013 0.118364
0.684199 0.0913863 0.148684
0.728298 0.120531 0.190402
0.756115 0.144778 0.239078
0.770306 0.174212 0.27863
0.772503 0.194141 0.313939
0.773999 0.212741 0.343236
0.773434 0.23209 0.369162
0.774212 0.251148 0.390036
0.775265 0.269093 0.413382
0.779217 0.302449 0.430793
0.782177 0.32221 0.460899
0.787671 0.351919 0.473747
0.793103 0.379339 0.48629
0.0695048 0.268406 0.103044
0.0691539 0.263539 0.101228
0.0692302 0.257557 0.0932174
0.0690013 0.248615 0.0809796
0.0986954 0.256092 0.0859693
0.132799 0.263203 0.0928969
0.162432 0.267353 0.0965896
0.197192 0.271992 0.0954757
0.24622 0.269642 0.085008
0.296101 0.263203 0.0833143
0.361273 0.258045 0.0951858
0.417487 0.247257 0.109743
0.466941 0.231418 0.119631
0.500252 0.221073 0.122377
0.531777 0.206378 0.124681
0.562722 0.194675 0.126757
0.592081 0.183062 0.128405
0.617594 0.16762 0.127794
0.643 0.154971 0.130541
0.674372 0.147646 0.139467
0.698146 0.123339 0.140932
0.724163 0.113085 0.157717
0.747372 0.121202 0.193713
0.768521 0.162036 0.239536
0.775357 0.187686 0.276295
0.776028 0.222583 0.311894
0.775525 0.239719 0.343236
0.775876 0.257389 0.371664
0.776669 0.274784 0.397681
0.778592 0.292363 0.416434
0.780941 0.319463 0.460426
0.785489 0.345495 0.480903
0.79057 0.372732 0.494835
0.0708171 0.316213 0.122057
0.0708171 0.311772 0.115328
0.0714275 0.306294 0.106432
0.0723735 0.299123 0.0952163
0.0944991 0.298726 0.0884871
0.1252 0.304967 0.0941939
0.160235 0.308553 0.100084
0.200565 0.310903 0.102785
0.240406 0.3149 0.0982071
0.29276 0.313848 0.0871595
0.34432 0.3084 0.0856641
0.405066 0.307652 0.10045
0.460334 0.303029 0.118669
0.505348 0.291997 0.135103
0.545693 0.279576 0.144198
0.57113 0.274296 0.146517
0.606897 0.253986 0.149737
0.637491 0.238636 0.150561
0.666056 0.222034 0.152071
0.693568 0.202075 0.155062
0.718517 0.182055 0.158846
0.74258 0.171359 0.169085
0.758419 0.150546 0.170825
0.763226 0.130846 0.185519
0.776486 0.171435 0.227497
0.781445 0.211414 0.270207
0.779522 0.247349 0.30251
0.779385 0.26894 0.338643
0.780133 0.284688 0.371069
0.781186 0.302235 0.398444
0.783307 0.320684 0.42414
0.786999 0.349523 0.471382
0.790021 0.370581 0.497627
0.0776532 0.36051 0.138094
0.0777295 0.356802 0.130373
0.0778973 0.35111 0.120638
0.0788586 0.345678 0.1093
0.0910201 0.340505 0.0959793
0.117693 0.344228 0.0979629
0.149844 0.348714 0.104295
0.19649 0.351278 0.110582
0.242634 0.350958 0.109285
0.284153 0.357549 0.103349
0.336919 0.35436 0.0940108
0.389212 0.35172 0.0906691
0.448218 0.35523 0.108171
0.500374 0.356756 0.129961
0.545541 0.351308 0.150195
0.585397 0.341695 0.167483
0.609659 0.338857 0.175494
0.64361 0.324315 0.179675
0.677378 0.302113 0.181582
0.706538 0.286305 0.182376
0.731456 0.267796 0.18378
0.749676 0.24416 0.181872
0.771115 0.21915 0.189578
0.781506 0.210575 0.200565
0.780011 0.180743 0.194095
0.784833 0.203342 0.227298
0.783032 0.244434 0.262959
0.784176 0.267079 0.294621
0.783154 0.29987 0.335027
0.783993 0.314687 0.374121
0.786847 0.334478 0.40444
0.789853 0.360128 0.455283
0.793271 0.379995 0.484688
0.0851606 0.404257 0.156924
0.0858015 0.40148 0.149432
0.0856184 0.395285 0.137011
0.0881361 0.39237 0.129229
0.0931106 0.386374 0.114748
0.111254 0.384863 0.109621
0.142596 0.388708 0.112703
0.18262 0.390936 0.118349
0.242664 0.389838 0.12253
0.286671 0.39115 0.118196
0.328664 0.398169 0.108721
0.379263 0.394476 0.106584
0.434714 0.395544 0.10193
0.48925 0.401099 0.119081
0.541558 0.406775 0.144884
0.583108 0.405325 0.166705
0.624979 0.398535 0.18941
0.649042 0.395117 0.201709
0.676524 0.387411 0.216281
0.710567 0.368917 0.221317
0.737133 0.349096 0.222599
0.758373 0.332815 0.223087
0.774517 0.312901 0.22153
0.782635 0.289708 0.217838
0.782788 0.261295 0.211658
0.783352 0.249302 0.21796
0.783688 0.24831 0.234516
0.784649 0.276585 0.267781
0.784573 0.317388 0.309651
0.787503 0.336614 0.344854
0.791135 0.352407 0.375204
0.794339 0.368063 0.408453
0.796933 0.391287 0.467887
0.0948501 0.448692 0.181552
0.0946975 0.446128 0.172427
0.0964828 0.440131 0.158953
0.101579 0.43801 0.151141
0.107286 0.433783 0.139406
0.111742 0.428397 0.126284
0.136614 0.427466 0.123857
0.171389 0.430426 0.128298
0.230808 0.428656 0.132174
0.292332 0.427634 0.135012
0.330205 0.4318 0.127581
0.375677 0.439796 0.117128
0.424811 0.435798 0.123644
0.478721 0.438727 0.117861
0.529168 0.445212 0.134554
0.580606 0.452186 0.162692
0.620905 0.455177 0.187793
0.660792 0.451041 0.216678
0.688182 0.448051 0.233448
0.709758 0.444297 0.244755
0.733623 0.432639 0.258991
0.758541 0.413962 0.262562
0.776471 0.397436 0.263752
0.784176 0.376593 0.260822
0.785092 0.355795 0.254246
0.785031 0.33286 0.247471
0.784421 0.307927 0.242924
0.784222 0.286503 0.243061
0.785824 0.316487 0.279057
0.786679 0.34876 0.318257
0.79089 0.383307 0.35903
0.795514 0.395361 0.393103
0.80032 0.405997 0.414801
0.106447 0.492485 0.214282
0.108812 0.490532 0.203616
0.11516 0.485145 0.188006
0.119539 0.481422 0.177432
0.122347 0.479667 0.169284
0.125261 0.475731 0.155764
0.132052 0.470451 0.140215
0.163424 0.46862 0.137804
0.215869 0.467674 0.142794
0.282994 0.465599 0.148165
0.343191 0.465309 0.146822
0.37525 0.471565 0.138842
0.423285 0.480278 0.13077
0.468391 0.477043 0.140551
0.520348 0.480125 0.136034
0.569268 0.487709 0.151598
0.620615 0.495125 0.184604
0.658701 0.500282 0.214817
0.696834 0.498909 0.244526
0.721874 0.497292 0.261357
0.738781 0.49688 0.272496
0.758511 0.489525 0.28571
0.774609 0.477195 0.299351
0.787579 0.459861 0.301472
0.788602 0.440986 0.297169
0.787564 0.419913 0.290318
0.786206 0.396429 0.281727
0.785809 0.375143 0.274662
0.785885 0.346502 0.270054
0.787472 0.353429 0.293431
0.790646 0.385016 0.334874
0.795407 0.415579 0.375158
0.799619 0.435172 0.403983
0.122972 0.53666 0.250263
0.128923 0.534051 0.240482
0.132982 0.53019 0.228656
0.135592 0.525322 0.213458
0.138155 0.523857 0.203937
0.14168 0.521691 0.192981
0.145068 0.516381 0.173999
0.156008 0.510735 0.155825
0.200122 0.507866 0.155627
0.269413 0.503975 0.161837
0.338628 0.501732 0.16762
0.387259 0.503868 0.15996
0.419959 0.512032 0.153414
0.466056 0.520745 0.14551
0.509483 0.517784 0.157794
0.560693 0.52134 0.154696
0.609232 0.528832 0.171695
0.659876 0.536095 0.213138
0.696406 0.542718 0.24445
0.727199 0.542824 0.272328
0.748989 0.543297 0.28957
0.7626 0.544808 0.299336
0.777768 0.540673 0.31107
0.790982 0.53312 0.323247
0.795621 0.521111 0.32842
0.794812 0.505974 0.329809
0.7935 0.487205 0.325429
0.791882 0.463813 0.318151
0.789197 0.439384 0.310048
0.788083 0.413504 0.30312
0.788571 0.394781 0.309529
0.793957 0.420188 0.350347
0.798917 0.439963 0.380941
0.1411 0.580545 0.286229
0.143877 0.578042 0.277195
0.147555 0.57406 0.267201
0.151385 0.56994 0.255192
0.154345 0.566445 0.244144
0.157336 0.564294 0.234577
0.160708 0.561425 0.221088
0.166155 0.555184 0.193561
0.185412 0.548241 0.173159
0.25156 0.542702 0.175616
0.324712 0.539117 0.18381
0.392676 0.537957 0.188876
0.42945 0.543023 0.175769
0.462196 0.551659 0.16875
0.506279 0.560128 0.161898
0.547341 0.556924 0.177874
0.598871 0.560845 0.176349
0.646662 0.569345 0.197284
0.69398 0.575433 0.242039
0.725582 0.582254 0.271397
0.752316 0.585184 0.298833
0.769802 0.58616 0.31722
0.78088 0.588312 0.325582
0.790814 0.586801 0.333562
0.798932 0.581827 0.342123
0.800046 0.572824 0.345129
0.800763 0.560891 0.346822
0.800793 0.546181 0.347539
0.798108 0.525979 0.346365
0.796429 0.500694 0.34197
0.794278 0.472465 0.334218
0.793347 0.44828 0.337438
0.797498 0.454688 0.362722
0.147616 0.625071 0.319097
0.157702 0.623713 0.316335
0.161089 0.619928 0.307179
0.165301 0.615915 0.297047
0.170169 0.612345 0.286061
0.173632 0.608377 0.275044
0.17818 0.605234 0.263569
0.182788 0.600992 0.246448
0.189014 0.593027 0.212772
0.231159 0.585122 0.195132
0.307378 0.57792 0.201114
0.379507 0.574212 0.209247
0.437842 0.574929 0.2065
0.470298 0.583001 0.195789
0.502098 0.591623 0.190372
0.544915 0.599893 0.185016
0.58436 0.596948 0.203357
0.634318 0.600671 0.2065
0.678828 0.608759 0.229358
0.721584 0.614679 0.270314
0.749096 0.620874 0.299825
0.770016 0.625483 0.325277
0.785061 0.627192 0.345068
0.793744 0.629068 0.353552
0.799512 0.629084 0.356222
0.800534 0.623484 0.358801
0.801495 0.615885 0.36112
0.80206 0.605493 0.362982
0.802915 0.592584 0.364599
0.803098 0.575372 0.364813
0.802213 0.552895 0.362371
0.800351 0.524163 0.361395
0.798428 0.491173 0.355077
0.155032 0.670222 0.353063
0.164797 0.668635 0.350179
0.176684 0.665309 0.346288
0.180804 0.661479 0.337835
0.186145 0.657816 0.327871
0.190921 0.653956 0.317937
0.195956 0.649256 0.304356
0.202228 0.644846 0.289662
0.208438 0.638315 0.268315
0.219242 0.629313 0.230549
0.283955 0.620188 0.223819
0.366171 0.612589 0.231296
0.432914 0.610849 0.237583
0.479164 0.614084 0.230182
0.50869 0.622034 0.224094
0.540185 0.631251 0.220645
0.581735 0.638407 0.215778
0.618875 0.635676 0.235752
0.66627 0.638727 0.239994
0.707439 0.646693 0.260136
0.743465 0.652293 0.300343
0.766094 0.657389 0.332982
0.784192 0.662181 0.360647
0.796048 0.664576 0.378088
0.801892 0.665629 0.383337
0.802121 0.664576 0.378485
0.801862 0.659403 0.378714
0.802579 0.653269 0.380606
0.803143 0.643961 0.382345
0.803601 0.630823 0.382635
0.805112 0.614069 0.382437
0.805463 0.591318 0.38056
0.805631 0.565744 0.378439
0.175998 0.712474 0.390097
0.174823 0.712169 0.383825
0.186618 0.70927 0.380545
0.199298 0.705867 0.376699
0.204608 0.702678 0.368887
0.209812 0.6981 0.359121
0.217411 0.693202 0.346563
0.224704 0.686519 0.329595
0.232013 0.681605 0.312032
0.240131 0.674342 0.286198
0.270329 0.665599 0.256764
0.350545 0.653407 0.255329
0.425589 0.646952 0.261479
0.48217 0.64686 0.266346
0.518624 0.652811 0.257893
0.546746 0.660075 0.255116
0.577813 0.667811 0.25301
0.617334 0.674113 0.251255
0.652155 0.671839 0.267582
0.695293 0.673915 0.273808
0.730007 0.680812 0.296254
0.760861 0.687022 0.340719
0.780789 0.691859 0.373068
0.794568 0.695018 0.395483
0.803082 0.695903 0.410651
0.805447 0.695537 0.414145
0.804593 0.694392 0.406928
0.805066 0.690639 0.405905
0.805112 0.683909 0.405035
0.805249 0.675669 0.404639
0.806226 0.662852 0.404623
0.806043 0.644999 0.401602
0.80766 0.622461 0.397925
0.202976 0.749325 0.426398
0.201297 0.748348 0.419944
0.200717 0.747387 0.414359
0.210834 0.74464 0.410971
0.226062 0.740795 0.407507
0.232227 0.737102 0.398657
0.239918 0.732341 0.387457
0.247379 0.72578 0.371191
0.256123 0.719341 0.352773
0.26363 0.712703 0.331456
0.280415 0.705409 0.304463
0.335714 0.694728 0.286381
0.415335 0.681941 0.288029
0.477913 0.67892 0.2934
0.523201 0.680369 0.293675
0.553719 0.685664 0.288518
0.58201 0.692393 0.288197
0.61207 0.698451 0.287602
0.647593 0.703822 0.285603
0.681346 0.701915 0.300038
0.719768 0.704417 0.31458
0.750164 0.711574 0.346426
0.775738 0.717662 0.383291
0.792538 0.72105 0.411002
0.80325 0.723354 0.430701
0.809323 0.723537 0.443366
0.809491 0.721904 0.445563
0.808499 0.720455 0.437385
0.808454 0.71664 0.434119
0.80827 0.710063 0.431815
0.808408 0.701076 0.429267
0.809003 0.689021 0.42649
0.80824 0.67042 0.421836
0.235706 0.77818 0.45893
0.233951 0.778271 0.454307
0.231983 0.777905 0.449424
0.231785 0.776043 0.443671
0.239322 0.773617 0.439185
0.25417 0.769818 0.43624
0.261509 0.765789 0.426368
0.272236 0.760372 0.412985
0.280476 0.752789 0.393271
0.288823 0.745464 0.371496
0.302571 0.739086 0.35024
0.331991 0.731517 0.32639
0.403662 0.716442 0.317998
0.469627 0.708156 0.321279
0.521492 0.706615 0.325521
0.556832 0.708766 0.322484
0.58558 0.713649 0.320851
0.612497 0.719097 0.321981
0.641413 0.723918 0.322469
0.676005 0.729183 0.321782
0.706584 0.727337 0.338018
0.739513 0.730953 0.36434
0.766033 0.736873 0.392767
0.788251 0.74342 0.424582
0.803418 0.745647 0.45066
0.811627 0.74609 0.467796
0.815198 0.745388 0.477684
0.815106 0.743542 0.47866
0.813504 0.742107 0.468711
0.81265 0.738048 0.464225
0.812314 0.732387 0.460624
0.811429 0.72282 0.454505
0.810849 0.707912 0.446998
0.268986 0.800031 0.486717
0.267582 0.799603 0.482048
0.265568 0.798825 0.477028
0.265278 0.797986 0.472694
0.266072 0.79675 0.46775
0.274998 0.794354 0.464576
0.2878 0.790494 0.459052
0.295888 0.785138 0.447105
0.306813 0.778485 0.43064
0.316976 0.76997 0.409415
0.332158 0.763622 0.389578
0.353155 0.756863 0.370077
0.398917 0.745647 0.354665
0.465003 0.732815 0.352193
0.517952 0.728328 0.353994
0.560555 0.728527 0.357488
0.590158 0.731472 0.354482
0.616007 0.73521 0.35494
0.641398 0.739757 0.35874
0.669459 0.744335 0.362127
0.703258 0.749172 0.366064
0.729168 0.747875 0.386023
0.758328 0.752377 0.411276
0.780179 0.757534 0.437186
0.799893 0.762493 0.466835
0.813794 0.764523 0.488624
0.819364 0.764782 0.503029
0.821958 0.763912 0.51194
0.821591 0.761929 0.511254
0.819303 0.759808 0.50045
0.818418 0.755596 0.495033
0.817578 0.748623 0.488655
0.816526 0.737377 0.479774
0.297932 0.816831 0.510796
0.296101 0.816281 0.506325
0.294392 0.816159 0.502846
0.2934 0.815976 0.498894
0.294026 0.815122 0.495155
0.294697 0.813413 0.489616
0.306233 0.809735 0.485817
0.315602 0.804669 0.476204
0.325338 0.798932 0.462089
0.340246 0.790997 0.444587
0.359808 0.783551 0.4262
0.382193 0.775876 0.410544
0.416266 0.766857 0.401266
0.466117 0.755474 0.396109
0.515633 0.749325 0.395956
0.557702 0.74725 0.398276
0.591974 0.748623 0.400427
0.618173 0.751125 0.401328
0.643229 0.754025 0.404456
0.667704 0.757473 0.408347
0.69575 0.761151 0.410971
0.725093 0.76582 0.413397
0.747707 0.764981 0.431815
0.772381 0.769268 0.455467
0.792172 0.773693 0.479149
0.809079 0.778286 0.505104
0.818204 0.780209 0.5243
0.822995 0.780606 0.536217
0.824643 0.779644 0.542626
0.824369 0.777554 0.539757
0.822965 0.774639 0.528954
0.822843 0.769146 0.52163
0.822354 0.760418 0.512764
0.324971 0.829114 0.531136
0.323217 0.828397 0.526879
0.320455 0.828016 0.523522
0.318959 0.828138 0.520058
0.318318 0.827604 0.516976
0.31931 0.826215 0.512383
0.320516 0.823896 0.505318
0.334066 0.81915 0.50013
0.343694 0.813596 0.488045
0.361028 0.806912 0.474983
0.381949 0.798535 0.45832
0.410056 0.788342 0.443931
0.440345 0.780056 0.438712
0.477317 0.772503 0.437156
0.51751 0.765896 0.434455
0.557336 0.763439 0.436683
0.593957 0.763348 0.440848
0.622415 0.764538 0.441154
0.64715 0.766598 0.444251
0.671855 0.76939 0.447257
0.696712 0.772412 0.450477
0.720928 0.776257 0.450996
0.74519 0.780621 0.456031
0.763928 0.779431 0.473884
0.785595 0.78381 0.496818
0.80238 0.788113 0.518791
0.815335 0.79147 0.54136
0.822202 0.793194 0.558907
0.825299 0.793362 0.569085
0.827192 0.79234 0.572625
0.82565 0.790372 0.564202
0.824613 0.786877 0.554635
0.82501 0.779843 0.545632
0.345312 0.834775 0.544991
0.344015 0.834821 0.541573
0.342214 0.834379 0.53843
0.340597 0.834241 0.535332
0.339712 0.834073 0.532692
0.339574 0.832776 0.528496
0.341115 0.830655 0.52314
0.350088 0.827604 0.517494
0.364935 0.822843 0.510597
0.380865 0.816861 0.500038
0.398795 0.808255 0.484733
0.430564 0.798047 0.474952
0.462394 0.789731 0.469963
0.48983 0.784634 0.469444
0.522148 0.779797 0.469596
0.558145 0.776165 0.470863
0.594263 0.775265 0.474952
0.625345 0.776181 0.478019
0.65182 0.777813 0.479988
0.676158 0.780285 0.482856
0.701595 0.782727 0.485161
0.722942 0.785763 0.487587
0.742367 0.789044 0.488914
0.761959 0.79263 0.495232
0.778561 0.792035 0.51313
0.797177 0.796658 0.535943
0.81181 0.800397 0.555886
0.820966 0.802533 0.575753
0.825483 0.804547 0.5906
0.82858 0.80441 0.598672
0.829755 0.803616 0.599283
0.825757 0.800076 0.58497
0.826841 0.795575 0.576852
0.366934 0.834226 0.555627
0.364828 0.834241 0.552697
0.362387 0.834348 0.549432
0.361166 0.834104 0.546868
0.359808 0.833661 0.544137
0.358816 0.83299 0.540734
0.362524 0.831327 0.536553
0.368368 0.828794 0.531319
0.381781 0.824247 0.525658
0.393591 0.818463 0.516289
0.418219 0.810483 0.507729
0.448035 0.801755 0.500832
0.476967 0.794827 0.496208
0.503853 0.790356 0.494911
0.52903 0.787381 0.497246
0.55816 0.784833 0.498909
0.592126 0.78352 0.503349
0.625437 0.783993 0.508431
0.653742 0.78497 0.50901
0.678355 0.78706 0.511864
0.703883 0.789746 0.51577
0.725505 0.792645 0.518563
0.742367 0.794934 0.519097
0.75877 0.79823 0.522148
0.775418 0.801846 0.531807
0.792844 0.803174 0.551385
0.808148 0.807477 0.572366
0.819471 0.810651 0.591119
0.825849 0.813718 0.610437
0.829419 0.815167 0.622019
0.832639 0.815961 0.630274
0.830365 0.813016 0.619516
0.828885 0.808728 0.607217
0.398764 0.831449 0.568719
0.395865 0.831464 0.565225
0.39263 0.831708 0.562341
0.390448 0.831891 0.560433
0.388708 0.831708 0.557305
0.387243 0.831205 0.554253
0.387167 0.830365 0.549752
0.389975 0.828183 0.545068
0.403204 0.824018 0.54078
0.423377 0.818494 0.536736
0.444678 0.813001 0.532372
0.468788 0.807172 0.527886
0.49395 0.801328 0.523751
0.518349 0.796658 0.521202
0.542428 0.794354 0.522072
0.565301 0.792889 0.526329
0.594919 0.791424 0.529839
0.627146 0.791287 0.53373
0.657252 0.791867 0.536339
0.682322 0.793683 0.539101
0.705547 0.796094 0.542611
0.727626 0.79881 0.546197
0.744747 0.801099 0.548074
0.758999 0.803357 0.549722
0.772183 0.806653 0.554192
0.786664 0.808713 0.566308
0.805005 0.812329 0.58526
