bundles/resolve-cinematic-luts/Phantom Luts/A7s3 Phntm Film LUTs - G6/ATOMOS Monitor LUTs/Slog2+Sgamut3cine/Vision A7s3 Sl2sg3c-Legacy AML.cube
TITLE "Generated by Resolve"
LUT_3D_SIZE 33
0.0809339 0.091249 0.0835737
0.0809339 0.091249 0.0835737
0.0809186 0.091249 0.0835584
0.0810712 0.091249 0.0835279
0.0850843 0.091371 0.0830243
0.0994278 0.0902419 0.0811627
0.119493 0.0895094 0.0815137
0.143084 0.0892805 0.0808576
0.171542 0.0900587 0.0805829
0.20795 0.0892653 0.0794537
0.247318 0.0890822 0.0800031
0.286213 0.0877699 0.0815442
0.322148 0.0841535 0.0830549
0.358053 0.0818799 0.0840314
0.39324 0.0784619 0.0859236
0.429648 0.0775311 0.0918593
0.466102 0.0786297 0.102434
0.506447 0.081117 0.114961
0.546075 0.0852064 0.13135
0.593606 0.0937209 0.150286
0.641016 0.105013 0.176791
0.686488 0.117098 0.210437
0.726497 0.132235 0.246479
0.755993 0.147295 0.278859
0.770993 0.162661 0.308202
0.777127 0.178363 0.333272
0.782452 0.196323 0.35729
0.785031 0.215564 0.378393
0.788083 0.236545 0.398108
0.791745 0.255741 0.418158
0.796277 0.276127 0.437125
0.801007 0.296864 0.454948
0.804456 0.317082 0.471504
0.0809339 0.091249 0.0835737
0.0809339 0.091249 0.0835737
0.0809339 0.091249 0.0835737
0.0810864 0.0912337 0.0835431
0.0860609 0.0916609 0.0825818
0.101091 0.0903334 0.0813153
0.12105 0.0895247 0.0814832
0.145159 0.0894026 0.0808423
0.174228 0.0899062 0.0802472
0.212421 0.0892348 0.0792706
0.251057 0.0890364 0.0798657
0.288563 0.0878462 0.0814374
0.324956 0.083238 0.0831464
0.360342 0.0821698 0.0839399
0.393927 0.0799573 0.0857862
0.435508 0.0775311 0.0901503
0.473548 0.0786297 0.0998703
0.512612 0.0810407 0.113802
0.551598 0.0848402 0.130877
0.599313 0.0941939 0.150286
0.645762 0.105104 0.178439
0.692195 0.118486 0.209461
0.730678 0.133043 0.24535
0.75877 0.148363 0.27744
0.771618 0.162921 0.305226
0.777325 0.178912 0.33051
0.782849 0.197208 0.354742
0.78555 0.216632 0.376791
0.788708 0.237736 0.396353
0.792233 0.257008 0.416495
0.797101 0.277592 0.434821
0.80177 0.298146 0.453788
0.805325 0.318242 0.46981
0.0809339 0.0912642 0.0835737
0.0809339 0.0912642 0.0835737
0.0809644 0.091249 0.0835584
0.0812848 0.0912337 0.0835737
0.0854963 0.0917678 0.0831159
0.0998245 0.0907301 0.0813306
0.119371 0.0897231 0.081529
0.143435 0.0894484 0.080766
0.173602 0.090013 0.0801556
0.212024 0.0893263 0.0790112
0.250614 0.0890974 0.0796979
0.288823 0.0883803 0.0809491
0.326528 0.0848859 0.0819715
0.362203 0.0838483 0.0828565
0.400763 0.0830549 0.0849165
0.442435 0.0787976 0.0884565
0.47982 0.078172 0.0968643
0.516609 0.0807202 0.109651
0.558663 0.0855421 0.127779
0.60412 0.0941329 0.150469
0.649119 0.104234 0.179965
0.695262 0.118379 0.210788
0.732998 0.13312 0.24596
0.759854 0.148699 0.274067
0.771771 0.162173 0.299809
0.777874 0.179477 0.327276
0.783429 0.198032 0.35169
0.786343 0.217548 0.374334
0.789273 0.23859 0.3935
0.792432 0.257496 0.413352
0.797604 0.278889 0.433051
0.802579 0.299199 0.451591
0.805905 0.319265 0.467857
0.0806287 0.0924086 0.0835431
0.0806439 0.0923781 0.0835126
0.0808881 0.0922255 0.0835279
0.0815137 0.0924086 0.0836042
0.0843671 0.0929274 0.0836194
0.0950942 0.0928511 0.0802777
0.116609 0.0909743 0.0817273
0.142123 0.0903792 0.0809339
0.172427 0.0910964 0.0798352
0.213611 0.090547 0.0784619
0.254734 0.0897231 0.0778515
0.29221 0.0889296 0.0778821
0.328328 0.0878462 0.0797131
0.363867 0.0874037 0.0810864
0.40531 0.0855421 0.08336
0.442603 0.0816052 0.0858625
0.477516 0.0793164 0.0897841
0.520806 0.0806287 0.102358
0.566873 0.0864271 0.124971
0.608133 0.0939498 0.147448
0.655344 0.105348 0.178515
0.697795 0.117525 0.212543
0.734325 0.132052 0.249058
0.760281 0.14815 0.275502
0.767514 0.15816 0.314
0.778607 0.179782 0.323644
0.7841 0.198947 0.348531
0.78732 0.218692 0.371099
0.789654 0.23946 0.390936
0.793011 0.258549 0.410452
0.798001 0.280339 0.430549
0.803174 0.300328 0.448814
0.806439 0.320333 0.464988
0.0814679 0.10837 0.0871748
0.0814679 0.107073 0.0863966
0.0821088 0.106188 0.0858778
0.0848707 0.105577 0.0861524
0.0897993 0.107866 0.0864576
0.106676 0.105684 0.0805066
0.12694 0.101961 0.0819257
0.147845 0.0984207 0.0824445
0.176257 0.097322 0.0814069
0.217762 0.0935836 0.0782788
0.258366 0.0919509 0.0767681
0.294606 0.0918746 0.0775006
0.327626 0.0910506 0.0778668
0.364126 0.0908064 0.0801099
0.40267 0.0880903 0.0812238
0.437354 0.0849622 0.0822309
0.477638 0.085771 0.0881666
0.521813 0.0823835 0.0961929
0.562951 0.0836805 0.112184
0.614649 0.0942092 0.140276
0.664118 0.106645 0.174044
0.704051 0.118639 0.211444
0.738888 0.132494 0.248631
0.760296 0.147173 0.277165
0.765576 0.155932 0.316396
0.777584 0.176883 0.322469
0.784527 0.199374 0.343587
0.78822 0.220035 0.367407
0.790204 0.240513 0.386969
0.794156 0.259953 0.407279
0.798688 0.281773 0.426459
0.803342 0.301671 0.446052
0.807477 0.322087 0.461997
0.0827497 0.131121 0.0931411
0.0827344 0.129656 0.0918746
0.082414 0.127657 0.0894026
0.0860304 0.127779 0.0900893
0.094255 0.130846 0.0920729
0.106249 0.132235 0.0885634
0.136904 0.127413 0.0791028
0.160769 0.119615 0.0837262
0.187167 0.114946 0.085069
0.222858 0.108598 0.0834669
0.258335 0.103609 0.0818036
0.293797 0.0981765 0.0794232
0.327413 0.0955367 0.0780194
0.36376 0.0942855 0.0788434
0.400443 0.0937819 0.0805219
0.435904 0.0925002 0.0823072
0.476509 0.0892958 0.0859846
0.513848 0.0835889 0.0895399
0.561975 0.0865034 0.104036
0.610895 0.090013 0.12604
0.665492 0.105318 0.160449
0.715038 0.119814 0.201556
0.747127 0.134936 0.24271
0.763043 0.14728 0.272908
0.770153 0.159854 0.299031
0.776364 0.173831 0.323156
0.784726 0.199222 0.341009
0.789212 0.221225 0.361013
0.790967 0.241627 0.381826
0.795377 0.262135 0.403159
0.799496 0.283467 0.4224
0.804089 0.303868 0.441581
0.808652 0.324285 0.458717
0.08336 0.15314 0.0993973
0.0839094 0.151675 0.0979171
0.0838026 0.148913 0.0948043
0.0866255 0.148363 0.0937819
0.0964218 0.152987 0.0959029
0.10811 0.155917 0.0961776
0.124773 0.154696 0.0886244
0.162631 0.147158 0.0795148
0.201297 0.135546 0.0851148
0.240894 0.126909 0.0878309
0.273503 0.120668 0.087129
0.306615 0.113573 0.0858778
0.339834 0.1075 0.0836347
0.371435 0.102876 0.0814221
0.403525 0.101762 0.0819257
0.439216 0.101793 0.083299
0.478889 0.100313 0.0869917
0.515557 0.0952316 0.0900893
0.557366 0.0902724 0.0972763
0.597284 0.0834516 0.105837
0.665141 0.102022 0.144518
0.716518 0.116075 0.183169
0.753948 0.134585 0.227436
0.766415 0.148928 0.260273
0.772335 0.160616 0.288563
0.777661 0.174685 0.31548
0.78407 0.194354 0.33521
0.789212 0.220447 0.359915
0.790845 0.241932 0.379294
0.79527 0.264408 0.396582
0.799298 0.285557 0.417487
0.803891 0.306752 0.43714
0.808209 0.327184 0.454246
0.0822461 0.17818 0.104753
0.0827192 0.176349 0.102907
0.083772 0.173449 0.0996567
0.0862593 0.171908 0.0961013
0.0960555 0.177432 0.0987716
0.108446 0.181323 0.0997177
0.119417 0.184924 0.0986648
0.146929 0.183093 0.0887312
0.200107 0.171954 0.0800946
0.249561 0.157321 0.0884413
0.291386 0.148409 0.0929732
0.334874 0.136828 0.0950179
0.360754 0.132357 0.0944533
0.391867 0.126818 0.0927901
0.424308 0.12163 0.0914778
0.45597 0.117235 0.0903487
0.489021 0.115053 0.0912184
0.527672 0.116106 0.0969863
0.565499 0.107912 0.100862
0.604379 0.099733 0.1084
0.651896 0.0906844 0.120638
0.707744 0.105913 0.156497
0.750927 0.128252 0.200214
0.76788 0.1458 0.237949
0.775311 0.162646 0.270375
0.780179 0.177066 0.300389
0.78436 0.194263 0.330083
0.788357 0.213184 0.354742
0.789624 0.238239 0.383673
0.795514 0.26424 0.394507
0.798795 0.283223 0.420874
0.805142 0.31014 0.431373
0.808759 0.329442 0.448508
0.0791485 0.21091 0.109728
0.0799115 0.208148 0.106752
0.0812695 0.204913 0.103243
0.0824292 0.201389 0.0975967
0.0922713 0.207095 0.0983902
0.106004 0.213672 0.100603
0.118303 0.219181 0.102693
0.135058 0.226352 0.102022
0.181262 0.226001 0.0895705
0.247745 0.211276 0.0794842
0.303761 0.196109 0.0971237
0.349203 0.187335 0.106447
0.39469 0.175982 0.113603
0.426596 0.167346 0.114763
0.455787 0.163287 0.115358
0.488884 0.157763 0.114794
0.521904 0.151354 0.113664
0.55317 0.143145 0.110811
0.584848 0.137697 0.113039
0.622538 0.132052 0.119844
0.659266 0.115251 0.12372
0.700374 0.101198 0.134905
0.738613 0.108721 0.166308
0.765393 0.138216 0.203326
0.774868 0.154192 0.23975
0.784115 0.18146 0.277577
0.787823 0.197742 0.310765
0.789609 0.215442 0.33959
0.790524 0.23331 0.364309
0.7935 0.258961 0.398291
0.796765 0.276616 0.425376
0.803326 0.303883 0.437385
0.808606 0.327703 0.451102
0.0831464 0.252094 0.123751
0.0833448 0.249241 0.11899
0.0836652 0.244694 0.113268
0.0838636 0.241016 0.107057
0.0918898 0.24361 0.104356
0.106935 0.253437 0.109636
0.124941 0.261936 0.113512
0.141863 0.267994 0.116091
0.163256 0.276493 0.112657
0.233158 0.272862 0.0932174
0.301778 0.259159 0.080354
0.356191 0.243519 0.105715
0.398749 0.23682 0.115892
0.440513 0.227787 0.1308
0.482429 0.21532 0.135103
0.509087 0.208225 0.13698
0.544076 0.198566 0.138109
0.578149 0.189792 0.137896
0.611032 0.179629 0.136156
0.642695 0.168139 0.134264
0.678767 0.160021 0.138415
0.710719 0.140673 0.141939
0.741588 0.12488 0.151125
0.755199 0.110582 0.16437
0.772457 0.141299 0.195438
0.785306 0.174563 0.242191
0.79118 0.197345 0.276143
0.792569 0.222461 0.309987
0.793545 0.239277 0.343328
0.79588 0.256748 0.369375
0.798871 0.282353 0.41294
0.802915 0.301885 0.437644
0.806241 0.321553 0.458747
0.089662 0.299886 0.142092
0.0917983 0.297826 0.138064
0.0916915 0.29369 0.130663
0.0926986 0.290486 0.124666
0.0960403 0.289403 0.118868
0.108415 0.296498 0.121126
0.126848 0.30518 0.124666
0.14786 0.313008 0.127871
0.169039 0.318334 0.129488
0.198947 0.326009 0.122637
0.284932 0.322026 0.0984817
0.353704 0.307179 0.0809949
0.403998 0.294118 0.109819
0.447379 0.287648 0.12932
0.485832 0.281178 0.143786
0.525536 0.270802 0.157015
0.551812 0.265095 0.158618
0.588312 0.25034 0.161822
0.623499 0.238666 0.161532
0.660548 0.224994 0.159976
0.697368 0.209995 0.159274
0.729717 0.192004 0.159655
0.759014 0.178576 0.166094
0.770153 0.154253 0.164675
0.771572 0.139864 0.167895
0.778653 0.14696 0.186145
0.791684 0.182254 0.229099
0.79556 0.210086 0.271504
0.797147 0.247852 0.311513
0.798932 0.265751 0.348226
0.802411 0.283162 0.375784
0.805447 0.309636 0.424323
0.808988 0.328359 0.447944
0.0991379 0.347326 0.163424
0.100633 0.345907 0.158373
0.101762 0.34258 0.150393
0.102739 0.340307 0.144472
0.103105 0.337896 0.135988
0.110216 0.339223 0.135042
0.129198 0.347509 0.137881
0.150515 0.355505 0.140032
0.175509 0.361151 0.143236
0.201785 0.36643 0.141253
0.241154 0.373312 0.130709
0.338384 0.370153 0.105272
0.403494 0.35491 0.0843519
0.451133 0.345418 0.114153
0.495262 0.338842 0.145937
0.529274 0.334325 0.158404
0.567437 0.324483 0.176303
0.594171 0.320134 0.186633
0.626459 0.308827 0.19028
0.665614 0.290684 0.193622
0.702602 0.276951 0.192813
0.735546 0.26215 0.189532
0.763119 0.244968 0.185428
0.783383 0.221698 0.184894
0.787121 0.201068 0.184512
0.785046 0.185183 0.183642
0.786801 0.175784 0.192081
0.795468 0.201862 0.229084
0.798474 0.246036 0.274327
0.801633 0.26714 0.313603
0.805203 0.296986 0.353582
0.809003 0.319478 0.40531
0.811643 0.336461 0.431754
0.110033 0.39321 0.188525
0.111788 0.392157 0.182162
0.112871 0.389654 0.174075
0.113222 0.388479 0.167987
0.113802 0.386587 0.159945
0.115221 0.384253 0.151736
0.129412 0.388464 0.151629
0.151797 0.396368 0.155596
0.179416 0.403571 0.158022
0.212299 0.406561 0.15903
0.241627 0.412284 0.153719
0.28661 0.420859 0.142138
0.388724 0.417044 0.114687
0.45037 0.401343 0.0893873
0.49691 0.394064 0.119051
0.539437 0.386679 0.163424
0.573251 0.384207 0.179416
0.609369 0.375509 0.198352
0.637461 0.370748 0.216297
0.664271 0.363943 0.225925
0.70132 0.34432 0.230457
0.73373 0.330022 0.232334
0.762295 0.315877 0.231617
0.77612 0.300069 0.227649
0.780591 0.280797 0.217029
0.783337 0.260044 0.206683
0.787366 0.240482 0.20383
0.791012 0.218402 0.204623
0.794018 0.244083 0.240085
0.799069 0.278828 0.282887
0.804623 0.318608 0.327794
0.810727 0.326909 0.357946
0.814908 0.34699 0.408026
0.122881 0.439216 0.220813
0.123476 0.437766 0.213916
0.125124 0.435431 0.204532
0.125719 0.433783 0.196414
0.126757 0.433539 0.190845
0.127489 0.432349 0.181674
0.130068 0.4309 0.171023
0.152117 0.436362 0.172229
0.180041 0.443381 0.176501
0.218311 0.448051 0.179049
0.254032 0.451667 0.179797
0.283345 0.459251 0.171252
0.334874 0.467933 0.15639
0.435584 0.462806 0.12871
0.495155 0.446815 0.101305
0.540978 0.440635 0.128985
0.583825 0.433021 0.179446
0.616495 0.43032 0.206104
0.649897 0.424247 0.226429
0.678676 0.417823 0.242817
0.69987 0.414496 0.256413
0.730129 0.401099 0.264866
0.758328 0.383856 0.268772
0.770764 0.367651 0.269673
0.773465 0.35172 0.263737
0.775967 0.336645 0.25716
0.778988 0.317632 0.247562
0.781964 0.298421 0.238819
0.786343 0.273228 0.229053
0.79144 0.281773 0.252323
0.796994 0.319417 0.296361
0.805325 0.349004 0.337194
0.809079 0.37615 0.360067
0.13666 0.483558 0.25391
0.137743 0.48275 0.247562
0.138415 0.479927 0.238682
0.139452 0.478492 0.231144
0.140536 0.478447 0.226383
0.141924 0.477928 0.21973
0.143648 0.476478 0.207584
0.150637 0.476188 0.19469
0.179782 0.482444 0.197711
0.221042 0.488228 0.202594
0.260853 0.491844 0.207477
0.296254 0.496361 0.201968
0.32752 0.504555 0.191363
0.382452 0.5122 0.174105
0.480903 0.506767 0.144533
0.538155 0.490654 0.117922
0.584482 0.484977 0.143145
0.62652 0.476783 0.201617
0.658244 0.474388 0.237095
0.689784 0.469871 0.255268
0.715694 0.465126 0.271382
0.733288 0.462364 0.281666
0.752804 0.45507 0.296956
0.768231 0.440696 0.301427
0.770855 0.425696 0.300221
0.771664 0.4112 0.296483
0.773022 0.393912 0.291524
0.774517 0.374807 0.28333
0.776761 0.355673 0.275059
0.781415 0.33373 0.267048
0.788159 0.31957 0.270573
0.794263 0.349523 0.309712
0.799161 0.375128 0.338872
0.153277 0.527092 0.289326
0.153368 0.526162 0.282536
0.153643 0.523323 0.273808
0.155383 0.521706 0.266682
0.157519 0.520714 0.260014
0.158602 0.520531 0.254948
0.160372 0.52047 0.248707
0.161868 0.518334 0.234012
0.174243 0.519158 0.223453
0.219883 0.525673 0.229633
0.263462 0.530251 0.233127
0.304173 0.534005 0.237507
0.338079 0.540398 0.226734
0.369772 0.548653 0.214664
0.42591 0.554452 0.1944
0.522393 0.549523 0.16318
0.580118 0.532586 0.138247
0.62594 0.527108 0.15996
0.66743 0.519509 0.228885
0.697017 0.51693 0.266133
0.723552 0.513603 0.28423
0.745052 0.511543 0.29955
0.758358 0.510185 0.308171
0.770459 0.505409 0.317281
0.773861 0.498024 0.323583
0.772885 0.48896 0.325917
0.771634 0.47512 0.325368
0.772534 0.457252 0.321538
0.77319 0.434974 0.314748
0.774105 0.410239 0.305745
0.776837 0.386542 0.297704
0.78323 0.370291 0.299947
0.789761 0.383825 0.324941
0.172564 0.570367 0.326009
0.172824 0.570153 0.319951
0.172869 0.567849 0.312261
0.173541 0.565515 0.304463
0.175235 0.564294 0.297276
0.177447 0.56318 0.290044
0.179324 0.562539 0.283574
0.181079 0.561975 0.275105
0.18233 0.559609 0.257984
0.210666 0.563012 0.253498
0.264851 0.568978 0.259068
0.307591 0.573724 0.263615
0.348379 0.577142 0.26389
0.37734 0.58497 0.252232
0.409918 0.592798 0.240925
0.464897 0.597192 0.222065
0.561868 0.593347 0.184741
0.618448 0.576043 0.164263
0.66453 0.57055 0.179217
0.703609 0.563088 0.251255
0.729717 0.561059 0.292439
0.750851 0.559213 0.314458
0.766354 0.557839 0.328893
0.776028 0.558389 0.33666
0.780468 0.556344 0.337896
0.780758 0.54963 0.338872
0.779706 0.540154 0.338781
0.778714 0.528374 0.339376
0.776883 0.513329 0.339117
0.774548 0.495399 0.339757
0.774945 0.468986 0.333425
0.775799 0.440208 0.324849
0.778897 0.410147 0.316167
0.194156 0.613214 0.3608
0.193881 0.612818 0.355352
0.194568 0.611109 0.349203
0.195285 0.609155 0.342519
0.195575 0.607843 0.334783
0.197498 0.606088 0.327642
0.199527 0.604852 0.319799
0.201617 0.603815 0.311299
0.203311 0.602686 0.299916
0.208087 0.600931 0.280552
0.258152 0.607202 0.284199
0.311666 0.613046 0.289403
0.353552 0.617487 0.294087
0.389929 0.621424 0.288594
0.416556 0.629389 0.2804
0.448859 0.637125 0.26894
0.504021 0.640208 0.252094
0.596994 0.636194 0.216312
0.652628 0.619715 0.196826
0.700267 0.61413 0.205997
0.73489 0.607828 0.274342
0.756466 0.606653 0.319127
0.771481 0.604623 0.348501
0.781765 0.60441 0.361913
0.785519 0.603174 0.365042
0.78616 0.601267 0.361013
0.784863 0.594949 0.35996
0.784192 0.586343 0.35845
0.783581 0.575051 0.358007
0.782467 0.559762 0.356435
0.78085 0.540124 0.354223
0.77847 0.515343 0.351461
0.776822 0.487511 0.347295
0.222492 0.655299 0.396033
0.220706 0.654505 0.389853
0.220233 0.65275 0.383719
0.22182 0.651179 0.37789
0.222797 0.650065 0.372183
0.222202 0.649226 0.365423
0.223651 0.647059 0.356786
0.22562 0.645014 0.346395
0.228779 0.644221 0.337102
0.2318 0.642924 0.323232
0.252445 0.646052 0.311223
0.311238 0.652461 0.317678
0.3608 0.656687 0.323522
0.400229 0.66157 0.327321
0.430442 0.666377 0.318227
0.456626 0.673899 0.31046
0.48986 0.6813 0.300481
0.542824 0.682734 0.285176
0.629145 0.677882 0.252338
0.685008 0.661555 0.236561
0.730907 0.655573 0.2392
0.758755 0.651194 0.306157
0.776486 0.650111 0.349401
0.788403 0.650278 0.376165
0.793545 0.647974 0.392203
0.793805 0.646601 0.395834
0.793393 0.644648 0.389258
0.79176 0.638804 0.389075
0.790448 0.629709 0.386603
0.788113 0.617304 0.382757
0.787091 0.600412 0.378759
0.785229 0.578012 0.372869
0.783581 0.551034 0.367208
0.249577 0.696422 0.429236
0.248783 0.695949 0.424262
0.248325 0.694942 0.419364
0.248768 0.693309 0.41416
0.249592 0.691966 0.409354
0.250065 0.690379 0.403555
0.249073 0.689372 0.39469
0.25153 0.687343 0.384375
0.2533 0.685496 0.373648
0.256641 0.684413 0.361715
0.267536 0.686183 0.349996
0.308766 0.692164 0.348089
0.36846 0.696437 0.35378
0.410513 0.700099 0.360113
0.444236 0.703716 0.362005
0.470542 0.708598 0.351339
0.496208 0.714488 0.343099
0.528405 0.720073 0.332204
0.578317 0.720363 0.317235
0.660792 0.716884 0.28838
0.714336 0.702602 0.280324
0.753872 0.697139 0.29749
0.779751 0.692882 0.34432
0.794324 0.691737 0.38085
0.802075 0.691066 0.403388
0.803708 0.689357 0.416464
0.80293 0.686793 0.418219
0.802563 0.684627 0.410773
0.801343 0.678737 0.409751
0.799283 0.669047 0.409415
0.796063 0.655299 0.409003
0.792126 0.635721 0.403235
0.78819 0.609857 0.392142
0.277531 0.732647 0.46183
0.276387 0.732433 0.457877
0.275731 0.732143 0.45333
0.276051 0.731106 0.449042
0.276249 0.729809 0.44419
0.276616 0.728679 0.439399
0.276539 0.727749 0.43299
0.276921 0.726345 0.423239
0.279484 0.724208 0.411276
0.282277 0.722255 0.397986
0.290837 0.723705 0.389242
0.31281 0.727642 0.381933
0.368933 0.731762 0.385992
0.419562 0.734264 0.390829
0.455344 0.73666 0.394797
0.484413 0.738979 0.394461
0.508476 0.743694 0.383841
0.533394 0.748409 0.375738
0.565881 0.752987 0.366369
0.613703 0.752865 0.352819
0.693324 0.749401 0.327352
0.738872 0.73843 0.338094
0.77322 0.733074 0.354467
0.796216 0.729152 0.382467
0.808927 0.727642 0.413016
0.812848 0.726497 0.431693
0.812863 0.72372 0.44155
0.812238 0.72076 0.443595
0.810864 0.718898 0.433341
0.809506 0.712581 0.430976
0.806958 0.702403 0.429358
0.803159 0.687572 0.427024
0.797269 0.664942 0.422568
0.306569 0.762875 0.493034
0.305913 0.762936 0.489632
0.304631 0.762448 0.485222
0.304158 0.761395 0.481422
0.304234 0.760479 0.47715
0.304509 0.759564 0.473152
0.305959 0.758602 0.468208
0.304219 0.757794 0.459174
0.306661 0.755856 0.448478
0.31043 0.753948 0.436072
0.32134 0.754971 0.426551
0.335912 0.757702 0.420554
0.373953 0.760937 0.420203
0.429633 0.762615 0.425193
0.467384 0.762753 0.427115
0.498329 0.763806 0.429191
0.523888 0.767025 0.424872
0.54493 0.771389 0.417716
0.569848 0.775967 0.411399
0.602136 0.779858 0.403632
0.649546 0.778668 0.394186
0.720913 0.775876 0.381888
0.760113 0.766323 0.391226
0.788098 0.761242 0.40737
0.809888 0.757397 0.426841
0.818921 0.754788 0.449134
0.820783 0.75259 0.464103
0.820691 0.749828 0.472969
0.820539 0.747539 0.473014
0.818952 0.7449 0.461494
0.817212 0.73817 0.456138
0.814435 0.727367 0.451377
0.809522 0.709758 0.445823
0.332296 0.786175 0.519051
0.331609 0.785641 0.51548
0.330953 0.785214 0.51194
0.330266 0.785077 0.508827
0.330694 0.784619 0.505531
0.331395 0.783993 0.502785
0.332113 0.783001 0.4981
0.333059 0.781338 0.49099
0.330526 0.779461 0.4795
0.337041 0.778515 0.469841
0.348257 0.779934 0.461845
0.364981 0.781109 0.456718
0.394781 0.783413 0.459663
0.439628 0.784726 0.463523
0.482246 0.784955 0.466377
0.513436 0.78526 0.46891
0.54139 0.786328 0.470527
0.563134 0.789975 0.4663
0.583947 0.794263 0.460868
0.60766 0.797925 0.454398
0.638651 0.800381 0.445716
0.684291 0.798672 0.436377
0.744411 0.796613 0.427741
0.776455 0.788296 0.438224
0.800092 0.78378 0.452369
0.817044 0.780316 0.471107
0.824369 0.777661 0.48629
0.826078 0.775372 0.497749
0.826093 0.77261 0.504143
0.825544 0.769985 0.499702
0.824994 0.766354 0.488823
0.823377 0.758022 0.481422
0.820523 0.743969 0.474449
0.35552 0.802853 0.540688
0.355047 0.802396 0.53756
0.354131 0.802258 0.534417
0.353353 0.801755 0.531273
0.353017 0.80116 0.527779
0.353353 0.800534 0.525322
0.353918 0.799573 0.520714
0.354833 0.798154 0.515312
0.355077 0.796994 0.507164
0.3617 0.796689 0.500023
0.373342 0.797162 0.492653
0.39353 0.797574 0.489677
0.420829 0.799115 0.493248
0.453376 0.800229 0.498085
0.492668 0.800137 0.501152
0.527016 0.800809 0.5037
0.555932 0.801587 0.505806
0.580453 0.803189 0.505562
0.599252 0.807034 0.500648
0.619272 0.809873 0.495827
0.643748 0.813382 0.489128
0.674235 0.814542 0.4813
0.717159 0.812604 0.471519
0.762325 0.811109 0.468238
0.789868 0.804822 0.47982
0.80972 0.801297 0.493706
0.820508 0.798795 0.511803
0.823743 0.797253 0.526375
0.82504 0.795056 0.534676
0.826551 0.792355 0.537484
0.826215 0.789914 0.528023
0.825986 0.784497 0.516915
0.826902 0.773281 0.50547
0.372549 0.810727 0.555337
0.371756 0.810071 0.552453
0.370977 0.809918 0.549081
0.370077 0.809735 0.546609
0.369436 0.809644 0.544152
0.369711 0.809339 0.541176
0.371252 0.808667 0.537987
0.374151 0.807874 0.533913
0.380133 0.807034 0.530465
0.382696 0.806638 0.523278
0.39324 0.805508 0.516793
0.418601 0.805493 0.516976
0.446189 0.806195 0.519554
0.470268 0.807401 0.524742
0.501167 0.808209 0.529107
0.535927 0.808438 0.531731
0.564004 0.808911 0.533608
0.590478 0.809949 0.535836
0.611231 0.812848 0.532937
0.629938 0.81593 0.528969
0.651728 0.81886 0.523812
0.675258 0.821256 0.516655
0.703914 0.821561 0.509865
0.742535 0.82208 0.502388
0.776745 0.820768 0.504524
0.801053 0.817502 0.517021
0.815152 0.815213 0.531273
0.821271 0.813779 0.547097
0.823758 0.812497 0.559838
0.826047 0.810437 0.5673
0.827344 0.80798 0.566598
0.825681 0.805447 0.553155
0.826474 0.79733 0.542443
0.388296 0.811795 0.565469
0.387243 0.811749 0.562936
0.38587 0.811414 0.560403
0.385519 0.811307 0.557687
0.384619 0.811063 0.555489
0.384268 0.810651 0.553048
0.387121 0.810269 0.550683
0.391257 0.809644 0.548272
0.396307 0.80885 0.545113
0.403128 0.807843 0.540108
0.415641 0.807691 0.537026
0.440452 0.807904 0.538628
0.465324 0.808667 0.54078
0.48893 0.810071 0.545678
0.511772 0.811475 0.550591
0.540734 0.811887 0.554406
0.570443 0.81268 0.556481
0.596521 0.813535 0.55938
0.620523 0.815503 0.559792
0.639078 0.818311 0.556161
0.658076 0.821668 0.552285
0.680385 0.824506 0.54609
0.704448 0.825818 0.541085
0.730068 0.826154 0.533654
0.763439 0.827802 0.528374
0.793317 0.82504 0.534173
0.812085 0.824308 0.548653
0.819974 0.82504 0.564858
0.823133 0.82649 0.582238
0.825849 0.8262 0.592676
0.828824 0.824247 0.599451
0.826398 0.821653 0.588952
0.825605 0.816342 0.575418
0.413718 0.813626 0.58027
0.411292 0.813275 0.576562
0.408865 0.812909 0.574334
0.408011 0.812802 0.571435
0.406592 0.812528 0.569207
0.405478 0.812085 0.567041
0.405661 0.811795 0.563485
0.408438 0.811139 0.56109
0.417533 0.810727 0.560586
0.432609 0.810101 0.561166
0.444114 0.811109 0.560342
0.464134 0.811109 0.56173
0.485054 0.811917 0.563867
0.505837 0.813123 0.566629
0.527199 0.814527 0.570291
0.548898 0.815198 0.575418
0.576471 0.8159 0.578943
0.603037 0.816464 0.581842
0.627634 0.817838 0.583642
0.646952 0.820768 0.581277
0.664805 0.823911 0.578729
0.685634 0.826841 0.574624
0.707332 0.82884 0.569039
0.727153 0.82977 0.562509
0.75256 0.830762 0.556008
0.780499 0.830472 0.553796
0.806851 0.82855 0.5617
0.820417 0.829923 0.579263
0.823148 0.833494 0.596994
