bundles/resolve-cinematic-luts/Phantom Luts/A7s3 Phntm Film LUTs - G6/ATOMOS Monitor LUTs/Slog2+Sgamut3cine/VisionTeal A7s3 Sl2sg3c AML.cube
TITLE "Generated by Resolve"
LUT_3D_SIZE 5
0.0723278 0.0846418 0.0833295
0.215885 0.0722362 0.0735027
0.517052 0.0695048 0.126802
0.768109 0.188724 0.362463
0.787884 0.363195 0.512749
0.0695048 0.268406 0.103044
0.24622 0.269642 0.085008
0.592081 0.183062 0.128405
0.775357 0.187686 0.276295
0.79057 0.372732 0.494835
0.147616 0.625071 0.319097
0.189014 0.593027 0.212772
0.58436 0.596948 0.203357
0.799512 0.629084 0.356222
0.798428 0.491173 0.355077
0.345312 0.834775 0.544991
0.364935 0.822843 0.510597
0.594263 0.775265 0.474952
0.778561 0.792035 0.51313
0.826841 0.795575 0.576852
0.642756 0.846326 0.707698
0.619501 0.840711 0.682551
0.669078 0.836759 0.68452
0.788739 0.850507 0.728786
0.867811 0.874922 0.78117
0.0708934 0.0962387 0.21886
0.224659 0.071931 0.223835
0.525597 0.0864424 0.295293
0.764401 0.210727 0.456718
0.798352 0.403723 0.584772
0.0696422 0.266743 0.209354
0.278141 0.292866 0.275425
0.61915 0.14519 0.220691
0.771725 0.221988 0.392233
0.815564 0.479576 0.614145
0.144045 0.633783 0.398718
0.140948 0.622812 0.321233
0.578363 0.59115 0.209491
0.805707 0.6094 0.395804
0.830716 0.525383 0.540169
0.350439 0.836683 0.576043
0.339239 0.837644 0.546365
0.569757 0.775387 0.474388
0.775906 0.789624 0.505974
0.829725 0.791394 0.577279
0.64715 0.848035 0.715724
0.639017 0.845518 0.704662
0.670115 0.840558 0.694514
0.785245 0.849348 0.725826
0.866682 0.873213 0.777096
0.0698863 0.1364 0.452842
0.219928 0.0829175 0.485557
0.532296 0.0979934 0.526772
0.758679 0.170916 0.654719
0.790951 0.344686 0.65391
0.0699016 0.240574 0.474479
0.0821241 0.200504 0.561639
0.565621 0.109712 0.557153
0.75462 0.161868 0.632181
0.814908 0.46183 0.686427
0.123064 0.635386 0.565057
0.129076 0.635386 0.56791
0.642222 0.637552 0.61384
0.831891 0.543008 0.568414
0.843412 0.579736 0.697505
0.338781 0.845243 0.671565
0.336736 0.844297 0.659815
0.525567 0.815869 0.603738
0.784939 0.802152 0.59649
0.851743 0.791485 0.65333
0.646693 0.853483 0.738293
0.641428 0.852628 0.73225
0.65568 0.8486 0.716411
0.776776 0.849363 0.729671
0.866178 0.872389 0.775158
0.0700389 0.191196 0.636316
0.224262 0.182071 0.695186
0.527184 0.127291 0.692744
0.759472 0.172122 0.784848
0.768811 0.1953 0.790555
0.070222 0.264271 0.652552
0.0701762 0.224674 0.692973
0.550652 0.13724 0.744884
0.76109 0.175616 0.794232
0.786007 0.308446 0.811917
0.071458 0.651545 0.717571
0.0713054 0.645411 0.732357
0.554284 0.601907 0.830945
0.822202 0.489677 0.822202
0.824933 0.491478 0.81973
0.304616 0.857633 0.799741
0.30161 0.855634 0.797086
0.502327 0.835859 0.789014
0.823377 0.832654 0.813748
0.879622 0.780087 0.809277
0.615564 0.867216 0.781353
0.622446 0.867857 0.778927
0.661341 0.868208 0.777523
0.767239 0.874708 0.788113
0.879194 0.888762 0.820172
0.0703441 0.235264 0.73106
0.144396 0.229252 0.757549
0.527276 0.129107 0.765896
0.757198 0.170428 0.807599
0.766812 0.19086 0.815213
0.0704509 0.296254 0.720653
0.0705577 0.297368 0.73463
0.483284 0.122957 0.762066
0.757656 0.170138 0.807614
0.769146 0.198886 0.817288
0.0712902 0.657969 0.767803
0.0711986 0.656733 0.785351
0.410346 0.621347 0.831937
0.811139 0.517861 0.852842
0.772045 0.208759 0.819333
0.215045 0.868589 0.849546
0.205203 0.866377 0.852995
0.435309 0.831479 0.843244
0.782864 0.816236 0.876738
0.868116 0.736004 0.876158
0.564462 0.875669 0.829114
0.575708 0.875914 0.830518
0.621759 0.877256 0.835218
0.76051 0.889387 0.857862
0.893843 0.902708 0.887587
