bundles/resolve-cinematic-luts/Phantom Luts/A7s3 Phntm Film LUTs - G6/ATOMOS Monitor LUTs/Slog2+Sgamut3cine/Vision A7s3 Sl2sg3c AML.cube
TITLE "Generated by Resolve"
LUT_3D_SIZE 33
0.0745403 0.0837262 0.075639
0.0745403 0.0837262 0.075639
0.0745403 0.0837262 0.0756237
0.0747692 0.083711 0.075639
0.0847181 0.0827955 0.0732738
0.103716 0.0812085 0.0745556
0.132494 0.0810559 0.073167
0.165621 0.0827649 0.0729534
0.207401 0.0823529 0.0721294
0.251865 0.0805371 0.0726787
0.295094 0.075349 0.0729381
0.331579 0.0679332 0.0751965
0.366842 0.0690318 0.0822919
0.403677 0.0693065 0.0857862
0.440421 0.0704967 0.0950942
0.47808 0.0736706 0.107408
0.517082 0.0772412 0.123217
0.558282 0.0820172 0.141573
0.60174 0.0908827 0.169314
0.649622 0.105028 0.197208
0.688319 0.118547 0.230533
0.721889 0.134142 0.262242
0.748577 0.150973 0.295369
0.768643 0.16846 0.326711
0.778836 0.190646 0.358465
0.783307 0.211749 0.382666
0.783902 0.233936 0.403113
0.786755 0.256565 0.42504
0.790356 0.277424 0.44654
0.794888 0.299031 0.467674
0.798062 0.321065 0.486168
0.802945 0.344106 0.504601
0.807095 0.365286 0.522301
0.0745403 0.0837262 0.075639
0.0745403 0.0837262 0.075639
0.0745403 0.0837262 0.0756237
0.074815 0.0837415 0.0756542
0.0869306 0.0827039 0.0741588
0.106935 0.0813764 0.0743725
0.134752 0.0810559 0.0728923
0.168353 0.0828565 0.0727855
0.21181 0.0824445 0.0719768
0.256123 0.0804303 0.0728161
0.298436 0.0753185 0.0730602
0.333928 0.0676738 0.0744488
0.368688 0.0690776 0.0834974
0.405539 0.0696422 0.0856184
0.441291 0.0707561 0.0923323
0.483696 0.0735485 0.104295
0.524056 0.076936 0.119829
0.564141 0.0817121 0.138888
0.607126 0.0904555 0.168185
0.653986 0.104585 0.194873
0.692149 0.118273 0.231525
0.725719 0.135668 0.259937
0.751736 0.151705 0.292027
0.770581 0.169574 0.323751
0.77969 0.191485 0.354849
0.78352 0.212863 0.379614
0.784405 0.235569 0.400793
0.787152 0.257771 0.422827
0.790799 0.279194 0.444465
0.795468 0.300664 0.465202
0.798962 0.322896 0.484077
0.803082 0.345449 0.502586
0.807706 0.366522 0.519783
0.0745251 0.0837415 0.0756542
0.0745251 0.0837568 0.0756695
0.0745403 0.083772 0.0756695
0.0750134 0.083772 0.0757458
0.085008 0.0841993 0.0737316
0.104402 0.0823835 0.074876
0.13225 0.0816815 0.073228
0.166888 0.0831617 0.0728313
0.211673 0.0825666 0.0717784
0.256275 0.0814527 0.0730449
0.2981 0.0768444 0.0727245
0.33547 0.0702678 0.0742199
0.372732 0.0693828 0.0784924
0.409659 0.0700542 0.0789654
0.448936 0.0710918 0.0850233
0.491402 0.0734112 0.099321
0.530419 0.0764019 0.115892
0.569085 0.0817731 0.133608
0.614511 0.0913558 0.162203
0.657465 0.103761 0.194751
0.693751 0.11664 0.233616
0.727489 0.134936 0.260212
0.753094 0.151202 0.291783
0.771359 0.170169 0.319524
0.779858 0.189914 0.347951
0.783688 0.213809 0.375738
0.784482 0.236591 0.397269
0.787533 0.258549 0.418952
0.791409 0.280598 0.441337
0.79559 0.301518 0.462211
0.799603 0.324483 0.481788
0.803845 0.346624 0.500481
0.808835 0.367712 0.517617
0.0743877 0.0860456 0.0763104
0.074403 0.0859998 0.0762341
0.0745251 0.085893 0.076173
0.0761883 0.0861067 0.076524
0.079942 0.0873884 0.0763867
0.0979629 0.0855726 0.0750591
0.129519 0.0842603 0.0744335
0.165911 0.0844892 0.0732128
0.212528 0.0844434 0.0717937
0.259663 0.084184 0.0716106
0.304509 0.0834211 0.0742199
0.34226 0.0800946 0.0750134
0.37731 0.0785534 0.0769665
0.413336 0.0774548 0.0784772
0.455253 0.0749523 0.0823529
0.491798 0.0717327 0.0877089
0.529549 0.0758526 0.102342
0.574884 0.0829328 0.125811
0.622339 0.0918441 0.156664
0.661448 0.10399 0.188846
0.698177 0.11725 0.229114
0.729122 0.1337 0.260578
0.753155 0.149752 0.295583
0.771542 0.168826 0.321569
0.775387 0.1841 0.364721
0.783902 0.214359 0.371069
0.784909 0.237324 0.39292
0.788159 0.259586 0.416144
0.791638 0.281468 0.438224
0.795865 0.302708 0.459022
0.800763 0.326406 0.479118
0.80473 0.348135 0.497826
0.80972 0.368933 0.515358
0.0746166 0.109895 0.0825055
0.0751354 0.108309 0.081651
0.0771344 0.106508 0.0800793
0.0807965 0.106065 0.0808118
0.088777 0.110124 0.080705
0.118334 0.10692 0.0751507
0.14435 0.102022 0.078172
0.178882 0.0982834 0.0783246
0.222538 0.0924849 0.0747234
0.268132 0.0882887 0.0712444
0.312093 0.088838 0.0733959
0.346654 0.0891737 0.0756847
0.38056 0.0890211 0.0773175
0.415946 0.0860304 0.0777447
0.455894 0.0815595 0.0799725
0.488472 0.0775616 0.0817578
0.531304 0.0803082 0.093019
0.57554 0.080293 0.110628
0.621973 0.0917525 0.14081
0.668086 0.105745 0.176715
0.705501 0.119112 0.219623
0.732921 0.134432 0.258885
0.755489 0.149615 0.293156
0.770535 0.167132 0.322698
0.773907 0.181155 0.367315
0.783398 0.209705 0.370855
0.785809 0.238483 0.387762
0.789059 0.260624 0.41091
0.79266 0.28307 0.4336
0.796643 0.304356 0.454292
0.801511 0.328206 0.475227
0.8056 0.349691 0.494011
0.810788 0.370977 0.51223
0.0768597 0.142687 0.0906691
0.0774548 0.141176 0.0897231
0.0780041 0.137224 0.0860304
0.0841077 0.138277 0.0869154
0.0968338 0.144488 0.0895094
0.116762 0.14641 0.0839551
0.157946 0.13843 0.0772412
0.199359 0.127718 0.081178
0.239506 0.119783 0.0837568
0.280034 0.109407 0.0819104
0.318013 0.103624 0.0803845
0.351659 0.0986496 0.0779583
0.383627 0.0964218 0.0771191
0.421073 0.0961013 0.0784161
0.458106 0.0952163 0.0814984
0.491768 0.090959 0.0830396
0.532464 0.0869154 0.0888533
0.56846 0.0800641 0.0954299
0.621469 0.0911116 0.12398
0.666758 0.101274 0.156176
0.708095 0.118791 0.196445
0.741527 0.136599 0.245594
0.761501 0.151843 0.282414
0.773098 0.167254 0.316838
0.778302 0.186481 0.347463
0.782116 0.205707 0.372396
0.786038 0.23798 0.384741
0.789899 0.262318 0.404669
0.793652 0.284474 0.428153
0.797543 0.306722 0.449592
0.802182 0.32987 0.469795
0.806882 0.35256 0.489555
0.811582 0.373068 0.507759
0.0770123 0.176471 0.0994736
0.0779583 0.174304 0.0979171
0.0784466 0.170199 0.0933547
0.0850233 0.16965 0.0899367
0.101381 0.177661 0.0931868
0.116045 0.183505 0.0931258
0.145785 0.181811 0.0838636
0.20267 0.170016 0.0766003
0.257023 0.153964 0.0851148
0.302922 0.141756 0.0902419
0.338354 0.132937 0.0897536
0.371023 0.12369 0.0884718
0.402823 0.117388 0.0865034
0.433356 0.111833 0.0846571
0.464729 0.109285 0.0843671
0.502861 0.110109 0.0884413
0.540154 0.107561 0.0933242
0.57438 0.0995193 0.0975967
0.614115 0.0910201 0.1075
0.65275 0.088365 0.125658
0.707271 0.114702 0.170199
0.741833 0.131243 0.217166
0.767895 0.154314 0.263584
0.77615 0.169116 0.300313
0.780621 0.188144 0.333944
0.783352 0.20734 0.363058
0.78584 0.231876 0.380911
0.789761 0.261326 0.403555
0.793561 0.284733 0.425132
0.797681 0.309728 0.443259
0.802319 0.332815 0.463813
0.806836 0.355093 0.483665
0.811185 0.375631 0.502937
0.0739452 0.216419 0.10631
0.0740063 0.213184 0.102525
0.0750286 0.208545 0.0971695
0.0809033 0.205646 0.089189
0.0997635 0.216297 0.0934005
0.118303 0.222782 0.0960555
0.134539 0.230549 0.0950179
0.186053 0.229496 0.0831159
0.255436 0.214832 0.0756085
0.316594 0.196704 0.0937667
0.361089 0.184009 0.102876
0.404242 0.170047 0.10837
0.431861 0.16141 0.10837
0.462684 0.153399 0.106966
0.493935 0.146212 0.104921
0.52433 0.138766 0.102708
0.554726 0.134752 0.103075
0.591257 0.133272 0.109422
0.625452 0.121813 0.114687
0.659663 0.108873 0.122042
0.694316 0.0978866 0.137423
0.737102 0.122179 0.177737
0.766094 0.148775 0.229648
0.778683 0.168505 0.269718
0.783413 0.190494 0.31075
0.786007 0.210513 0.344945
0.786847 0.232288 0.374289
0.788846 0.253758 0.397711
0.791669 0.280003 0.430549
0.79765 0.309209 0.440406
0.801358 0.329397 0.468009
0.807889 0.358068 0.476814
0.812604 0.378332 0.496803
0.0802014 0.265721 0.124208
0.0801556 0.261082 0.118212
0.0791485 0.255802 0.110033
0.0779431 0.24773 0.0963455
0.10219 0.2607 0.101686
0.125185 0.269795 0.105852
0.143206 0.275029 0.107607
0.164187 0.282383 0.103929
0.241382 0.278614 0.0862898
0.307393 0.262516 0.0751049
0.366155 0.244007 0.0997177
0.406882 0.234195 0.109941
0.450187 0.220478 0.124681
0.483299 0.210666 0.128038
0.515465 0.197818 0.130053
0.548226 0.188144 0.130358
0.579751 0.178973 0.128969
0.611551 0.168551 0.127291
0.640269 0.159884 0.126619
0.677104 0.15555 0.135943
0.704417 0.136049 0.138048
0.733455 0.124971 0.151492
0.754437 0.121996 0.175601
0.777874 0.160571 0.225956
0.78555 0.181582 0.269566
0.789654 0.216602 0.314504
0.789258 0.235782 0.349569
0.790692 0.256458 0.380407
0.793072 0.275944 0.408865
0.796384 0.303319 0.44567
0.798581 0.322194 0.474311
0.805798 0.352041 0.48397
0.811734 0.376059 0.498573
0.0864118 0.313039 0.142885
0.0871901 0.310628 0.13753
0.0861524 0.304234 0.127687
0.0853742 0.299031 0.116594
0.100404 0.303181 0.11014
0.124056 0.312901 0.114473
0.146838 0.318547 0.117617
0.168154 0.324056 0.11754
0.199786 0.331395 0.112459
0.293568 0.326284 0.090074
0.358663 0.309865 0.0740215
0.412207 0.294789 0.10425
0.454398 0.286107 0.122759
0.492042 0.276661 0.137179
0.528496 0.2663 0.150088
0.553735 0.260212 0.151949
0.590997 0.241688 0.153918
0.624964 0.228519 0.154025
0.656901 0.215457 0.152804
0.689647 0.200336 0.152758
0.718608 0.185138 0.153109
0.746242 0.175341 0.161334
0.763546 0.158892 0.164706
0.769879 0.136187 0.17113
0.784848 0.165301 0.208759
0.792325 0.211765 0.269734
0.793011 0.238804 0.306172
0.794522 0.264179 0.346944
0.796017 0.282216 0.384253
0.798276 0.30193 0.412131
0.802029 0.329259 0.459953
0.805203 0.349783 0.484199
0.809979 0.370077 0.507958
0.0933852 0.358907 0.163928
0.0937057 0.355627 0.156512
0.0926986 0.351064 0.145998
0.0924086 0.346227 0.135439
0.0997635 0.345571 0.123308
0.121599 0.353353 0.124987
0.146181 0.361227 0.129244
0.174456 0.366629 0.133562
0.201678 0.370535 0.130587
0.244343 0.378408 0.121965
0.345113 0.372686 0.0943618
0.406226 0.356298 0.0760204
0.458091 0.345678 0.107805
0.500435 0.338262 0.137667
0.533989 0.332601 0.151995
0.569039 0.32285 0.169986
0.590799 0.320302 0.179522
0.625223 0.305806 0.183749
0.661753 0.285298 0.186419
0.69424 0.270741 0.185016
0.722957 0.254398 0.180835
0.747662 0.234714 0.175509
0.773693 0.21529 0.178454
0.78526 0.20293 0.184741
0.784039 0.182498 0.182788
0.792615 0.196338 0.212604
0.794507 0.235904 0.259327
0.797971 0.25655 0.29865
0.799283 0.294392 0.347585
0.80209 0.312032 0.388067
0.805035 0.330861 0.41709
0.808606 0.357778 0.469474
0.81207 0.37673 0.495857
0.10161 0.402716 0.188846
0.101732 0.399847 0.17998
0.101213 0.396094 0.168399
0.102098 0.393439 0.159945
0.104829 0.390417 0.146288
0.11841 0.393454 0.14258
0.145159 0.401114 0.144732
0.17406 0.407675 0.148409
0.210895 0.41091 0.15024
0.241642 0.415915 0.143572
0.288716 0.424186 0.131518
0.395148 0.418891 0.103243
0.454246 0.402411 0.0801404
0.501396 0.394369 0.110063
0.543984 0.386603 0.15555
0.575448 0.38439 0.172137
0.608713 0.376379 0.189975
0.631235 0.372778 0.202533
0.656565 0.365789 0.219013
0.690669 0.346746 0.223301
0.720806 0.327276 0.224201
0.745907 0.311971 0.223041
0.7664 0.295506 0.217304
0.778454 0.275639 0.210086
0.783032 0.251484 0.199939
0.787305 0.242176 0.206195
0.790738 0.238483 0.220356
0.795514 0.267506 0.262211
0.798993 0.3084 0.313008
0.805783 0.320241 0.351049
0.808972 0.344808 0.387488
0.812665 0.367773 0.44741
0.816358 0.384878 0.477806
0.109957 0.445243 0.219989
0.110399 0.443259 0.210834
0.111696 0.440223 0.196689
0.114672 0.439231 0.188159
0.118166 0.437736 0.176608
0.121294 0.435187 0.163973
0.141695 0.439841 0.162844
0.173281 0.447272 0.165774
0.212284 0.451286 0.168185
0.252003 0.453834 0.167376
0.282292 0.461006 0.158083
0.336339 0.469383 0.144335
0.440726 0.461585 0.11873
0.499611 0.447974 0.0884413
0.544808 0.442008 0.114855
0.584848 0.435111 0.167529
0.616144 0.432319 0.196155
0.646128 0.427192 0.216617
0.669291 0.423026 0.231266
0.688624 0.417899 0.241688
0.712215 0.407416 0.25716
0.739361 0.388312 0.260716
0.760449 0.371893 0.262104
0.770932 0.353368 0.259998
0.774792 0.335027 0.25304
0.778317 0.315312 0.244739
0.78265 0.295003 0.237629
0.7879 0.276143 0.235111
0.793103 0.308034 0.277455
0.798459 0.345098 0.324651
0.806729 0.376059 0.366079
0.815259 0.376928 0.393286
0.82063 0.395071 0.453483
0.12221 0.48838 0.25417
0.122789 0.486351 0.245136
0.126787 0.483757 0.233371
0.130083 0.482658 0.224216
0.131807 0.482399 0.216098
0.133257 0.481209 0.202792
0.138888 0.47982 0.186465
0.168856 0.484825 0.185946
0.211704 0.490349 0.188754
0.255329 0.493309 0.193545
0.294926 0.49723 0.186007
0.32697 0.505592 0.177066
0.385367 0.512734 0.161563
0.48423 0.503838 0.13669
0.542077 0.492271 0.103899
0.585794 0.486824 0.12668
0.6262 0.47985 0.186297
0.6551 0.477241 0.227192
0.68217 0.473487 0.245045
0.703243 0.470726 0.258534
0.717937 0.468711 0.267002
0.735515 0.459922 0.279835
0.75288 0.449836 0.294743
0.767178 0.432593 0.296956
0.770687 0.414908 0.294713
0.772091 0.395819 0.289097
0.774121 0.374456 0.28188
0.776928 0.35581 0.275502
0.78294 0.332464 0.26949
0.789197 0.341909 0.293599
0.796933 0.377371 0.338979
0.804242 0.405905 0.376043
0.810697 0.423056 0.401389
0.139025 0.53167 0.290944
0.142016 0.530709 0.282155
0.143709 0.527321 0.271031
0.145144 0.5252 0.260136
0.147173 0.52491 0.253361
0.149706 0.524376 0.24593
0.151934 0.522881 0.231861
0.161929 0.522377 0.214359
0.205356 0.527413 0.216129
0.25539 0.531212 0.222263
0.300786 0.534508 0.226276
0.335821 0.540368 0.212238
0.370886 0.549264 0.200061
0.430579 0.554513 0.181888
0.52517 0.545678 0.1552
0.58175 0.533883 0.125231
0.626154 0.529473 0.144152
0.664805 0.522179 0.212406
0.691478 0.520043 0.255558
0.713329 0.517128 0.275029
0.73048 0.516579 0.288426
0.741558 0.515999 0.295109
0.754391 0.51075 0.304158
0.76672 0.502602 0.315053
0.770932 0.491936 0.321874
0.770657 0.479713 0.325292
0.772229 0.461677 0.321584
0.7729 0.439277 0.316014
0.773678 0.416205 0.309422
0.777203 0.393515 0.304295
0.783719 0.380224 0.311711
0.792889 0.408255 0.352255
0.800519 0.42797 0.380194
0.160037 0.573785 0.329213
0.160281 0.572396 0.320363
0.161059 0.569528 0.310201
0.163348 0.567575 0.29955
0.165805 0.566232 0.290791
0.167803 0.565621 0.284321
0.17113 0.564981 0.275227
0.173327 0.562539 0.257069
0.191211 0.562615 0.242817
0.25127 0.567742 0.247913
0.300313 0.571572 0.252567
0.345403 0.575296 0.25272
0.375616 0.582361 0.238392
0.41239 0.59118 0.225589
0.471122 0.595041 0.207828
0.563851 0.588388 0.177325
0.620142 0.574884 0.151324
0.66389 0.570596 0.166171
0.699245 0.563516 0.239429
0.721904 0.56199 0.279561
0.739712 0.560464 0.306935
0.752407 0.560082 0.3187
0.760693 0.560494 0.32459
0.768795 0.558297 0.33019
0.77435 0.552377 0.335164
0.775509 0.543969 0.338369
0.775235 0.532448 0.339391
0.775067 0.518456 0.340139
0.77351 0.500237 0.340673
0.774639 0.476585 0.338643
0.775982 0.450156 0.332631
0.781445 0.429999 0.338384
0.788861 0.439658 0.363165
0.181308 0.614954 0.366537
0.181552 0.614267 0.359075
0.182742 0.611887 0.350072
0.183825 0.609293 0.34052
0.185733 0.607752 0.33164
0.188418 0.606638 0.323201
0.191608 0.605524 0.314717
0.194354 0.604181 0.302831
0.196139 0.601022 0.279744
0.237003 0.60322 0.272984
0.299184 0.608316 0.278187
0.346624 0.611978 0.282399
0.385824 0.616419 0.274662
0.415671 0.624628 0.264729
0.451896 0.633127 0.255146
0.509316 0.635676 0.2392
0.60145 0.631479 0.204791
0.653956 0.616754 0.18587
0.697414 0.612436 0.19382
0.727962 0.606165 0.263844
0.7467 0.605005 0.30341
0.760983 0.604654 0.333379
0.770535 0.604013 0.35288
0.776898 0.605478 0.359167
0.780667 0.604059 0.359319
0.780728 0.598001 0.359472
0.779995 0.590311 0.359213
0.779004 0.579767 0.359014
0.777951 0.566522 0.357763
0.777874 0.54934 0.357214
0.776699 0.527092 0.355047
0.77496 0.501717 0.356329
0.779049 0.469902 0.350652
0.207889 0.654093 0.403342
0.207324 0.653666 0.396567
0.208194 0.65156 0.388708
0.20911 0.649454 0.380011
0.210636 0.64741 0.371862
0.211154 0.646052 0.36257
0.215228 0.644236 0.35288
0.217578 0.642847 0.341848
0.220874 0.640558 0.326833
0.226764 0.638193 0.301732
0.289082 0.643412 0.305531
0.348226 0.648112 0.311086
0.392569 0.651652 0.314275
0.42565 0.657343 0.303563
0.4551 0.666087 0.296132
0.489769 0.673793 0.287129
0.546517 0.67483 0.272145
0.633677 0.671611 0.242802
0.684489 0.656748 0.23032
0.7252 0.652934 0.231922
0.75198 0.647745 0.291325
0.767239 0.647272 0.333883
0.778241 0.64773 0.364538
0.786526 0.649195 0.384863
0.78967 0.64863 0.390723
0.789731 0.646555 0.38584
0.788663 0.640574 0.38677
0.786587 0.6327 0.386984
0.784497 0.623133 0.38526
0.782452 0.6094 0.382208
0.781125 0.591501 0.377783
0.780163 0.567712 0.373312
0.780056 0.542229 0.370382
0.238605 0.690654 0.437339
0.237064 0.690059 0.430396
0.237736 0.688975 0.424506
0.238239 0.68687 0.417563
0.238819 0.685161 0.410498
0.239857 0.683558 0.402686
0.239521 0.682124 0.391424
0.243198 0.679561 0.379446
0.246143 0.677882 0.367178
0.250629 0.676081 0.349416
0.276555 0.677852 0.333959
0.347326 0.682643 0.340002
0.398444 0.68603 0.346029
0.437003 0.68986 0.347784
0.465309 0.696925 0.336965
0.494301 0.704295 0.329793
0.530327 0.711421 0.321523
0.584985 0.710582 0.30634
0.664683 0.70808 0.280507
0.711238 0.694743 0.272251
0.74667 0.690562 0.282399
0.770779 0.688014 0.332998
0.784085 0.687892 0.372305
0.792721 0.6878 0.397467
0.798215 0.687984 0.415106
0.798962 0.686992 0.418769
0.79855 0.684703 0.41146
0.797269 0.68043 0.411002
0.795773 0.672908 0.410986
0.793744 0.662684 0.411032
0.789364 0.647257 0.41091
0.786526 0.627283 0.403098
0.78294 0.60177 0.392554
0.265949 0.723461 0.469169
0.264729 0.722835 0.463737
0.264179 0.721614 0.458335
0.265049 0.72015 0.452171
0.266285 0.719051 0.44683
0.267353 0.717754 0.440528
0.268574 0.715801 0.431571
0.267918 0.713344 0.418021
0.271656 0.711467 0.404288
0.275532 0.710033 0.389639
0.288487 0.709926 0.373709
0.340795 0.71426 0.371145
0.403159 0.716762 0.376379
0.44625 0.720302 0.382193
0.477195 0.724773 0.379507
0.50341 0.730907 0.371756
0.533318 0.737743 0.364599
0.567315 0.741878 0.354696
0.62121 0.740826 0.341024
0.694484 0.737484 0.317922
0.734569 0.726864 0.321324
0.764752 0.723873 0.345968
0.787472 0.721981 0.380118
0.798779 0.722271 0.411383
0.805676 0.72195 0.433066
0.808957 0.720531 0.447303
0.808545 0.718563 0.449729
0.807538 0.717327 0.440497
0.80621 0.712688 0.438239
0.804028 0.705684 0.436362
0.800732 0.694377 0.433539
0.79733 0.679911 0.431754
0.791257 0.657984 0.42565
0.293477 0.750835 0.499031
0.29276 0.750347 0.494697
0.292271 0.749752 0.489906
0.292683 0.748592 0.484993
0.294179 0.747555 0.480385
0.29543 0.74641 0.475151
0.296132 0.744549 0.467567
0.298634 0.742962 0.458015
0.298177 0.740734 0.442969
0.302861 0.738689 0.426871
0.312657 0.738628 0.414176
0.339315 0.741039 0.404059
0.404257 0.743786 0.408591
0.454261 0.746288 0.414359
0.489662 0.748272 0.417456
0.515801 0.753323 0.411734
0.54052 0.759152 0.405676
0.568917 0.764111 0.398657
0.602564 0.767224 0.390158
0.654307 0.765621 0.376699
0.719951 0.761883 0.36144
0.754131 0.755016 0.382361
0.780362 0.751904 0.402808
0.800702 0.749615 0.428016
0.811566 0.748852 0.454353
0.817121 0.748287 0.472435
0.818311 0.746456 0.483497
0.817716 0.744335 0.484199
0.816388 0.742687 0.473289
0.815 0.737758 0.469047
0.812482 0.73077 0.465583
0.809079 0.719081 0.460151
0.803586 0.702037 0.452155
0.322728 0.772946 0.527184
0.321859 0.772488 0.523247
0.320455 0.771603 0.518334
0.320638 0.770718 0.514366
0.321477 0.769543 0.510155
0.322713 0.768566 0.50547
0.324788 0.767452 0.499916
0.326986 0.7664 0.491463
0.329778 0.763714 0.479805
0.331212 0.761746 0.463645
0.342748 0.761395 0.451911
0.361105 0.762844 0.443778
0.405081 0.766491 0.443168
0.462776 0.767452 0.447715
0.500938 0.768566 0.451453
0.531563 0.771054 0.453056
0.553964 0.775692 0.446311
0.577966 0.780774 0.44065
0.603983 0.785077 0.434775
0.636622 0.786969 0.428275
0.688243 0.784985 0.418921
0.73994 0.781704 0.417716
0.771038 0.776867 0.436011
0.792721 0.774456 0.455833
0.810269 0.772457 0.479332
0.822156 0.771038 0.497505
0.825315 0.769985 0.512001
0.825788 0.768124 0.520348
0.825025 0.766262 0.519463
0.824552 0.76405 0.508247
0.822522 0.758404 0.501503
0.819562 0.749752 0.494575
0.815305 0.736156 0.484916
0.349187 0.789792 0.55079
0.348074 0.789334 0.546777
0.346868 0.788586 0.542626
0.346502 0.787854 0.539055
0.346944 0.787442 0.535348
0.34815 0.78674 0.532097
0.350317 0.785565 0.526864
0.352651 0.783932 0.519509
0.35436 0.781476 0.5093
0.357122 0.780392 0.496406
0.372091 0.780713 0.486976
0.39144 0.781247 0.480797
0.425345 0.78352 0.483497
0.473289 0.785321 0.488853
0.515221 0.786587 0.492256
0.547372 0.788022 0.496071
0.573693 0.791119 0.49543
0.594553 0.795209 0.490959
0.617807 0.798932 0.484611
0.643503 0.801831 0.478599
0.674769 0.802335 0.472267
0.718746 0.800626 0.463661
0.758618 0.797635 0.466957
0.783642 0.794293 0.482994
0.802533 0.792477 0.500908
0.818021 0.791547 0.522042
0.825711 0.790906 0.538979
0.829419 0.789624 0.548592
0.830579 0.7879 0.553948
0.830167 0.785794 0.549691
0.828656 0.781994 0.538094
0.827802 0.774639 0.530419
0.824887 0.763821 0.520256
0.37406 0.802487 0.570123
0.372976 0.801968 0.567422
0.371313 0.801343 0.562905
0.370428 0.80087 0.560006
0.370382 0.800397 0.556237
0.371435 0.799634 0.553765
0.372641 0.798459 0.548455
0.374975 0.796963 0.542367
0.37911 0.795453 0.535119
0.389258 0.794507 0.527825
0.398169 0.794797 0.517449
0.423072 0.795468 0.514351
0.453346 0.796887 0.518334
0.488396 0.799054 0.525048
0.528054 0.800031 0.52845
0.561212 0.80116 0.532052
0.590204 0.802426 0.534661
0.61146 0.80589 0.531716
0.631785 0.809445 0.527321
0.654521 0.81265 0.52221
0.67895 0.814343 0.516091
0.705623 0.814359 0.510216
0.743358 0.813962 0.504509
0.773831 0.810803 0.508934
0.795209 0.809018 0.524819
0.811185 0.808026 0.541772
0.82356 0.807172 0.560876
0.829435 0.806256 0.575341
0.832059 0.804715 0.584085
0.833509 0.803052 0.586725
0.831785 0.800717 0.577417
0.831296 0.796582 0.567666
0.830869 0.788067 0.555093
0.393103 0.809415 0.584283
0.392233 0.809003 0.581903
0.391516 0.808942 0.578744
0.391073 0.80853 0.575799
0.390555 0.808331 0.573251
0.390967 0.807904 0.569818
0.39266 0.807004 0.566629
0.396277 0.806149 0.562036
0.404623 0.805417 0.558495
0.414832 0.804532 0.553735
0.422431 0.803922 0.54403
0.45095 0.804257 0.544533
0.481132 0.805692 0.548409
0.507698 0.807721 0.554635
0.539132 0.808698 0.559899
0.573343 0.809735 0.562524
0.602136 0.810895 0.565942
0.626429 0.813535 0.566217
0.64564 0.81677 0.562921
0.665827 0.819913 0.559136
0.687846 0.822843 0.554162
0.710231 0.824155 0.549462
0.733715 0.82446 0.544106
0.763073 0.824857 0.540398
0.786877 0.82182 0.547021
0.8056 0.821408 0.562478
0.820478 0.820233 0.578515
0.828702 0.819867 0.595926
0.831952 0.820233 0.608713
0.834363 0.819196 0.616083
0.835416 0.817288 0.615518
0.83267 0.813764 0.601572
0.832685 0.806714 0.590738
0.41445 0.811399 0.596399
0.412619 0.811322 0.59379
0.411032 0.811292 0.590524
0.410254 0.810925 0.58819
0.409155 0.81088 0.58526
0.408774 0.810452 0.582788
0.412619 0.809903 0.580941
0.418173 0.809277 0.577783
0.425025 0.808194 0.574517
0.432959 0.807248 0.569421
0.453971 0.807157 0.569726
0.475257 0.808454 0.568917
0.50248 0.809506 0.57261
0.526925 0.811139 0.576684
0.551034 0.81297 0.582788
0.580652 0.813886 0.587076
0.61004 0.81532 0.590005
0.636149 0.816892 0.592889
0.656199 0.820508 0.590661
0.674052 0.823545 0.589029
0.694957 0.827298 0.585351
0.714946 0.829328 0.582086
0.732357 0.830274 0.576135
0.753887 0.831449 0.572183
0.77734 0.833173 0.571939
0.799527 0.831662 0.582162
0.815152 0.83151 0.59707
0.826947 0.832242 0.613794
0.830793 0.833066 0.629801
0.833783 0.83357 0.640253
0.836561 0.83299 0.647318
0.834897 0.829831 0.637476
0.834272 0.824384 0.624613
0.446189 0.813626 0.611505
0.44329 0.813382 0.608927
0.440421 0.813352 0.605631
0.43888 0.81326 0.603281
0.437003 0.813001 0.600793
0.436454 0.812573 0.597894
0.436271 0.811856 0.595331
0.439521 0.811231 0.592004
0.449836 0.810803 0.591287
0.467414 0.811124 0.593103
0.484993 0.81091 0.594034
0.502174 0.812634 0.593698
0.52462 0.813764 0.596323
0.546304 0.814862 0.599145
0.568383 0.816953 0.604044
0.590539 0.817807 0.610285
0.618204 0.819013 0.613779
0.64358 0.820218 0.616983
0.665675 0.822797 0.617136
0.682414 0.826535 0.615885
0.700145 0.830152 0.613169
0.718212 0.833127 0.610712
0.734356 0.834516 0.605158
0.750317 0.836149 0.601205
0.769238 0.838285 0.598764
0.789273 0.838468 0.601373
0.809735 0.839139 0.612039
0.823117 0.841093 0.62977
0.829892 0.844129 0.646998
0.833082 0.846357 0.66421
