bundles/resolve-cinematic-luts/Phantom Luts/A7s3 Phntm Film LUTs - G6/ATOMOS Monitor LUTs/Slog2+Sgamut3cine/VisionTeal A7s3 Sl2sg3c AML.cube
TITLE "Generated by Resolve"
LUT_3D_SIZE 9
0.0723278 0.0846418 0.0833295
0.0813001 0.0824445 0.0842145
0.215885 0.0722362 0.0735027
0.371099 0.0638437 0.0877394
0.517052 0.0695048 0.126802
0.678935 0.109819 0.23917
0.768109 0.188724 0.362463
0.773907 0.272389 0.437461
0.787884 0.363195 0.512749
0.0712749 0.112337 0.0845197
0.090959 0.108827 0.0860456
0.231373 0.091722 0.0779889
0.387701 0.0797742 0.0747539
0.527916 0.069749 0.0926986
0.696284 0.112993 0.227634
0.76199 0.175463 0.376989
0.776181 0.279179 0.422797
0.790295 0.370626 0.503716
0.0695048 0.268406 0.103044
0.0986954 0.256092 0.0859693
0.24622 0.269642 0.085008
0.466941 0.231418 0.119631
0.592081 0.183062 0.128405
0.698146 0.123339 0.140932
0.775357 0.187686 0.276295
0.776669 0.274784 0.397681
0.79057 0.372732 0.494835
0.0948501 0.448692 0.181552
0.107286 0.433783 0.139406
0.230808 0.428656 0.132174
0.424811 0.435798 0.123644
0.620905 0.455177 0.187793
0.733623 0.432639 0.258991
0.785092 0.355795 0.254246
0.785824 0.316487 0.279057
0.80032 0.405997 0.414801
0.147616 0.625071 0.319097
0.170169 0.612345 0.286061
0.189014 0.593027 0.212772
0.437842 0.574929 0.2065
0.58436 0.596948 0.203357
0.749096 0.620874 0.299825
0.799512 0.629084 0.356222
0.802915 0.592584 0.364599
0.798428 0.491173 0.355077
0.235706 0.77818 0.45893
0.239322 0.773617 0.439185
0.280476 0.752789 0.393271
0.403662 0.716442 0.317998
0.58558 0.713649 0.320851
0.706584 0.727337 0.338018
0.803418 0.745647 0.45066
0.813504 0.742107 0.468711
0.810849 0.707912 0.446998
0.345312 0.834775 0.544991
0.339712 0.834073 0.532692
0.364935 0.822843 0.510597
0.462394 0.789731 0.469963
0.594263 0.775265 0.474952
0.701595 0.782727 0.485161
0.778561 0.792035 0.51313
0.825483 0.804547 0.5906
0.826841 0.795575 0.576852
0.494987 0.827756 0.609766
0.481422 0.826825 0.597009
0.479896 0.82298 0.582193
0.534035 0.813092 0.576257
0.614191 0.805982 0.5785
0.713375 0.809308 0.593057
0.777325 0.818219 0.609293
0.828702 0.829129 0.651225
0.84979 0.849165 0.712261
0.642756 0.846326 0.707698
0.624598 0.842313 0.690822
0.619501 0.840711 0.682551
0.629023 0.838483 0.677241
0.669078 0.836759 0.68452
0.735241 0.839521 0.702907
0.788739 0.850507 0.728786
0.834592 0.861738 0.744213
0.867811 0.874922 0.78117
0.0723278 0.0836194 0.100084
0.089189 0.0801099 0.103944
0.235645 0.0695201 0.145052
0.38265 0.0650492 0.136904
0.530861 0.0729076 0.17023
0.686763 0.115679 0.281209
0.768841 0.195407 0.392203
0.775265 0.281865 0.465629
0.79115 0.378973 0.539574
0.0714122 0.109483 0.100008
0.0894484 0.108797 0.106981
0.266972 0.0760052 0.0811627
0.410925 0.0692149 0.0892195
0.540337 0.0723125 0.133043
0.694438 0.116091 0.266911
0.770825 0.200641 0.381231
0.777661 0.293889 0.461967
0.795666 0.398398 0.545144
0.0693828 0.27686 0.147311
0.0694438 0.267781 0.103288
0.242191 0.267262 0.0869306
0.469886 0.216083 0.123491
0.595239 0.158312 0.130037
0.72929 0.133089 0.197574
0.773953 0.205158 0.351232
0.779156 0.302098 0.445197
0.800229 0.415381 0.528008
0.0784161 0.458625 0.227466
0.0921187 0.44979 0.183368
0.160128 0.432349 0.128222
0.422705 0.434638 0.123644
0.631586 0.445441 0.203815
0.746136 0.40264 0.263142
0.786007 0.329198 0.263233
0.789334 0.347799 0.352743
0.804257 0.434119 0.528832
0.136278 0.631861 0.351904
0.132982 0.627192 0.318303
0.180117 0.605264 0.26154
0.417288 0.574853 0.21416
0.582422 0.596155 0.202884
0.75314 0.619257 0.31017
0.801038 0.621927 0.365057
0.803708 0.572595 0.372946
0.813825 0.50605 0.449424
0.237522 0.780118 0.479606
0.22916 0.781506 0.462638
0.265629 0.765408 0.425147
0.361776 0.7252 0.321553
0.580819 0.711971 0.320928
0.705364 0.726192 0.335698
0.804425 0.744198 0.453925
0.814527 0.74023 0.471336
0.812634 0.695323 0.451133
0.346303 0.836362 0.557839
0.339651 0.837629 0.546578
0.342473 0.830091 0.520211
0.445212 0.793942 0.472953
0.585061 0.774807 0.473396
0.697704 0.781842 0.483375
0.777157 0.790875 0.510277
0.825757 0.803632 0.58999
0.828138 0.793561 0.575936
0.497551 0.829313 0.616938
0.483574 0.828779 0.606744
0.479088 0.825177 0.590433
0.526223 0.815076 0.579248
0.609369 0.80621 0.578134
0.710292 0.809094 0.592309
0.775479 0.817868 0.607004
0.827436 0.828412 0.647898
0.849454 0.848402 0.711025
0.648554 0.847547 0.713756
0.63653 0.844617 0.702312
0.632914 0.843168 0.695628
0.634058 0.840864 0.6851
0.672648 0.839536 0.69189
0.735027 0.841047 0.707179
0.787778 0.85069 0.729824
0.83418 0.861936 0.744686
0.868025 0.875135 0.781842
0.0708934 0.0962387 0.21886
0.111406 0.0794385 0.226322
0.224659 0.071931 0.223835
0.37998 0.0635996 0.263157
0.525597 0.0864424 0.295293
0.673259 0.119051 0.359991
0.764401 0.210727 0.456718
0.776837 0.295659 0.518013
0.798352 0.403723 0.584772
0.0706951 0.113924 0.197421
0.0706798 0.101732 0.252079
0.239155 0.07187 0.238087
0.379843 0.0642863 0.237598
0.531853 0.0813306 0.247059
0.688899 0.123781 0.340261
0.7673 0.217533 0.444602
0.781399 0.323018 0.523598
0.809598 0.447608 0.611505
0.0696422 0.266743 0.209354
0.0698711 0.268666 0.214023
0.278141 0.292866 0.275425
0.499443 0.1991 0.217853
0.61915 0.14519 0.220691
0.721126 0.139498 0.289662
0.771725 0.221988 0.392233
0.783154 0.337118 0.488624
0.815564 0.479576 0.614145
0.0771191 0.46244 0.292943
0.0779431 0.460395 0.266835
0.11812 0.449424 0.206394
0.432761 0.44564 0.192966
0.627436 0.430915 0.245792
0.752575 0.376333 0.282521
0.785046 0.341939 0.313008
0.787823 0.350683 0.439384
0.816968 0.49427 0.604913
0.144045 0.633783 0.398718
0.135927 0.633295 0.37586
0.140948 0.622812 0.321233
0.35404 0.576883 0.229358
0.578363 0.59115 0.209491
0.758816 0.617197 0.347005
0.805707 0.6094 0.395804
0.807477 0.546349 0.404532
0.830716 0.525383 0.540169
0.245319 0.777829 0.504158
0.234577 0.782238 0.495598
0.231418 0.780529 0.463249
0.314244 0.737621 0.351873
0.570428 0.710353 0.324941
0.70338 0.724285 0.332876
0.80766 0.742367 0.465202
0.817349 0.737743 0.483757
0.81677 0.679545 0.470756
0.350439 0.836683 0.576043
0.341848 0.839078 0.568719
0.339239 0.837644 0.546365
0.409476 0.805493 0.48716
0.569757 0.775387 0.474388
0.692744 0.780667 0.48246
0.775906 0.789624 0.505974
0.827192 0.80267 0.590661
0.829725 0.791394 0.577279
0.498207 0.830793 0.625986
0.482521 0.8318 0.618463
0.48011 0.829129 0.605585
0.507897 0.818998 0.583413
0.59855 0.806928 0.577264
0.70457 0.808362 0.59089
0.772854 0.81677 0.603204
0.825483 0.82707 0.643549
0.848264 0.846845 0.707668
0.64715 0.848035 0.715724
0.634104 0.845762 0.705242
0.639017 0.845518 0.704662
0.636805 0.842603 0.691432
0.670115 0.840558 0.694514
0.730632 0.840375 0.705104
0.785245 0.849348 0.725826
0.831998 0.8607 0.741421
0.866682 0.873213 0.777096
0.0701457 0.114885 0.343526
0.114382 0.102693 0.373419
0.234394 0.0750134 0.360174
0.373709 0.0682383 0.363088
0.53579 0.0906996 0.429877
0.674723 0.117678 0.487007
0.753613 0.168429 0.513573
0.776455 0.280644 0.558129
0.794797 0.380621 0.600641
0.0699626 0.127169 0.343053
0.0700236 0.120607 0.375158
0.210269 0.0767834 0.3888
0.378668 0.068574 0.367575
0.536797 0.0890669 0.422141
0.679622 0.121782 0.468803
0.759915 0.186923 0.5066
0.780636 0.300404 0.560647
0.803143 0.417578 0.618387
0.0694896 0.257862 0.345571
0.0698558 0.252888 0.371389
0.167208 0.244617 0.467704
0.464622 0.149752 0.445335
0.553536 0.0941787 0.413687
0.690898 0.130663 0.430564
0.762814 0.209873 0.489921
0.785428 0.348424 0.562463
0.817777 0.48098 0.649653
0.0704967 0.457755 0.385107
0.0705577 0.459464 0.388785
0.0815442 0.456703 0.390311
0.487694 0.483757 0.456855
0.669154 0.411475 0.416587
0.766064 0.343252 0.387533
0.777783 0.287724 0.415747
0.788327 0.372808 0.508904
0.826535 0.524895 0.648615
0.125566 0.63946 0.470603
0.12517 0.640085 0.46569
0.147204 0.634302 0.445518
0.323125 0.627207 0.413809
0.599802 0.615396 0.396155
0.762814 0.60885 0.43975
0.816312 0.570138 0.460029
0.81651 0.529992 0.475639
0.828916 0.538201 0.635538
0.252491 0.777554 0.558297
0.244785 0.78027 0.553521
0.244923 0.778531 0.533165
0.27126 0.765698 0.464073
0.537728 0.721248 0.43032
0.703792 0.726879 0.409216
0.815274 0.740368 0.505531
0.825437 0.733196 0.524697
0.833066 0.662348 0.548989
0.357763 0.836088 0.610529
0.349142 0.838712 0.605722
0.345724 0.838483 0.591867
0.348928 0.833692 0.546075
0.528252 0.783108 0.489693
0.682109 0.780728 0.491325
0.774838 0.788632 0.504616
0.832563 0.803586 0.607645
0.838621 0.791333 0.603876
0.504021 0.834424 0.648981
0.487343 0.836225 0.643748
0.483162 0.835264 0.634318
0.490455 0.829221 0.610071
0.572229 0.812039 0.58735
0.693507 0.809186 0.596185
0.770184 0.816785 0.60499
0.824491 0.825772 0.64036
0.850568 0.848264 0.712734
0.646632 0.849775 0.723064
0.634104 0.84799 0.714687
0.638346 0.848142 0.714092
0.643992 0.846403 0.708019
0.659983 0.843305 0.697917
0.721096 0.840818 0.70518
0.782086 0.848753 0.72546
0.830991 0.860471 0.740841
0.8663 0.872572 0.775525
0.0698863 0.1364 0.452842
0.100572 0.131868 0.487724
0.219928 0.0829175 0.485557
0.383581 0.0869917 0.485298
0.532296 0.0979934 0.526772
0.694728 0.144488 0.601251
0.758679 0.170916 0.654719
0.770397 0.210208 0.653529
0.790951 0.344686 0.65391
0.0697642 0.147402 0.466682
0.0697795 0.142611 0.484642
0.176669 0.0915084 0.518776
0.381476 0.0869001 0.496666
0.538491 0.0995956 0.532082
0.6963 0.143145 0.599466
0.758343 0.168704 0.650599
0.774105 0.234287 0.651179
0.797406 0.377417 0.658518
0.0699016 0.240574 0.474479
0.0697948 0.232685 0.489235
0.0821241 0.200504 0.561639
0.385657 0.101137 0.548531
0.565621 0.109712 0.557153
0.697719 0.140215 0.593378
0.75462 0.161868 0.632181
0.78024 0.285344 0.644236
0.814908 0.46183 0.686427
0.0709697 0.462165 0.497353
0.0706798 0.463142 0.511269
0.0703746 0.451423 0.532113
0.403769 0.4336 0.63743
0.650446 0.364324 0.618341
0.745937 0.268177 0.606104
0.755245 0.169711 0.576745
0.78471 0.331914 0.619043
0.827771 0.518975 0.700938
0.123064 0.635386 0.565057
0.119905 0.637186 0.568368
0.129076 0.635386 0.56791
0.287388 0.636744 0.580468
0.642222 0.637552 0.61384
0.79234 0.597147 0.597665
0.831891 0.543008 0.568414
0.808789 0.469886 0.583978
0.843412 0.579736 0.697505
0.203555 0.788418 0.637552
0.199084 0.790509 0.637308
0.205707 0.788937 0.628061
0.260884 0.771893 0.591379
0.548486 0.759533 0.589136
0.728542 0.74931 0.574624
0.825315 0.742275 0.600092
0.842466 0.718715 0.598138
0.855344 0.64007 0.634943
0.338781 0.845243 0.671565
0.332097 0.846952 0.669474
0.336736 0.844297 0.659815
0.358648 0.835981 0.632593
0.525567 0.815869 0.603738
0.68893 0.801892 0.599527
0.784939 0.802152 0.59649
0.845106 0.806989 0.645655
0.851743 0.791485 0.65333
0.501671 0.842542 0.687099
0.488975 0.844129 0.683101
0.491722 0.842771 0.67689
0.505089 0.839307 0.663706
0.523796 0.830259 0.623926
0.661952 0.816663 0.620462
0.766644 0.819867 0.622675
0.823667 0.826139 0.642435
0.854475 0.852003 0.727199
0.646693 0.853483 0.738293
0.635889 0.851896 0.731624
0.641428 0.852628 0.73225
0.646922 0.851682 0.728008
0.65568 0.8486 0.716411
0.702449 0.844587 0.712322
0.776776 0.849363 0.729671
0.829953 0.861173 0.744732
0.866178 0.872389 0.775158
0.0700542 0.16228 0.552636
0.0911421 0.162539 0.586877
0.210529 0.111696 0.599573
0.373724 0.0883192 0.58201
0.535042 0.116915 0.624079
0.689494 0.140246 0.687877
0.758862 0.18056 0.730541
0.763424 0.187655 0.745907
0.776471 0.248035 0.749508
0.0701152 0.171603 0.565316
0.0701457 0.169482 0.578683
0.189197 0.160006 0.624918
0.372412 0.0894942 0.603845
0.536309 0.119371 0.630488
0.694774 0.142351 0.692821
0.759045 0.180896 0.731395
0.764721 0.188678 0.747723
0.784146 0.291997 0.753567
0.0697795 0.235706 0.574548
0.0699779 0.232044 0.587213
0.070222 0.193988 0.631098
0.336263 0.100816 0.654093
0.569726 0.147326 0.680507
0.70219 0.144869 0.700938
0.758801 0.181277 0.732586
0.765286 0.193011 0.748852
0.803891 0.404379 0.763943
0.0706493 0.453315 0.610513
0.0707561 0.450828 0.621622
0.0705119 0.438956 0.645304
0.321752 0.413474 0.739376
0.598016 0.312047 0.738567
0.732021 0.205081 0.725093
0.761364 0.19649 0.721736
0.767758 0.213123 0.740108
0.819257 0.477012 0.763027
0.0713359 0.632837 0.645533
0.071397 0.634165 0.651865
0.0714733 0.63447 0.66096
0.143847 0.642924 0.709682
0.590753 0.605158 0.768109
0.785763 0.567727 0.760586
0.824521 0.517098 0.745998
0.796216 0.395254 0.710964
0.836362 0.549493 0.757824
0.206012 0.784985 0.721782
0.202152 0.786099 0.722759
0.20589 0.784939 0.721904
0.232914 0.775067 0.7122
0.539528 0.769162 0.725765
0.754788 0.758618 0.738918
0.848432 0.733623 0.729274
0.867887 0.682383 0.711925
0.84892 0.599588 0.714366
0.300893 0.856687 0.749523
0.294118 0.858198 0.74818
0.295796 0.85655 0.742458
0.305394 0.851484 0.728862
0.527352 0.830777 0.715175
0.703807 0.82562 0.723903
0.806088 0.823545 0.723888
0.863722 0.81326 0.725322
0.859678 0.789593 0.737652
0.452827 0.860502 0.740322
0.439826 0.861921 0.736782
0.447715 0.860731 0.732403
0.479713 0.856458 0.725002
0.537942 0.8486 0.710552
0.680919 0.850477 0.721187
0.786511 0.851972 0.734127
0.843275 0.85655 0.738338
0.86183 0.859739 0.755688
0.639017 0.859403 0.756329
0.629664 0.858808 0.752132
0.63888 0.85922 0.753124
0.649042 0.859144 0.752682
0.665049 0.858228 0.750057
0.678416 0.852949 0.730632
0.762341 0.851804 0.737789
0.828687 0.86421 0.754559
0.867369 0.874281 0.780011
0.0700389 0.191196 0.636316
0.0756237 0.193164 0.661646
0.224262 0.182071 0.695186
0.372183 0.103029 0.677317
0.527184 0.127291 0.692744
0.686366 0.152041 0.746883
0.759472 0.172122 0.784848
0.764706 0.184344 0.792065
0.768811 0.1953 0.790555
0.0699931 0.199222 0.642588
0.0700847 0.200916 0.651057
0.165164 0.197787 0.70338
0.367422 0.107485 0.697612
0.533257 0.129564 0.705501
0.68983 0.153506 0.752026
0.760098 0.173281 0.788205
0.765743 0.186389 0.793729
0.769818 0.197177 0.791196
0.070222 0.264271 0.652552
0.0702983 0.2636 0.66363
0.0701762 0.224674 0.692973
0.29221 0.110887 0.724544
0.550652 0.13724 0.744884
0.711147 0.164492 0.773709
0.76109 0.175616 0.794232
0.766964 0.190494 0.796902
0.786007 0.308446 0.811917
0.0709087 0.454688 0.683314
0.0708782 0.450141 0.692302
0.0707256 0.437324 0.712032
0.245121 0.416541 0.792889
0.555886 0.285817 0.797284
0.713939 0.209079 0.785077
0.765042 0.185199 0.793683
0.767346 0.192584 0.796765
0.803952 0.413916 0.819867
0.071458 0.651545 0.717571
0.071458 0.649744 0.724437
0.0713054 0.645411 0.732357
0.133196 0.639567 0.772808
0.554284 0.601907 0.830945
0.762356 0.553262 0.830457
0.822202 0.489677 0.822202
0.79237 0.358892 0.804852
0.824933 0.491478 0.81973
0.145373 0.784207 0.774029
0.143038 0.78378 0.775494
0.14081 0.783276 0.779065
0.172015 0.777554 0.784344
0.495506 0.760449 0.803952
0.725032 0.739834 0.828199
0.845594 0.714672 0.82388
0.864744 0.671733 0.819303
0.836652 0.535653 0.791135
0.304616 0.857633 0.799741
0.30074 0.857404 0.799084
0.30161 0.855634 0.797086
0.308522 0.852232 0.794919
0.502327 0.835859 0.789014
0.69836 0.831205 0.796643
0.823377 0.832654 0.813748
0.880705 0.813748 0.804898
0.879622 0.780087 0.809277
0.411597 0.872587 0.786191
0.402808 0.874388 0.784955
0.409735 0.873121 0.782177
0.436255 0.870985 0.779141
0.498939 0.866636 0.772885
0.682368 0.866163 0.780987
0.796597 0.875364 0.804059
0.863294 0.877958 0.810544
0.87538 0.869047 0.801785
0.615564 0.867216 0.781353
0.606958 0.867247 0.778988
0.622446 0.867857 0.778927
0.637873 0.86772 0.778012
0.661341 0.868208 0.777523
0.689311 0.866651 0.774136
0.767239 0.874708 0.788113
0.844038 0.883177 0.810269
0.879194 0.888762 0.820172
0.0703899 0.219547 0.700481
0.0705119 0.218647 0.705669
0.18526 0.211398 0.740642
0.367498 0.116869 0.737667
0.520607 0.126116 0.736614
0.67126 0.160082 0.771038
0.760754 0.174716 0.809812
0.764614 0.184802 0.813733
0.767575 0.194446 0.814786
0.0700694 0.223255 0.699107
0.0703288 0.226993 0.707851
0.129259 0.222217 0.739544
0.352117 0.11873 0.746975
0.540246 0.132189 0.755611
0.674296 0.163256 0.776989
0.760983 0.175372 0.81062
0.76463 0.185901 0.813581
0.768826 0.197116 0.815885
0.0700542 0.285527 0.697871
0.0703441 0.288334 0.706538
0.0704967 0.26685 0.726589
0.285527 0.196399 0.76791
0.525765 0.129076 0.766766
0.716472 0.179629 0.801389
0.761013 0.176562 0.810742
0.765972 0.188922 0.814649
0.772839 0.212238 0.818723
0.0706798 0.461997 0.719768
0.0709697 0.458396 0.728527
0.0707866 0.448997 0.745968
0.124895 0.418479 0.795041
0.515099 0.286915 0.811902
0.698268 0.234424 0.805676
0.766949 0.191043 0.815305
0.76701 0.191028 0.815351
0.787213 0.32047 0.825772
0.071519 0.65626 0.751904
0.0715496 0.653574 0.758648
0.0712444 0.648341 0.767681
0.103365 0.63537 0.794995
0.519371 0.609171 0.85185
0.738506 0.553307 0.859571
0.820203 0.494347 0.850217
0.788388 0.330983 0.825971
0.802823 0.41387 0.835264
0.0930648 0.795285 0.806027
0.0900893 0.795163 0.808728
0.0849012 0.792844 0.810193
0.10428 0.788495 0.818051
0.46041 0.76614 0.839475
0.698009 0.737713 0.876539
0.826795 0.705913 0.875914
0.857404 0.65745 0.871717
0.826261 0.511391 0.852796
0.275883 0.859251 0.829404
0.273487 0.858351 0.829908
0.275898 0.855741 0.830411
0.298619 0.848478 0.830243
0.464591 0.833265 0.832456
0.669398 0.826627 0.848432
0.804074 0.819532 0.864668
0.87715 0.800549 0.861982
0.874983 0.747005 0.856855
0.387304 0.876707 0.817502
0.379721 0.877882 0.81767
0.390967 0.876509 0.817395
0.412985 0.875013 0.816693
0.489067 0.869108 0.815381
0.667643 0.869062 0.825864
0.79205 0.878111 0.8477
0.872969 0.884688 0.865415
0.890501 0.883894 0.869261
0.590707 0.872969 0.80914
0.584451 0.872679 0.806622
0.601526 0.873304 0.807263
0.617472 0.873426 0.807111
0.643046 0.874769 0.807599
0.675563 0.876631 0.809934
0.77409 0.886854 0.830762
0.857145 0.897078 0.859113
0.890166 0.89987 0.869963
0.0703441 0.235264 0.73106
0.0703441 0.235477 0.730327
0.144396 0.229252 0.757549
0.347799 0.121904 0.760983
0.527276 0.129107 0.765896
0.670115 0.175753 0.791974
0.757198 0.170428 0.807599
0.76257 0.180911 0.812024
0.766812 0.19086 0.815213
0.0704662 0.237293 0.72668
0.0702831 0.23946 0.732036
0.0856641 0.232746 0.748943
0.320073 0.120516 0.75967
0.538293 0.132036 0.768627
0.673167 0.17525 0.792981
0.756405 0.168612 0.806897
0.762783 0.181216 0.812192
0.767529 0.19266 0.815702
0.0704509 0.296254 0.720653
0.0702373 0.299153 0.727275
0.0705577 0.297368 0.73463
0.165835 0.226581 0.761379
0.483284 0.122957 0.762066
0.703273 0.176287 0.797848
0.757656 0.170138 0.807614
0.762982 0.181521 0.812314
0.769146 0.198886 0.817288
0.0709392 0.467933 0.736934
0.0708629 0.467704 0.744533
0.0708629 0.469398 0.763012
0.0704814 0.438178 0.763897
0.451469 0.317906 0.819745
0.670237 0.254185 0.805402
0.766247 0.191089 0.815183
0.764126 0.183505 0.813321
0.770733 0.203677 0.818433
0.0712902 0.657969 0.767803
0.0713359 0.656748 0.774533
0.0711986 0.656733 0.785351
0.0713817 0.639475 0.789441
0.410346 0.621347 0.831937
0.690089 0.565713 0.868284
0.811139 0.517861 0.852842
0.793927 0.367987 0.829282
0.772045 0.208759 0.819333
0.084184 0.799893 0.820005
0.08159 0.800198 0.823163
0.0778821 0.799146 0.826169
0.0743267 0.790707 0.827436
0.382132 0.764767 0.836225
0.657221 0.742168 0.874052
0.803861 0.712551 0.88188
0.858747 0.666316 0.875441
0.819806 0.486732 0.848585
0.215045 0.868589 0.849546
0.202823 0.868696 0.851286
0.205203 0.866377 0.852995
0.242603 0.8551 0.85037
0.435309 0.831479 0.843244
0.645518 0.825254 0.858701
0.782864 0.816236 0.876738
0.86804 0.79646 0.877424
0.868116 0.736004 0.876158
0.361913 0.877852 0.834119
0.353979 0.877913 0.835538
0.353384 0.877546 0.836591
0.384863 0.874144 0.835584
0.512169 0.863859 0.835096
0.646326 0.863447 0.845884
0.771069 0.870832 0.864652
0.860731 0.878218 0.879484
0.887175 0.862104 0.88072
0.564462 0.875669 0.829114
0.559976 0.875502 0.828412
0.575708 0.875914 0.830518
0.593164 0.876249 0.832151
0.621759 0.877256 0.835218
0.660685 0.880552 0.839902
0.76051 0.889387 0.857862
0.853483 0.900267 0.880064
0.893843 0.902708 0.887587
