bundles/resolve-cinematic-luts/Phantom Luts/Ursa G2 Phntm Arri LUTs - V1/Gen5/Standard (No WB Offset)/IceBlue Ursa V1 - Gen5.cube
TITLE "Generated by Resolve"
LUT_3D_SIZE 9
0.029099 0.0417945 0.0403449
0.0396735 0.0414282 0.0417945
0.107729 0.0391699 0.0407111
0.34107 0.0370336 0.0413062
0.560449 0.053193 0.064271
0.657877 0.0810101 0.1019
0.672084 0.0831769 0.130785
0.67248 0.082948 0.132143
0.678004 0.0796979 0.151537
0.0310521 0.0509957 0.0446784
0.0349279 0.049897 0.0434882
0.0894179 0.0462959 0.0433967
0.321126 0.0366522 0.043595
0.563241 0.0530709 0.0675212
0.659617 0.0804456 0.106523
0.673152 0.0825513 0.134447
0.673213 0.0825208 0.13463
0.678065 0.0796521 0.151781
0.0365911 0.12987 0.0780499
0.0357824 0.129931 0.0717937
0.0769665 0.132952 0.0589761
0.356085 0.0912795 0.0498665
0.556069 0.053193 0.0516365
0.655207 0.0797131 0.0975509
0.666102 0.0814679 0.118959
0.667948 0.0817578 0.122927
0.671656 0.0800183 0.134722
0.034287 0.385031 0.142931
0.033875 0.396262 0.132418
0.0340887 0.388632 0.107347
0.216739 0.406714 0.059617
0.660639 0.39472 0.113085
0.786084 0.32752 0.177905
0.657404 0.0831006 0.0887617
0.657069 0.0842756 0.0880293
0.690898 0.135241 0.111849
0.0939651 0.682246 0.360006
0.104463 0.694224 0.345403
0.106691 0.696529 0.343481
0.121721 0.691997 0.264576
0.532052 0.723705 0.176593
0.867826 0.729427 0.292058
0.888914 0.697154 0.285466
0.884901 0.685512 0.279896
0.894408 0.710246 0.295583
0.224765 0.850019 0.537392
0.222538 0.84741 0.513329
0.223667 0.8448 0.490547
0.223713 0.843976 0.478355
0.429953 0.855329 0.2804
0.801312 0.895018 0.347265
0.963699 0.899016 0.433051
0.96379 0.899031 0.436957
0.964263 0.899458 0.437964
0.248112 0.859892 0.545602
0.239948 0.854124 0.512764
0.237613 0.8448 0.449439
0.237034 0.844709 0.445823
0.338506 0.846616 0.303838
0.685023 0.883055 0.310445
0.928054 0.892332 0.404776
0.961334 0.899077 0.430701
0.959854 0.899367 0.431998
0.253437 0.863249 0.565209
0.244373 0.857847 0.533074
0.235386 0.845945 0.46183
0.236713 0.844251 0.44593
0.28394 0.839246 0.328405
0.67335 0.880812 0.307225
0.918242 0.89662 0.399619
0.963073 0.898405 0.43006
0.958755 0.899657 0.431693
0.256458 0.864942 0.575662
0.246128 0.858671 0.53814
0.236179 0.84506 0.449866
0.236378 0.844388 0.445655
0.423636 0.855207 0.283467
0.736858 0.887663 0.324361
0.940215 0.893217 0.411826
0.963104 0.898528 0.430396
0.958038 0.899611 0.434318
0.0285801 0.0420539 0.0476081
0.0412299 0.041886 0.0514839
0.116793 0.0412604 0.0594339
0.36051 0.0370642 0.0667277
0.575051 0.0530861 0.0902876
0.661585 0.0790265 0.113161
0.675349 0.081178 0.142504
0.675792 0.0809644 0.143984
0.679606 0.0787213 0.157595
0.0300908 0.0468452 0.0453346
0.0328527 0.0459907 0.0454414
0.0991226 0.0408484 0.0454871
0.3411 0.0358434 0.0501564
0.571008 0.0522774 0.0812238
0.663294 0.0785077 0.11783
0.676356 0.0806287 0.146014
0.676448 0.0805676 0.14638
0.679545 0.0787366 0.15761
0.037583 0.116136 0.0917067
0.0361334 0.119463 0.0780499
0.0719768 0.12285 0.0583658
0.36173 0.0734417 0.0474098
0.558495 0.0516213 0.0577859
0.657298 0.0791791 0.102998
0.667918 0.0809491 0.124224
0.671946 0.0814527 0.133227
0.674159 0.0796216 0.141848
0.034699 0.370413 0.172107
0.0339818 0.382269 0.145525
0.0340887 0.384344 0.11957
0.205158 0.399664 0.059205
0.668208 0.37499 0.117433
0.77319 0.298512 0.16733
0.6551 0.0825055 0.0843671
0.660166 0.0876936 0.0928206
0.682765 0.11841 0.109331
0.0888075 0.675959 0.390585
0.0959335 0.686213 0.369955
0.104814 0.693767 0.340841
0.115709 0.691905 0.281315
0.526101 0.721218 0.174243
0.870237 0.724727 0.290822
0.885756 0.687846 0.280415
0.882567 0.675441 0.276265
0.890944 0.700267 0.289326
0.229038 0.853941 0.567758
0.225589 0.851331 0.545342
0.222965 0.845838 0.49839
0.222644 0.8448 0.486549
0.401907 0.852384 0.283696
0.799695 0.894804 0.346578
0.964004 0.899062 0.433143
0.963653 0.898436 0.435355
0.96408 0.899199 0.436271
0.256931 0.866529 0.583047
0.249348 0.861631 0.55404
0.237598 0.850278 0.490974
0.237186 0.844648 0.445914
0.320897 0.845502 0.314473
0.683024 0.882734 0.309911
0.927275 0.892256 0.404349
0.961349 0.899077 0.430762
0.959976 0.899382 0.43151
0.263416 0.868971 0.601663
0.254063 0.864729 0.573022
0.239155 0.853132 0.508827
0.236637 0.844282 0.445869
0.276356 0.841123 0.347829
0.6692 0.880461 0.306401
0.915801 0.896971 0.398306
0.962798 0.898299 0.431373
0.958709 0.899611 0.432456
0.268299 0.872282 0.61857
0.258518 0.867262 0.587228
0.23772 0.851957 0.499489
0.236393 0.844373 0.445655
0.387182 0.851438 0.288487
0.725307 0.886351 0.32079
0.936599 0.892943 0.409567
0.963073 0.898497 0.43032
0.958251 0.899641 0.433402
0.030518 0.0451667 0.127214
0.0538033 0.0440375 0.124895
0.128069 0.0445258 0.126116
0.396155 0.0425574 0.147707
0.617487 0.0584573 0.16997
0.682322 0.082063 0.161196
0.673777 0.0809033 0.138705
0.674296 0.0807202 0.140368
0.678126 0.0785077 0.153903
0.0257877 0.0441444 0.0975052
0.0347753 0.0448615 0.124788
0.112306 0.0441749 0.121279
0.388968 0.0407263 0.126253
0.613275 0.0584268 0.148562
0.674815 0.0802625 0.143587
0.674846 0.0804761 0.14226
0.675151 0.0803845 0.143206
0.678233 0.0785077 0.154238
0.0343023 0.107485 0.115648
0.0332799 0.107744 0.116442
0.0840925 0.106538 0.122927
0.379965 0.083299 0.1019
0.574868 0.053315 0.0879377
0.65922 0.0794995 0.106996
0.671962 0.0814527 0.133257
0.673472 0.0816663 0.136599
0.675792 0.0797589 0.145693
0.0382849 0.350164 0.231037
0.0370642 0.355825 0.217044
0.0347295 0.357671 0.168826
0.210086 0.383505 0.0654154
0.672953 0.339635 0.128801
0.756939 0.264607 0.154849
0.656367 0.0827192 0.0909438
0.65658 0.0796826 0.0972915
0.656123 0.0781262 0.0951095
0.0829786 0.661158 0.443687
0.08748 0.67126 0.430167
0.0894179 0.675868 0.379828
0.105196 0.684367 0.296407
0.510094 0.71075 0.165927
0.8701 0.709606 0.283543
0.880323 0.666667 0.271611
0.877424 0.65536 0.26743
0.884077 0.682017 0.278202
0.23743 0.856886 0.61767
0.235599 0.856886 0.601938
0.228977 0.852735 0.561502
0.223377 0.8448 0.489982
0.331533 0.845151 0.303929
0.792233 0.894041 0.343725
0.964309 0.898772 0.433646
0.962951 0.897215 0.432532
0.963943 0.898772 0.433265
0.275181 0.876417 0.64506
0.268681 0.873564 0.624353
0.255283 0.865019 0.574929
0.236866 0.845029 0.44889
0.279088 0.841001 0.342214
0.675761 0.881773 0.30808
0.923598 0.892058 0.402792
0.961181 0.899092 0.431861
0.959838 0.899367 0.432395
0.282902 0.880003 0.663615
0.274983 0.876997 0.643915
0.260639 0.867964 0.595056
0.235843 0.845548 0.458274
0.256626 0.842847 0.390646
0.657557 0.879194 0.303914
0.906218 0.897093 0.393835
0.962798 0.898131 0.431708
0.958862 0.899535 0.432807
0.29543 0.886381 0.695857
0.286351 0.882994 0.675593
0.26569 0.871748 0.614954
0.236728 0.844404 0.447608
0.313268 0.845167 0.322759
0.694133 0.882933 0.312139
0.92726 0.893553 0.40441
0.962737 0.898405 0.43122
0.957763 0.899733 0.433799
0.0405127 0.05449 0.349615
0.0801556 0.052491 0.350179
0.182788 0.050248 0.34284
0.41651 0.0496376 0.345739
0.658 0.0694591 0.361456
0.725399 0.0879072 0.356085
0.724132 0.0881819 0.334356
0.723186 0.0878004 0.327993
0.725978 0.0879225 0.366873
0.0307927 0.0549172 0.347906
0.044358 0.0545357 0.359014
0.151415 0.0510872 0.360601
0.413169 0.0497292 0.356924
0.661753 0.0696269 0.357
0.723415 0.0865492 0.347082
0.720867 0.0866407 0.318288
0.719158 0.085481 0.31191
0.723644 0.0862135 0.350927
0.0193027 0.0767529 0.281895
0.0172427 0.0682078 0.310719
0.0578317 0.0536812 0.352651
0.369863 0.0492103 0.346532
0.645487 0.0645762 0.319265
0.719142 0.0854658 0.313649
0.715694 0.0854963 0.287648
0.715206 0.0856947 0.283497
0.721035 0.0861982 0.32163
0.0328679 0.337942 0.319844
0.0314641 0.345357 0.327718
0.0304723 0.339849 0.326284
0.297993 0.351507 0.363195
0.724666 0.324727 0.339773
0.807813 0.25951 0.273777
0.663508 0.0834821 0.107439
0.662074 0.0794537 0.110323
0.661677 0.0788434 0.106767
0.0902724 0.650553 0.527733
0.0942855 0.659266 0.529198
0.0909895 0.658763 0.512337
0.0883192 0.658701 0.454185
0.527367 0.693339 0.248508
0.903273 0.672908 0.331792
0.877516 0.654917 0.266743
0.873549 0.640192 0.261357
0.877607 0.670573 0.274052
0.262913 0.854719 0.697444
0.266255 0.858106 0.693599
0.257694 0.859449 0.673747
0.235523 0.854917 0.60058
0.269932 0.848447 0.404211
0.806119 0.897246 0.360891
0.963943 0.897581 0.432258
0.962295 0.896086 0.428687
0.961227 0.897902 0.443534
0.328161 0.895537 0.743664
0.329351 0.892515 0.734524
0.306355 0.886076 0.704601
0.269856 0.871763 0.620279
0.256031 0.848219 0.428809
0.690806 0.884123 0.314717
0.919676 0.894636 0.401358
0.96083 0.899123 0.433936
0.957702 0.898985 0.443809
0.352392 0.904585 0.764904
0.349081 0.898894 0.754757
0.316854 0.890394 0.722759
0.277073 0.874037 0.639063
0.24062 0.84509 0.444633
0.637781 0.877256 0.300374
0.893172 0.90016 0.388693
0.962509 0.897932 0.433005
0.957748 0.899275 0.438666
0.419944 0.919799 0.815259
0.416327 0.914046 0.806027
0.365103 0.904738 0.770718
0.288518 0.879973 0.671199
0.27924 0.860792 0.470771
0.734554 0.89073 0.336263
0.915129 0.894072 0.399023
0.961807 0.898054 0.43447
0.957229 0.899519 0.437797
0.111177 0.0666819 0.578515
0.17319 0.0655985 0.592752
0.284398 0.0635996 0.60528
0.449149 0.0647593 0.602609
0.647669 0.0861677 0.572137
0.730465 0.111818 0.576226
0.724025 0.113298 0.602045
0.723705 0.113283 0.602777
0.715877 0.11487 0.624475
0.0749371 0.0670939 0.565286
0.122515 0.0677806 0.588281
0.253208 0.065919 0.614069
0.438788 0.0667124 0.616754
0.650996 0.0886549 0.582788
0.729473 0.11249 0.58265
0.722957 0.11368 0.606683
0.722866 0.113573 0.606271
0.715846 0.114916 0.624933
0.0556344 0.0651102 0.540688
0.0722972 0.0672618 0.564385
0.162829 0.0674754 0.600473
0.392386 0.0657511 0.619608
0.63682 0.0854658 0.583246
0.732937 0.11104 0.565423
0.727932 0.112062 0.586679
0.728237 0.11194 0.585504
0.721065 0.113603 0.609339
0.0182345 0.269902 0.546166
0.0181582 0.26511 0.556863
0.017731 0.237675 0.56321
0.242222 0.163958 0.683452
0.663844 0.152529 0.649699
0.759548 0.131991 0.555123
0.73962 0.113527 0.552605
0.737331 0.11165 0.55256
0.734722 0.116167 0.579416
0.100786 0.635828 0.61323
0.106416 0.644877 0.620981
0.107774 0.646113 0.623529
0.10869 0.642252 0.624277
0.596796 0.650736 0.668238
0.948745 0.645258 0.659983
0.96408 0.608209 0.603372
0.963607 0.591409 0.594186
0.957198 0.621805 0.630442
0.281575 0.84686 0.765866
0.28983 0.850538 0.76878
0.290639 0.851392 0.764736
0.281743 0.850629 0.748257
0.416907 0.87602 0.718639
0.814343 0.904509 0.646189
0.969253 0.896742 0.671733
0.969421 0.892027 0.619532
0.963577 0.900191 0.679408
0.476127 0.926467 0.854475
0.497642 0.922316 0.855177
0.484047 0.92015 0.847501
0.428672 0.914153 0.820508
0.387915 0.910048 0.756863
0.699809 0.920485 0.682704
0.944625 0.923003 0.577386
0.968292 0.902495 0.452995
0.967483 0.907317 0.494942
0.536171 0.932891 0.875639
0.559472 0.925246 0.872847
0.541222 0.923217 0.864286
0.477775 0.919646 0.836942
0.3635 0.903243 0.761334
0.665324 0.91458 0.684123
0.916899 0.927367 0.56965
0.967834 0.902327 0.454398
0.960555 0.901259 0.45066
0.59559 0.937881 0.900267
0.618875 0.929992 0.89575
0.606195 0.926986 0.888334
0.542657 0.924529 0.866316
0.535973 0.919814 0.824308
0.770062 0.932815 0.780163
0.936294 0.937987 0.672999
0.972152 0.911757 0.503838
0.959274 0.901915 0.449302
0.281224 0.0854047 0.694438
0.312398 0.0861677 0.700359
0.375341 0.0881666 0.708919
0.485908 0.0946822 0.715114
0.640635 0.115801 0.707988
0.711864 0.142046 0.71397
0.704326 0.135988 0.712551
0.70544 0.136629 0.712688
0.704448 0.139635 0.718883
0.261433 0.0851148 0.690517
0.295644 0.0861524 0.69839
0.362768 0.0880903 0.708751
0.480781 0.0951095 0.717556
0.644602 0.119295 0.713466
0.713024 0.143603 0.716091
0.706447 0.137575 0.71342
0.706386 0.138155 0.714412
0.704555 0.141039 0.720943
0.246708 0.0841382 0.685634
0.250111 0.0850843 0.688746
0.306157 0.0862745 0.700343
0.441993 0.0924392 0.716518
0.624552 0.114504 0.715709
0.714763 0.143252 0.713909
0.707927 0.135714 0.708324
0.707576 0.135958 0.709102
0.70518 0.138979 0.717174
0.0414435 0.130694 0.628214
0.059968 0.117189 0.641489
0.0845655 0.0851148 0.634043
0.338293 0.0893873 0.708019
0.583825 0.11194 0.722972
0.717678 0.145785 0.713848
0.707179 0.134401 0.70663
0.706996 0.134371 0.706859
0.705684 0.137423 0.713787
0.106981 0.594369 0.719249
0.11043 0.601526 0.725032
0.110475 0.598688 0.729015
0.108919 0.588922 0.735515
0.608179 0.607416 0.945983
0.951339 0.587411 0.930129
0.966964 0.525841 0.918151
0.961303 0.501762 0.913802
0.958785 0.548898 0.926085
0.291981 0.839109 0.816678
0.300542 0.843137 0.820401
0.302876 0.843793 0.82153
0.301122 0.84239 0.820768
0.494728 0.877791 0.866133
0.851331 0.877485 0.886885
0.965576 0.877928 0.885863
0.965331 0.872358 0.879561
0.958175 0.88394 0.893629
0.564706 0.936904 0.904051
0.591836 0.932738 0.904463
0.592462 0.932006 0.903243
0.5794 0.931014 0.899001
0.597879 0.930388 0.893156
0.835447 0.946487 0.918837
0.948516 0.961395 0.902327
0.975982 0.960861 0.910628
0.973724 0.961868 0.924224
0.668742 0.941863 0.920836
0.688884 0.936645 0.919783
0.688502 0.935088 0.918242
0.669413 0.934813 0.913649
0.639353 0.932113 0.902251
0.826627 0.945724 0.920836
0.930419 0.960342 0.915038
0.974334 0.960815 0.888045
0.975616 0.961746 0.899901
0.700145 0.945022 0.932097
0.721233 0.938949 0.928389
0.720638 0.936736 0.926009
0.699168 0.937285 0.922911
0.719234 0.937392 0.919326
0.880156 0.952651 0.939437
0.942962 0.962966 0.933715
0.971649 0.963821 0.908354
0.973861 0.963119 0.904005
0.548455 0.185077 0.79968
0.563149 0.190021 0.803189
0.596582 0.198367 0.807614
0.673747 0.220157 0.815625
0.779858 0.249302 0.809262
0.794156 0.248783 0.801556
0.747829 0.189273 0.755825
0.757656 0.200137 0.76347
0.770855 0.221988 0.783612
0.555611 0.1991 0.810864
0.577829 0.212436 0.821424
0.616709 0.226673 0.830137
0.698619 0.252628 0.840726
0.808331 0.285237 0.835782
0.820203 0.282856 0.827008
0.771771 0.219623 0.7794
0.773007 0.221744 0.781369
0.77438 0.227924 0.789288
0.546075 0.199466 0.811505
0.558663 0.210986 0.821164
0.591791 0.223484 0.829786
0.673701 0.247868 0.841154
0.791974 0.277836 0.835447
0.81976 0.279103 0.822217
0.764843 0.207553 0.767971
0.774029 0.219562 0.777401
0.773663 0.224704 0.785306
0.492882 0.193881 0.806622
0.517983 0.202823 0.815198
0.5308 0.196674 0.810575
0.592737 0.207111 0.816144
0.745159 0.251881 0.82678
0.80827 0.264286 0.8112
0.745434 0.181613 0.74641
0.747234 0.184207 0.748699
0.760922 0.206851 0.770535
0.266133 0.63917 0.861708
0.305333 0.653712 0.884382
0.366033 0.657252 0.914717
0.447807 0.644968 0.943191
0.758968 0.601511 0.966293
0.956634 0.596414 0.96112
0.964767 0.552499 0.955901
0.960815 0.529839 0.95201
0.955581 0.574502 0.957458
0.404349 0.864363 0.90103
0.424521 0.871687 0.906706
0.438224 0.874159 0.910689
0.456596 0.87396 0.915038
0.59115 0.874296 0.923552
0.854246 0.864576 0.946334
0.962554 0.862593 0.953048
0.965026 0.856214 0.948653
0.957107 0.870359 0.948791
0.6103 0.941268 0.927398
0.634211 0.939223 0.927764
0.63798 0.938613 0.927642
0.634775 0.937926 0.927031
0.648554 0.936919 0.926879
0.848859 0.943816 0.943664
0.952438 0.952071 0.954406
0.976089 0.95288 0.953033
0.972946 0.955367 0.95758
0.738537 0.947387 0.939223
0.752224 0.944076 0.938872
0.753201 0.943511 0.938369
0.745235 0.943572 0.937026
0.734478 0.94284 0.934081
0.875639 0.953796 0.950286
0.952972 0.965469 0.963256
0.974334 0.968582 0.95993
0.976562 0.969146 0.96289
0.767269 0.948104 0.943267
0.778058 0.945251 0.943191
0.774227 0.9449 0.942687
0.763043 0.944854 0.941131
0.77528 0.945129 0.939757
0.903014 0.957076 0.95581
0.957443 0.966903 0.966308
0.970718 0.969451 0.964355
0.974563 0.969741 0.962936
0.595834 0.223713 0.828855
0.611124 0.230045 0.833448
0.645335 0.240955 0.839078
0.719585 0.263554 0.845884
0.818311 0.29453 0.840818
0.831144 0.297856 0.838056
0.777752 0.227344 0.785428
0.77882 0.227161 0.784176
0.776623 0.227558 0.786679
0.580392 0.217975 0.82501
0.595392 0.224826 0.830442
0.630961 0.236698 0.83714
0.710689 0.260929 0.845701
0.818204 0.294484 0.841108
0.830518 0.296895 0.837354
0.777798 0.227329 0.785428
0.777417 0.227405 0.78584
0.775128 0.227802 0.788449
0.558938 0.208377 0.817777
0.564523 0.213367 0.822965
0.597391 0.225498 0.831006
0.681254 0.251865 0.843229
0.803571 0.289662 0.842908
0.83537 0.300114 0.837522
0.780056 0.226947 0.782818
0.779721 0.227008 0.783185
0.775891 0.22768 0.787533
0.570535 0.234028 0.837827
0.55845 0.216464 0.825666
0.554971 0.209689 0.820371
0.622675 0.233967 0.835798
0.766903 0.278019 0.845518
0.837903 0.304356 0.840879
0.781292 0.226734 0.781353
0.781125 0.226764 0.781613
0.776989 0.227466 0.786435
0.535988 0.642924 0.955154
0.529549 0.647715 0.9561
0.536736 0.63537 0.958862
0.562081 0.612726 0.964385
0.792828 0.584375 0.966735
0.9579 0.585214 0.960754
0.964813 0.553338 0.95584
0.962692 0.535912 0.951537
0.955215 0.570382 0.95729
0.567468 0.879667 0.924086
0.573159 0.882124 0.924331
0.572671 0.881102 0.923552
0.563149 0.875364 0.922316
0.644312 0.8692 0.922515
0.880095 0.859236 0.94905
0.961501 0.859251 0.952956
0.966628 0.85362 0.948363
0.956786 0.867308 0.949966
0.705837 0.940505 0.938293
0.719188 0.939178 0.938643
0.722957 0.938735 0.938521
0.72401 0.937621 0.93785
0.733181 0.93637 0.938079
0.865995 0.942855 0.950759
0.948714 0.949844 0.96144
0.975555 0.950225 0.959915
0.972534 0.953017 0.962524
0.787213 0.948638 0.944198
0.791745 0.947494 0.946487
0.791592 0.947585 0.9467
0.789227 0.948043 0.946563
0.78764 0.947509 0.945144
0.884001 0.955001 0.955474
0.952331 0.964904 0.966613
0.976211 0.966552 0.966537
0.980499 0.966812 0.965545
0.7879 0.948882 0.945464
0.797024 0.946456 0.945708
0.797421 0.946349 0.945785
0.795132 0.946975 0.946014
0.812039 0.947936 0.946548
0.908034 0.957656 0.959121
0.957519 0.966812 0.968978
0.972427 0.969467 0.97145
0.976379 0.969284 0.969711
0.598703 0.224598 0.829236
0.613809 0.231037 0.834043
0.648936 0.242206 0.839719
0.724407 0.264942 0.845823
0.821881 0.295872 0.840497
0.829404 0.29543 0.83624
0.777752 0.227344 0.785443
0.778897 0.227161 0.784115
0.776608 0.227558 0.786679
0.583474 0.218692 0.825177
0.597787 0.225757 0.831022
0.634256 0.237812 0.837842
0.715846 0.262669 0.846143
0.82237 0.295979 0.840681
0.829038 0.294804 0.835813
0.777798 0.227329 0.785428
0.777432 0.227405 0.78584
0.776089 0.227619 0.787427
0.559518 0.208377 0.817655
0.565942 0.213886 0.823331
0.599619 0.226307 0.831495
0.685634 0.2533 0.843748
0.808209 0.291356 0.842664
0.834531 0.298787 0.836622
0.780072 0.226932 0.782834
0.779782 0.226978 0.783246
0.776272 0.227588 0.787213
0.568917 0.229587 0.834409
0.557504 0.214313 0.823957
0.555703 0.211124 0.821561
0.624949 0.234501 0.836011
0.771298 0.279393 0.84538
0.837568 0.303655 0.840238
0.781308 0.226734 0.781338
0.781155 0.226749 0.781643
0.77702 0.227451 0.786465
0.536675 0.642206 0.953872
0.529854 0.647623 0.954437
0.537026 0.635203 0.957366
0.562722 0.612253 0.962554
0.796841 0.585565 0.964599
0.954772 0.587045 0.957473
0.96582 0.553216 0.95491
0.962188 0.538231 0.950942
0.953292 0.572061 0.955383
0.573541 0.879713 0.922286
0.579049 0.88275 0.923079
0.578759 0.881575 0.922179
0.568368 0.875425 0.920668
0.652476 0.869078 0.92079
0.883925 0.860761 0.947417
0.961151 0.860365 0.952102
0.965866 0.854688 0.945541
0.954452 0.869947 0.947799
0.72224 0.939422 0.93785
0.733806 0.937896 0.937957
0.736324 0.937011 0.937331
0.733776 0.935729 0.936385
0.740764 0.934768 0.937209
0.871275 0.942611 0.951064
0.949645 0.950149 0.962509
0.977752 0.949538 0.957671
0.97174 0.953262 0.962905
0.797574 0.946136 0.942519
0.798978 0.945922 0.945312
0.800061 0.945541 0.945129
0.798459 0.945495 0.945037
0.799588 0.945754 0.945327
0.889845 0.9552 0.957748
0.951446 0.965103 0.969116
0.977417 0.965911 0.965408
0.981262 0.966552 0.965209
0.791913 0.947692 0.942901
0.800336 0.945541 0.944991
0.804486 0.944411 0.944259
0.804532 0.944396 0.944244
0.822202 0.94609 0.946502
0.910643 0.957473 0.960647
0.955627 0.967239 0.971344
0.971115 0.969726 0.972946
0.983948 0.967544 0.963867
