bundles/resolve-cinematic-luts/Phantom Luts/Ursa G2 Phntm Arri LUTs - V1/Gen5/Standard (No WB Offset)/IceBlue Ursa V1 - Gen5.cube
TITLE "Generated by Resolve"
LUT_3D_SIZE 33
0.029099 0.0417945 0.0403449
0.029099 0.0417792 0.0403143
0.0291142 0.0417792 0.0402838
0.0327306 0.0417029 0.041062
0.0396735 0.0414282 0.0417945
0.0487373 0.0413672 0.0410468
0.061387 0.0409552 0.0402838
0.0807202 0.0404974 0.0404364
0.107729 0.0391699 0.0407111
0.148516 0.0373541 0.0410468
0.203555 0.0365148 0.0417487
0.26978 0.0365454 0.0419928
0.34107 0.0370336 0.0413062
0.409537 0.0382696 0.0410773
0.470619 0.0410773 0.0442512
0.518807 0.0460059 0.0536507
0.560449 0.053193 0.064271
0.596506 0.0622263 0.0749371
0.627253 0.0716564 0.084535
0.648798 0.0785534 0.093492
0.657877 0.0810101 0.1019
0.663188 0.0819409 0.112139
0.669276 0.0827192 0.124895
0.672084 0.0831769 0.130785
0.672084 0.0831769 0.130785
0.672084 0.0831769 0.130785
0.672084 0.0831769 0.130785
0.672221 0.0831006 0.131228
0.67248 0.082948 0.132143
0.673259 0.0825055 0.134707
0.674311 0.0818952 0.138308
0.676066 0.080827 0.144717
0.678004 0.0796979 0.151537
0.0292515 0.0416876 0.0399786
0.0291752 0.0417487 0.0401465
0.0291447 0.0417792 0.0402228
0.0306401 0.0417945 0.0406043
0.0368963 0.041474 0.0416571
0.0456397 0.041474 0.0413062
0.0585794 0.0410163 0.0407263
0.0789654 0.0405127 0.0408179
0.10724 0.0391546 0.0409247
0.149828 0.0372625 0.0410773
0.206714 0.0364691 0.0420233
0.274952 0.0364538 0.0426184
0.347112 0.0369726 0.0422522
0.415763 0.0382239 0.0419776
0.475929 0.0413214 0.0454871
0.523552 0.0467231 0.054902
0.564721 0.0540932 0.0654459
0.600778 0.063508 0.0763104
0.630808 0.0728923 0.0854353
0.650767 0.0791638 0.0946822
0.658366 0.0810864 0.1028
0.663935 0.0820172 0.113756
0.670268 0.0828565 0.126986
0.672084 0.0831769 0.130785
0.672084 0.0831769 0.130785
0.672084 0.0831769 0.130785
0.672084 0.0831769 0.130785
0.672221 0.0831006 0.131228
0.67248 0.082948 0.132143
0.673259 0.0825055 0.134707
0.674311 0.0818952 0.138323
0.676081 0.080827 0.144762
0.678019 0.0796826 0.151614
0.0292515 0.0416876 0.0399939
0.0291752 0.0417487 0.0401617
0.0291295 0.0417792 0.040238
0.0291447 0.0417792 0.040238
0.0326696 0.0417029 0.0409857
0.0402075 0.041474 0.0417639
0.0510872 0.0414588 0.0411078
0.0694896 0.0407721 0.0408637
0.0964828 0.0395819 0.0409705
0.138338 0.0375219 0.0412604
0.197162 0.0364233 0.0417639
0.269032 0.036408 0.0426795
0.344457 0.0368658 0.0428321
0.41532 0.0380102 0.0431373
0.476493 0.0411078 0.0470436
0.524666 0.0466316 0.056199
0.565744 0.0542 0.0662852
0.601617 0.0637217 0.0766461
0.631327 0.073106 0.0854353
0.651209 0.0793011 0.0949569
0.658473 0.0811017 0.103029
0.664179 0.0820325 0.114275
0.67071 0.0829175 0.127916
0.672084 0.0831769 0.130785
0.672084 0.0831769 0.130785
0.672084 0.0831769 0.130785
0.672084 0.0831769 0.130785
0.672221 0.0831006 0.131228
0.67248 0.082948 0.132143
0.673259 0.0825055 0.134707
0.674311 0.0818952 0.138323
0.676081 0.080827 0.144793
0.678035 0.0796826 0.151675
0.0296635 0.0445563 0.0412299
0.0295415 0.0444038 0.0412146
0.0294041 0.0437018 0.0406653
0.0303502 0.0437171 0.0408484
0.0329442 0.0442664 0.0416571
0.0389258 0.0446021 0.0431678
0.0483406 0.0442206 0.04271
0.0640574 0.0433051 0.0423896
0.0885328 0.0410925 0.0415656
0.125704 0.038468 0.0421302
0.181903 0.0365301 0.0421149
0.25359 0.0364996 0.0429236
0.332753 0.0367742 0.0428931
0.408087 0.0378729 0.0435492
0.47332 0.0407111 0.0473487
0.524392 0.0462654 0.0574807
0.566079 0.053727 0.0684825
0.602182 0.0632486 0.0789197
0.631754 0.0727245 0.0871138
0.651713 0.0790265 0.0964981
0.658824 0.0809033 0.104112
0.6645 0.0818952 0.115206
0.671092 0.0828412 0.128969
0.672251 0.0830854 0.131334
0.672236 0.0830854 0.131289
0.672251 0.0830854 0.131365
0.672312 0.0830396 0.131548
0.67248 0.082948 0.132113
0.672724 0.0828107 0.132967
0.673381 0.0824292 0.135164
0.674357 0.0818647 0.138506
0.676097 0.0808118 0.144808
0.67805 0.0796674 0.151736
0.0310521 0.0509957 0.0446784
0.0309148 0.0510414 0.0446784
0.030808 0.0505531 0.0439155
0.0315404 0.049485 0.0429084
0.0349279 0.049897 0.0434882
0.0413214 0.050309 0.0446479
0.0505837 0.0499123 0.0447852
0.0651102 0.0491493 0.0447395
0.0894179 0.0462959 0.0433967
0.125475 0.0416724 0.0423285
0.177432 0.037171 0.0428168
0.244053 0.0362402 0.0437171
0.321126 0.0366522 0.043595
0.397482 0.0376593 0.0434119
0.46595 0.040177 0.0458686
0.518303 0.0453346 0.0547646
0.563241 0.0530709 0.0675212
0.601312 0.0627146 0.0795758
0.631525 0.072221 0.0880903
0.652369 0.0786297 0.0985733
0.659617 0.0804456 0.106523
0.665293 0.0813764 0.117845
0.672129 0.0823377 0.132311
0.673167 0.0825513 0.134447
0.673152 0.0825513 0.134447
0.673167 0.0825513 0.134447
0.673167 0.082536 0.134493
0.673198 0.082536 0.134554
0.673213 0.0825208 0.13463
0.67364 0.0822766 0.136034
0.674434 0.0818189 0.138781
0.676097 0.0808118 0.144839
0.678065 0.0796521 0.151781
0.0327764 0.0599985 0.0508888
0.0326543 0.0601053 0.0508125
0.0325017 0.0597238 0.0499123
0.0325322 0.0586557 0.0475929
0.0353704 0.0580148 0.0468452
0.042298 0.0585489 0.0471962
0.0525673 0.0583505 0.0476844
0.0680705 0.057496 0.0477302
0.092607 0.0544747 0.0470893
0.130068 0.0498512 0.0451362
0.184161 0.0423896 0.0425269
0.248508 0.0370489 0.0426337
0.320043 0.0363775 0.0435187
0.391974 0.0373999 0.0438239
0.460304 0.0398413 0.0456092
0.51223 0.0446632 0.0515297
0.555917 0.0518807 0.0616007
0.595651 0.061387 0.0752422
0.628962 0.071458 0.0865339
0.652079 0.0785534 0.0982071
0.659495 0.0803845 0.10634
0.665171 0.0813306 0.117662
0.672312 0.0823072 0.132784
0.673243 0.0825055 0.134707
0.673243 0.0825055 0.134707
0.673243 0.0825055 0.134707
0.673243 0.0825055 0.134707
0.673243 0.0825055 0.134707
0.673243 0.0825055 0.134707
0.67364 0.0822766 0.13608
0.674434 0.0818189 0.138796
0.676081 0.0808118 0.144839
0.67805 0.0796521 0.151827
0.0344549 0.0744182 0.0590677
0.0343328 0.0749676 0.0587625
0.0341344 0.074815 0.0585184
0.0340734 0.0734112 0.0562295
0.0342565 0.0719158 0.0528115
0.040238 0.0723583 0.0520333
0.0507668 0.0734264 0.0521706
0.0691386 0.0727703 0.0517891
0.0953384 0.0703899 0.0515602
0.135439 0.0639048 0.0489815
0.190616 0.0564889 0.0455024
0.258427 0.0473945 0.0420081
0.32932 0.0393835 0.0399634
0.398077 0.0376287 0.0409552
0.459876 0.0395819 0.0443732
0.509651 0.0442512 0.0504005
0.552377 0.0513619 0.0585336
0.590295 0.0603952 0.0684672
0.625025 0.0704356 0.0827344
0.650599 0.0781872 0.0962387
0.658686 0.0802472 0.104738
0.663279 0.0810712 0.113558
0.670893 0.0821088 0.129656
0.672816 0.0823987 0.133867
0.673014 0.0824445 0.13431
0.673182 0.0824903 0.1346
0.673243 0.0825055 0.134707
0.673243 0.0825055 0.134707
0.673243 0.0825055 0.134707
0.673503 0.0823529 0.135622
0.674022 0.0820478 0.137438
0.675059 0.0814069 0.141299
0.676234 0.0806744 0.145541
0.0360876 0.0966964 0.0687572
0.0359197 0.0976272 0.0679332
0.0357366 0.0978408 0.0675364
0.0356603 0.0968643 0.0660716
0.0354925 0.094728 0.0618143
0.0356603 0.094255 0.0569314
0.0448157 0.0959182 0.0567025
0.0619059 0.0974136 0.056611
0.0936904 0.0962081 0.0559243
0.13724 0.0915541 0.0547494
0.19826 0.0799268 0.0511482
0.268711 0.0688792 0.0461891
0.343221 0.0585641 0.0435645
0.411017 0.0480659 0.0417029
0.466835 0.0416571 0.0407721
0.511894 0.0443732 0.0461128
0.552087 0.0513008 0.0563821
0.589014 0.0601968 0.0661784
0.621866 0.0699626 0.0774243
0.648859 0.0778973 0.0930495
0.657237 0.0800183 0.101808
0.661219 0.0807202 0.109361
0.665995 0.0814527 0.118959
0.669886 0.0820478 0.12723
0.671138 0.0821546 0.130007
0.671824 0.0822461 0.131563
0.672084 0.0822919 0.132158
0.672267 0.0823224 0.13254
0.672389 0.0823377 0.13283
0.672755 0.0822003 0.133959
0.673304 0.0819257 0.13576
0.674372 0.0812695 0.139681
0.675273 0.0804913 0.143328
0.0365911 0.12987 0.0780499
0.0361944 0.131411 0.0764935
0.0358434 0.131945 0.075639
0.0356909 0.131853 0.0752575
0.0357824 0.129931 0.0717937
0.0359655 0.12694 0.066041
0.0361791 0.127581 0.0608072
0.0483406 0.130358 0.0595712
0.0769665 0.132952 0.0589761
0.128099 0.13051 0.057084
0.195911 0.124147 0.055848
0.275319 0.106279 0.0536965
0.356085 0.0912795 0.0498665
0.426368 0.0801862 0.0472114
0.485222 0.0686961 0.0452888
0.525124 0.0552987 0.0488289
0.556069 0.053193 0.0516365
0.589426 0.0604257 0.0625315
0.621012 0.069688 0.0751965
0.645457 0.0776226 0.0846571
0.655207 0.0797131 0.0975509
0.658885 0.080354 0.104417
0.662882 0.0810712 0.112093
0.665278 0.0814069 0.117128
0.666102 0.0814679 0.118959
0.666606 0.0815442 0.119982
0.666926 0.0816052 0.120653
0.667247 0.081651 0.121309
0.667948 0.0817578 0.122927
0.668849 0.0817273 0.125185
0.669734 0.0814984 0.127657
0.670848 0.0808576 0.131395
0.671656 0.0800183 0.134722
0.0360418 0.177752 0.0872358
0.0357214 0.180301 0.0845808
0.0354009 0.181827 0.0834058
0.0352026 0.181796 0.0830701
0.0350805 0.180682 0.0814984
0.0352178 0.177432 0.076112
0.0354925 0.175555 0.0683146
0.0365148 0.176669 0.0627909
0.0538796 0.18146 0.0614481
0.0959793 0.185245 0.0592203
0.175143 0.181674 0.056733
0.266529 0.17554 0.0560769
0.359548 0.154376 0.0578927
0.440055 0.137438 0.0589456
0.506889 0.124529 0.0590524
0.556008 0.110658 0.0620584
0.586923 0.0922255 0.0655222
0.60499 0.0729229 0.0706188
0.624475 0.0709087 0.0731975
0.646616 0.0771801 0.0838636
0.651545 0.078584 0.0887312
0.656901 0.0793774 0.101259
0.660044 0.0801404 0.106798
0.662257 0.0806134 0.111162
0.662669 0.0807813 0.111833
0.663127 0.0808881 0.112642
0.663539 0.0809644 0.113527
0.663874 0.0809949 0.114305
0.664347 0.0809949 0.115511
0.664836 0.080827 0.116915
0.665171 0.0805676 0.11809
0.665858 0.0799573 0.120546
0.666484 0.0792401 0.123049
0.0351263 0.238209 0.0996262
0.0347906 0.242435 0.0958114
0.034287 0.24416 0.0931868
0.0340581 0.244404 0.0925917
0.0339666 0.244038 0.0922713
0.0340276 0.242145 0.0891127
0.0341497 0.238117 0.0814221
0.0343786 0.237842 0.0699168
0.0375982 0.239231 0.0631571
0.0617075 0.245624 0.0616007
0.123461 0.250858 0.0586709
0.23241 0.245914 0.055848
0.343023 0.243717 0.0561227
0.440085 0.230335 0.0632639
0.519005 0.210269 0.0740673
0.582055 0.195605 0.0808881
0.627497 0.183444 0.0899977
0.658076 0.167803 0.0997177
0.672038 0.141939 0.102358
0.662333 0.0937362 0.0932784
0.652247 0.0786908 0.0834363
0.652842 0.0782635 0.0897841
0.657969 0.0786603 0.103853
0.659892 0.0790112 0.107866
0.660426 0.0791028 0.10898
0.660929 0.0791791 0.110018
0.661341 0.0792554 0.110903
0.661631 0.0793164 0.111452
0.66186 0.0793317 0.11194
0.662013 0.0793317 0.112306
0.661952 0.0792859 0.11223
0.662104 0.0789807 0.112993
0.662409 0.0784466 0.114366
0.0340734 0.309697 0.117662
0.033875 0.314473 0.113313
0.0335241 0.317662 0.109865
0.0333104 0.318502 0.108614
0.0332036 0.318532 0.108339
0.0331884 0.318303 0.107576
0.0332494 0.315251 0.101411
0.0334478 0.311421 0.0906386
0.0335546 0.311849 0.0736248
0.0399176 0.313542 0.0640574
0.0744793 0.321218 0.0616617
0.163622 0.328283 0.0581369
0.299519 0.323232 0.0586099
0.420508 0.321202 0.0644083
0.514443 0.317617 0.0729686
0.592889 0.303624 0.0901045
0.654795 0.284245 0.111543
0.699046 0.27245 0.128634
0.727504 0.26125 0.140581
0.737194 0.234318 0.141802
0.717266 0.186954 0.126696
0.678523 0.114549 0.10164
0.652323 0.078645 0.0840314
0.655634 0.0784619 0.0975357
0.656748 0.0785992 0.100282
0.657084 0.0786145 0.101167
0.65742 0.0786145 0.102068
0.657633 0.078645 0.102556
0.657786 0.078645 0.103014
0.657755 0.078645 0.102892
0.657511 0.078645 0.102068
0.657389 0.0784314 0.101564
0.657343 0.0779583 0.101442
0.034287 0.385031 0.142931
0.034165 0.389838 0.138735
0.0341802 0.393652 0.134752
0.034165 0.395254 0.132677
0.033875 0.396262 0.132418
0.0339513 0.396002 0.132418
0.0340429 0.394705 0.130266
0.0339055 0.390967 0.121004
0.0340887 0.388632 0.107347
0.0342412 0.389975 0.0827802
0.0459449 0.392111 0.0659342
0.0963912 0.400107 0.0628824
0.216739 0.406714 0.059617
0.371832 0.402014 0.0684825
0.495201 0.398749 0.082414
0.58471 0.40238 0.0876326
0.660639 0.39472 0.113085
0.72195 0.379446 0.145861
0.764462 0.363485 0.17142
0.788006 0.35079 0.182544
0.786084 0.32752 0.177905
0.7691 0.289784 0.164019
0.737881 0.226474 0.140917
0.677241 0.112184 0.101228
0.657404 0.0831006 0.0887617
0.653101 0.0788739 0.0845655
0.652323 0.0787366 0.0831617
0.653773 0.0807507 0.0842603
0.657069 0.0842756 0.0880293
0.661509 0.0896925 0.0922255
0.668666 0.0990463 0.0974136
0.677623 0.112779 0.103105
0.690898 0.135241 0.111849
0.0359045 0.462089 0.178073
0.036286 0.46688 0.174502
0.0364996 0.470954 0.170214
0.0368658 0.473762 0.167178
0.0368505 0.474464 0.166522
0.0368505 0.474571 0.166323
0.0368658 0.474311 0.166171
0.0368505 0.472541 0.162158
0.0367742 0.468818 0.150134
0.0368811 0.468009 0.133181
0.0375372 0.469429 0.100191
0.0585489 0.471901 0.0725567
0.13724 0.478965 0.0672618
0.283818 0.484855 0.0651102
0.445716 0.480919 0.0839399
0.566461 0.476967 0.104189
0.651179 0.48275 0.117861
0.722728 0.482643 0.148135
0.77995 0.475746 0.182422
0.81915 0.463081 0.208865
0.831632 0.443183 0.217533
0.825299 0.417426 0.21268
0.812207 0.385473 0.200427
0.790799 0.336751 0.181582
0.776501 0.305028 0.16997
0.770703 0.292744 0.165423
0.765179 0.281178 0.161212
0.7608 0.271931 0.158007
0.758144 0.266224 0.156176
0.757259 0.264302 0.155749
0.760723 0.271183 0.158709
0.768643 0.286183 0.16556
0.779599 0.307866 0.175311
0.0431678 0.538827 0.228748
0.0443122 0.543023 0.22533
0.0457465 0.547539 0.222141
0.0466163 0.549844 0.217746
0.0469825 0.55111 0.215442
0.0470283 0.551385 0.215366
0.0469978 0.551293 0.215167
0.0470588 0.5514 0.214908
0.0471962 0.549065 0.207355
0.0473335 0.545525 0.191562
0.0486305 0.545174 0.171405
0.0574044 0.547127 0.133745
0.0958724 0.550896 0.0941482
0.19826 0.558236 0.0803693
0.361212 0.56527 0.0814221
0.518776 0.563439 0.107225
0.635294 0.559213 0.139223
0.714336 0.562387 0.16437
0.777203 0.568841 0.190433
0.82501 0.569253 0.218051
0.854627 0.559853 0.236728
0.855253 0.544518 0.236225
0.851331 0.524407 0.232486
0.8448 0.493828 0.226963
0.837903 0.463249 0.221683
0.83537 0.453101 0.219883
0.832959 0.444205 0.218082
0.831205 0.438682 0.216526
0.829938 0.436545 0.215015
0.830182 0.439216 0.214664
0.831586 0.446281 0.215259
0.835538 0.460426 0.218509
0.840208 0.480644 0.222446
0.0621347 0.612131 0.292165
0.0643168 0.616236 0.289555
0.0661936 0.61976 0.285985
0.0680552 0.622354 0.281392
0.069398 0.624216 0.277272
0.0697185 0.624857 0.277272
0.0700084 0.625513 0.277806
0.0699626 0.625345 0.277653
0.0697795 0.624399 0.275349
0.069688 0.621408 0.263859
0.0704662 0.618173 0.244724
0.0757 0.619303 0.218585
0.0977798 0.62266 0.173281
0.166247 0.627863 0.126711
0.288045 0.63682 0.112657
0.448218 0.645365 0.122286
0.590097 0.647379 0.149905
0.701091 0.642771 0.187518
0.773526 0.642206 0.217273
0.82443 0.65008 0.239139
0.860945 0.653544 0.256001
0.87361 0.645167 0.260868
0.871595 0.632105 0.257191
0.868849 0.617578 0.252811
0.865187 0.598291 0.247578
0.863691 0.592233 0.24564
0.863127 0.587594 0.244938
0.862394 0.583947 0.244175
0.862165 0.582803 0.243946
0.862364 0.583795 0.244175
0.863569 0.589014 0.245518
0.865034 0.599344 0.24744
0.867048 0.61416 0.250385
0.0939651 0.682246 0.360006
0.0968338 0.686137 0.357809
0.099733 0.689784 0.354788
0.102449 0.692409 0.35053
0.104463 0.694224 0.345403
0.106462 0.696269 0.34316
0.106737 0.69659 0.343511
0.106767 0.696605 0.343511
0.106691 0.696529 0.343481
0.106172 0.695384 0.339971
0.106065 0.691966 0.323491
0.107851 0.688945 0.300252
0.121721 0.691997 0.264576
0.161257 0.694575 0.205615
0.257435 0.702388 0.164828
0.391104 0.714458 0.161151
0.532052 0.723705 0.176593
0.659983 0.727382 0.20499
0.761242 0.722652 0.242786
0.825574 0.721599 0.27219
0.867826 0.729427 0.292058
0.896773 0.729168 0.304082
0.897704 0.719753 0.300099
0.893416 0.708827 0.292912
0.888914 0.697154 0.285466
0.886717 0.690929 0.281834
0.885725 0.688273 0.280461
0.884916 0.686381 0.279698
0.884901 0.685512 0.279896
0.885451 0.686549 0.281041
0.887221 0.690684 0.283879
0.889952 0.698314 0.288334
0.894408 0.710246 0.295583
0.138949 0.748211 0.422965
0.142382 0.751629 0.421027
0.145403 0.754498 0.418143
0.148653 0.757183 0.41471
0.151568 0.759228 0.410101
0.154437 0.761105 0.405539
0.155169 0.761578 0.40499
0.155261 0.7617 0.405081
0.1552 0.761822 0.405066
0.155108 0.762051 0.404898
0.15436 0.760418 0.397314
0.153597 0.756161 0.376196
0.159731 0.755016 0.348074
0.182757 0.757809 0.299351
0.250675 0.761456 0.231617
0.36376 0.77171 0.207141
0.491279 0.784176 0.214038
0.611765 0.793454 0.23238
0.725368 0.799191 0.263386
0.815839 0.797482 0.300725
0.86775 0.796613 0.324407
0.907713 0.80116 0.344381
0.925856 0.797421 0.350256
0.923949 0.78851 0.345098
0.920272 0.779171 0.338994
0.917479 0.771908 0.334417
0.916579 0.769879 0.333318
0.915984 0.768429 0.332753
0.915923 0.768322 0.332906
0.916243 0.76965 0.3337
0.917967 0.773831 0.336477
0.920867 0.78175 0.341344
0.925078 0.792508 0.348196
0.181552 0.800549 0.474983
0.1841 0.80293 0.472465
0.186694 0.805264 0.469718
0.189349 0.807172 0.466056
0.19176 0.808652 0.461494
0.194385 0.810315 0.456504
0.196536 0.811231 0.452949
0.196506 0.811505 0.453056
0.196612 0.81207 0.453422
0.196155 0.8121 0.453086
0.195468 0.81178 0.451865
0.194614 0.80911 0.438178
0.195544 0.805478 0.414389
0.209598 0.806531 0.37615
0.243732 0.807721 0.312047
0.354482 0.814832 0.252369
0.470039 0.827588 0.248569
0.580896 0.839521 0.263523
0.687587 0.849271 0.285023
0.78732 0.856825 0.318288
0.860014 0.857588 0.350439
0.904768 0.857206 0.373022
0.937972 0.856291 0.38941
0.947372 0.852689 0.390509
0.945159 0.846448 0.385779
0.942687 0.84033 0.38143
0.941878 0.83798 0.380163
0.941299 0.837018 0.379812
0.941161 0.836927 0.380133
0.941817 0.838376 0.38143
0.942962 0.841932 0.383902
0.94519 0.847547 0.3879
0.947906 0.855406 0.39324
0.212619 0.836622 0.514916
0.213321 0.837537 0.511101
0.214191 0.838392 0.506828
0.215137 0.83888 0.501549
0.216281 0.839292 0.496162
0.217456 0.839429 0.489647
0.218967 0.839597 0.482475
0.219181 0.839521 0.481437
0.219135 0.83946 0.481346
0.21886 0.839353 0.481163
0.21857 0.839353 0.480995
0.218296 0.838926 0.477577
0.218982 0.836606 0.458289
0.225498 0.834501 0.428
0.247364 0.834043 0.371969
0.32105 0.838346 0.296788
0.460395 0.851698 0.270893
0.560678 0.863615 0.281712
0.658915 0.874449 0.299748
0.752636 0.883955 0.325307
0.838163 0.891752 0.358618
0.892164 0.893645 0.383841
0.931105 0.886488 0.40531
0.95642 0.889784 0.420905
0.960815 0.889052 0.422827
0.959182 0.886244 0.418433
0.958434 0.884947 0.416907
0.958251 0.884718 0.417288
0.958175 0.884916 0.417884
0.958648 0.886122 0.419226
0.959503 0.888548 0.421241
0.961044 0.892699 0.424536
0.961593 0.894286 0.426078
0.224765 0.850019 0.537392
0.223774 0.849363 0.532357
0.223102 0.848783 0.526894
0.222553 0.848051 0.520378
0.222538 0.84741 0.513329
0.22269 0.84651 0.505333
0.223331 0.845548 0.496208
0.22359 0.844816 0.490471
0.223667 0.8448 0.490547
0.223606 0.844831 0.490517
0.223377 0.844877 0.490425
0.223102 0.844984 0.490211
0.223713 0.843976 0.478355
0.228992 0.842954 0.453437
0.245136 0.841917 0.406546
0.284886 0.840497 0.332052
0.429953 0.855329 0.2804
0.548119 0.868208 0.285115
0.635203 0.877867 0.299886
0.721599 0.887083 0.320119
0.801312 0.895018 0.347265
0.867338 0.900694 0.37554
0.917418 0.89572 0.399756
0.947448 0.895644 0.419623
0.963699 0.899016 0.433051
0.964553 0.899321 0.434592
0.96434 0.899275 0.43534
0.964004 0.899107 0.435966
0.96379 0.899031 0.436957
0.963668 0.898985 0.437934
0.963775 0.899214 0.438697
0.963989 0.899458 0.438773
0.964263 0.899458 0.437964
0.228824 0.852064 0.54757
0.227497 0.851423 0.541833
0.226505 0.850889 0.536034
0.225345 0.849897 0.528893
0.224445 0.848768 0.520989
0.223636 0.847349 0.511788
0.22356 0.845975 0.501076
0.224323 0.844907 0.490013
0.224414 0.8448 0.489235
0.224308 0.8448 0.489189
0.224063 0.844877 0.489174
0.223651 0.844968 0.489113
0.224384 0.844999 0.484993
0.229572 0.844495 0.463722
0.241733 0.84358 0.425605
0.269123 0.840146 0.352895
0.376516 0.850355 0.291081
0.53164 0.866316 0.283909
0.620447 0.875578 0.29691
0.69926 0.88423 0.313771
0.771221 0.891905 0.335927
0.832715 0.897414 0.360113
0.902113 0.90164 0.391897
0.93315 0.892607 0.408225
0.956436 0.896971 0.425025
0.96466 0.898894 0.432761
0.965423 0.899245 0.435218
0.96553 0.899336 0.436332
0.965148 0.899382 0.436835
0.964523 0.899504 0.437263
0.964111 0.899596 0.437369
0.963836 0.899626 0.437034
0.963684 0.899596 0.436271
0.235828 0.855589 0.550942
0.234333 0.854658 0.544396
0.233051 0.853758 0.537682
0.231617 0.852583 0.529915
0.230335 0.851331 0.521401
0.228748 0.849439 0.511208
0.227344 0.847181 0.498512
0.228153 0.84564 0.483665
0.228809 0.845121 0.477821
0.228824 0.845106 0.477729
0.228641 0.845167 0.477867
0.22829 0.845243 0.477943
0.227878 0.84538 0.478065
0.232303 0.845182 0.462562
0.242924 0.844724 0.430747
0.266194 0.84184 0.366415
0.347204 0.847684 0.301274
0.503456 0.863752 0.282353
0.61323 0.87512 0.29604
0.683619 0.882734 0.310079
0.745541 0.88925 0.327245
0.795819 0.894362 0.344991
0.878386 0.900908 0.380621
0.919738 0.893278 0.400336
0.946792 0.895582 0.416861
0.960662 0.898451 0.427893
0.96257 0.899199 0.431159
0.962585 0.899474 0.432639
0.962142 0.899596 0.433234
0.96144 0.899733 0.433738
0.960967 0.899825 0.433951
0.960723 0.899855 0.433829
0.960678 0.89984 0.433356
0.243763 0.858366 0.54641
0.242313 0.857435 0.53872
0.240772 0.856229 0.53077
0.238926 0.854566 0.521523
0.237125 0.85275 0.510994
0.236027 0.851148 0.499458
0.234134 0.848203 0.48423
0.235004 0.845899 0.465843
0.236439 0.844541 0.451759
0.236606 0.84448 0.450767
0.2365 0.844526 0.450706
0.23624 0.844633 0.450797
0.235798 0.84477 0.451164
0.238636 0.844831 0.443
0.248524 0.844327 0.415564
0.268467 0.841703 0.361944
0.342 0.847288 0.303883
0.484428 0.861463 0.280324
0.602792 0.874052 0.294148
0.669215 0.880995 0.306538
0.717403 0.88632 0.318853
0.772534 0.892119 0.3364
0.856275 0.899565 0.370504
0.911376 0.900359 0.396292
0.937301 0.893675 0.410361
0.955627 0.897139 0.423011
0.961944 0.898741 0.429084
0.96199 0.899123 0.430793
0.961578 0.899336 0.431678
0.960845 0.899474 0.432227
0.960357 0.899565 0.432441
0.960113 0.89958 0.43241
0.960113 0.899535 0.43212
0.248112 0.859892 0.545602
0.246036 0.858763 0.538796
0.244297 0.857664 0.531777
0.242283 0.856077 0.522927
0.239948 0.854124 0.512764
0.238163 0.852018 0.500771
0.236301 0.849439 0.485817
0.23595 0.846693 0.467277
0.237613 0.8448 0.449439
0.23769 0.844465 0.446159
0.237491 0.844541 0.446067
0.237247 0.844617 0.445945
0.237034 0.844709 0.445823
0.238972 0.844709 0.440253
0.249104 0.843915 0.411078
0.268849 0.841123 0.358267
0.338506 0.846616 0.303838
0.47158 0.859937 0.279316
0.588602 0.872404 0.291783
0.649256 0.879286 0.302785
0.685023 0.883055 0.310445
0.755123 0.890288 0.330419
0.838758 0.898161 0.362829
0.900236 0.901427 0.39089
0.928054 0.892332 0.404776
0.950698 0.896223 0.41912
0.961486 0.89836 0.427802
0.961669 0.898802 0.429572
0.961334 0.899077 0.430701
0.960616 0.899229 0.431281
0.960098 0.899321 0.431785
0.959854 0.899367 0.432013
0.959854 0.899367 0.431998
0.249653 0.860716 0.551431
0.247898 0.859724 0.54464
0.245716 0.858473 0.537392
0.243793 0.857282 0.529061
0.241245 0.855482 0.519295
0.238682 0.853193 0.506874
0.236744 0.850935 0.492012
0.234943 0.8477 0.473243
0.236469 0.845426 0.452293
0.237018 0.844709 0.445808
0.237018 0.844709 0.445808
0.236988 0.844724 0.445762
0.236927 0.844739 0.445701
0.237049 0.84477 0.44506
0.245365 0.844221 0.421103
0.263188 0.842145 0.373022
0.320714 0.84535 0.314061
0.442756 0.856748 0.279362
0.572305 0.870848 0.28893
0.642069 0.878508 0.301274
0.678813 0.882551 0.30901
0.741909 0.889189 0.326268
0.824186 0.89691 0.356603
0.890852 0.901244 0.386526
0.922179 0.891844 0.40148
0.946548 0.895399 0.416297
0.959258 0.897871 0.42591
0.961547 0.898695 0.429221
0.961303 0.899046 0.430518
0.960586 0.899214 0.431189
0.960082 0.899306 0.431693
0.959838 0.899336 0.431937
0.959838 0.899336 0.431937
0.251026 0.861723 0.556603
0.248951 0.860502 0.549508
0.246983 0.859464 0.542473
0.244633 0.858 0.534142
0.242603 0.856565 0.524834
0.239734 0.854246 0.512489
0.237583 0.851926 0.497688
0.235111 0.848463 0.478523
0.236164 0.845823 0.456077
0.237034 0.844739 0.446204
0.237079 0.844678 0.445853
0.237049 0.844694 0.445838
0.237003 0.844709 0.445792
