bundles/resolve-cinematic-luts/Phantom Luts/Ursa G2 Phntm Arri LUTs - V1/Gen5/Standard (No WB Offset)/IceBlue Ursa V1 - Gen5.cube
TITLE "Generated by Resolve"
LUT_3D_SIZE 5
0.029099 0.0417945 0.0403449
0.107729 0.0391699 0.0407111
0.560449 0.053193 0.064271
0.672084 0.0831769 0.130785
0.678004 0.0796979 0.151537
0.0365911 0.12987 0.0780499
0.0769665 0.132952 0.0589761
0.556069 0.053193 0.0516365
0.666102 0.0814679 0.118959
0.671656 0.0800183 0.134722
0.0939651 0.682246 0.360006
0.106691 0.696529 0.343481
0.532052 0.723705 0.176593
0.888914 0.697154 0.285466
0.894408 0.710246 0.295583
0.248112 0.859892 0.545602
0.237613 0.8448 0.449439
0.338506 0.846616 0.303838
0.928054 0.892332 0.404776
0.959854 0.899367 0.431998
0.256458 0.864942 0.575662
0.236179 0.84506 0.449866
0.423636 0.855207 0.283467
0.940215 0.893217 0.411826
0.958038 0.899611 0.434318
0.030518 0.0451667 0.127214
0.128069 0.0445258 0.126116
0.617487 0.0584573 0.16997
0.673777 0.0809033 0.138705
0.678126 0.0785077 0.153903
0.0343023 0.107485 0.115648
0.0840925 0.106538 0.122927
0.574868 0.053315 0.0879377
0.671962 0.0814527 0.133257
0.675792 0.0797589 0.145693
0.0829786 0.661158 0.443687
0.0894179 0.675868 0.379828
0.510094 0.71075 0.165927
0.880323 0.666667 0.271611
0.884077 0.682017 0.278202
0.275181 0.876417 0.64506
0.255283 0.865019 0.574929
0.279088 0.841001 0.342214
0.923598 0.892058 0.402792
0.959838 0.899367 0.432395
0.29543 0.886381 0.695857
0.26569 0.871748 0.614954
0.313268 0.845167 0.322759
0.92726 0.893553 0.40441
0.957763 0.899733 0.433799
0.111177 0.0666819 0.578515
0.284398 0.0635996 0.60528
0.647669 0.0861677 0.572137
0.724025 0.113298 0.602045
0.715877 0.11487 0.624475
0.0556344 0.0651102 0.540688
0.162829 0.0674754 0.600473
0.63682 0.0854658 0.583246
0.727932 0.112062 0.586679
0.721065 0.113603 0.609339
0.100786 0.635828 0.61323
0.107774 0.646113 0.623529
0.596796 0.650736 0.668238
0.96408 0.608209 0.603372
0.957198 0.621805 0.630442
0.476127 0.926467 0.854475
0.484047 0.92015 0.847501
0.387915 0.910048 0.756863
0.944625 0.923003 0.577386
0.967483 0.907317 0.494942
0.59559 0.937881 0.900267
0.606195 0.926986 0.888334
0.535973 0.919814 0.824308
0.936294 0.937987 0.672999
0.959274 0.901915 0.449302
0.548455 0.185077 0.79968
0.596582 0.198367 0.807614
0.779858 0.249302 0.809262
0.747829 0.189273 0.755825
0.770855 0.221988 0.783612
0.546075 0.199466 0.811505
0.591791 0.223484 0.829786
0.791974 0.277836 0.835447
0.764843 0.207553 0.767971
0.773663 0.224704 0.785306
0.266133 0.63917 0.861708
0.366033 0.657252 0.914717
0.758968 0.601511 0.966293
0.964767 0.552499 0.955901
0.955581 0.574502 0.957458
0.6103 0.941268 0.927398
0.63798 0.938613 0.927642
0.648554 0.936919 0.926879
0.952438 0.952071 0.954406
0.972946 0.955367 0.95758
0.767269 0.948104 0.943267
0.774227 0.9449 0.942687
0.77528 0.945129 0.939757
0.957443 0.966903 0.966308
0.974563 0.969741 0.962936
0.598703 0.224598 0.829236
0.648936 0.242206 0.839719
0.821881 0.295872 0.840497
0.777752 0.227344 0.785443
0.776608 0.227558 0.786679
0.559518 0.208377 0.817655
0.599619 0.226307 0.831495
0.808209 0.291356 0.842664
0.780072 0.226932 0.782834
0.776272 0.227588 0.787213
0.536675 0.642206 0.953872
0.537026 0.635203 0.957366
0.796841 0.585565 0.964599
0.96582 0.553216 0.95491
0.953292 0.572061 0.955383
0.72224 0.939422 0.93785
0.736324 0.937011 0.937331
0.740764 0.934768 0.937209
0.949645 0.950149 0.962509
0.97174 0.953262 0.962905
0.791913 0.947692 0.942901
0.804486 0.944411 0.944259
0.822202 0.94609 0.946502
0.955627 0.967239 0.971344
0.983948 0.967544 0.963867
