bundles/resolve-cinematic-luts/Phantom Luts/Ursa G2 Phntm Arri LUTs - V1/Gen5/Standard (No WB Offset)/Jamaica Ursa Legacy V1 - Gen5.cube
TITLE "Generated by Resolve"
LUT_3D_SIZE 33
0.017792 0.0344701 0.0177462
0.017792 0.0344701 0.0177462
0.017792 0.0344701 0.0177462
0.0265812 0.0348363 0.0180209
0.0374609 0.0353857 0.0188602
0.0503853 0.0359655 0.0200046
0.0695201 0.0366369 0.0219577
0.0935073 0.0372015 0.0254368
0.123003 0.0370184 0.0292515
0.160388 0.0366674 0.0340887
0.206332 0.0359808 0.0394903
0.262318 0.0361028 0.0464485
0.326619 0.0358129 0.052369
0.397864 0.0339818 0.0593271
0.470054 0.0312505 0.0678416
0.533333 0.0300755 0.0772869
0.582574 0.0377356 0.0907301
0.607507 0.0523079 0.108034
0.619333 0.0634623 0.119936
0.622675 0.0646983 0.125811
0.624964 0.0646677 0.131487
0.629297 0.0644236 0.142977
0.633188 0.0640574 0.154101
0.633188 0.0640574 0.154101
0.633188 0.0640574 0.154101
0.633188 0.0640574 0.154101
0.633188 0.0640574 0.154101
0.633188 0.0640574 0.154086
0.633173 0.0640574 0.15404
0.633143 0.0640574 0.153948
0.633097 0.0640574 0.153826
0.633051 0.0640574 0.153674
0.633021 0.0640726 0.153582
0.017792 0.0344701 0.0177462
0.017792 0.0344701 0.0177462
0.017792 0.0344701 0.0177462
0.0224002 0.0346685 0.0178683
0.032105 0.0350347 0.0182345
0.0437934 0.0356756 0.0193484
0.0619211 0.0363317 0.0206607
0.0870985 0.0371252 0.0240635
0.116838 0.0368658 0.0277562
0.153903 0.0364538 0.0322423
0.200748 0.0361334 0.038407
0.25655 0.0360571 0.045594
0.322347 0.0359197 0.0518807
0.394415 0.0340734 0.0590066
0.466957 0.0313726 0.067628
0.530816 0.0298466 0.0768597
0.581003 0.037232 0.0901045
0.606989 0.0518044 0.107515
0.619211 0.063447 0.119677
0.622629 0.0647135 0.125673
0.624903 0.064683 0.13135
0.629145 0.0644388 0.14258
0.633188 0.0640574 0.154101
0.633188 0.0640574 0.154101
0.633188 0.0640574 0.154101
0.633188 0.0640574 0.154101
0.633188 0.0640574 0.154101
0.633188 0.0640574 0.154086
0.633173 0.0640574 0.15404
0.633143 0.0640574 0.153948
0.633097 0.0640574 0.153826
0.633021 0.0640574 0.153597
0.632944 0.0640726 0.153368
0.0183871 0.0361334 0.0193027
0.0182345 0.0358282 0.0187076
0.0180667 0.035462 0.0181125
0.0188907 0.0355688 0.018204
0.0269017 0.0357519 0.0183108
0.0371252 0.0362554 0.0196231
0.0514992 0.0370031 0.0205539
0.0757763 0.0375525 0.0221408
0.105287 0.0374762 0.0242313
0.142504 0.0363928 0.0280003
0.18999 0.0352331 0.0337682
0.24686 0.0354314 0.0426642
0.314168 0.0357671 0.0508278
0.38909 0.0342565 0.0585489
0.462593 0.0315404 0.0670024
0.52752 0.0297093 0.0764477
0.578836 0.0366217 0.08925
0.606287 0.0511635 0.106813
0.618708 0.0631113 0.119066
0.622553 0.0647135 0.12549
0.624811 0.0646983 0.131075
0.628977 0.0644541 0.142123
0.633188 0.0640574 0.154101
0.633188 0.0640574 0.154101
0.633188 0.0640574 0.154101
0.633188 0.0640574 0.154101
0.633188 0.0640574 0.154101
0.633188 0.0640574 0.154086
0.633173 0.0640574 0.15404
0.633143 0.0640574 0.153948
0.633097 0.0640574 0.153826
0.633021 0.0640574 0.153597
0.632944 0.0640726 0.153353
0.020264 0.0438087 0.0242466
0.0200351 0.0433051 0.0231632
0.0198367 0.0415808 0.0204318
0.0235447 0.04094 0.0201877
0.0311284 0.0425879 0.0210422
0.0399634 0.0439307 0.0228428
0.0515297 0.0445106 0.0243076
0.0728008 0.044419 0.0256199
0.100725 0.0426642 0.025391
0.134874 0.0386206 0.0255741
0.179355 0.0344549 0.0278477
0.234668 0.034638 0.0365911
0.29984 0.0344396 0.046128
0.375204 0.0344396 0.0556344
0.453574 0.0314641 0.0641642
0.523735 0.0295109 0.0756542
0.576974 0.0361486 0.0884718
0.605386 0.05037 0.105867
0.618036 0.0626688 0.118212
0.622461 0.0646983 0.125292
0.624689 0.064683 0.130785
0.628779 0.0644388 0.141619
0.633188 0.0640574 0.154101
0.633188 0.0640574 0.154101
0.633188 0.0640574 0.154101
0.633188 0.0640574 0.154101
0.633188 0.0640574 0.154101
0.633188 0.0640574 0.154086
0.633173 0.0640574 0.15404
0.633143 0.0640574 0.153948
0.633097 0.0640574 0.153826
0.633021 0.0640574 0.153597
0.632944 0.0640726 0.153353
0.0225071 0.0504158 0.0308537
0.0224002 0.0501564 0.0303349
0.0221256 0.0495155 0.027512
0.0248264 0.0484627 0.023621
0.0334478 0.0484627 0.0235599
0.0422675 0.0492409 0.0246281
0.0549172 0.0493172 0.0262303
0.0752422 0.0489509 0.0278477
0.100771 0.0482338 0.0284886
0.13547 0.0445106 0.027039
0.180636 0.0392157 0.025864
0.233814 0.0350652 0.0286564
0.295399 0.0309148 0.0354467
0.366796 0.0312047 0.0460975
0.441672 0.03093 0.0593423
0.512108 0.0288243 0.0706188
0.571038 0.0350042 0.0849622
0.604257 0.0494545 0.104601
0.617395 0.062211 0.117418
0.622309 0.0646677 0.124971
0.624537 0.0646677 0.130449
0.628519 0.0644541 0.140932
0.633143 0.0640574 0.153964
0.633143 0.0640574 0.153964
0.633143 0.0640574 0.153964
0.633143 0.0640574 0.153979
0.633143 0.0640574 0.153979
0.633143 0.0640574 0.153979
0.633158 0.0640574 0.153979
0.633127 0.0640574 0.153918
0.633097 0.0640574 0.153811
0.633021 0.0640574 0.153597
0.632944 0.0640726 0.153353
0.0243687 0.0597086 0.0372778
0.0241703 0.0592966 0.0365606
0.0239414 0.0585641 0.0357214
0.0238346 0.0574197 0.0306249
0.0312047 0.056611 0.0258793
0.0424659 0.0570535 0.0266423
0.0551919 0.0573739 0.0277104
0.0779431 0.0563821 0.0298924
0.104768 0.0550851 0.0318151
0.136965 0.0521706 0.0313268
0.178073 0.0479744 0.0280919
0.23238 0.0404517 0.0258335
0.294301 0.0360571 0.0310826
0.36437 0.031632 0.0365301
0.438315 0.0274205 0.0430152
0.50692 0.0286107 0.0575418
0.564157 0.034165 0.0766308
0.599725 0.0471809 0.0978714
0.615732 0.0611276 0.115114
0.622034 0.0646983 0.124254
0.624323 0.0646677 0.129915
0.628244 0.0644694 0.140185
0.633143 0.0640574 0.153948
0.633143 0.0640574 0.153964
0.633143 0.0640574 0.153964
0.633143 0.0640574 0.153964
0.633143 0.0640574 0.153948
0.633143 0.0640574 0.153964
0.633143 0.0640574 0.153964
0.633127 0.0640574 0.153918
0.633097 0.0640574 0.153811
0.633021 0.0640574 0.153597
0.632944 0.0640726 0.153353
0.0242466 0.0766003 0.0433967
0.0242008 0.0761883 0.0422217
0.024445 0.0749981 0.0420081
0.0246128 0.0734264 0.0394293
0.026154 0.0716106 0.0341192
0.0395209 0.0714122 0.0286564
0.0540627 0.0724346 0.0293736
0.0760967 0.0720226 0.0304265
0.106538 0.0692454 0.0341039
0.13994 0.0661021 0.0360876
0.184298 0.059968 0.0357977
0.236408 0.0531014 0.0316014
0.295384 0.0458534 0.0305638
0.360357 0.0385595 0.0331579
0.432303 0.0314336 0.0383307
0.496147 0.0285801 0.047715
0.554192 0.0334936 0.059968
0.590524 0.0456092 0.0795453
0.613931 0.060502 0.111849
0.621408 0.0646983 0.122728
0.623453 0.0647288 0.127657
0.626154 0.0645914 0.13463
0.63183 0.0642557 0.149981
0.6327 0.0641184 0.152636
0.632914 0.0640879 0.153262
0.633082 0.0640574 0.15378
0.633143 0.0640574 0.153948
0.633143 0.0640574 0.153948
0.633143 0.0640574 0.153948
0.633127 0.0640574 0.153918
0.633112 0.0640574 0.153857
0.633066 0.0640574 0.153719
0.633021 0.0640574 0.153567
0.0233463 0.099321 0.0505989
0.0233768 0.0988174 0.0490883
0.0233768 0.0978408 0.0488136
0.0234989 0.0964065 0.047013
0.0243076 0.0943923 0.0432136
0.0322271 0.0930037 0.0346685
0.051667 0.09308 0.0302739
0.0723278 0.0940414 0.0316014
0.101076 0.0932784 0.0324865
0.136248 0.0911269 0.0352331
0.187823 0.0809949 0.0402838
0.242435 0.0724041 0.0400854
0.306127 0.0627298 0.0381323
0.373754 0.0515145 0.0347906
0.442969 0.0392004 0.0347601
0.502525 0.0314946 0.0414893
0.552743 0.0336614 0.0557717
0.587747 0.0442664 0.076112
0.606775 0.0589151 0.0977493
0.620142 0.064744 0.119615
0.622492 0.0647593 0.125231
0.62472 0.064683 0.130892
0.62707 0.0646067 0.136934
0.629877 0.0644388 0.144503
0.631373 0.064332 0.148623
0.631937 0.0642405 0.150301
0.632136 0.06421 0.150912
0.632273 0.0641947 0.151308
0.63238 0.0641642 0.151659
0.632486 0.0641489 0.151995
0.632563 0.0641337 0.152255
0.632609 0.0641184 0.152377
0.632624 0.0641184 0.152407
0.025742 0.127947 0.0575265
0.0261387 0.127596 0.055314
0.0255589 0.126909 0.0554818
0.0254063 0.126085 0.0549935
0.0263066 0.12398 0.0515908
0.02916 0.121294 0.0463569
0.041413 0.120089 0.0360571
0.0657664 0.121126 0.0332952
0.0940108 0.122499 0.0345922
0.130053 0.120012 0.0349584
0.175036 0.11989 0.0381018
0.24744 0.103807 0.0459297
0.314366 0.0925917 0.0493935
0.384466 0.0806439 0.0475471
0.459968 0.0634165 0.042359
0.524163 0.0461738 0.0404212
0.564446 0.0377203 0.0507362
0.592599 0.0500496 0.0770733
0.607996 0.0605936 0.0982071
0.614816 0.0654307 0.10576
0.620981 0.0648661 0.12137
0.623102 0.0647746 0.126711
0.625528 0.0647135 0.132815
0.626719 0.0646677 0.135927
0.62707 0.0646525 0.136828
0.627329 0.0646372 0.13753
0.627436 0.064622 0.137819
0.627588 0.0645914 0.138247
0.628275 0.0645304 0.140139
0.629053 0.0644846 0.142214
0.62974 0.0644388 0.144106
0.630365 0.0643778 0.145861
0.630716 0.0643473 0.146822
0.029572 0.164996 0.0670176
0.0317845 0.164691 0.0633402
0.0307164 0.163684 0.0631571
0.0301976 0.162753 0.0631113
0.0306096 0.160937 0.0615244
0.0340276 0.157565 0.0569162
0.0394903 0.155917 0.0496834
0.0570077 0.154742 0.038529
0.0862898 0.157595 0.0375372
0.121309 0.160479 0.0393988
0.16817 0.155993 0.0404669
0.227451 0.157946 0.0437018
0.314443 0.140887 0.0571145
0.401373 0.126131 0.060441
0.482643 0.11342 0.0597696
0.552026 0.0961624 0.0585946
0.594018 0.071519 0.0610361
0.59234 0.0575265 0.0681163
0.610056 0.0671092 0.0909438
0.615061 0.0677043 0.101259
0.615 0.0657816 0.105241
0.62063 0.0649119 0.120439
0.622934 0.0648661 0.126146
0.624445 0.0647898 0.129992
0.624857 0.0647898 0.131014
0.625193 0.0647746 0.131868
0.625528 0.064744 0.132769
0.625803 0.0647288 0.133532
0.626078 0.0647135 0.134234
0.626291 0.064683 0.134813
0.626505 0.0646677 0.135363
0.626627 0.0646525 0.135698
0.626734 0.0646525 0.135958
0.0390784 0.212177 0.0820325
0.0431373 0.212894 0.0780804
0.0432898 0.211917 0.0763104
0.0423285 0.210376 0.0762188
0.041825 0.208988 0.0760052
0.0438544 0.206119 0.0724041
0.0480964 0.201938 0.065507
0.060441 0.20177 0.0513771
0.082475 0.201236 0.043183
0.113146 0.207675 0.0433814
0.156817 0.213519 0.0458839
0.221271 0.207309 0.0498817
0.300938 0.213977 0.0495155
0.391379 0.207446 0.0667735
0.505821 0.181537 0.076173
0.589715 0.168353 0.0825208
0.647379 0.155337 0.0931868
0.655848 0.137194 0.106966
0.640955 0.10692 0.106371
0.616388 0.0727092 0.08925
0.615061 0.0702983 0.0944076
0.615228 0.0665446 0.104204
0.619074 0.0651102 0.116381
0.621073 0.0649729 0.121401
0.621637 0.0649424 0.122835
0.62211 0.0649119 0.124025
0.622507 0.0648966 0.125032
0.622827 0.0648966 0.125811
0.623133 0.0648661 0.126604
0.623331 0.0648661 0.127108
0.623468 0.0648508 0.127459
0.623667 0.0648356 0.127962
0.623804 0.0648356 0.128328
0.0545815 0.273732 0.105241
0.059266 0.274647 0.100893
0.0610513 0.274434 0.0984207
0.059617 0.272526 0.0979782
0.0588693 0.27068 0.0972457
0.0590524 0.268864 0.0957198
0.0632792 0.265095 0.0895857
0.0689555 0.261524 0.0805524
0.0867323 0.262196 0.0609293
0.109071 0.263416 0.0555276
0.149218 0.2757 0.0561837
0.20856 0.285512 0.058381
0.291936 0.277287 0.0682383
0.392645 0.288838 0.0566262
0.48484 0.290715 0.07364
0.603265 0.264347 0.103883
0.694972 0.246708 0.125841
0.728054 0.240116 0.153933
0.72578 0.226612 0.163012
0.70898 0.202289 0.152163
0.684764 0.168276 0.1355
0.629847 0.0898146 0.0989548
0.615015 0.0695201 0.0969406
0.614588 0.0657054 0.104829
0.615 0.0655222 0.106126
0.616464 0.0654459 0.109667
0.617807 0.0653239 0.113008
0.618524 0.0652628 0.114809
0.618875 0.0652018 0.115755
0.61915 0.0651713 0.116472
0.61941 0.0651255 0.117159
0.619593 0.0650797 0.117678
0.61973 0.0650492 0.118074
0.076173 0.354726 0.137911
0.0818036 0.3561 0.133318
0.0865034 0.356954 0.129183
0.0859388 0.355291 0.128038
0.0855116 0.353628 0.127932
0.0848859 0.351598 0.127047
0.0863661 0.348547 0.12372
0.0912337 0.343252 0.115663
0.101198 0.342504 0.104631
0.120607 0.344839 0.0800793
0.151965 0.350851 0.0749828
0.201205 0.365454 0.0747692
0.275624 0.372915 0.0754253
0.37377 0.358663 0.09337
0.489372 0.376959 0.0687572
0.585321 0.385794 0.0836347
0.691722 0.375998 0.127626
0.783322 0.351843 0.183459
0.801358 0.342596 0.210285
0.789822 0.322225 0.204501
0.774472 0.298116 0.194965
0.753491 0.266575 0.181506
0.713054 0.207889 0.155016
0.629633 0.0897993 0.0986648
0.614527 0.072282 0.0873884
0.614527 0.0714122 0.0905623
0.614847 0.0706645 0.0936904
0.615076 0.0699016 0.0962539
0.615045 0.069276 0.0977951
0.615106 0.0686809 0.0992599
0.615259 0.0681315 0.100862
0.615457 0.0676127 0.102464
0.615473 0.067277 0.103304
0.0996567 0.449378 0.178012
0.10576 0.451362 0.173449
0.111116 0.453437 0.168978
0.112902 0.453605 0.167117
0.11133 0.451453 0.167086
0.110552 0.449073 0.165988
0.110048 0.446479 0.164782
0.114031 0.442466 0.158541
0.121721 0.437675 0.148745
0.136782 0.443061 0.135805
0.161242 0.447852 0.104494
0.208286 0.454536 0.0991531
0.26627 0.468223 0.0957656
0.3561 0.471229 0.0978256
0.466041 0.451545 0.116716
0.585275 0.473487 0.0939345
0.682719 0.48571 0.107866
0.77525 0.48658 0.163851
0.843915 0.47895 0.223499
0.860731 0.461753 0.245701
0.845823 0.420432 0.23888
0.831754 0.393881 0.230182
0.815076 0.363958 0.220035
0.785946 0.315953 0.202197
0.762783 0.280232 0.18761
0.752331 0.264561 0.180911
0.743709 0.251926 0.17528
0.734417 0.238193 0.169345
0.725185 0.224643 0.163455
0.716213 0.211933 0.157427
0.708812 0.20148 0.152468
0.703319 0.193835 0.148669
0.699504 0.188403 0.146136
0.124681 0.556405 0.228931
0.131701 0.558724 0.223499
0.138109 0.562173 0.219242
0.142962 0.563943 0.215442
0.141192 0.561715 0.21471
0.1402 0.559655 0.213413
0.139773 0.557137 0.212039
0.140993 0.554971 0.209827
0.148058 0.550942 0.200824
0.159304 0.549081 0.189395
0.181109 0.557122 0.172305
0.227359 0.562493 0.134585
0.279683 0.571817 0.127565
0.350652 0.58294 0.127382
0.451011 0.579309 0.132448
0.564569 0.560357 0.141894
0.675349 0.574212 0.135348
0.770581 0.58436 0.166476
0.840528 0.596094 0.222416
0.879835 0.595254 0.258671
0.885054 0.578332 0.262455
0.87892 0.539879 0.255726
0.871321 0.502266 0.250629
0.861921 0.46569 0.24625
0.851881 0.433768 0.242344
0.84741 0.423575 0.239902
0.842359 0.413565 0.236805
0.837232 0.403861 0.233631
0.832273 0.394949 0.230488
0.827955 0.387015 0.227909
0.823941 0.379995 0.225452
0.82118 0.375067 0.223758
0.817761 0.36968 0.221561
0.156756 0.667414 0.293217
0.165576 0.670924 0.288029
0.17322 0.673915 0.282368
0.181476 0.677302 0.277378
0.183047 0.67718 0.274922
0.180529 0.674571 0.274311
0.179995 0.673136 0.27332
0.179232 0.670939 0.272145
0.182696 0.667903 0.266209
0.192874 0.663493 0.253208
0.211322 0.666499 0.23801
0.244785 0.678065 0.214954
0.307805 0.68423 0.177508
0.367056 0.695644 0.177737
0.450446 0.697459 0.174441
0.551293 0.687205 0.175479
0.66273 0.674113 0.182742
0.760296 0.671199 0.201846
0.844999 0.685344 0.249592
0.884978 0.695796 0.285786
0.89839 0.697093 0.297841
0.896712 0.682612 0.292165
0.8934 0.653208 0.281666
0.889036 0.613519 0.270054
0.885344 0.581781 0.26302
0.884138 0.572106 0.26125
0.882963 0.56379 0.259785
0.88159 0.555703 0.258274
0.880064 0.547936 0.256748
0.879103 0.542611 0.255879
0.877562 0.536095 0.254551
0.876356 0.530892 0.253574
0.874861 0.526635 0.252247
0.215183 0.777646 0.369116
0.224231 0.781079 0.363516
0.232853 0.784848 0.358755
0.24213 0.788724 0.353933
0.249226 0.79176 0.350072
0.247547 0.790311 0.349493
0.246067 0.788327 0.347951
0.244434 0.78613 0.346456
0.243275 0.783993 0.345006
0.250187 0.781018 0.333913
0.262501 0.778546 0.317922
0.291539 0.787808 0.301259
0.341375 0.798779 0.26952
0.409995 0.80444 0.250385
0.479667 0.815366 0.249393
0.563409 0.809873 0.243717
0.654429 0.795911 0.245289
0.756497 0.785107 0.259068
0.843549 0.767285 0.289525
0.90161 0.7879 0.334218
0.924956 0.792279 0.3552
0.925673 0.786068 0.35317
0.922408 0.775967 0.34609
0.916136 0.755337 0.332357
0.906157 0.722759 0.312413
0.901274 0.707256 0.303441
0.899077 0.700298 0.299519
0.89749 0.69308 0.296025
0.896864 0.687633 0.293904
0.895781 0.681315 0.291295
0.895277 0.67628 0.289601
0.894408 0.671809 0.287816
0.893874 0.668025 0.286442
0.295521 0.879194 0.461112
0.304585 0.882719 0.455207
0.313466 0.886458 0.450141
0.323079 0.890517 0.445594
0.333639 0.895216 0.441413
0.336461 0.896071 0.439506
0.334035 0.894255 0.438346
0.332723 0.892805 0.436942
0.331304 0.891157 0.43534
0.332128 0.889708 0.43151
0.341909 0.888792 0.417853
0.360281 0.889799 0.399954
0.401419 0.901686 0.383627
0.466957 0.908553 0.351858
0.534768 0.913878 0.344091
0.604456 0.914488 0.340124
0.673899 0.901411 0.332143
0.752544 0.886397 0.334997
0.843153 0.878553 0.358892
0.909529 0.852827 0.379461
0.94461 0.86862 0.408377
0.957092 0.875044 0.419959
0.954467 0.870085 0.415732
0.951934 0.865629 0.41181
0.947585 0.853483 0.402762
0.942733 0.83772 0.391516
0.940871 0.832364 0.387503
0.938918 0.826398 0.3832
0.937179 0.820874 0.379171
0.935653 0.816342 0.375921
0.933761 0.811322 0.372152
0.932479 0.807355 0.369375
0.93135 0.804669 0.3673
0.36173 0.94345 0.543938
0.368765 0.945876 0.536522
0.376562 0.948699 0.529946
0.384817 0.951858 0.524865
0.392966 0.954726 0.519783
0.400168 0.957061 0.515129
0.399893 0.957046 0.515435
0.399298 0.956451 0.514519
0.399115 0.956191 0.514183
0.398932 0.955917 0.513787
0.404822 0.95642 0.506447
0.419821 0.957259 0.489097
0.448249 0.962341 0.470878
0.498512 0.970672 0.447578
0.573312 0.971481 0.416907
0.635325 0.970138 0.404837
0.692042 0.959655 0.39234
0.754314 0.945647 0.387289
0.829816 0.935012 0.39675
0.912718 0.931777 0.427268
0.946395 0.901778 0.429221
0.971099 0.912047 0.448585
0.97528 0.912322 0.451041
0.973938 0.909972 0.448936
0.972717 0.907332 0.446769
0.970901 0.903593 0.443656
0.970077 0.901717 0.442145
0.969238 0.89955 0.440482
0.968322 0.897505 0.438834
0.967376 0.89572 0.437308
0.966628 0.894133 0.436011
0.966003 0.893111 0.435172
0.965438 0.89189 0.434302
0.388037 0.96788 0.594308
0.391791 0.968826 0.58471
0.396353 0.970077 0.575723
0.401846 0.971832 0.568353
0.407385 0.973419 0.561227
0.413916 0.974945 0.552804
0.415915 0.975357 0.550225
0.415808 0.975341 0.550317
0.41648 0.975692 0.550362
0.417548 0.976349 0.55082
0.419547 0.977417 0.551064
0.432593 0.980346 0.538109
0.454475 0.984207 0.518532
0.492653 0.989059 0.490898
0.554467 0.989487 0.450416
0.632807 0.986435 0.42594
0.689311 0.975845 0.410285
0.741711 0.962249 0.400961
0.807309 0.950469 0.403693
0.884459 0.94406 0.423224
0.939116 0.930907 0.440879
0.962448 0.915419 0.445853
0.980865 0.924285 0.461067
0.981399 0.924437 0.461387
0.981384 0.924407 0.461341
0.981262 0.924224 0.461173
0.981155 0.924041 0.46099
0.981018 0.923796 0.460777
0.980896 0.923568 0.460548
0.980835 0.923461 0.460395
0.980819 0.923491 0.460334
0.980713 0.923293 0.46009
0.980529 0.922972 0.459754
0.377249 0.962554 0.612222
0.380468 0.963821 0.602197
0.38526 0.96585 0.592447
0.39144 0.968521 0.583886
0.397513 0.970642 0.574868
0.404273 0.972702 0.565728
0.410117 0.974182 0.557992
0.409689 0.97406 0.558419
0.409751 0.974075 0.558373
0.410224 0.974395 0.558694
0.411124 0.975036 0.559411
0.41825 0.977539 0.554314
0.437507 0.982223 0.536492
0.469673 0.988083 0.511666
0.524376 0.991424 0.471458
0.605539 0.989776 0.435859
0.67892 0.978836 0.413779
0.729824 0.965652 0.402655
0.785595 0.953613 0.40116
0.852369 0.946212 0.412818
0.922545 0.943832 0.439811
0.947005 0.914839 0.436881
0.973022 0.920455 0.454383
0.981216 0.924407 0.461234
0.981842 0.925048 0.462013
0.98175 0.92491 0.461875
0.981399 0.924437 0.461341
0.981521 0.924361 0.461372
0.981781 0.924269 0.461479
0.982162 0.924102 0.461616
0.982406 0.923995 0.461662
0.982528 0.923949 0.461601
0.982513 0.923949 0.461524
0.370871 0.958633 0.622858
0.373175 0.959655 0.612955
0.378012 0.962188 0.602731
0.384329 0.965408 0.593652
0.391302 0.968429 0.583795
0.39884 0.970947 0.572686
0.407919 0.973449 0.560372
0.409186 0.97377 0.55874
0.40914 0.973754 0.558816
0.40911 0.97377 0.558923
0.409491 0.974075 0.559426
0.410422 0.974731 0.560113
0.424659 0.978576 0.546227
0.452216 0.984222 0.522484
0.500969 0.989975 0.486854
0.57348 0.990555 0.447211
0.660014 0.982025 0.418585
0.72224 0.967361 0.403754
0.773022 0.955596 0.400504
0.831449 0.947402 0.407584
0.895094 0.943832 0.42742
0.93611 0.932006 0.439796
0.963195 0.918273 0.447471
0.978592 0.923552 0.459144
0.981308 0.924422 0.461219
0.982116 0.924468 0.461769
0.982742 0.924605 0.462287
0.983017 0.924651 0.462486
0.983047 0.924636 0.462516
0.983078 0.924666 0.462531
0.983093 0.924666 0.462501
0.983093 0.924712 0.462409
0.983093 0.924712 0.462333
0.368277 0.956847 0.627146
0.370687 0.958068 0.616968
0.375784 0.961013 0.606989
0.382147 0.964355 0.596841
0.389395 0.967636 0.586374
0.397513 0.970489 0.574166
0.409659 0.9738 0.557687
0.415076 0.975006 0.550973
0.415366 0.975067 0.550698
0.415183 0.975036 0.550912
0.415137 0.975158 0.551492
0.415473 0.975586 0.552544
0.422675 0.977539 0.546059
0.445136 0.98262 0.527169
0.485267 0.988495 0.497658
0.551369 0.991196 0.457404
0.633097 0.986908 0.427832
0.709194 0.971298 0.407126
0.763256 0.957794 0.400717
0.815137 0.949462 0.404959
0.870527 0.94493 0.418524
0.919707 0.943709 0.438376
0.950866 0.918532 0.44065
0.972519 0.920958 0.454231
0.979583 0.92459 0.460243
0.98027 0.924941 0.460807
0.980316 0.924987 0.460868
0.980331 0.92517 0.461006
0.980133 0.925292 0.460945
0.979828 0.925429 0.460822
0.97966 0.925536 0.460731
0.979782 0.92549 0.4607
0.980133 0.925353 0.460777
0.372885 0.960189 0.625498
0.376043 0.961791 0.613779
0.380819 0.964111 0.602472
0.387869 0.967361 0.59118
0.395331 0.970077 0.579248
0.405081 0.972869 0.564736
0.417166 0.975418 0.548302
0.4318 0.977325 0.529519
0.432288 0.977493 0.529488
0.431739 0.977417 0.530114
0.431678 0.977417 0.530159
0.43122 0.977539 0.531319
0.432151 0.97821 0.532128
0.448966 0.981796 0.51957
0.48368 0.987182 0.49604
0.540093 0.990784 0.462547
0.614618 0.988739 0.433234
0.693706 0.975158 0.410681
0.755413 0.95935 0.400732
0.803571 0.95108 0.403494
0.848569 0.946334 0.41207
0.894987 0.943954 0.427634
0.936339 0.923659 0.435737
0.965042 0.918502 0.448829
0.977707 0.923735 0.458824
0.98024 0.92491 0.460883
0.980255 0.924941 0.460883
0.980133 0.924987 0.460807
0.979889 0.925109 0.4607
0.979507 0.925277 0.460533
0.979248 0.925383 0.46038
0.979141 0.925444 0.460258
0.979278 0.925399 0.460258
0.379232 0.96463 0.620798
0.382605 0.966003 0.609064
0.388174 0.968292 0.596841
0.396109 0.97116 0.58352
0.404883 0.973709 0.570306
0.416068 0.976059 0.554223
0.430991 0.977874 0.533425
0.449348 0.979278 0.512139
0.455436 0.979522 0.505409
0.455436 0.979522 0.505409
0.455436 0.979522 0.505409
0.455222 0.979522 0.505684
0.454734 0.979843 0.507179
0.465156 0.981598 0.500313
0.494759 0.985336 0.481682
0.543282 0.988952 0.457237
0.609323 0.98822 0.433005
0.683452 0.977142 0.412192
0.746441 0.961303 0.400793
0.792264 0.952743 0.402167
0.828473 0.948043 0.407446
0.874327 0.944579 0.419791
0.924956 0.933745 0.435386
0.957702 0.920073 0.445457
0.974289 0.921752 0.455894
0.979751 0.924666 0.460548
0.980255 0.924926 0.460975
0.980133 0.924987 0.460929
0.979873 0.925093 0.460838
0.979492 0.925261 0.460655
0.979248 0.925383 0.460502
0.979126 0.925444 0.460349
0.979141 0.925444 0.460273
0.380163 0.965927 0.629679
0.381872 0.966323 0.618265
0.386297 0.968063 0.604974
0.391882 0.969909 0.591699
0.400214 0.972457 0.57734
0.410452 0.97499 0.562173
0.424857 0.977249 0.541726
0.442985 0.978988 0.519234
0.452125 0.979416 0.509102
0.455436 0.979522 0.505409
0.455436 0.979522 0.505409
0.455436 0.979522 0.505409
0.455543 0.979614 0.505531
0.462928 0.980941 0.500908
0.490425 0.984237 0.482643
0.539208 0.986908 0.454994
0.601617 0.987121 0.432547
0.673503 0.978576 0.413474
0.736614 0.963684 0.401572
0.781476 0.954482 0.401175
0.811307 0.95024 0.404562
0.853986 0.946059 0.413489
0.915145 0.941314 0.434943
0.950835 0.922606 0.442832
0.970138 0.919615 0.452399
0.978531 0.924208 0.459617
0.98024 0.924926 0.460975
0.980117 0.924987 0.460929
0.979873 0.925093 0.460853
0.979492 0.925261 0.460685
0.979248 0.925368 0.460533
0.979126 0.925444 0.460365
0.979141 0.925444 0.460288
0.378271 0.964782 0.63447
0.378882 0.964584 0.62414
0.383688 0.966964 0.611353
0.388983 0.969039 0.598596
0.395972 0.971191 0.584085
0.405692 0.973922 0.569055
0.419791 0.976684 0.54902
0.437003 0.978531 0.526329
0.449851 0.979309 0.511559
0.455436 0.979522 0.505409
0.455436 0.979522 0.505409
0.455436 0.979522 0.505409
0.455482 0.979553 0.505455
0.457328 0.980484 0.505806
