bundles/resolve-cinematic-luts/Phantom Luts/Ursa G2 Phntm Arri LUTs - V1/Gen5/Standard (No WB Offset)/Jamaica Ursa Legacy V1 - Gen5.cube
TITLE "Generated by Resolve"
LUT_3D_SIZE 9
0.017792 0.0344701 0.0177462
0.0374609 0.0353857 0.0188602
0.123003 0.0370184 0.0292515
0.326619 0.0358129 0.052369
0.582574 0.0377356 0.0907301
0.624964 0.0646677 0.131487
0.633188 0.0640574 0.154101
0.633173 0.0640574 0.15404
0.633021 0.0640726 0.153582
0.0225071 0.0504158 0.0308537
0.0334478 0.0484627 0.0235599
0.100771 0.0482338 0.0284886
0.295399 0.0309148 0.0354467
0.571038 0.0350042 0.0849622
0.624537 0.0646677 0.130449
0.633143 0.0640574 0.153964
0.633158 0.0640574 0.153979
0.632944 0.0640726 0.153353
0.025742 0.127947 0.0575265
0.0263066 0.12398 0.0515908
0.0940108 0.122499 0.0345922
0.314366 0.0925917 0.0493935
0.564446 0.0377203 0.0507362
0.620981 0.0648661 0.12137
0.62707 0.0646525 0.136828
0.628275 0.0645304 0.140139
0.630716 0.0643473 0.146822
0.076173 0.354726 0.137911
0.0855116 0.353628 0.127932
0.101198 0.342504 0.104631
0.275624 0.372915 0.0754253
0.691722 0.375998 0.127626
0.774472 0.298116 0.194965
0.614527 0.072282 0.0873884
0.615045 0.069276 0.0977951
0.615473 0.067277 0.103304
0.215183 0.777646 0.369116
0.249226 0.79176 0.350072
0.243275 0.783993 0.345006
0.341375 0.798779 0.26952
0.654429 0.795911 0.245289
0.924956 0.792279 0.3552
0.906157 0.722759 0.312413
0.896864 0.687633 0.293904
0.893874 0.668025 0.286442
0.377249 0.962554 0.612222
0.397513 0.970642 0.574868
0.409751 0.974075 0.558373
0.437507 0.982223 0.536492
0.67892 0.978836 0.413779
0.922545 0.943832 0.439811
0.981842 0.925048 0.462013
0.981781 0.924269 0.461479
0.982513 0.923949 0.461524
0.379232 0.96463 0.620798
0.404883 0.973709 0.570306
0.455436 0.979522 0.505409
0.454734 0.979843 0.507179
0.609323 0.98822 0.433005
0.828473 0.948043 0.407446
0.974289 0.921752 0.455894
0.979873 0.925093 0.460838
0.979141 0.925444 0.460273
0.379904 0.966506 0.642786
0.390539 0.96968 0.596292
0.449729 0.978744 0.511345
0.45623 0.979034 0.504463
0.558831 0.982193 0.43888
0.799222 0.951263 0.402823
0.961166 0.917327 0.446082
0.981033 0.92459 0.461189
0.978363 0.92578 0.460044
0.380194 0.96698 0.652216
0.385595 0.968185 0.610529
0.442786 0.980484 0.525093
0.456214 0.979034 0.504463
0.534493 0.981216 0.447547
0.788708 0.952636 0.40145
0.954299 0.920638 0.444007
0.981003 0.92459 0.461295
0.97937 0.925322 0.460609
0.0173037 0.0347143 0.031632
0.040177 0.0358129 0.0377966
0.12784 0.037171 0.0467231
0.330434 0.0366979 0.0650034
0.587549 0.0377966 0.103868
0.624781 0.064683 0.130983
0.633036 0.0640574 0.153521
0.633051 0.0640574 0.153597
0.632929 0.0640726 0.153094
0.0221561 0.0457618 0.0348058
0.0291142 0.044831 0.0312047
0.107118 0.0423133 0.0310826
0.302419 0.0356451 0.0502022
0.574273 0.0355383 0.0882429
0.624399 0.0646677 0.130068
0.633051 0.0640574 0.153536
0.633036 0.0640574 0.153552
0.632914 0.0640726 0.153109
0.0271916 0.114504 0.0742046
0.0238956 0.115434 0.0552682
0.0871595 0.113878 0.0333257
0.316014 0.075761 0.0438239
0.562615 0.0361181 0.0557107
0.621592 0.0648051 0.122957
0.627588 0.0645914 0.138262
0.631113 0.064332 0.147921
0.631968 0.0642252 0.150393
0.0452125 0.33254 0.155505
0.0656748 0.333104 0.130251
0.0880598 0.329442 0.109972
0.264439 0.358526 0.0728313
0.705547 0.3364 0.13698
0.747921 0.258259 0.177935
0.614923 0.0698863 0.0959487
0.61529 0.0669413 0.103716
0.615412 0.066041 0.105745
0.151781 0.746456 0.391608
0.19646 0.758709 0.357504
0.233722 0.769833 0.334478
0.31632 0.789609 0.280842
0.644343 0.7841 0.23621
0.920897 0.776318 0.344717
0.898482 0.696651 0.297871
0.893797 0.659815 0.283711
0.890822 0.639918 0.277043
0.365774 0.955322 0.641901
0.373648 0.95967 0.611246
0.40885 0.973861 0.559548
0.424659 0.979019 0.547433
0.666102 0.981155 0.416754
0.920562 0.943603 0.438727
0.981918 0.925139 0.462135
0.981399 0.924422 0.461357
0.981582 0.924315 0.461128
0.371344 0.959945 0.656321
0.374105 0.960861 0.621592
0.424842 0.977249 0.541665
0.451926 0.979477 0.509407
0.589441 0.988312 0.437613
0.824979 0.948379 0.406744
0.973541 0.921416 0.455283
0.979873 0.925093 0.460822
0.979278 0.925383 0.460304
0.371511 0.959884 0.673381
0.373327 0.961334 0.638743
0.405539 0.973526 0.568475
0.45623 0.979034 0.504463
0.538231 0.982269 0.447715
0.79411 0.951965 0.402167
0.958877 0.91809 0.445136
0.981109 0.924559 0.461219
0.978653 0.925658 0.460151
0.370611 0.958724 0.681865
0.371893 0.960327 0.647654
0.399023 0.972839 0.583581
0.45623 0.979034 0.504463
0.514595 0.980896 0.457633
0.782406 0.953475 0.400702
0.950607 0.921141 0.442191
0.981003 0.92459 0.461295
0.978103 0.925856 0.460151
0.0293278 0.036347 0.0974289
0.0578927 0.0378119 0.0998245
0.135836 0.0396277 0.11162
0.352239 0.0363165 0.126787
0.610742 0.0385595 0.1617
0.635386 0.0637064 0.160708
0.632074 0.0642252 0.150607
0.632166 0.0641947 0.150912
0.63212 0.0641947 0.150652
0.0187991 0.0398108 0.0691844
0.03122 0.0365606 0.0877699
0.113878 0.0391241 0.0949264
0.327474 0.0356298 0.10132
0.593454 0.0360418 0.132692
0.629114 0.0643931 0.142504
0.632349 0.0641642 0.151446
0.632425 0.0641489 0.15169
0.632349 0.0641489 0.151369
0.0296483 0.104692 0.0979019
0.028687 0.100389 0.0920424
0.0869612 0.101625 0.08748
0.306859 0.0787518 0.0804303
0.568353 0.0351263 0.0799268
0.622278 0.0647593 0.124712
0.630991 0.064332 0.147585
0.632639 0.0641184 0.152438
0.632715 0.0641031 0.152636
0.0423743 0.302571 0.192676
0.0385138 0.300008 0.170047
0.0480354 0.301015 0.129595
0.25536 0.333074 0.0741436
0.705913 0.28455 0.137224
0.721996 0.220645 0.160952
0.615167 0.0670024 0.103365
0.615244 0.0656901 0.106416
0.616327 0.0654307 0.109361
0.102235 0.704189 0.428717
0.116182 0.711833 0.398154
0.171466 0.72842 0.341299
0.279683 0.767727 0.285161
0.628962 0.764904 0.222309
0.914717 0.751522 0.329488
0.893416 0.657923 0.282826
0.890333 0.625956 0.273365
0.887556 0.608133 0.268299
0.35314 0.943099 0.680629
0.359655 0.949798 0.656886
0.373068 0.959304 0.612406
0.412848 0.975341 0.556939
0.640223 0.985 0.423346
0.916732 0.943389 0.436805
0.981903 0.925109 0.462135
0.981399 0.924407 0.461341
0.981292 0.924285 0.460945
0.362448 0.949294 0.701793
0.363775 0.952621 0.675624
0.372625 0.960067 0.627482
0.447013 0.979034 0.514031
0.558999 0.989609 0.45182
0.81883 0.949126 0.405676
0.972335 0.920821 0.454276
0.979873 0.925093 0.460792
0.979141 0.925444 0.460258
0.366461 0.951843 0.715099
0.362585 0.950774 0.686152
0.371298 0.959792 0.641123
0.45623 0.979034 0.504463
0.508003 0.982177 0.465248
0.784833 0.953246 0.401129
0.955123 0.920348 0.444099
0.981384 0.924453 0.461341
0.979065 0.925475 0.460319
0.368002 0.952331 0.722683
0.362325 0.949752 0.694148
0.370672 0.959411 0.650248
0.451102 0.978866 0.510109
0.486473 0.981399 0.480568
0.770993 0.955215 0.399695
0.943038 0.920256 0.437705
0.981003 0.92459 0.461295
0.977874 0.925963 0.460044
0.0475319 0.0393072 0.260487
0.0911727 0.0402075 0.26276
0.16968 0.0409247 0.272038
0.3673 0.0455024 0.297108
0.643503 0.0456092 0.299504
0.670909 0.0628977 0.30988
0.668208 0.0629435 0.289662
0.66537 0.06215 0.277882
0.663996 0.06215 0.269581
0.0369116 0.0386816 0.24036
0.052369 0.0393378 0.249973
0.138293 0.0406043 0.259434
0.344762 0.0449378 0.273793
0.628962 0.0404364 0.27013
0.664576 0.0619821 0.274311
0.658793 0.0624247 0.243793
0.656794 0.0625315 0.235019
0.655329 0.0626383 0.228473
0.0188907 0.0757916 0.198535
0.0179446 0.0655375 0.210132
0.0770733 0.0502785 0.241993
0.313832 0.051606 0.249668
0.608133 0.0374914 0.23917
0.658259 0.0623484 0.242283
0.65156 0.0629587 0.213718
0.649134 0.063035 0.204944
0.647349 0.0630655 0.198764
0.0468299 0.281239 0.256962
0.0452125 0.275196 0.247196
0.0442054 0.264607 0.233433
0.270741 0.303624 0.253788
0.672084 0.275837 0.250507
0.737713 0.201678 0.203616
0.615152 0.0661173 0.105257
0.617136 0.0653849 0.111376
0.619104 0.0652018 0.116304
0.0865339 0.658259 0.503883
0.0818494 0.656916 0.484886
0.0777905 0.655772 0.449882
0.114168 0.676936 0.356664
0.603601 0.70454 0.213886
0.911421 0.679347 0.302296
0.890929 0.630915 0.274739
0.886915 0.593957 0.265644
0.883314 0.57348 0.260761
0.345739 0.926879 0.741253
0.343816 0.928481 0.72578
0.343938 0.933318 0.697185
0.371984 0.958999 0.618891
0.581979 0.990738 0.446281
0.921141 0.943603 0.439216
0.981399 0.924437 0.461372
0.981353 0.924331 0.461295
0.981155 0.923995 0.4607
0.37351 0.945754 0.776944
0.368292 0.945129 0.756985
0.362219 0.94583 0.723568
0.372091 0.960037 0.633844
0.505379 0.987213 0.477073
0.803876 0.950851 0.403296
0.969604 0.919371 0.451926
0.979873 0.925093 0.460761
0.979141 0.925444 0.460243
0.380072 0.950423 0.787579
0.372122 0.947326 0.764599
0.365881 0.948135 0.73135
0.370413 0.959106 0.643519
0.467247 0.980728 0.497215
0.761624 0.957046 0.399496
0.945006 0.923232 0.439918
0.981674 0.924315 0.461448
0.979339 0.925353 0.460426
0.382834 0.951156 0.795285
0.374472 0.947723 0.772763
0.367269 0.948119 0.738674
0.367803 0.957061 0.652506
0.457221 0.979782 0.50547
0.738369 0.960998 0.399191
0.929046 0.931472 0.436301
0.981003 0.92459 0.461295
0.978103 0.925856 0.460151
0.108339 0.0433814 0.507118
0.156497 0.0453651 0.505287
0.243214 0.0470436 0.51371
0.408881 0.0489509 0.541527
0.6551 0.0762188 0.539773
0.703243 0.106325 0.543175
0.702266 0.106264 0.545739
0.703471 0.105837 0.541176
0.704997 0.105211 0.535225
0.0822461 0.0420386 0.498543
0.11014 0.0433814 0.497398
0.204761 0.0462959 0.50515
0.383444 0.0484321 0.532799
0.645579 0.0715648 0.530541
0.706233 0.1028 0.520668
0.706279 0.102937 0.521508
0.706554 0.101579 0.514427
0.707057 0.100343 0.507332
0.0336767 0.0396735 0.445853
0.0594034 0.0409247 0.470329
0.13962 0.04448 0.489113
0.334325 0.047425 0.512963
0.624506 0.0642863 0.513802
0.705547 0.0950027 0.482826
0.706203 0.0965286 0.489158
0.706035 0.0953841 0.482841
0.705989 0.0945144 0.477867
0.00535592 0.215488 0.436728
0.005066 0.202716 0.439643
0.00653086 0.180621 0.447181
0.247135 0.16614 0.513787
0.648524 0.167559 0.543328
0.73637 0.118791 0.46331
0.708812 0.0932174 0.44622
0.702525 0.0869306 0.431525
0.700877 0.0851301 0.424399
0.0902266 0.619593 0.589319
0.0857252 0.616709 0.57995
0.081117 0.609705 0.569116
0.0858167 0.598444 0.550744
0.580072 0.612375 0.537331
0.956527 0.612558 0.560815
0.956603 0.593668 0.476265
0.951583 0.562982 0.444938
0.946441 0.544884 0.427405
0.339376 0.900725 0.799344
0.337179 0.901839 0.790753
0.333654 0.902754 0.778607
0.326558 0.905867 0.747387
0.425666 0.980926 0.68159
0.893156 0.955093 0.544305
0.990799 0.936751 0.539956
0.984207 0.926253 0.466575
0.983246 0.924697 0.463813
0.421546 0.955657 0.88922
0.412146 0.952743 0.874983
0.396994 0.945388 0.850675
0.375021 0.939742 0.79942
0.369177 0.955123 0.706279
0.751781 0.998932 0.58851
0.979568 0.928939 0.466026
0.979904 0.925109 0.460655
0.979156 0.925444 0.460212
0.454887 0.968811 0.909361
0.44123 0.967498 0.896498
0.422232 0.963851 0.872831
0.387488 0.951324 0.808942
0.363867 0.951949 0.689021
0.681758 0.998932 0.555413
0.957275 0.924392 0.448615
0.982162 0.924102 0.461631
0.979385 0.925338 0.460426
0.459846 0.969833 0.912932
0.446616 0.968139 0.902068
0.426551 0.964813 0.878889
0.390127 0.952438 0.814511
0.362814 0.951446 0.683146
0.649805 0.998932 0.528786
0.939849 0.923369 0.438712
0.980987 0.924575 0.461265
0.978103 0.925856 0.460151
0.218585 0.0626993 0.653605
0.251453 0.0638437 0.662089
0.319127 0.0673838 0.676997
0.441962 0.0764782 0.689082
0.615702 0.11722 0.679973
0.663157 0.138766 0.686152
0.654139 0.133013 0.684459
0.654078 0.133227 0.684565
0.653742 0.132876 0.682948
0.183154 0.0596933 0.641093
0.21735 0.0619516 0.652338
0.28957 0.065568 0.670756
0.41944 0.0738384 0.68777
0.602792 0.110826 0.678035
0.664134 0.137896 0.683238
0.654108 0.130709 0.680323
0.653635 0.130617 0.679454
0.653437 0.130159 0.677485
0.169604 0.0577707 0.634897
0.172366 0.0580606 0.635935
0.225803 0.0619516 0.654078
0.374136 0.0698711 0.683436
0.576761 0.0991989 0.675914
0.66601 0.135805 0.676677
0.655787 0.127916 0.673014
0.656046 0.127382 0.671016
0.656519 0.126757 0.668376
0.0180209 0.138369 0.600275
0.021973 0.118196 0.597253
0.0277409 0.090547 0.590753
0.270161 0.0663615 0.665522
0.537102 0.0923323 0.686915
0.676371 0.1355 0.66305
0.661845 0.126726 0.662425
0.66096 0.123995 0.657588
0.661952 0.123232 0.654261
0.104952 0.526955 0.710567
0.100435 0.517571 0.707301
0.096025 0.499458 0.706127
0.0944228 0.47277 0.70898
0.585733 0.504158 0.859144
0.94754 0.509544 0.884169
0.936645 0.448539 0.89604
0.924712 0.411612 0.88014
0.915785 0.391318 0.86717
0.33843 0.869001 0.851575
0.336049 0.869245 0.846571
0.331853 0.866865 0.841321
0.324819 0.863432 0.831571
0.48867 0.910704 0.864012
0.861692 0.882811 0.821088
0.966583 0.880446 0.83534
0.966766 0.875685 0.823636
0.965087 0.868894 0.815152
0.496864 0.965637 0.953765
0.487663 0.965972 0.948592
0.476066 0.964828 0.942794
0.454261 0.961471 0.929366
0.463752 0.97026 0.915129
0.751629 0.981964 0.87837
0.965774 0.957092 0.791226
0.978943 0.956466 0.797314
0.9794 0.956405 0.788785
0.58378 0.969741 0.963851
0.575036 0.970306 0.961685
0.560739 0.971008 0.958465
0.529488 0.971206 0.950195
0.46949 0.970138 0.919966
0.701823 0.983856 0.883085
0.936934 0.961501 0.793988
0.983978 0.955184 0.724712
0.989471 0.95407 0.632349
0.589395 0.969635 0.964996
0.581094 0.970123 0.962768
0.566049 0.970764 0.959655
0.533288 0.971237 0.951461
0.464103 0.969451 0.917205
0.667582 0.98761 0.878294
0.916121 0.963592 0.784833
0.984482 0.95491 0.717052
0.991135 0.952041 0.602396
0.397559 0.0998856 0.717937
0.404974 0.0953384 0.713619
0.447486 0.102892 0.720104
0.541482 0.123232 0.726207
0.666072 0.159548 0.718563
0.676844 0.161028 0.714748
0.669352 0.153002 0.707301
0.673259 0.15758 0.711421
0.67277 0.157275 0.710567
0.379858 0.0967575 0.714031
0.38645 0.0926833 0.710445
0.424216 0.0971695 0.715282
0.51931 0.117357 0.725078
0.65745 0.155566 0.71751
0.675975 0.160082 0.713878
0.665522 0.148867 0.703517
0.667964 0.152087 0.706081
0.667994 0.152468 0.705608
0.358907 0.0888991 0.704906
0.356374 0.0874495 0.703243
0.380713 0.0878157 0.705272
0.476707 0.105226 0.719173
0.636957 0.14667 0.71545
0.673655 0.157687 0.711849
0.664271 0.147585 0.702632
0.664286 0.147677 0.702617
0.663966 0.14757 0.701915
0.279026 0.123949 0.717647
0.302571 0.112688 0.71519
0.318379 0.0987716 0.70782
0.39942 0.0902724 0.708293
0.579812 0.12459 0.712093
0.668788 0.152407 0.706874
0.662135 0.145312 0.700526
0.66183 0.144991 0.700236
0.661646 0.144747 0.699748
0.144457 0.50161 0.760266
0.147478 0.497414 0.764508
0.155505 0.48954 0.774777
0.228443 0.485496 0.837522
0.682612 0.478767 0.928954
0.933577 0.479896 0.963592
0.910216 0.412314 0.943633
0.885664 0.372519 0.920256
0.869184 0.351827 0.90399
0.371969 0.866209 0.91751
0.369696 0.864179 0.915831
0.366857 0.859342 0.916243
0.362646 0.850187 0.9187
0.506233 0.853651 0.94728
0.872892 0.83154 0.946334
0.960845 0.824659 0.962646
0.960342 0.808682 0.963729
0.958709 0.798489 0.962524
0.538186 0.966262 0.97348
0.531044 0.967514 0.970764
0.523613 0.967132 0.969619
0.511223 0.965911 0.967437
0.530724 0.968139 0.966369
0.811994 0.958404 0.953658
0.950423 0.954528 0.945602
0.963867 0.954177 0.947005
0.963394 0.953674 0.945434
0.682795 0.963897 0.973236
0.676097 0.965515 0.970718
0.670649 0.96582 0.970535
0.659724 0.966018 0.970565
0.6365 0.966842 0.970336
0.801923 0.961547 0.960998
0.934035 0.958999 0.951888
0.967178 0.957839 0.941878
0.966506 0.958236 0.942321
0.684504 0.965118 0.971374
0.680781 0.965316 0.97084
0.674586 0.965652 0.970535
0.661341 0.966079 0.970443
0.632151 0.967056 0.970123
0.774746 0.962402 0.961028
0.92314 0.959579 0.950439
0.963241 0.958816 0.938231
0.963989 0.959487 0.934157
0.528405 0.182452 0.797528
0.549371 0.188327 0.802197
0.593103 0.199985 0.809873
0.691325 0.227939 0.81709
0.782727 0.264622 0.819471
0.780606 0.262333 0.816648
0.733715 0.21828 0.77055
0.733669 0.218311 0.770657
0.733745 0.21825 0.770474
0.509575 0.176852 0.792538
0.530098 0.18294 0.797787
0.571939 0.194293 0.806424
0.670802 0.221805 0.816892
0.780743 0.26305 0.818051
0.783032 0.264591 0.819013
0.733715 0.21828 0.77055
0.73373 0.218265 0.77052
0.733745 0.21825 0.770489
0.491951 0.171008 0.787045
0.496635 0.172595 0.788327
0.534066 0.183963 0.798642
0.631495 0.210422 0.814359
0.770352 0.257786 0.816876
0.786023 0.267445 0.822141
0.733654 0.218357 0.770718
0.733654 0.218341 0.770687
0.733745 0.21825 0.770489
0.510292 0.20415 0.814664
0.499489 0.184314 0.798215
0.491951 0.171649 0.78735
0.570474 0.194049 0.806317
0.738079 0.244068 0.816556
0.789029 0.270283 0.825086
0.733623 0.218387 0.770779
0.733639 0.218387 0.770764
0.733745 0.21825 0.770489
0.456291 0.556191 0.895354
0.479164 0.548943 0.895033
0.493828 0.526467 0.895888
0.53991 0.502174 0.902419
0.80322 0.500648 0.952941
0.93846 0.502419 0.967224
0.930785 0.465431 0.961654
0.92076 0.436484 0.953048
0.914046 0.422919 0.946807
0.48397 0.889952 0.960739
0.48333 0.8878 0.958434
0.486931 0.881697 0.956863
0.499336 0.866438 0.952209
0.609277 0.845914 0.93846
0.912077 0.825742 0.958175
0.958892 0.819013 0.967575
0.958648 0.798932 0.968353
0.956802 0.787243 0.967666
0.621576 0.965988 0.976699
0.617029 0.966934 0.975143
0.614038 0.96669 0.974945
0.61178 0.96582 0.975296
0.628 0.963088 0.973816
0.830213 0.953277 0.963882
0.953597 0.948959 0.961959
0.967651 0.946242 0.967178
0.96437 0.946227 0.964538
0.745663 0.961151 0.972076
0.738491 0.963165 0.969162
0.734188 0.963363 0.969177
0.72639 0.963378 0.970367
0.711086 0.963333 0.971878
0.837476 0.959869 0.966079
0.948058 0.958679 0.963623
0.966461 0.957992 0.965713
0.964675 0.958801 0.964157
0.754406 0.961059 0.97171
0.747738 0.962997 0.968811
0.743297 0.963149 0.968795
0.735759 0.963104 0.969497
0.721508 0.963058 0.97142
0.831495 0.960021 0.966308
0.944488 0.958846 0.963134
0.963851 0.958938 0.963882
0.968048 0.957397 0.966171
0.532769 0.183688 0.798489
0.554086 0.189319 0.802884
0.597421 0.201083 0.810452
0.696147 0.229496 0.817136
0.783368 0.265126 0.819928
0.779339 0.261158 0.815412
0.733715 0.21828 0.77055
0.7337 0.218296 0.770596
0.733806 0.218173 0.770306
0.514153 0.178302 0.79379
0.534463 0.18407 0.798733
0.575982 0.195346 0.807111
0.675319 0.223026 0.816831
0.781308 0.263508 0.818479
0.78204 0.263661 0.818051
0.733715 0.21828 0.77055
0.73373 0.218265 0.77052
0.733822 0.218158 0.770291
0.491875 0.171008 0.786999
0.501503 0.174228 0.789868
0.538842 0.18526 0.799725
0.636149 0.211749 0.814801
0.772091 0.258579 0.816983
0.785733 0.267185 0.821866
0.733654 0.218357 0.770718
0.733654 0.218341 0.770687
0.733776 0.218204 0.770397
0.501778 0.188525 0.802045
0.492332 0.172274 0.787915
0.491615 0.171069 0.786831
0.569451 0.193866 0.806226
0.736996 0.243656 0.816571
0.789059 0.270329 0.825132
0.733639 0.218387 0.770779
0.733639 0.218387 0.770764
0.733745 0.21825 0.770489
0.495125 0.527718 0.89781
0.500298 0.514641 0.896925
0.512718 0.488548 0.898482
0.550805 0.460883 0.903334
0.799847 0.462181 0.94992
0.929274 0.463996 0.960128
0.915373 0.424033 0.948211
0.898238 0.391714 0.932265
0.888121 0.376684 0.922271
0.530602 0.881361 0.957504
0.523308 0.876677 0.954574
0.514275 0.866453 0.951431
0.496651 0.842618 0.945235
0.604532 0.818311 0.929381
0.917296 0.803235 0.960494
0.957702 0.799207 0.967712
0.957641 0.78146 0.968688
0.957595 0.770199 0.969329
0.68835 0.961883 0.972732
0.684276 0.962646 0.971222
0.681392 0.962158 0.970962
0.675334 0.960983 0.970825
0.680095 0.958175 0.969619
0.840528 0.951202 0.962554
0.954787 0.946685 0.961395
0.964523 0.945449 0.964752
0.963897 0.944121 0.964309
0.772946 0.959899 0.972244
0.77026 0.960632 0.971344
0.768399 0.960723 0.971222
0.764065 0.960845 0.97142
0.755947 0.960998 0.97174
0.858 0.958267 0.967056
0.950744 0.957656 0.965331
0.964172 0.959152 0.963699
0.964172 0.959152 0.963699
0.777996 0.961227 0.968933
0.775906 0.962142 0.967453
0.775677 0.962234 0.967285
0.775677 0.962234 0.967285
0.77499 0.962264 0.967315
0.859327 0.960143 0.963775
0.945174 0.959686 0.961715
0.962295 0.959869 0.96228
0.964675 0.958938 0.964096
