bundles/resolve-cinematic-luts/Phantom Luts/Ursa G2 Phntm Arri LUTs - V1/Gen5/Standard (No WB Offset)/Jamaica Ursa Legacy V1 - Gen5.cube
TITLE "Generated by Resolve"
LUT_3D_SIZE 5
0.017792 0.0344701 0.0177462
0.123003 0.0370184 0.0292515
0.582574 0.0377356 0.0907301
0.633188 0.0640574 0.154101
0.633021 0.0640726 0.153582
0.025742 0.127947 0.0575265
0.0940108 0.122499 0.0345922
0.564446 0.0377203 0.0507362
0.62707 0.0646525 0.136828
0.630716 0.0643473 0.146822
0.215183 0.777646 0.369116
0.243275 0.783993 0.345006
0.654429 0.795911 0.245289
0.906157 0.722759 0.312413
0.893874 0.668025 0.286442
0.379232 0.96463 0.620798
0.455436 0.979522 0.505409
0.609323 0.98822 0.433005
0.974289 0.921752 0.455894
0.979141 0.925444 0.460273
0.380194 0.96698 0.652216
0.442786 0.980484 0.525093
0.534493 0.981216 0.447547
0.954299 0.920638 0.444007
0.97937 0.925322 0.460609
0.0293278 0.036347 0.0974289
0.135836 0.0396277 0.11162
0.610742 0.0385595 0.1617
0.632074 0.0642252 0.150607
0.63212 0.0641947 0.150652
0.0296483 0.104692 0.0979019
0.0869612 0.101625 0.08748
0.568353 0.0351263 0.0799268
0.630991 0.064332 0.147585
0.632715 0.0641031 0.152636
0.102235 0.704189 0.428717
0.171466 0.72842 0.341299
0.628962 0.764904 0.222309
0.893416 0.657923 0.282826
0.887556 0.608133 0.268299
0.362448 0.949294 0.701793
0.372625 0.960067 0.627482
0.558999 0.989609 0.45182
0.972335 0.920821 0.454276
0.979141 0.925444 0.460258
0.368002 0.952331 0.722683
0.370672 0.959411 0.650248
0.486473 0.981399 0.480568
0.943038 0.920256 0.437705
0.977874 0.925963 0.460044
0.108339 0.0433814 0.507118
0.243214 0.0470436 0.51371
0.6551 0.0762188 0.539773
0.702266 0.106264 0.545739
0.704997 0.105211 0.535225
0.0336767 0.0396735 0.445853
0.13962 0.04448 0.489113
0.624506 0.0642863 0.513802
0.706203 0.0965286 0.489158
0.705989 0.0945144 0.477867
0.0902266 0.619593 0.589319
0.081117 0.609705 0.569116
0.580072 0.612375 0.537331
0.956603 0.593668 0.476265
0.946441 0.544884 0.427405
0.421546 0.955657 0.88922
0.396994 0.945388 0.850675
0.369177 0.955123 0.706279
0.979568 0.928939 0.466026
0.979156 0.925444 0.460212
0.459846 0.969833 0.912932
0.426551 0.964813 0.878889
0.362814 0.951446 0.683146
0.939849 0.923369 0.438712
0.978103 0.925856 0.460151
0.397559 0.0998856 0.717937
0.447486 0.102892 0.720104
0.666072 0.159548 0.718563
0.669352 0.153002 0.707301
0.67277 0.157275 0.710567
0.358907 0.0888991 0.704906
0.380713 0.0878157 0.705272
0.636957 0.14667 0.71545
0.664271 0.147585 0.702632
0.663966 0.14757 0.701915
0.144457 0.50161 0.760266
0.155505 0.48954 0.774777
0.682612 0.478767 0.928954
0.910216 0.412314 0.943633
0.869184 0.351827 0.90399
0.538186 0.966262 0.97348
0.523613 0.967132 0.969619
0.530724 0.968139 0.966369
0.950423 0.954528 0.945602
0.963394 0.953674 0.945434
0.684504 0.965118 0.971374
0.674586 0.965652 0.970535
0.632151 0.967056 0.970123
0.92314 0.959579 0.950439
0.963989 0.959487 0.934157
0.532769 0.183688 0.798489
0.597421 0.201083 0.810452
0.783368 0.265126 0.819928
0.733715 0.21828 0.77055
0.733806 0.218173 0.770306
0.491875 0.171008 0.786999
0.538842 0.18526 0.799725
0.772091 0.258579 0.816983
0.733654 0.218357 0.770718
0.733776 0.218204 0.770397
0.495125 0.527718 0.89781
0.512718 0.488548 0.898482
0.799847 0.462181 0.94992
0.915373 0.424033 0.948211
0.888121 0.376684 0.922271
0.68835 0.961883 0.972732
0.681392 0.962158 0.970962
0.680095 0.958175 0.969619
0.954787 0.946685 0.961395
0.963897 0.944121 0.964309
0.777996 0.961227 0.968933
0.775677 0.962234 0.967285
0.77499 0.962264 0.967315
0.945174 0.959686 0.961715
0.964675 0.958938 0.964096
