bundles/resolve-cinematic-luts/Phantom Luts/Ursa G2 Phntm Arri LUTs - V1/Gen5/Standard (No WB Offset)/Neutral Ursa V1 - Gen5.cube
TITLE "Generated by Resolve"
LUT_3D_SIZE 9
0.0106355 0.0106355 0.0106355
0.0379339 0.0112154 0.0113222
0.158267 0.00282292 0.0224002
0.406363 0 0.0399176
0.717937 0 0.0661784
0.893156 0 0.090837
0.90573 0 0.135683
0.90573 0 0.135683
0.90573 0 0.135683
0.0124514 0.0343481 0.0176852
0.0250248 0.0318761 0.0131685
0.124544 0.0209659 0.0157168
0.36968 0 0.0388952
0.695262 0 0.0629282
0.892485 0 0.088777
0.90573 0 0.135683
0.90573 0 0.135683
0.90573 0 0.135683
0.016846 0.150347 0.0463569
0.0168307 0.143191 0.0356909
0.0967575 0.150088 0.0203098
0.392538 0.0938888 0.035462
0.684504 0 0.0247349
0.887572 0 0.0694285
0.89749 0 0.10132
0.899275 0 0.108522
0.902541 0 0.121828
0.0242618 0.427543 0.125612
0.0243839 0.427085 0.112444
0.0245365 0.417517 0.0699321
0.283742 0.434638 0.0454261
0.692729 0.40325 0.0717632
0.916014 0.298711 0.0855726
0.894118 0.0104829 0.0342412
0.890776 0 0.0267796
0.887907 0 0.0359503
0.0231785 0.758831 0.31725
0.0303807 0.764309 0.284779
0.0295872 0.758907 0.281773
0.0712291 0.756497 0.124971
0.567529 0.753628 0.112444
0.897948 0.732021 0.134813
0.934829 0.685618 0.0946517
0.932464 0.665156 0.0851453
0.931411 0.653086 0.0864881
0.058381 0.958968 0.468025
0.0621958 0.957855 0.428931
0.0655833 0.957198 0.410132
0.0758831 0.956069 0.369863
0.447501 0.953033 0.155444
0.81236 0.954589 0.202472
0.971771 0.93753 0.282368
0.971344 0.936248 0.253056
0.970977 0.933715 0.250355
0.107378 0.961257 0.484001
0.0970779 0.959396 0.428153
0.100649 0.956863 0.357229
0.0990463 0.956954 0.360586
0.30454 0.954314 0.15317
0.689616 0.954223 0.189563
0.936233 0.934905 0.243854
0.971649 0.937224 0.269902
0.971664 0.93727 0.270176
0.113222 0.962051 0.508293
0.10103 0.960494 0.456718
0.100649 0.956863 0.357229
0.100649 0.956863 0.357229
0.208042 0.955169 0.172808
0.639704 0.953262 0.18764
0.907683 0.945144 0.225025
0.971572 0.937057 0.264271
0.971633 0.937148 0.266392
0.116518 0.962509 0.521996
0.104784 0.96112 0.472847
0.0990768 0.957122 0.368154
0.100649 0.956863 0.357229
0.160754 0.955352 0.206363
0.625849 0.953185 0.187533
0.889189 0.954498 0.210437
0.971557 0.936996 0.261707
0.971633 0.937148 0.266392
0.0106508 0.0105135 0.0302129
0.0416419 0.0115816 0.0353704
0.168994 0.0089723 0.0511788
0.424613 0.00105287 0.0719463
0.733364 0 0.0939345
0.89308 0 0.0903639
0.905638 0 0.13521
0.90573 0 0.135683
0.90573 0 0.135683
0.0123751 0.0252232 0.0244297
0.0224613 0.0224613 0.0224613
0.135622 0.00791943 0.0224308
0.38262 0 0.0403143
0.701488 0 0.0687419
0.892439 0 0.0885634
0.90573 0 0.135683
0.90573 0 0.135683
0.90573 0 0.135683
0.0201572 0.12958 0.0722362
0.016846 0.129702 0.0462501
0.0911421 0.135088 0.0197604
0.394965 0.0645762 0.0318151
0.683528 0 0.0333715
0.888502 0 0.0732128
0.898268 0 0.104463
0.902998 0 0.123735
0.904158 0 0.12874
0.0235294 0.403189 0.161349
0.0236057 0.406592 0.122637
0.0239414 0.406363 0.0851759
0.274525 0.420981 0.0436255
0.700923 0.37116 0.0771649
0.91281 0.256229 0.0750591
0.891295 0 0.021088
0.887678 0 0.0367437
0.886107 0 0.0415198
0.0156863 0.740963 0.36025
0.0205539 0.744564 0.31516
0.0285039 0.748867 0.275669
0.0602731 0.750698 0.158099
0.561532 0.745007 0.109819
0.902998 0.71812 0.127184
0.932692 0.668086 0.0848554
0.930755 0.644434 0.0876478
0.929885 0.630793 0.0897841
0.0566415 0.95967 0.509926
0.0581521 0.959014 0.471992
0.0657206 0.957183 0.409369
0.0697642 0.95642 0.386633
0.422232 0.953201 0.150591
0.809369 0.954528 0.20206
0.971695 0.937423 0.276295
0.97052 0.93167 0.248112
0.970031 0.928328 0.244572
0.118669 0.962676 0.537774
0.107805 0.961486 0.492195
0.0939193 0.957794 0.392172
0.0963912 0.957015 0.365774
0.263569 0.954986 0.162463
0.68658 0.954131 0.189364
0.934462 0.93489 0.243442
0.971664 0.937285 0.27042
0.971664 0.937285 0.270695
0.124788 0.963287 0.558511
0.114748 0.962249 0.514733
0.0958419 0.959014 0.419287
0.100649 0.956863 0.357229
0.166308 0.955184 0.183536
0.633661 0.953155 0.187472
0.904463 0.949264 0.219028
0.971572 0.937041 0.26389
0.971633 0.937148 0.266392
0.127687 0.96347 0.570687
0.117861 0.962448 0.528038
0.098024 0.95964 0.43711
0.100649 0.956863 0.357229
0.150423 0.955612 0.244968
0.61941 0.953033 0.187396
0.880049 0.954559 0.210056
0.971557 0.93698 0.261112
0.971633 0.937148 0.266392
0.0259709 0.0129397 0.137331
0.0714275 0.0133059 0.133577
0.183261 0.0162814 0.14229
0.456596 0.0102998 0.185275
0.793393 0 0.226658
0.913237 0 0.181552
0.90399 0 0.127657
0.904112 0 0.128344
0.904219 0 0.128725
0.0109255 0.0112917 0.0950332
0.0362707 0.0126955 0.124575
0.1514 0.0151522 0.120439
0.427665 0.00662242 0.138491
0.765759 0 0.170474
0.904524 0 0.135744
0.904433 0 0.12958
0.904509 0 0.130083
0.904585 0 0.130358
0.0213321 0.115404 0.10959
0.0209659 0.110811 0.105364
0.113436 0.113436 0.113481
0.407248 0.080766 0.0934157
0.6963 0 0.0780499
0.889387 0 0.0768292
0.903029 0 0.123827
0.904891 0 0.131777
0.905058 0 0.132433
0.0288396 0.374105 0.230976
0.0276951 0.369726 0.20499
0.0229496 0.372808 0.140887
0.285481 0.400565 0.0498665
0.704768 0.328954 0.0935836
0.909636 0.214679 0.0661326
0.887419 0 0.0378424
0.888029 0 0.057084
0.888441 0 0.0605783
0.0100404 0.711604 0.432197
0.0112306 0.714061 0.396185
0.0170138 0.720516 0.31313
0.0466468 0.736538 0.183917
0.55375 0.729809 0.105516
0.909499 0.695979 0.112154
0.930541 0.639261 0.0886244
0.92903 0.616495 0.092195
0.928161 0.602838 0.0942397
0.0612955 0.950439 0.574731
0.0576944 0.95346 0.542702
0.0577401 0.95903 0.478828
0.0661326 0.957137 0.407095
0.362188 0.95346 0.140917
0.804028 0.95462 0.201801
0.971069 0.934462 0.262837
0.969162 0.92256 0.238697
0.96849 0.918364 0.234668
0.131914 0.963867 0.615991
0.123201 0.963577 0.581537
0.105287 0.961852 0.508721
0.0923476 0.957214 0.373785
0.184909 0.955306 0.180499
0.679255 0.953964 0.188952
0.931151 0.934691 0.242741
0.971664 0.937209 0.271275
0.971664 0.93727 0.271565
0.142687 0.964248 0.631464
0.133822 0.963806 0.597025
0.117342 0.962432 0.525795
0.100649 0.956863 0.357229
0.14815 0.955642 0.252552
0.623819 0.953094 0.187472
0.896483 0.954559 0.210819
0.971572 0.937026 0.263233
0.971633 0.937148 0.266392
0.145403 0.964126 0.641474
0.136614 0.963958 0.608042
0.120241 0.962737 0.53901
0.100649 0.956863 0.357229
0.130205 0.955856 0.30045
0.606592 0.952712 0.187152
0.862608 0.954421 0.208545
0.971557 0.936965 0.260121
0.971633 0.937148 0.266392
0.0681468 0.0191348 0.377188
0.127581 0.0202945 0.372122
0.244068 0.0209049 0.372534
0.481941 0.0206302 0.405447
0.813596 0.0146487 0.481743
0.924147 0.00827039 0.494881
0.925566 0.00955215 0.47837
0.92549 0.00830091 0.466361
0.925475 0.00746166 0.45832
0.046479 0.0183566 0.362875
0.0738537 0.0192569 0.365072
0.199374 0.0206149 0.362448
0.455467 0.0208743 0.382437
0.794949 0.0114443 0.445441
0.923873 0.00277714 0.446235
0.924987 0.00306706 0.409781
0.924804 0.00158694 0.397208
0.924681 0.000793469 0.390967
0.0167849 0.0652323 0.291752
0.0157473 0.0437476 0.311131
0.107179 0.0197604 0.348562
0.409995 0.0209659 0.349096
0.75848 0.00715648 0.38732
0.923247 0 0.401038
0.924102 0 0.361929
0.923873 0 0.34995
0.923674 0 0.342565
0.0297398 0.347478 0.33048
0.0298314 0.341863 0.325093
0.0299382 0.332052 0.316274
0.357809 0.357809 0.35787
0.722499 0.321523 0.336309
0.929946 0.213321 0.224964
0.886671 0 0.0398566
0.888243 0 0.0582284
0.88896 0 0.0637064
0.0160525 0.683284 0.530755
0.013901 0.681392 0.516213
0.00996414 0.67599 0.48423
0.0356298 0.684321 0.39086
0.590967 0.698482 0.215152
0.931289 0.650004 0.20795
0.929137 0.621241 0.0910964
0.927718 0.593042 0.0958877
0.92694 0.575891 0.0984512
0.0789502 0.924804 0.677775
0.073579 0.926452 0.659663
0.0637064 0.931014 0.621103
0.0518044 0.943618 0.50779
0.217258 0.953079 0.194644
0.827665 0.947112 0.232868
0.969528 0.925002 0.242908
0.967071 0.910033 0.226963
0.966293 0.904891 0.222568
0.15555 0.963867 0.730175
0.148638 0.964065 0.708522
0.134844 0.964034 0.664057
0.101427 0.962463 0.538582
0.148669 0.95613 0.287663
0.664958 0.953628 0.188418
0.926543 0.934524 0.24184
0.971679 0.937301 0.27303
0.971679 0.937316 0.27364
0.208331 0.964263 0.745556
0.179934 0.964355 0.720226
0.154345 0.964294 0.672862
0.122408 0.962966 0.547799
0.119417 0.956237 0.32401
0.604746 0.952667 0.187152
0.872221 0.954421 0.209552
0.971557 0.936996 0.261997
0.971633 0.937148 0.266392
0.222416 0.964172 0.75465
0.18555 0.964172 0.72874
0.157015 0.96434 0.681453
0.125216 0.963272 0.560311
0.100649 0.956863 0.357229
0.568322 0.952285 0.185611
0.825284 0.954543 0.204227
0.968048 0.936736 0.25658
0.971633 0.937148 0.266392
0.181888 0.022034 0.660319
0.25275 0.0234073 0.656413
0.372854 0.0225223 0.660883
0.554788 0.0204776 0.676524
0.832212 0.0233616 0.710216
0.923537 0.0262455 0.749889
0.921721 0.0265049 0.782116
0.921752 0.0264897 0.780713
0.921782 0.0264744 0.779431
0.128573 0.0200809 0.652384
0.18381 0.0221561 0.650645
0.325231 0.0229191 0.654582
0.52578 0.0206607 0.667185
0.8159 0.0228885 0.69604
0.92372 0.0258488 0.729412
0.922011 0.0262608 0.764935
0.922087 0.026215 0.760906
0.922148 0.0261692 0.757931
0.0807965 0.0187991 0.604685
0.11603 0.0196994 0.631525
0.2383 0.023209 0.643275
0.473411 0.0210575 0.651545
0.786221 0.0221103 0.672694
0.923888 0.0254826 0.698054
0.922789 0.0257725 0.725536
0.922972 0.0256962 0.719829
0.923064 0.0256657 0.716625
0 0.265431 0.590814
0 0.247608 0.600946
0 0.216526 0.613779
0.372747 0.155306 0.67216
0.760525 0.143633 0.673472
0.934462 0.0500649 0.653162
0.926802 0.03093 0.652491
0.925093 0.0265202 0.648936
0.924926 0.0260777 0.644526
0.0226902 0.651377 0.629969
0.0220493 0.648127 0.626795
0.0209201 0.64268 0.621592
0.0448463 0.632792 0.614221
0.633371 0.633371 0.633417
0.933654 0.614435 0.619104
0.935256 0.571847 0.545083
0.934401 0.545876 0.523247
0.934524 0.530343 0.512398
0.0996262 0.892958 0.76968
0.0969253 0.892912 0.762524
0.092546 0.893095 0.748714
0.0819715 0.895308 0.71458
0.442481 0.89865 0.664576
0.838346 0.912077 0.580941
0.958907 0.88397 0.594797
0.959014 0.878431 0.482582
0.958328 0.87306 0.4636
0.337713 0.954406 0.846403
0.315373 0.955123 0.838788
0.26981 0.956695 0.823255
0.167681 0.960861 0.776364
0.26804 0.964324 0.682567
0.703975 0.956619 0.60592
0.94342 0.943648 0.456596
0.971679 0.937331 0.274098
0.971679 0.937346 0.2748
0.45742 0.951446 0.866941
0.439002 0.952316 0.859174
0.401541 0.954528 0.843076
0.289754 0.960555 0.792798
0.170642 0.964309 0.668055
0.631632 0.956436 0.584237
0.898344 0.957336 0.359823
0.971557 0.936965 0.260517
0.971633 0.937163 0.265538
0.464057 0.950973 0.869657
0.445609 0.95198 0.862104
0.407797 0.954116 0.845899
0.296239 0.960128 0.795911
0.149569 0.964248 0.656321
0.570581 0.955993 0.547768
0.866041 0.956359 0.325902
0.96492 0.936461 0.253864
0.971633 0.937133 0.26566
0.372854 0.0266423 0.85742
0.414542 0.0263676 0.860151
0.501961 0.0258946 0.869627
0.653437 0.0252537 0.884474
0.866255 0.0345769 0.904677
0.926726 0.0455177 0.921752
0.923491 0.0380865 0.923491
0.923705 0.0386053 0.923705
0.923751 0.0386511 0.923751
0.326863 0.0267033 0.85127
0.371023 0.026566 0.854124
0.464958 0.0260624 0.864866
0.624186 0.0252842 0.880003
0.849943 0.0310063 0.900618
0.926589 0.0448463 0.917159
0.923018 0.0365301 0.923018
0.923095 0.0367285 0.923095
0.923095 0.0367285 0.923095
0.307164 0.0265965 0.845609
0.305913 0.0265812 0.844984
0.386526 0.0264286 0.854063
0.567819 0.025452 0.872145
0.818189 0.0260471 0.893767
0.926299 0.0436103 0.909117
0.922026 0.0333867 0.913695
0.921981 0.0331579 0.912551
0.921828 0.0328985 0.91165
0 0.130892 0.818097
0 0.0931868 0.819348
0.0366979 0.0477607 0.819883
0.445747 0.0258488 0.850401
0.754986 0.0298314 0.881712
0.928817 0.0482948 0.890242
0.922316 0.032517 0.891814
0.920989 0.02916 0.88957
0.920897 0.0288396 0.890349
0 0.584817 0.811948
0 0.578073 0.815946
0 0.566217 0.824094
0 0.550378 0.84268
0.669642 0.54548 0.896819
0.951644 0.535927 0.888258
0.958221 0.455756 0.890867
0.959792 0.412436 0.887709
0.960342 0.389059 0.885466
0.104631 0.866819 0.845365
0.103624 0.865385 0.843992
0.101686 0.863355 0.841703
0.0979324 0.858732 0.8374
0.500175 0.851377 0.837522
0.856413 0.856413 0.856413
0.960739 0.848646 0.8495
0.959594 0.836439 0.835386
0.959457 0.829252 0.830671
0.444511 0.946593 0.900008
0.436728 0.946578 0.897917
0.422263 0.946609 0.894041
0.390188 0.947417 0.88394
0.505562 0.946303 0.874388
0.800732 0.957641 0.884352
0.94818 0.968032 0.845609
0.971847 0.95993 0.855024
0.971542 0.958419 0.85095
0.603922 0.947356 0.918807
0.598016 0.94728 0.917021
0.587106 0.947463 0.913619
0.560601 0.947723 0.904952
0.519524 0.949096 0.887205
0.76463 0.961364 0.889403
0.912016 0.967987 0.851499
0.971267 0.963134 0.800153
0.974182 0.9617 0.782315
0.608179 0.947372 0.920165
0.601617 0.947372 0.91812
0.589883 0.947433 0.914473
0.561181 0.947768 0.905119
0.494057 0.949676 0.881682
0.724285 0.959121 0.878508
0.889281 0.966567 0.843427
0.96376 0.962203 0.783291
0.973922 0.95906 0.747356
0.630198 0.0973831 0.924147
0.637888 0.0840925 0.921492
0.689143 0.091371 0.928923
0.803586 0.108446 0.943481
0.938491 0.130159 0.944564
0.941939 0.110994 0.941939
0.934813 0.0678111 0.934813
0.939483 0.0932174 0.939483
0.941512 0.107897 0.941512
0.609979 0.0935378 0.920851
0.616526 0.0803235 0.918044
0.660258 0.0808881 0.923064
0.77496 0.0979171 0.939116
0.926146 0.119722 0.943496
0.940764 0.102358 0.940764
0.934173 0.065919 0.934173
0.934752 0.0677653 0.934798
0.935058 0.0683604 0.935058
0.583368 0.0776074 0.91342
0.580758 0.0739605 0.911925
0.608408 0.063386 0.911803
0.721782 0.0801404 0.929381
0.900282 0.102403 0.94168
0.938628 0.0872053 0.938613
0.933165 0.062974 0.933165
0.933394 0.0636301 0.933394
0.933471 0.0638285 0.933471
0.484138 0.108156 0.910109
0.514977 0.0942092 0.91014
0.53341 0.0755169 0.906844
0.622339 0.0479286 0.907408
0.831937 0.0569924 0.930175
0.933227 0.0630961 0.933227
0.931655 0.0586862 0.931655
0.931426 0.0581064 0.931426
0.93135 0.0578317 0.93135
0.0370947 0.587457 0.919539
0.0903334 0.582284 0.923858
0.191104 0.571847 0.929839
0.365454 0.555444 0.932326
0.761486 0.532464 0.948379
0.956832 0.521996 0.956832
0.958953 0.457572 0.958953
0.959777 0.411658 0.959777
0.959762 0.388128 0.959762
0.206195 0.838941 0.921904
0.209674 0.836072 0.922698
0.21709 0.830976 0.924117
0.239719 0.820325 0.928115
0.533532 0.8168 0.923018
0.878721 0.82179 0.957702
0.96347 0.81883 0.954833
0.962707 0.802319 0.953017
0.962417 0.794217 0.95227
0.486976 0.937957 0.926284
0.48246 0.937453 0.925795
0.474479 0.93695 0.925002
0.458915 0.935912 0.923644
0.540139 0.933211 0.922301
0.822675 0.941619 0.937469
0.947417 0.947402 0.947463
0.969024 0.946517 0.946838
0.96875 0.944533 0.945434
0.684703 0.949371 0.940322
0.682567 0.949371 0.939925
0.67863 0.949157 0.939116
0.6701 0.94876 0.937102
0.654429 0.948211 0.933272
0.836561 0.961395 0.94725
0.937789 0.971328 0.955306
0.968826 0.973556 0.946624
0.973968 0.973816 0.949523
0.68864 0.949416 0.9411
0.685756 0.949355 0.94049
0.680888 0.949218 0.939529
0.669871 0.948699 0.937041
0.64799 0.948074 0.93167
0.813565 0.959594 0.943847
0.927596 0.970306 0.953628
0.962432 0.9729 0.944411
0.973785 0.973739 0.94197
0.690852 0.17116 0.942168
0.711498 0.177615 0.944335
0.757244 0.189624 0.948806
0.849607 0.209766 0.955062
0.955215 0.234745 0.955215
0.954406 0.225299 0.954406
0.946426 0.146639 0.946426
0.946426 0.146639 0.946426
0.946426 0.146639 0.946426
0.672267 0.164797 0.940139
0.692668 0.171817 0.942367
0.735958 0.184436 0.946777
0.8318 0.205966 0.954955
0.949096 0.232456 0.955154
0.954772 0.229435 0.954772
0.946426 0.146639 0.946426
0.946426 0.146639 0.946426
0.946426 0.146639 0.946426
0.651881 0.156695 0.937118
0.660243 0.160098 0.938552
0.698604 0.173724 0.942992
0.796445 0.198322 0.952438
0.932311 0.228046 0.955154
0.955261 0.235294 0.955261
0.946426 0.146639 0.946426
0.946426 0.146639 0.946426
0.946426 0.146639 0.946426
0.653376 0.199405 0.941573
0.652735 0.168597 0.938689
0.651881 0.156695 0.937118
0.734371 0.184054 0.946624
0.892805 0.218891 0.955139
0.955688 0.240635 0.955688
0.946426 0.146639 0.946426
0.946426 0.146639 0.946426
0.946426 0.146639 0.946426
0.542641 0.602502 0.925216
0.550362 0.591531 0.925994
0.564431 0.570596 0.927749
0.615152 0.548516 0.933883
0.825971 0.536706 0.953643
0.956603 0.532113 0.956603
0.957641 0.495674 0.957641
0.958907 0.463859 0.958907
0.959274 0.449363 0.959274
0.479118 0.840467 0.930343
0.486656 0.838178 0.929915
0.502159 0.834165 0.929
0.496086 0.820584 0.927687
0.631205 0.817029 0.926589
0.908827 0.819074 0.9626
0.963287 0.817441 0.963287
0.962676 0.805219 0.962676
0.962448 0.797375 0.962448
0.618021 0.932509 0.942672
0.61828 0.93193 0.942626
0.61944 0.930877 0.942626
0.624125 0.928176 0.942306
0.663737 0.925597 0.943023
0.836164 0.933532 0.954437
0.951873 0.939849 0.968139
0.969238 0.939941 0.969085
0.968856 0.937804 0.968505
0.733272 0.951537 0.950561
0.730556 0.95137 0.950271
0.726238 0.95108 0.949737
0.717464 0.950469 0.94876
0.702968 0.949722 0.947311
0.84358 0.961105 0.958373
0.941756 0.967788 0.966766
0.969528 0.969528 0.969528
0.973144 0.969055 0.97055
0.748806 0.952621 0.952224
0.746838 0.95259 0.95201
0.743145 0.952392 0.951507
0.735851 0.951873 0.950271
0.722362 0.95111 0.94786
0.84007 0.960678 0.957488
0.939773 0.970596 0.967376
0.967559 0.973968 0.97084
0.974136 0.974441 0.969482
0.695171 0.172732 0.942641
0.716121 0.179034 0.944808
0.761685 0.190677 0.949233
0.853513 0.210681 0.955077
0.955261 0.235294 0.955261
0.954223 0.223148 0.954223
0.946426 0.146639 0.946426
0.946426 0.146639 0.946426
0.946426 0.146639 0.946426
0.676555 0.166369 0.940627
0.696986 0.173281 0.94284
0.739727 0.185336 0.947127
0.835538 0.206882 0.954986
0.951278 0.233051 0.955154
0.954635 0.227893 0.954635
0.946426 0.146639 0.946426
0.946426 0.146639 0.946426
0.946426 0.146639 0.946426
0.651881 0.156695 0.937118
0.664134 0.161715 0.938979
0.702296 0.174884 0.943389
0.800381 0.199207 0.952789
0.93431 0.228641 0.955154
0.9552 0.234546 0.9552
0.946426 0.146639 0.946426
0.946426 0.146639 0.946426
0.946426 0.146639 0.946426
0.653056 0.178988 0.939773
0.651881 0.156695 0.937118
0.651881 0.156695 0.937118
0.73344 0.18381 0.946532
0.891936 0.218692 0.955139
0.955703 0.240696 0.955703
0.946426 0.146639 0.946426
0.946426 0.146639 0.946426
0.946426 0.146639 0.946426
0.561547 0.574884 0.927321
0.569711 0.562356 0.928679
0.584375 0.53814 0.931975
0.626383 0.512566 0.937407
0.82649 0.502556 0.954086
0.957488 0.496941 0.957488
0.95906 0.454749 0.95906
0.959792 0.416907 0.959792
0.959854 0.400824 0.959854
0.505989 0.833127 0.928786
0.50277 0.829221 0.928618
0.496956 0.821759 0.92781
0.486046 0.805707 0.926574
0.625147 0.800137 0.924743
0.910506 0.800809 0.962692
0.9626 0.798703 0.9626
0.961929 0.78497 0.961929
0.961456 0.777569 0.961456
0.660121 0.931121 0.943954
0.658244 0.930251 0.943725
0.654948 0.928603 0.943282
0.647379 0.92488 0.942199
0.672145 0.921324 0.942611
0.833066 0.9299 0.953689
0.953353 0.935775 0.967926
0.968795 0.936004 0.968795
0.968704 0.933852 0.968704
0.74464 0.952316 0.952316
0.743084 0.952178 0.952224
0.740612 0.95201 0.95201
0.735225 0.951629 0.951583
0.726406 0.950912 0.950912
0.849027 0.960311 0.960998
0.940993 0.965621 0.969116
0.969879 0.967742 0.972915
0.973175 0.967849 0.973175
0.760037 0.953368 0.953414
0.760037 0.953368 0.953414
0.760037 0.953368 0.953414
0.760037 0.953368 0.953414
0.760037 0.953368 0.953414
0.853315 0.96141 0.96141
0.940017 0.970321 0.970275
0.968185 0.973785 0.973693
0.974533 0.974533 0.974578
