bundles/resolve-cinematic-luts/Phantom Luts/Ursa G2 Phntm Arri LUTs - V1/Gen5/Standard (No WB Offset)/Neutral Ursa V1 - Gen5.cube
TITLE "Generated by Resolve"
LUT_3D_SIZE 33
0.0106355 0.0106355 0.0106355
0.0106355 0.0106355 0.0106355
0.0106355 0.0106355 0.0106355
0.0238041 0.0110933 0.0111086
0.0379339 0.0112154 0.0113222
0.0576944 0.0107576 0.0115206
0.0856031 0.009308 0.0139315
0.117556 0.00698863 0.017731
0.158267 0.00282292 0.0224002
0.209018 0 0.0276493
0.27068 0 0.0330816
0.338293 0 0.0374304
0.406363 0 0.0399176
0.4795 0 0.0433051
0.557473 0 0.0530556
0.636194 0 0.0602731
0.717937 0 0.0661784
0.796704 0 0.0670787
0.863294 0 0.0673381
0.889494 0 0.0792248
0.893156 0 0.090837
0.90013 0 0.114382
0.90573 0 0.135683
0.90573 0 0.135683
0.90573 0 0.135683
0.90573 0 0.135683
0.90573 0 0.135683
0.90573 0 0.135683
0.90573 0 0.135683
0.90573 0 0.135683
0.90573 0 0.135683
0.90573 0 0.135683
0.90573 0 0.135683
0.0106355 0.0106355 0.0106355
0.0106355 0.0106355 0.0106355
0.0106355 0.0106355 0.0106355
0.0162051 0.0108492 0.0108339
0.0309606 0.0111849 0.0112459
0.048249 0.0111849 0.0113985
0.076997 0.00970474 0.0130922
0.110491 0.00759899 0.0168002
0.152041 0.0034638 0.0217441
0.202457 0 0.0270085
0.263996 0 0.0325628
0.33254 0 0.0371252
0.40116 0 0.0397498
0.474525 0 0.0429999
0.552941 0 0.0525063
0.632029 0 0.0599985
0.713878 0 0.066041
0.793484 0 0.067155
0.86067 0 0.0666361
0.889326 0 0.0788128
0.893019 0 0.0903487
0.899794 0 0.113313
0.90573 0 0.135683
0.90573 0 0.135683
0.90573 0 0.135683
0.90573 0 0.135683
0.90573 0 0.135683
0.90573 0 0.135683
0.90573 0 0.135683
0.90573 0 0.135683
0.90573 0 0.135683
0.90573 0 0.135683
0.90573 0 0.135683
0.0106355 0.0106355 0.0106355
0.0106355 0.0106355 0.0106355
0.0106355 0.0106355 0.0106355
0.0106355 0.0106355 0.0106355
0.0203403 0.0109865 0.0109865
0.0351263 0.0114443 0.0113375
0.0579385 0.0107271 0.0115206
0.0924544 0.00891127 0.0146487
0.132586 0.00543221 0.0196994
0.185504 0 0.0252689
0.249699 0 0.0313878
0.322911 0 0.0365911
0.395453 0 0.039826
0.469261 0 0.0427405
0.548272 0 0.0518654
0.627832 0 0.0595865
0.709606 0 0.0658885
0.789975 0 0.067155
0.857755 0 0.066041
0.889158 0 0.0783398
0.892836 0 0.0898604
0.899489 0 0.112184
0.90573 0 0.135683
0.90573 0 0.135683
0.90573 0 0.135683
0.90573 0 0.135683
0.90573 0 0.135683
0.90573 0 0.135683
0.90573 0 0.135683
0.90573 0 0.135683
0.90573 0 0.135683
0.90573 0 0.135683
0.90573 0 0.135683
0.0113832 0.0202182 0.0132601
0.0113069 0.0192721 0.0129397
0.0111543 0.0169985 0.0112001
0.0146181 0.017258 0.011368
0.023331 0.0193179 0.0122835
0.0357061 0.0203861 0.0128786
0.05449 0.0197452 0.0134737
0.0863355 0.0158236 0.013489
0.123247 0.00880446 0.0167544
0.170459 0.00155642 0.0236973
0.230945 0 0.0297398
0.304494 0 0.0354772
0.379675 0 0.039292
0.456977 0 0.0421454
0.540078 0 0.0496834
0.623377 0 0.0591592
0.70544 0 0.0656901
0.786847 0 0.0672618
0.854932 0 0.0654765
0.888991 0 0.0778973
0.892653 0 0.0893111
0.899168 0 0.11107
0.90573 0 0.135683
0.90573 0 0.135683
0.90573 0 0.135683
0.90573 0 0.135683
0.90573 0 0.135683
0.90573 0 0.135683
0.90573 0 0.135683
0.90573 0 0.135683
0.90573 0 0.135683
0.90573 0 0.135683
0.90573 0 0.135683
0.0124514 0.0343481 0.0176852
0.0123903 0.0335546 0.0174411
0.0122835 0.0321965 0.0142824
0.0155642 0.0302739 0.0126192
0.0250248 0.0318761 0.0131685
0.0384985 0.0318761 0.0145113
0.0571756 0.031342 0.0149538
0.0875868 0.0278172 0.0159609
0.124544 0.0209659 0.0157168
0.172732 0.00915541 0.0189212
0.229053 0 0.0273442
0.297322 0 0.0350042
0.36968 0 0.0388952
0.445548 0 0.0415808
0.525505 0 0.0457771
0.60856 0 0.0543679
0.695262 0 0.0629282
0.782284 0 0.0670024
0.851713 0 0.0647746
0.888808 0 0.0773938
0.892485 0 0.088777
0.898833 0 0.10985
0.90573 0 0.135683
0.90573 0 0.135683
0.90573 0 0.135683
0.90573 0 0.135683
0.90573 0 0.135683
0.90573 0 0.135683
0.90573 0 0.135683
0.90573 0 0.135683
0.90573 0 0.135683
0.90573 0 0.135683
0.90573 0 0.135683
0.0136568 0.0504616 0.0237583
0.0135653 0.049546 0.023209
0.0133059 0.0481422 0.0205234
0.0132753 0.0461128 0.0151064
0.0217136 0.0460975 0.0142061
0.0366369 0.0478218 0.0148318
0.0582742 0.0468605 0.0165103
0.0891737 0.0440681 0.0177768
0.127016 0.0360418 0.0186007
0.174304 0.0272374 0.0182956
0.23415 0.0108797 0.0184787
0.301305 0.000457771 0.0279545
0.369039 0 0.035111
0.437339 0 0.0411841
0.517464 0 0.045304
0.598718 0 0.0499275
0.680842 0 0.0527047
0.7673 0 0.0598764
0.842878 0 0.0623178
0.88838 0 0.0760204
0.892134 0 0.0876326
0.898466 0 0.108568
0.90573 0 0.135683
0.90573 0 0.135683
0.90573 0 0.135683
0.90573 0 0.135683
0.90573 0 0.135683
0.90573 0 0.135683
0.90573 0 0.135683
0.90573 0 0.135683
0.90573 0 0.135683
0.90573 0 0.135683
0.90573 0 0.135683
0.0151217 0.076936 0.0314183
0.0150149 0.0761273 0.0303655
0.0149386 0.0748608 0.0299077
0.0146334 0.0719463 0.0240635
0.0146944 0.070222 0.0163272
0.0300298 0.0725719 0.0161288
0.0503853 0.0743725 0.0170291
0.0871138 0.0724804 0.0192416
0.127275 0.0662394 0.0212863
0.179324 0.0519112 0.0225071
0.237446 0.0409857 0.0222171
0.306706 0.0243992 0.0215457
0.377172 0.00421149 0.0230869
0.445289 0 0.0327153
0.518395 0 0.0405585
0.594339 0 0.0475471
0.675135 0 0.0492866
0.759731 0 0.0503243
0.837705 0 0.0580453
0.887343 0 0.0722515
0.891081 0 0.0837262
0.895399 0 0.0973983
0.903578 0 0.126619
0.905058 0 0.132631
0.905333 0 0.133944
0.905638 0 0.135164
0.90573 0 0.135683
0.90573 0 0.135683
0.90573 0 0.135683
0.90573 0 0.135683
0.90573 0 0.135683
0.90573 0 0.135683
0.90573 0 0.135683
0.0162966 0.109453 0.0396887
0.0161593 0.108644 0.0376745
0.0161288 0.1075 0.0374609
0.0159304 0.105119 0.0334783
0.0159609 0.102068 0.0263676
0.0161593 0.103044 0.0166781
0.0382086 0.105928 0.0177615
0.0714122 0.107881 0.018967
0.120333 0.105165 0.0211795
0.177493 0.0971695 0.0245518
0.24332 0.0749676 0.028275
0.315251 0.0604562 0.0281376
0.383886 0.0441444 0.0287938
0.452155 0.0248875 0.0278172
0.525704 0 0.0247044
0.601007 0 0.0335241
0.674571 0 0.0434119
0.758267 0 0.046067
0.833356 0 0.0492561
0.885664 0 0.0656596
0.889632 0 0.0778515
0.893553 0 0.0900893
0.897627 0 0.102922
0.901381 0 0.117067
0.903014 0 0.123827
0.903853 0 0.127398
0.904128 0 0.128603
0.904387 0 0.129656
0.904585 0 0.130602
0.904753 0 0.131273
0.904921 0 0.131945
0.905028 0 0.132555
0.905165 0 0.133059
0.016846 0.150347 0.0463569
0.0168154 0.149584 0.0442664
0.0168002 0.148241 0.0441138
0.0167697 0.146746 0.0432593
0.0168307 0.143191 0.0356909
0.0170443 0.140322 0.0258488
0.0172427 0.142443 0.0180362
0.048127 0.147723 0.0191501
0.0967575 0.150088 0.0203098
0.161883 0.145464 0.0228428
0.238407 0.137301 0.0280919
0.318868 0.108095 0.0361181
0.392538 0.0938888 0.035462
0.461448 0.0770581 0.0359655
0.531548 0.0554971 0.0346838
0.607477 0.0229191 0.0298314
0.684504 0 0.0247349
0.762631 0 0.0317998
0.83125 0 0.0428779
0.883513 0 0.0470588
0.887572 0 0.0694285
0.891371 0 0.0806287
0.895262 0 0.0936141
0.897063 0 0.099733
0.89749 0 0.10132
0.897826 0 0.102785
0.898146 0 0.104005
0.898375 0 0.104662
0.899275 0 0.108522
0.900282 0 0.112749
0.901183 0 0.11632
0.901946 0 0.119371
0.902541 0 0.121828
0.0175479 0.204425 0.0556497
0.0175784 0.20383 0.051194
0.0175631 0.202502 0.0508431
0.0175326 0.201068 0.0506447
0.0175479 0.198276 0.0468605
0.0177462 0.193881 0.0384375
0.0180972 0.193622 0.0250553
0.0233463 0.194995 0.0196536
0.0628519 0.20322 0.0207218
0.126665 0.206073 0.0223392
0.214221 0.198764 0.0258946
0.3084 0.194202 0.0311742
0.394934 0.164019 0.0449378
0.468482 0.147402 0.0467384
0.540627 0.13196 0.0467231
0.61622 0.107866 0.0431983
0.694575 0.0704356 0.0392004
0.774166 0.0228733 0.0339818
0.842084 0 0.0253452
0.887465 0 0.0331731
0.885191 0 0.0437018
0.888624 0 0.0695354
0.891905 0 0.0798047
0.894026 0 0.0877089
0.894545 0 0.0897536
0.895018 0 0.0916152
0.89546 0 0.0934157
0.895811 0 0.0947585
0.896101 0 0.096025
0.896376 0 0.0970779
0.896605 0 0.0979934
0.896803 0 0.0987259
0.896941 0 0.0992599
0.0192721 0.2701 0.0714427
0.0193332 0.270542 0.0647288
0.0193027 0.2692 0.0640726
0.0192569 0.267735 0.0637217
0.0192111 0.266209 0.0632639
0.0192721 0.261784 0.0551156
0.019379 0.256184 0.0444343
0.019913 0.259297 0.0247349
0.0316167 0.260426 0.0219425
0.0856031 0.271778 0.0238804
0.166232 0.274678 0.0276341
0.276646 0.26453 0.0328832
0.379461 0.266773 0.0324559
0.467109 0.245655 0.0505684
0.544594 0.218219 0.0644846
0.621988 0.201923 0.0608377
0.701823 0.179202 0.0571298
0.78027 0.150942 0.054551
0.848997 0.110277 0.049073
0.895079 0.0310369 0.0375525
0.892073 0 0.0252842
0.887388 0 0.0379797
0.888716 0 0.0655985
0.890364 0 0.0724651
0.890852 0 0.0744488
0.89131 0 0.0763561
0.891707 0 0.0779431
0.892012 0 0.0792401
0.892348 0 0.0806134
0.892653 0 0.0818952
0.892927 0 0.0829938
0.893111 0 0.0837415
0.893309 0 0.084535
0.0217746 0.347356 0.0948348
0.0218051 0.348562 0.0877089
0.0218051 0.34818 0.0851759
0.0217594 0.346761 0.0847334
0.0216983 0.345296 0.0842908
0.0216373 0.342931 0.0809491
0.0216526 0.337865 0.068986
0.0218204 0.334524 0.0542458
0.0222934 0.337789 0.025803
0.0451057 0.339971 0.0258183
0.115419 0.352071 0.0293278
0.218158 0.354559 0.0360876
0.347677 0.341924 0.0451514
0.449409 0.345144 0.0466468
0.537728 0.336828 0.0543679
0.61941 0.315358 0.0701305
0.701289 0.28336 0.0807965
0.781506 0.263706 0.0767376
0.850935 0.240757 0.0721752
0.904173 0.200275 0.063447
0.903273 0.150454 0.0550851
0.896834 0.0640269 0.042359
0.891386 0 0.0212558
0.887053 0 0.051133
0.888151 0 0.0580453
0.88835 0 0.059968
0.888624 0 0.0618601
0.888853 0 0.063508
0.889067 0 0.0649271
0.88922 0 0.0658427
0.889372 0 0.0667887
0.889464 0 0.0675822
0.88957 0 0.0682994
0.0242618 0.427543 0.125612
0.0243992 0.428901 0.118624
0.0244755 0.429725 0.113451
0.0244297 0.428473 0.112963
0.0243839 0.427085 0.112444
0.0243381 0.425467 0.111818
0.0242924 0.422431 0.104936
0.0242466 0.416861 0.0907912
0.0245365 0.417517 0.0699321
0.0247654 0.419135 0.0287785
0.0673381 0.424094 0.030869
0.157092 0.433661 0.0367285
0.283742 0.434638 0.0454261
0.419242 0.419348 0.0635843
0.51812 0.422171 0.0631571
0.608682 0.420447 0.0540475
0.692729 0.40325 0.0717632
0.776699 0.37673 0.0904097
0.849439 0.34818 0.101289
0.90457 0.327199 0.0941024
0.916014 0.298711 0.0855726
0.912871 0.257877 0.0754253
0.90779 0.191135 0.0618143
0.896757 0.062501 0.042237
0.894118 0.0104829 0.0342412
0.892943 0 0.0295262
0.892012 0 0.0249638
0.89134 0 0.0209812
0.890776 0 0.0267796
0.889265 0 0.0313878
0.88864 0 0.0336919
0.888228 0 0.0349432
0.887907 0 0.0359503
0.0248569 0.510582 0.16434
0.0253452 0.512093 0.15668
0.0257725 0.51368 0.149538
0.0258335 0.512917 0.148104
0.0258335 0.511772 0.147494
0.0258488 0.510338 0.146868
0.0258488 0.508782 0.146288
0.0261387 0.504463 0.133837
0.0263371 0.498894 0.117021
0.0264134 0.503975 0.0911421
0.0293736 0.505165 0.0316167
0.1028 0.509773 0.0362402
0.214786 0.514977 0.0466316
0.357321 0.513848 0.0548257
0.487892 0.496086 0.0842298
0.586923 0.498863 0.0746471
0.678538 0.498451 0.0618601
0.764126 0.488823 0.0738231
0.839536 0.47042 0.0943465
0.900465 0.44715 0.109224
0.924117 0.419989 0.114885
0.923461 0.390387 0.114427
0.920699 0.356222 0.103273
0.91632 0.303639 0.0869154
0.913466 0.265843 0.0773175
0.912337 0.250217 0.0736706
0.911177 0.235386 0.0703136
0.910201 0.221408 0.0675059
0.90927 0.208408 0.0650492
0.908217 0.196353 0.0626993
0.90724 0.18616 0.0609293
0.906233 0.177218 0.0594644
0.905318 0.16907 0.0581369
0.0220188 0.594324 0.210452
0.0230259 0.595743 0.202014
0.0240024 0.597269 0.193912
0.0245212 0.597833 0.189181
0.0245365 0.59675 0.18854
0.0245518 0.595514 0.187793
0.024567 0.593988 0.186984
0.0248875 0.591608 0.182849
0.026215 0.586969 0.165667
0.0271305 0.583963 0.143603
0.0279545 0.589593 0.10985
0.0619364 0.590616 0.0438087
0.148318 0.593698 0.0427253
0.286015 0.595911 0.0589456
0.428901 0.594522 0.0670634
0.559442 0.579965 0.0968338
0.653529 0.576135 0.0917678
0.74287 0.574334 0.0843366
0.82298 0.573266 0.0729992
0.885161 0.563348 0.0905318
0.926101 0.544305 0.103655
0.925643 0.52665 0.106325
0.925185 0.504341 0.108843
0.92462 0.468544 0.112093
0.924224 0.429633 0.114458
0.924147 0.416831 0.115084
0.923903 0.404089 0.11545
0.923735 0.393057 0.115465
0.923125 0.385946 0.112902
0.922469 0.378973 0.110567
0.922194 0.373175 0.108797
0.921614 0.367864 0.106996
0.921294 0.363561 0.105653
0.0204776 0.677012 0.262043
0.0220798 0.678218 0.253162
0.0236057 0.679698 0.2448
0.0251011 0.681331 0.236439
0.0252079 0.680613 0.235279
0.0251774 0.679438 0.234577
0.0251469 0.67834 0.233936
0.0250858 0.676707 0.233097
0.0262608 0.673243 0.222751
0.0286107 0.667933 0.201373
0.0314641 0.668009 0.172137
0.0441138 0.673213 0.124926
0.112062 0.673884 0.0592813
0.216434 0.676158 0.0565652
0.36939 0.676371 0.0822156
0.499199 0.674861 0.0875257
0.629389 0.665644 0.107652
0.717311 0.65156 0.116945
0.799695 0.651377 0.110689
0.865751 0.652628 0.0968338
0.917983 0.648829 0.0840467
0.930129 0.635081 0.0890669
0.92903 0.619852 0.0913863
0.9281 0.601999 0.0943923
0.926986 0.576547 0.0983597
0.926787 0.569039 0.0996414
0.92639 0.561547 0.100618
0.926375 0.55494 0.102052
0.926085 0.54873 0.102815
0.925963 0.543206 0.103731
0.925856 0.538247 0.104692
0.925765 0.534096 0.105272
0.925734 0.530343 0.105837
0.0231785 0.758831 0.31725
0.0251011 0.760113 0.308202
0.0271305 0.76173 0.299382
0.0291295 0.763394 0.290547
0.0303807 0.764309 0.284779
0.0301976 0.763149 0.284153
0.030045 0.761929 0.283391
0.0299992 0.760647 0.282872
0.0295872 0.758907 0.281773
0.0318608 0.753857 0.262852
0.0344549 0.747784 0.236759
0.0472419 0.752239 0.198749
0.0712291 0.756497 0.124971
0.174014 0.755184 0.0731212
0.304646 0.756848 0.0833295
0.449134 0.755856 0.114458
0.567529 0.753628 0.112444
0.692515 0.746136 0.126375
0.776059 0.727337 0.147524
0.84477 0.730755 0.137163
0.897948 0.732021 0.134813
0.939437 0.722713 0.12105
0.937957 0.711101 0.113222
0.936584 0.69926 0.104509
0.934829 0.685618 0.0946517
0.933883 0.677699 0.08925
0.93344 0.673579 0.0864576
0.93283 0.669398 0.0846723
0.932464 0.665156 0.0851453
0.932174 0.661677 0.0855879
0.931899 0.65832 0.0859541
0.931655 0.655436 0.086305
0.931411 0.653086 0.0864881
0.0337072 0.835798 0.367712
0.0357671 0.837201 0.359487
0.0378119 0.838712 0.350958
0.0399023 0.840406 0.342336
0.0421759 0.842374 0.333165
0.0423133 0.841764 0.331594
0.0421302 0.840757 0.330968
0.0419623 0.839628 0.330266
0.0417182 0.838193 0.329366
0.0423285 0.836133 0.323705
0.0453346 0.831022 0.298558
0.0498817 0.827405 0.266255
0.0737926 0.833219 0.214679
0.125704 0.835081 0.112749
0.255482 0.830076 0.0928664
0.399985 0.832013 0.116472
0.524071 0.830716 0.137514
0.633402 0.828626 0.137865
0.750027 0.823026 0.151904
0.825895 0.804303 0.184436
0.880659 0.809537 0.164569
0.929046 0.807553 0.164508
0.949783 0.79733 0.159487
0.948196 0.785229 0.153841
0.946517 0.773587 0.148119
0.945052 0.762966 0.143084
0.944457 0.758923 0.141146
0.943801 0.755306 0.139208
0.943572 0.752194 0.137697
0.943038 0.74931 0.136065
0.942657 0.746624 0.134691
0.942306 0.744411 0.133471
0.942184 0.742779 0.132631
0.0441749 0.897475 0.409964
0.0460975 0.898421 0.401312
0.0480507 0.899962 0.393332
0.0501106 0.901396 0.385138
0.052491 0.903151 0.376471
0.0540169 0.904067 0.370062
0.0538796 0.903349 0.369604
0.053727 0.902525 0.369055
0.0534218 0.901518 0.368338
0.0531624 0.900267 0.367468
0.0551461 0.897597 0.353307
0.0590219 0.892836 0.324605
0.0755627 0.893507 0.282628
0.104143 0.898329 0.208881
0.222278 0.894072 0.119448
0.362158 0.89099 0.122728
0.486778 0.891783 0.148974
0.59649 0.8916 0.158495
0.697429 0.890745 0.162646
0.804303 0.887434 0.177646
0.861997 0.869978 0.208667
0.914199 0.8719 0.209323
0.952834 0.86862 0.196033
0.958816 0.861708 0.192493
0.957092 0.852552 0.187411
0.955413 0.843366 0.182406
0.955077 0.840009 0.180667
0.954711 0.837232 0.179202
0.954406 0.834684 0.177859
0.954147 0.832532 0.176715
0.953979 0.830808 0.175753
0.953796 0.828962 0.174823
0.953628 0.827604 0.174151
0.0542458 0.941649 0.444358
0.0550393 0.942519 0.435233
0.0570535 0.943313 0.4262
0.0589761 0.944518 0.418006
0.0610819 0.945815 0.40914
0.0638132 0.947509 0.399023
0.0639658 0.947265 0.397757
0.063859 0.946746 0.397314
0.0635843 0.946075 0.396765
0.0635233 0.945464 0.396414
0.063508 0.944488 0.394614
0.0670176 0.941421 0.370398
0.0761273 0.938079 0.337423
0.105882 0.941054 0.277501
0.146014 0.94345 0.160601
0.33489 0.934188 0.130373
0.460807 0.935424 0.152911
0.568414 0.935805 0.179141
0.665354 0.936965 0.179049
0.759487 0.93698 0.188556
0.846845 0.937316 0.199893
0.896498 0.925902 0.223453
0.941375 0.917144 0.248951
0.967834 0.914 0.234989
0.967025 0.908919 0.226001
0.965911 0.902525 0.220615
0.965286 0.898466 0.21738
0.964996 0.896834 0.216083
0.964721 0.895308 0.214908
0.964508 0.893889 0.213809
0.964263 0.892561 0.212879
0.964126 0.891676 0.212116
0.96405 0.890852 0.211475
0.058381 0.958968 0.468025
0.0588083 0.958694 0.458518
0.0592813 0.958434 0.448463
0.0605631 0.958221 0.438483
0.0621958 0.957855 0.428931
0.0642863 0.957458 0.417365
0.0655375 0.957168 0.410346
0.065568 0.957214 0.410254
0.0655833 0.957198 0.410132
0.0655985 0.957153 0.409964
0.0656443 0.957137 0.409751
0.0677195 0.956786 0.398154
0.0758831 0.956069 0.369863
0.0996719 0.955642 0.323934
0.137545 0.955261 0.232975
0.279103 0.954406 0.144793
0.447501 0.953033 0.155444
0.545968 0.952499 0.179187
0.637751 0.953231 0.187579
0.725002 0.95462 0.191608
0.81236 0.954589 0.202472
0.875563 0.954513 0.209781
0.922988 0.934691 0.246647
0.95906 0.936736 0.269169
0.971771 0.93753 0.282368
0.971572 0.937041 0.263615
0.971466 0.936767 0.253681
0.971466 0.936767 0.253681
0.971344 0.936248 0.253056
0.971176 0.935409 0.252186
0.971084 0.934783 0.251438
0.971054 0.934203 0.250874
0.970977 0.933715 0.250355
0.0605478 0.95935 0.482429
0.0591135 0.95906 0.472419
0.0586709 0.958831 0.462074
0.059144 0.958556 0.451438
0.0602884 0.958221 0.439887
0.062501 0.957763 0.427359
0.0649577 0.957321 0.41355
0.0649424 0.957275 0.413596
0.0649424 0.957275 0.413596
0.0649424 0.957275 0.413596
0.0649424 0.957275 0.413596
0.0650339 0.957305 0.413123
0.0740215 0.95668 0.387579
0.093492 0.956359 0.352056
0.131518 0.955627 0.276631
0.204517 0.955184 0.167498
0.417914 0.953353 0.154025
0.532418 0.952697 0.17702
0.616358 0.952926 0.187289
0.696941 0.954238 0.189868
0.773419 0.955139 0.196811
0.844388 0.95433 0.206302
0.908049 0.944671 0.225681
0.94342 0.935515 0.251942
0.969619 0.937179 0.271031
0.971771 0.93756 0.280415
0.971801 0.937728 0.286915
0.971786 0.93756 0.284047
0.971786 0.937591 0.283207
0.971786 0.937575 0.282536
0.971771 0.937514 0.28191
0.971771 0.937591 0.281331
0.971771 0.937575 0.280827
0.0724651 0.960433 0.49131
0.0705119 0.960021 0.480964
0.0686809 0.959594 0.469734
0.0667887 0.959197 0.45832
0.0651408 0.958709 0.445396
0.0646067 0.95816 0.430594
0.0678264 0.957565 0.414633
0.0689097 0.957366 0.40885
0.0687266 0.957321 0.408942
0.068513 0.957366 0.409171
0.0681926 0.957366 0.409384
0.0678721 0.957366 0.409659
0.0758831 0.95729 0.396185
0.0948653 0.956924 0.363745
0.126665 0.955901 0.304402
0.167056 0.955154 0.180804
0.362295 0.95378 0.150622
0.521263 0.952895 0.176867
0.60206 0.952575 0.18706
0.675792 0.953902 0.18883
0.744579 0.955184 0.193149
0.805814 0.954589 0.201587
0.889921 0.954498 0.210468
0.928374 0.934615 0.242222
0.958465 0.9364 0.257252
0.971664 0.93727 0.2701
0.971756 0.937469 0.276631
0.971771 0.937514 0.280446
0.971771 0.937575 0.280629
0.971771 0.937575 0.280751
0.971771 0.93753 0.280903
0.971771 0.93753 0.281041
0.971771 0.937575 0.281117
0.0893721 0.961044 0.491798
0.0867628 0.960693 0.480751
0.0841993 0.96022 0.468711
0.0816968 0.95996 0.45658
0.0794232 0.959411 0.443061
0.0780957 0.958541 0.426444
0.0797742 0.957946 0.40618
0.082414 0.957397 0.391241
0.082063 0.957412 0.391791
0.0816663 0.957443 0.392447
0.081178 0.957412 0.393149
0.080705 0.957427 0.393851
0.0825513 0.957397 0.391028
0.101213 0.956939 0.361486
0.12639 0.956161 0.315053
0.164599 0.955352 0.201801
0.316075 0.954208 0.151202
0.502892 0.952895 0.172107
0.596658 0.95259 0.187137
0.660121 0.953704 0.188357
0.718853 0.954742 0.191257
0.769085 0.955184 0.196017
0.861814 0.95436 0.208408
0.913481 0.93724 0.23566
0.947784 0.935439 0.247456
0.969009 0.936873 0.261585
0.971649 0.937194 0.268803
0.971664 0.93727 0.273548
0.971679 0.937331 0.274296
0.971679 0.937285 0.274418
0.971679 0.937285 0.27451
0.971679 0.937331 0.274586
0.971679 0.937346 0.274678
0.107378 0.961257 0.484001
0.104585 0.961044 0.472007
0.101503 0.960555 0.458625
0.0990005 0.959945 0.444068
0.0970779 0.959396 0.428153
0.0942092 0.958419 0.40763
0.0965744 0.957565 0.384253
0.100649 0.956863 0.357229
0.100649 0.956863 0.357229
0.100649 0.956863 0.357229
0.100649 0.956863 0.357229
0.0999771 0.956863 0.358679
0.0990463 0.956954 0.360586
0.113375 0.956436 0.33846
0.135103 0.955978 0.294942
0.16495 0.955322 0.199268
0.30454 0.954314 0.15317
0.482612 0.952956 0.163043
0.588388 0.952499 0.187137
0.644877 0.953353 0.187747
0.689616 0.954223 0.189563
0.745861 0.955154 0.193225
0.83682 0.954543 0.20557
0.903929 0.949767 0.218143
0.936233 0.934905 0.243854
0.961624 0.936431 0.253819
0.971572 0.937026 0.263157
0.971649 0.937179 0.267857
0.971649 0.937224 0.269902
0.971664 0.93727 0.269978
0.971664 0.93727 0.270024
0.971664 0.93727 0.270069
0.971664 0.93727 0.270176
0.108965 0.961532 0.491188
0.106188 0.961151 0.47924
0.103456 0.96083 0.466667
0.100053 0.960327 0.452216
0.0979324 0.959609 0.436454
0.0953994 0.958846 0.416587
0.0951553 0.957824 0.392401
0.0996719 0.957122 0.364355
0.100649 0.956863 0.357229
0.100649 0.956863 0.357229
0.100649 0.956863 0.357229
0.100649 0.956863 0.357229
0.100649 0.956863 0.357229
0.11133 0.956542 0.339651
0.136278 0.955779 0.286641
0.163088 0.955261 0.196628
0.295674 0.954391 0.152438
0.464103 0.953002 0.158694
0.575128 0.952255 0.187243
0.623453 0.953094 0.187472
0.656443 0.953643 0.188205
0.727733 0.954772 0.191821
0.815457 0.954559 0.202914
0.889708 0.954498 0.210452
0.923964 0.934417 0.241321
0.953521 0.935729 0.248096
0.971359 0.936889 0.259083
0.971572 0.937041 0.263691
0.971633 0.937148 0.266712
0.971633 0.937148 0.266743
0.971633 0.937148 0.266743
0.971633 0.937148 0.266789
0.971633 0.937148 0.266835
0.110521 0.961685 0.497551
0.107774 0.961318 0.485756
0.104921 0.961089 0.473457
0.101823 0.960601 0.459907
0.0990005 0.959945 0.444007
0.0966201 0.959197 0.424445
0.0938125 0.958099 0.399695
0.0984665 0.957168 0.372045
0.100649 0.956863 0.357229
0.100649 0.956863 0.357229
0.100649 0.956863 0.357229
0.100649 0.956863 0.357229
0.100649 0.956863 0.357229
0.104677 0.956771 0.350683
0.129671 0.955917 0.301717
0.156008 0.955474 0.224552
0.263951 0.954849 0.159594
0.429007 0.953124 0.151385
0.559136 0.952453 0.183001
0.616922 0.952926 0.187304
0.650385 0.95349 0.187961
0.713176 0.954589 0.190951
0.798917 0.954864 0.200717
0.87715 0.954513 0.209857
0.915862 0.934112 0.239872
0.947906 0.935454 0.246525
0.967636 0.936645 0.256199
0.971557 0.937011 0.262379
0.971633 0.937179 0.265858
0.971633 0.937148 0.266392
0.971633 0.937148 0.266392
0.971633 0.937148 0.266392
0.971633 0.937148 0.266392
0.112108 0.961868 0.50338
0.109026 0.961486 0.491524
0.106249 0.961151 0.47924
0.10338 0.960815 0.466438
0.100114 0.960235 0.450706
0.0973983 0.959487 0.431479
0.0941024 0.958389 0.40676
0.0974289 0.957366 0.378775
0.100649 0.956863 0.357229
