bundles/resolve-cinematic-luts/Phantom Luts/Ursa G2 Phntm Arri LUTs - V1/Gen5/Standard (No WB Offset)/Neutral Ursa V1 - Gen5.cube
TITLE "Generated by Resolve"
LUT_3D_SIZE 5
0.0106355 0.0106355 0.0106355
0.158267 0.00282292 0.0224002
0.717937 0 0.0661784
0.90573 0 0.135683
0.90573 0 0.135683
0.016846 0.150347 0.0463569
0.0967575 0.150088 0.0203098
0.684504 0 0.0247349
0.89749 0 0.10132
0.902541 0 0.121828
0.0231785 0.758831 0.31725
0.0295872 0.758907 0.281773
0.567529 0.753628 0.112444
0.934829 0.685618 0.0946517
0.931411 0.653086 0.0864881
0.107378 0.961257 0.484001
0.100649 0.956863 0.357229
0.30454 0.954314 0.15317
0.936233 0.934905 0.243854
0.971664 0.93727 0.270176
0.116518 0.962509 0.521996
0.0990768 0.957122 0.368154
0.160754 0.955352 0.206363
0.889189 0.954498 0.210437
0.971633 0.937148 0.266392
0.0259709 0.0129397 0.137331
0.183261 0.0162814 0.14229
0.793393 0 0.226658
0.90399 0 0.127657
0.904219 0 0.128725
0.0213321 0.115404 0.10959
0.113436 0.113436 0.113481
0.6963 0 0.0780499
0.903029 0 0.123827
0.905058 0 0.132433
0.0100404 0.711604 0.432197
0.0170138 0.720516 0.31313
0.55375 0.729809 0.105516
0.930541 0.639261 0.0886244
0.928161 0.602838 0.0942397
0.131914 0.963867 0.615991
0.105287 0.961852 0.508721
0.184909 0.955306 0.180499
0.931151 0.934691 0.242741
0.971664 0.93727 0.271565
0.145403 0.964126 0.641474
0.120241 0.962737 0.53901
0.130205 0.955856 0.30045
0.862608 0.954421 0.208545
0.971633 0.937148 0.266392
0.181888 0.022034 0.660319
0.372854 0.0225223 0.660883
0.832212 0.0233616 0.710216
0.921721 0.0265049 0.782116
0.921782 0.0264744 0.779431
0.0807965 0.0187991 0.604685
0.2383 0.023209 0.643275
0.786221 0.0221103 0.672694
0.922789 0.0257725 0.725536
0.923064 0.0256657 0.716625
0.0226902 0.651377 0.629969
0.0209201 0.64268 0.621592
0.633371 0.633371 0.633417
0.935256 0.571847 0.545083
0.934524 0.530343 0.512398
0.337713 0.954406 0.846403
0.26981 0.956695 0.823255
0.26804 0.964324 0.682567
0.94342 0.943648 0.456596
0.971679 0.937346 0.2748
0.464057 0.950973 0.869657
0.407797 0.954116 0.845899
0.149569 0.964248 0.656321
0.866041 0.956359 0.325902
0.971633 0.937133 0.26566
0.630198 0.0973831 0.924147
0.689143 0.091371 0.928923
0.938491 0.130159 0.944564
0.934813 0.0678111 0.934813
0.941512 0.107897 0.941512
0.583368 0.0776074 0.91342
0.608408 0.063386 0.911803
0.900282 0.102403 0.94168
0.933165 0.062974 0.933165
0.933471 0.0638285 0.933471
0.0370947 0.587457 0.919539
0.191104 0.571847 0.929839
0.761486 0.532464 0.948379
0.958953 0.457572 0.958953
0.959762 0.388128 0.959762
0.486976 0.937957 0.926284
0.474479 0.93695 0.925002
0.540139 0.933211 0.922301
0.947417 0.947402 0.947463
0.96875 0.944533 0.945434
0.68864 0.949416 0.9411
0.680888 0.949218 0.939529
0.64799 0.948074 0.93167
0.927596 0.970306 0.953628
0.973785 0.973739 0.94197
0.695171 0.172732 0.942641
0.761685 0.190677 0.949233
0.955261 0.235294 0.955261
0.946426 0.146639 0.946426
0.946426 0.146639 0.946426
0.651881 0.156695 0.937118
0.702296 0.174884 0.943389
0.93431 0.228641 0.955154
0.946426 0.146639 0.946426
0.946426 0.146639 0.946426
0.561547 0.574884 0.927321
0.584375 0.53814 0.931975
0.82649 0.502556 0.954086
0.95906 0.454749 0.95906
0.959854 0.400824 0.959854
0.660121 0.931121 0.943954
0.654948 0.928603 0.943282
0.672145 0.921324 0.942611
0.953353 0.935775 0.967926
0.968704 0.933852 0.968704
0.760037 0.953368 0.953414
0.760037 0.953368 0.953414
0.760037 0.953368 0.953414
0.940017 0.970321 0.970275
0.974533 0.974533 0.974578
