bundles/resolve-cinematic-luts/Phantom Luts/Ursa G2 Phntm Arri LUTs - V1/Gen5/Standard (No WB Offset)/Tungsten Ursa V1 - Gen5.cube
TITLE "Generated by Resolve"
LUT_3D_SIZE 33
0.00947585 0.00981155 0.0162966
0.00947585 0.00973526 0.0161135
0.00950637 0.00953689 0.015671
0.0108034 0.00927749 0.0149996
0.0216678 0.00978103 0.0158389
0.0360571 0.0103609 0.0168154
0.0576181 0.0101472 0.0182345
0.0864424 0.00939956 0.0215152
0.12311 0.00695811 0.0262303
0.17116 0.00424201 0.0322728
0.232319 0.00486763 0.0400397
0.303227 0.00672923 0.0479438
0.374914 0.00895705 0.0546578
0.446937 0.0117494 0.0620584
0.518471 0.0158236 0.0749218
0.582437 0.0222782 0.0873884
0.633341 0.0332494 0.10103
0.668162 0.0480964 0.113008
0.69163 0.0603342 0.124804
0.7019 0.0643931 0.13611
0.707164 0.0652323 0.147539
0.713909 0.0660716 0.163561
0.717083 0.0665599 0.171283
0.717083 0.0665599 0.171283
0.717083 0.0665599 0.171283
0.717083 0.0665599 0.171283
0.717083 0.0665599 0.171283
0.717128 0.0665904 0.171344
0.717205 0.0666209 0.171435
0.717433 0.066743 0.171771
0.717754 0.0668956 0.172259
0.718349 0.0671855 0.173159
0.718975 0.0674754 0.174105
0.00950637 0.00955215 0.0157168
0.00947585 0.00973526 0.0161288
0.00947585 0.00973526 0.0161135
0.00950637 0.00953689 0.015671
0.0159457 0.00979629 0.0156252
0.0298466 0.0103304 0.0163119
0.0496681 0.0103151 0.0173342
0.0800183 0.00950637 0.0206912
0.117021 0.00714122 0.0254826
0.165545 0.00421149 0.0314641
0.226566 0.00469978 0.0393378
0.298299 0.00662242 0.0475929
0.370733 0.00886549 0.0545815
0.443549 0.0116121 0.0618296
0.515709 0.0155947 0.0743267
0.580072 0.0219272 0.0868849
0.631861 0.0327611 0.100526
0.667231 0.0476081 0.112566
0.691096 0.0601358 0.124376
0.701823 0.0643778 0.135988
0.707027 0.0652018 0.14728
0.713817 0.066041 0.163363
0.717083 0.0665599 0.171283
0.717083 0.0665599 0.171283
0.717083 0.0665599 0.171283
0.717083 0.0665599 0.171283
0.717083 0.0665599 0.171283
0.717128 0.0665904 0.171344
0.717205 0.0666209 0.171435
0.717433 0.066743 0.171771
0.717754 0.0668956 0.172259
0.718364 0.0671855 0.173175
0.718975 0.0674754 0.174121
0.0102693 0.0117647 0.0172122
0.0102388 0.0119478 0.0175937
0.0100404 0.0115358 0.016907
0.0102083 0.0109102 0.0161746
0.0123598 0.0112001 0.0158389
0.0237583 0.0120546 0.0166934
0.0408026 0.0124208 0.0177157
0.0686046 0.0106508 0.0193942
0.104829 0.0080415 0.0241093
0.152499 0.00474556 0.0298924
0.21471 0.00450141 0.0378424
0.289494 0.0065156 0.0468605
0.36524 0.00866712 0.0543526
0.43888 0.0114443 0.0615702
0.51191 0.0153964 0.0738231
0.57731 0.0215305 0.0862898
0.630106 0.0323644 0.100221
0.666087 0.047013 0.112078
0.690379 0.0598306 0.123812
0.701671 0.0643473 0.135698
0.706844 0.065156 0.146914
0.713664 0.0660105 0.163058
0.717083 0.0665599 0.171283
0.717083 0.0665599 0.171283
0.717083 0.0665599 0.171283
0.717083 0.0665599 0.171283
0.717083 0.0665599 0.171283
0.717128 0.0665904 0.171344
0.717205 0.0666209 0.171435
0.717433 0.066743 0.171771
0.717754 0.0668956 0.172259
0.718364 0.0671855 0.173175
0.71899 0.0674754 0.174121
0.0128481 0.0202945 0.0220493
0.0128176 0.0205234 0.0224155
0.0123751 0.019791 0.0207065
0.011902 0.0180056 0.0189822
0.0158541 0.0180667 0.0184024
0.0257115 0.0196536 0.0191806
0.0404212 0.0200351 0.0202335
0.0644388 0.0180819 0.0209964
0.0988785 0.0131838 0.0235904
0.143404 0.00709545 0.0287175
0.202182 0.00459297 0.0366369
0.277089 0.00611887 0.0457313
0.354849 0.00851453 0.053727
0.430808 0.0113222 0.0610513
0.505776 0.0149691 0.0722057
0.573938 0.0211185 0.0855879
0.628534 0.0318914 0.0999466
0.665278 0.0466163 0.111925
0.689662 0.0594797 0.123308
0.701625 0.0643778 0.135515
0.706706 0.0651408 0.146609
0.713573 0.0660105 0.162799
0.717098 0.0665751 0.171313
0.717098 0.0665751 0.171313
0.717098 0.0665751 0.171313
0.717098 0.0665751 0.171313
0.717098 0.0665751 0.171313
0.717144 0.0665904 0.171359
0.71722 0.0666361 0.171466
0.717449 0.0667582 0.171786
0.717769 0.0669108 0.172274
0.718364 0.0671855 0.173175
0.71899 0.0674907 0.174136
0.0156863 0.0328222 0.0290837
0.0156252 0.0330816 0.0294957
0.0151217 0.0328832 0.0274205
0.0149538 0.0318608 0.0254215
0.0173495 0.0306706 0.0221408
0.0292515 0.0319219 0.0225223
0.0436866 0.0320287 0.023682
0.0674907 0.0299382 0.0247654
0.101106 0.0249027 0.0256352
0.14551 0.0160678 0.0290379
0.201343 0.0077821 0.0354009
0.270741 0.00596628 0.0442206
0.345815 0.00816358 0.0526589
0.420249 0.0108034 0.0598001
0.495842 0.0145266 0.0690776
0.566445 0.0201419 0.0820935
0.624094 0.0307317 0.0975204
0.663935 0.0460365 0.111482
0.688838 0.0590982 0.122759
0.701686 0.0644541 0.135485
0.706752 0.0652323 0.146487
0.713695 0.0661173 0.16286
0.717357 0.0667124 0.171664
0.717357 0.0667124 0.171664
0.717357 0.0667124 0.171649
0.717357 0.0667124 0.171649
0.717357 0.0667124 0.171649
0.717372 0.0667124 0.171679
0.717388 0.0667277 0.171695
0.71754 0.0667887 0.171923
0.7178 0.0669108 0.17232
0.718364 0.0671855 0.17319
0.71899 0.0674907 0.174136
0.01944 0.0488136 0.037583
0.019379 0.0491188 0.038056
0.0187991 0.0490578 0.0355077
0.0184634 0.0480049 0.0336614
0.0183108 0.0459754 0.0285191
0.0270695 0.0467994 0.0262455
0.0458839 0.047776 0.0269017
0.0700694 0.0469062 0.0284581
0.104417 0.0417029 0.0298772
0.15024 0.0323186 0.0306096
0.206928 0.0201267 0.0339208
0.274647 0.0101625 0.0407416
0.34435 0.00828565 0.049958
0.414588 0.010605 0.0584115
0.489616 0.0141146 0.0673533
0.558862 0.0194553 0.0772259
0.615534 0.0288853 0.0891737
0.658228 0.0437934 0.106554
0.686183 0.0578775 0.120531
0.701427 0.0644083 0.134936
0.706493 0.0652171 0.145846
0.713573 0.0661173 0.162493
0.717433 0.066743 0.171756
0.717433 0.066743 0.171756
0.717433 0.066743 0.171756
0.717433 0.066743 0.171756
0.717433 0.066743 0.171756
0.717433 0.066743 0.171756
0.717433 0.066743 0.171771
0.717556 0.066804 0.171954
0.7178 0.0669261 0.17232
0.718364 0.0671855 0.17319
0.719005 0.0674907 0.174151
0.0234226 0.0729229 0.0478065
0.0234073 0.0734264 0.0483864
0.0227817 0.0731518 0.0452583
0.0225681 0.0722515 0.0437934
0.0221714 0.0696574 0.0391394
0.0242924 0.0682994 0.0315709
0.0404059 0.0710155 0.0299992
0.0713207 0.071458 0.03122
0.106584 0.0686046 0.0330205
0.1552 0.0584878 0.0345769
0.214542 0.0454871 0.0364538
0.284291 0.0302129 0.0378882
0.354116 0.0152895 0.0444495
0.421073 0.0128176 0.0541543
0.488548 0.0140383 0.06392
0.554864 0.0190127 0.0747082
0.611627 0.0282444 0.0851301
0.653178 0.0426642 0.0984665
0.684047 0.0572061 0.117601
0.700359 0.064271 0.132509
0.704738 0.0649882 0.141894
0.711238 0.0657816 0.156924
0.716289 0.0665599 0.168994
0.717113 0.0666819 0.170993
0.717311 0.0667277 0.171466
0.717403 0.066743 0.171695
0.717433 0.066743 0.171771
0.717433 0.066743 0.171771
0.717433 0.066743 0.171771
0.71751 0.0667887 0.171893
0.717678 0.066865 0.172137
0.718044 0.0670329 0.172702
0.718456 0.0672313 0.173312
0.0263981 0.102525 0.0567025
0.0262608 0.103044 0.0574807
0.025803 0.102998 0.0548104
0.0256504 0.102281 0.0531777
0.025452 0.100343 0.0508888
0.0252842 0.0975662 0.0421912
0.0312505 0.0991531 0.0337072
0.0578012 0.102617 0.0336461
0.106081 0.102083 0.0357671
0.154788 0.0980392 0.0375982
0.222156 0.0823377 0.0417182
0.297993 0.065919 0.0458686
0.369574 0.0513161 0.0492103
0.43447 0.0333562 0.0526894
0.49633 0.0177157 0.0548714
0.558221 0.0197757 0.0663767
0.610483 0.028275 0.0813611
0.651987 0.0426184 0.0954757
0.681178 0.0566873 0.112032
0.698604 0.0640574 0.128588
0.702785 0.064744 0.137453
0.707195 0.0654307 0.146944
0.711971 0.0659495 0.158404
0.714626 0.0663462 0.164691
0.715496 0.0664836 0.166888
0.715999 0.0665446 0.16817
0.716274 0.0665751 0.168902
0.716472 0.0665904 0.169406
0.716625 0.0666209 0.169787
0.716823 0.0666819 0.170184
0.717083 0.0667735 0.170642
0.71751 0.0669566 0.171344
0.717968 0.0671855 0.17203
0.0270085 0.1393 0.0651408
0.0267491 0.139971 0.0660105
0.0262608 0.139849 0.0624857
0.026154 0.138979 0.0607156
0.026154 0.137789 0.0598306
0.0263371 0.134539 0.0532845
0.026627 0.132982 0.0418555
0.0384833 0.136019 0.0350652
0.0802625 0.141222 0.0344854
0.150637 0.139406 0.0385595
0.218906 0.135042 0.0409857
0.305592 0.114427 0.0513313
0.386069 0.0981155 0.0565042
0.455253 0.0835279 0.0610208
0.517617 0.0643626 0.0630808
0.570443 0.0352331 0.064271
0.612406 0.0301213 0.0687572
0.650599 0.0433661 0.0886244
0.678508 0.0565194 0.105898
0.694957 0.0638285 0.119783
0.700435 0.0644694 0.132021
0.704585 0.065095 0.140948
0.707622 0.0655985 0.147585
0.708949 0.0656901 0.150805
0.709621 0.0656901 0.15256
0.710079 0.0657511 0.153597
0.710674 0.0658274 0.155093
0.711635 0.0659342 0.157473
0.712535 0.0660716 0.159579
0.713344 0.0662089 0.16144
0.714076 0.0663462 0.163104
0.714809 0.0665599 0.164599
0.715419 0.0668193 0.165591
0.024094 0.185458 0.0733806
0.0237888 0.186236 0.0745251
0.023209 0.186343 0.0688029
0.0230564 0.186023 0.0652628
0.0230411 0.184863 0.0652323
0.0234531 0.182544 0.0624552
0.0239872 0.178882 0.0514687
0.0243534 0.178561 0.0383764
0.0480354 0.18381 0.0331426
0.108064 0.191135 0.030808
0.209064 0.187045 0.0390631
0.297337 0.186862 0.0422675
0.394278 0.162615 0.0612497
0.473762 0.150408 0.0690929
0.545586 0.136904 0.0748608
0.608728 0.113664 0.0780957
0.647898 0.0811627 0.0824292
0.660746 0.0550088 0.0892653
0.677943 0.0584573 0.0975357
0.692103 0.0644236 0.110185
0.696345 0.064332 0.121599
0.70135 0.0647898 0.133349
0.704402 0.0652018 0.140032
0.705684 0.0653849 0.14287
0.70631 0.0654459 0.144335
0.706783 0.065507 0.14551
0.70721 0.0655375 0.146563
0.707515 0.0656138 0.147234
0.707942 0.0656748 0.148226
0.708339 0.0657359 0.149081
0.708675 0.0658122 0.149752
0.70898 0.06598 0.150134
0.709148 0.0661631 0.150134
0.0160983 0.23946 0.0827649
0.015671 0.240497 0.0841382
0.0148775 0.24094 0.0757763
0.0146944 0.240818 0.0704356
0.014847 0.239933 0.0700542
0.0150301 0.238254 0.0689097
0.0156863 0.234028 0.0613107
0.0160983 0.231861 0.0450141
0.0203098 0.232624 0.0294499
0.0604868 0.240803 0.0252995
0.143923 0.248951 0.0225223
0.28014 0.243748 0.0389715
0.381643 0.252354 0.0398413
0.47509 0.238239 0.0628824
0.559213 0.218387 0.0854353
0.635523 0.204318 0.0913405
0.696452 0.184329 0.100618
0.728557 0.15938 0.114534
0.723384 0.118547 0.117067
0.699916 0.0755016 0.108385
0.691951 0.0652476 0.106798
0.697017 0.0647746 0.121782
0.700771 0.0649577 0.131304
0.702083 0.0651102 0.134249
0.702663 0.0651865 0.135561
0.703182 0.0652476 0.136751
0.703655 0.0652934 0.137819
0.704051 0.0653544 0.138674
0.704387 0.0653849 0.139467
0.704616 0.0654307 0.139971
0.704738 0.0654459 0.14023
0.704906 0.0655222 0.14049
0.705074 0.0656443 0.140642
0.00209049 0.299565 0.0917067
0.0015259 0.30042 0.0929122
0.000427253 0.301015 0.0843214
0 0.301381 0.0772259
0 0.300908 0.0755016
0.000427253 0.299977 0.0755322
0.000564584 0.297902 0.0707866
0.00103761 0.293416 0.0568246
0.0010071 0.29221 0.0321813
0.0135805 0.293156 0.0141604
0.074876 0.303822 0.0109865
0.188998 0.313039 0.0107576
0.361715 0.309834 0.0421454
0.462959 0.322377 0.0484321
0.546151 0.322469 0.0598611
0.636683 0.306554 0.0899672
0.717372 0.283207 0.115145
0.773953 0.269047 0.13254
0.796979 0.246876 0.147509
0.78526 0.201587 0.146304
0.743038 0.134859 0.127184
0.70547 0.082063 0.112352
0.695689 0.0650645 0.117235
0.697658 0.0648051 0.123445
0.698451 0.0648508 0.125429
0.69897 0.0648814 0.126772
0.699397 0.0649271 0.127794
0.699702 0.0649424 0.128542
0.699931 0.0649729 0.129061
0.700084 0.0649882 0.129381
0.70016 0.0649882 0.12961
0.700206 0.0650339 0.129641
0.700252 0.0651255 0.129519
0 0.358633 0.103777
0 0.359594 0.105592
0 0.360235 0.0968795
0 0.360952 0.0894942
0 0.361425 0.0852216
0 0.360647 0.0850538
0 0.359274 0.0841077
0 0.355764 0.0749218
0 0.352483 0.0547799
0 0.35137 0.0170596
0.0119936 0.354101 0
0.0997482 0.365423 0
0.252888 0.375158 0.000411994
0.436454 0.375479 0.0513619
0.539086 0.388891 0.0646525
0.618982 0.398428 0.0620737
0.706767 0.388128 0.0963912
0.787961 0.369787 0.138476
0.835325 0.352193 0.167346
0.847913 0.331075 0.176532
0.833494 0.292744 0.169207
0.80148 0.229221 0.153918
0.734005 0.121996 0.122728
0.701335 0.0756542 0.111894
0.693721 0.0668498 0.107347
0.692027 0.0657969 0.104982
0.6925 0.0656138 0.106905
0.692882 0.0653544 0.108858
0.693095 0.0652323 0.109834
0.693111 0.0651408 0.110231
0.692973 0.0650645 0.11014
0.692805 0.065095 0.109682
0.69543 0.0683452 0.110704
0 0.419745 0.125582
0 0.420706 0.127825
0 0.421241 0.11812
0 0.422599 0.109758
0 0.423316 0.104204
0 0.422782 0.10312
0 0.421836 0.10251
0 0.420005 0.0989853
0 0.415274 0.0839704
0 0.41471 0.0590372
0 0.414099 0.00296025
0.0253452 0.417182 0
0.142565 0.426459 0
0.323354 0.436301 0
0.504005 0.440665 0.0638132
0.614069 0.455451 0.0780499
0.692454 0.470359 0.0793011
0.770153 0.469184 0.113909
0.838575 0.456748 0.159792
0.875685 0.439078 0.190158
0.880385 0.413886 0.19707
0.870542 0.380301 0.191379
0.850324 0.329839 0.178622
0.825879 0.275898 0.165942
0.812421 0.249485 0.159136
0.805234 0.235996 0.155535
0.799558 0.226169 0.152438
0.794476 0.217472 0.149737
0.790631 0.21062 0.148287
0.788785 0.207019 0.14789
0.788602 0.206699 0.147875
0.790829 0.210758 0.148775
0.796735 0.220462 0.152224
0 0.485069 0.160494
0 0.486183 0.163561
0 0.487465 0.154238
0 0.488579 0.145022
0 0.489509 0.137499
0 0.489601 0.134127
0 0.488838 0.133669
0 0.488258 0.13341
0 0.485237 0.123751
0 0.480888 0.101915
0 0.482048 0.0696727
0 0.481987 0.002121
0.0616617 0.483391 0
0.20209 0.489769 0
0.392279 0.50135 0
0.573175 0.510399 0.0739452
0.685924 0.523857 0.101213
0.760678 0.53991 0.116564
0.819425 0.54844 0.141054
0.866011 0.543313 0.174716
0.886076 0.527337 0.191165
0.886839 0.506416 0.192874
0.886458 0.47628 0.194812
0.884153 0.439536 0.196918
0.881575 0.419654 0.197436
0.879866 0.408881 0.197604
0.877867 0.400977 0.196719
0.875944 0.395178 0.195315
0.874998 0.392142 0.194629
0.874754 0.391653 0.194354
0.87509 0.394659 0.193973
0.875761 0.400885 0.193133
0.877119 0.410681 0.192706
0 0.554162 0.209384
0 0.555749 0.21323
0 0.556252 0.203326
0 0.557153 0.194018
0 0.558022 0.185336
0 0.558556 0.179355
0 0.558358 0.179156
0 0.557809 0.17879
0 0.55639 0.175769
0 0.551705 0.158801
0 0.548379 0.130632
0 0.549523 0.0865644
0.024094 0.548959 0.00956741
0.12163 0.55082 0
0.27924 0.557702 0
0.463325 0.570413 0.0162356
0.644358 0.585275 0.090959
0.751965 0.59205 0.137362
0.8206 0.609186 0.162264
0.861921 0.621012 0.180865
0.883757 0.619821 0.192996
0.886229 0.607599 0.193469
0.884718 0.59202 0.190875
0.88423 0.57171 0.189364
0.884245 0.559396 0.189151
0.884627 0.553674 0.18938
0.884794 0.548684 0.189532
0.885161 0.545754 0.189944
0.885359 0.54403 0.190204
0.885481 0.544274 0.190295
0.885374 0.546014 0.190143
0.885145 0.550225 0.189899
0.884901 0.557321 0.189792
0 0.6206 0.265782
0 0.621866 0.270497
0 0.622232 0.260426
0 0.622965 0.25124
0 0.623682 0.2421
0 0.625025 0.234455
0 0.625086 0.231632
0 0.624567 0.231235
0 0.623743 0.230549
0 0.621302 0.22327
0 0.615518 0.198978
0 0.613581 0.163149
0.0012665 0.613916 0.0983291
0.0798047 0.613016 0.0219577
0.19913 0.617105 0.00122072
0.358038 0.626276 0.018677
0.533715 0.639841 0.0495766
0.707591 0.657267 0.123415
0.808606 0.661402 0.180591
0.868528 0.676692 0.209888
0.902052 0.685786 0.22887
0.911864 0.682536 0.231159
0.90695 0.673167 0.22385
0.901549 0.662501 0.215824
0.89778 0.654856 0.210208
0.896315 0.651423 0.208042
0.89543 0.649088 0.206943
0.895125 0.647608 0.206653
0.895338 0.647181 0.207095
0.89572 0.647425 0.207736
0.896727 0.649012 0.209262
0.898375 0.652125 0.211673
0.900496 0.656886 0.214893
0.00163272 0.680522 0.320272
0.00230411 0.681758 0.325261
0.00262455 0.681941 0.315908
0.00357061 0.682643 0.307836
0.00457771 0.683467 0.299351
0.00582895 0.684153 0.289937
0.00666819 0.68452 0.284337
0.00645457 0.684245 0.284001
0.00619516 0.683818 0.283589
0.00587472 0.683253 0.282826
0.00517281 0.680064 0.268772
0.00489815 0.674281 0.238178
0.0164187 0.672938 0.191592
0.0549477 0.670634 0.103899
0.155108 0.671321 0.0405127
0.290257 0.680064 0.0330358
0.440803 0.690898 0.0524453
0.602518 0.705242 0.0923476
0.760678 0.724498 0.167224
0.850446 0.729458 0.22446
0.904387 0.742443 0.253407
0.93579 0.747555 0.273457
0.940566 0.742077 0.273899
0.936751 0.733333 0.267964
0.933288 0.725673 0.262669
0.931685 0.722148 0.260212
0.931273 0.721172 0.259556
0.930663 0.719997 0.258656
0.930465 0.7196 0.25835
0.930709 0.720104 0.258701
0.931395 0.72163 0.259739
0.932692 0.724514 0.261677
0.934798 0.729213 0.264912
0.0347601 0.727321 0.366918
0.0355535 0.728313 0.371923
0.0353704 0.72813 0.363394
0.0357671 0.728298 0.355276
0.0365301 0.72871 0.347311
0.0376135 0.729244 0.338704
0.0386511 0.729686 0.330587
0.0388495 0.729671 0.32845
0.0388952 0.729732 0.328496
0.0386358 0.729397 0.328084
0.0380255 0.728283 0.324315
0.0365911 0.723827 0.302922
0.0397803 0.719554 0.266117
0.0581064 0.717998 0.205112
0.12697 0.716213 0.108736
0.254932 0.720073 0.0616465
0.384939 0.731106 0.0686351
0.526894 0.743816 0.0934615
0.673686 0.760739 0.14226
0.809323 0.781582 0.21355
0.879606 0.786084 0.260533
0.932494 0.795895 0.294926
0.9561 0.797955 0.307729
0.957015 0.792935 0.305913
0.955261 0.786603 0.301961
0.954284 0.783551 0.299931
0.953994 0.782254 0.299214
0.953857 0.781445 0.298802
0.953902 0.781292 0.298772
0.954025 0.781689 0.299001
0.954391 0.782971 0.299779
0.955154 0.785519 0.301411
0.956085 0.788678 0.303426
0.0614481 0.759762 0.403433
0.062623 0.761059 0.409491
0.0617227 0.760189 0.400793
0.0612802 0.75964 0.391959
0.061265 0.759258 0.383246
0.0615396 0.75906 0.374533
0.0621347 0.758892 0.364569
0.0622263 0.75848 0.359014
0.0620737 0.758282 0.358679
0.0618296 0.758022 0.35848
0.0615854 0.757763 0.358221
0.0607309 0.755932 0.34934
0.0601053 0.751156 0.320104
0.0696727 0.747967 0.27129
0.100877 0.743404 0.184421
0.219364 0.745007 0.0957046
0.360357 0.756085 0.0845808
0.479652 0.767834 0.103899
0.614893 0.782437 0.136294
0.744839 0.801373 0.192294
0.846876 0.820096 0.250629
0.907607 0.823499 0.292714
0.951537 0.830716 0.325353
0.966232 0.832303 0.334005
0.965194 0.828901 0.329824
0.964385 0.826429 0.327321
0.964721 0.82562 0.327077
0.964614 0.825208 0.326818
0.964645 0.825162 0.326833
0.964752 0.825818 0.327245
0.964385 0.826596 0.327504
0.964813 0.828138 0.328679
0.965179 0.830488 0.330175
0.0739605 0.773693 0.427039
0.0755016 0.775036 0.433478
0.0734569 0.773281 0.424353
0.0717937 0.771649 0.414908
0.0703441 0.770062 0.405112
0.0692912 0.768612 0.39498
0.0681926 0.766766 0.382986
0.0674601 0.765194 0.372412
0.0673228 0.764858 0.370275
0.0673228 0.764858 0.37026
0.0673075 0.764843 0.37023
0.067216 0.764614 0.368658
0.0670176 0.76199 0.348394
0.07187 0.758724 0.309743
0.0913405 0.753674 0.236515
0.168505 0.75111 0.132235
0.337804 0.762173 0.0909285
0.455634 0.773281 0.104555
0.573281 0.785336 0.129351
0.693034 0.801251 0.17203
0.80174 0.819623 0.22768
0.881544 0.832227 0.276707
0.93228 0.83473 0.314641
0.963165 0.843671 0.341146
0.968399 0.845319 0.345968
0.968154 0.844984 0.344656
0.967926 0.844526 0.343359
0.967895 0.844388 0.343282
0.967926 0.844221 0.343297
0.967956 0.844129 0.343389
0.967987 0.844144 0.343603
0.968078 0.844144 0.343923
0.968215 0.844282 0.344579
0.0777295 0.776501 0.439292
0.0794995 0.77789 0.445747
0.0771496 0.776089 0.436301
0.0748913 0.774197 0.426535
0.0729381 0.772366 0.416541
0.0710002 0.770321 0.404822
0.0693675 0.768215 0.391516
0.0679179 0.765759 0.375799
0.0676432 0.764965 0.370169
0.0676432 0.76495 0.370138
0.0676127 0.76495 0.370138
0.0675975 0.764935 0.370153
0.0680552 0.764004 0.360601
0.0717937 0.761135 0.326986
0.085069 0.756725 0.267079
0.131151 0.749859 0.162158
0.291554 0.758511 0.0936141
0.439826 0.771603 0.10219
0.546349 0.782208 0.122545
0.655329 0.79556 0.156085
0.751705 0.810742 0.20029
0.8495 0.828733 0.25597
0.913451 0.832334 0.298711
0.950713 0.839506 0.328267
0.967651 0.844709 0.343984
0.968612 0.845426 0.346761
0.968811 0.845594 0.347784
0.968765 0.845548 0.347539
0.96875 0.845563 0.347509
0.96875 0.845655 0.34757
0.968734 0.84567 0.347555
0.968719 0.84564 0.347494
0.96875 0.845533 0.347402
0.0829938 0.779339 0.442969
0.0851453 0.780972 0.449836
0.0823529 0.77882 0.43949
0.0799573 0.776867 0.429419
0.0773022 0.774609 0.418082
0.0745708 0.772137 0.405692
0.0718395 0.769268 0.390631
0.0698558 0.76614 0.371618
0.0695354 0.764462 0.358694
0.0695354 0.764263 0.357137
0.0695354 0.764294 0.357244
0.0695048 0.764294 0.357397
0.0696117 0.764233 0.356512
0.073579 0.761913 0.32813
0.0839399 0.75845 0.280079
0.119005 0.750866 0.180636
0.247837 0.755932 0.101854
0.422171 0.770047 0.0999008
0.532113 0.780774 0.119509
0.626612 0.791745 0.145632
0.709392 0.803876 0.17937
0.806821 0.820645 0.23061
0.892287 0.831678 0.284108
0.936584 0.83537 0.315923
0.96228 0.842802 0.337484
0.968002 0.844907 0.343908
0.968277 0.84535 0.345525
0.968353 0.845426 0.345937
0.968338 0.845487 0.345968
0.968322 0.845563 0.346014
0.968307 0.845579 0.345998
0.968292 0.845548 0.345876
0.968261 0.845472 0.345678
0.0881819 0.781064 0.437201
0.090425 0.782681 0.443946
0.0873121 0.780163 0.432197
0.0844129 0.777768 0.420462
0.0814984 0.775174 0.40763
0.0787976 0.772564 0.393637
0.0758831 0.769192 0.375616
0.07364 0.765164 0.35169
0.0737469 0.762173 0.329427
0.0739452 0.761624 0.324895
0.0739605 0.761608 0.324727
0.0739147 0.761669 0.325246
0.0737926 0.761761 0.326146
0.0775158 0.76054 0.308232
0.0881361 0.757595 0.265751
0.11873 0.75111 0.182086
0.23125 0.754864 0.106157
0.402914 0.768017 0.0958267
0.520851 0.779568 0.117266
0.599878 0.788327 0.136858
0.674266 0.798535 0.163928
0.771008 0.814206 0.210605
0.870741 0.831662 0.269566
0.922118 0.833158 0.305089
0.953323 0.840024 0.329076
0.967056 0.844221 0.341405
0.967895 0.844846 0.343435
0.968017 0.84509 0.344259
0.968032 0.845151 0.344335
0.968017 0.845212 0.344381
0.968002 0.845243 0.344381
0.967987 0.845258 0.34435
0.967971 0.845228 0.344244
0.0915999 0.781949 0.432914
0.0933547 0.783246 0.439551
0.0904402 0.781018 0.428641
0.0874189 0.778531 0.416571
0.0843366 0.775906 0.403906
0.0812085 0.772946 0.389197
0.0780804 0.769482 0.370886
0.0757 0.765316 0.346426
0.0758679 0.761532 0.318975
0.0761425 0.760647 0.312245
0.0761425 0.760647 0.312245
0.0761425 0.760647 0.312245
0.0760967 0.760662 0.312505
0.078645 0.75993 0.301366
0.0911269 0.756466 0.253468
0.120241 0.750439 0.177157
0.226398 0.754513 0.107225
0.386328 0.766506 0.0935531
0.503471 0.777874 0.114214
0.567315 0.784604 0.127642
0.63801 0.793423 0.149874
0.744762 0.809415 0.19678
0.848844 0.828717 0.25565
0.908141 0.832044 0.295079
0.943603 0.837156 0.320974
0.96466 0.843198 0.338293
0.96759 0.844404 0.341909
0.967819 0.844755 0.342977
0.967819 0.844831 0.34313
0.967788 0.844907 0.343175
0.967788 0.844938 0.343191
0.967788 0.844953 0.343191
0.967788 0.844953 0.343191
0.0934768 0.783413 0.440375
0.0952316 0.784741 0.446525
0.092195 0.782422 0.435218
0.0891737 0.77995 0.423407
0.0860914 0.777462 0.411307
0.0827955 0.774472 0.396887
0.0793317 0.770901 0.378332
0.0761425 0.766491 0.353674
0.0756695 0.762158 0.323934
0.0761425 0.760647 0.312245
0.0761425 0.760647 0.312245
0.0761425 0.760647 0.312245
0.0761425 0.760647 0.312245
0.0765393 0.760494 0.310292
0.087541 0.757305 0.265507
0.112093 0.752056 0.195499
0.204608 0.753567 0.11606
0.357046 0.763714 0.090898
0.48809 0.776425 0.110704
0.556588 0.783429 0.125078
0.62121 0.791272 0.14406
0.724987 0.806424 0.187228
0.832425 0.825528 0.245716
0.89752 0.830427 0.288014
0.936217 0.835248 0.315526
0.959762 0.841749 0.334051
0.967102 0.844144 0.341085
0.967742 0.844648 0.342596
0.967773 0.84477 0.342885
0.967773 0.844846 0.342977
0.967773 0.844892 0.343023
0.967773 0.844923 0.343038
0.967773 0.844923 0.343038
0.0953384 0.784833 0.44686
0.0970016 0.786038 0.45243
0.0937514 0.783612 0.441306
0.0906996 0.781277 0.429816
0.0876173 0.778729 0.417472
0.0842451 0.77583 0.403418
0.080354 0.77203 0.384512
0.0767224 0.767544 0.359884
0.0755474 0.762829 0.329015
0.0761273 0.760723 0.312856
0.0761425 0.760647 0.312245
0.0761425 0.760647 0.312245
0.0761425 0.760647 0.312245
0.0761425 0.760647 0.312245
0.0847028 0.758099 0.276143
0.106783 0.753231 0.209003
0.183627 0.75259 0.125994
0.330343 0.761181 0.0895552
0.473793 0.774838 0.107256
0.54963 0.78265 0.123415
0.611276 0.789929 0.140703
0.708873 0.803784 0.179461
0.817823 0.822934 0.237201
0.890135 0.831296 0.282902
