bundles/resolve-cinematic-luts/Phantom Luts/Ursa G2 Phntm Arri LUTs - V1/Gen5/Standard (No WB Offset)/Tungsten Ursa Legacy V1 - Gen5.cube
TITLE "Generated by Resolve"
LUT_3D_SIZE 33
0.0172122 0.0162356 0.0214694
0.0172122 0.0162356 0.0214694
0.0172122 0.0162356 0.0214694
0.0188144 0.0164187 0.0216678
0.0294499 0.0175937 0.0234836
0.0395514 0.0190433 0.0254063
0.0548714 0.0205081 0.0280613
0.0771801 0.0222782 0.0323339
0.104158 0.022797 0.0371099
0.139544 0.0229191 0.0437476
0.184787 0.0230564 0.0517128
0.240223 0.0242618 0.0616617
0.30457 0.0256199 0.0721141
0.372824 0.024155 0.083711
0.444511 0.0204471 0.0960403
0.519615 0.0168002 0.109117
0.599329 0.0243839 0.124315
0.65742 0.0381781 0.140078
0.680461 0.047837 0.150591
0.683467 0.0483253 0.15668
0.685939 0.0483558 0.165011
0.689281 0.0482643 0.177874
0.690776 0.048249 0.184482
0.690776 0.048249 0.184482
0.690776 0.048249 0.184482
0.690776 0.048249 0.184482
0.690776 0.048249 0.184482
0.690822 0.0482643 0.184558
0.690898 0.0483101 0.184695
0.691157 0.0484169 0.185092
0.691478 0.0485542 0.185641
0.69189 0.0487373 0.186328
0.692134 0.0488594 0.18674
0.0172122 0.0162356 0.0214847
0.0172122 0.0162356 0.0214694
0.0172122 0.0162356 0.0214694
0.0172122 0.0162356 0.0214694
0.0248417 0.0170748 0.0224002
0.03505 0.0186465 0.0241398
0.0496223 0.0199435 0.0262455
0.0724804 0.0215457 0.0299535
0.0996567 0.0228122 0.0357366
0.135668 0.0229191 0.0423743
0.18088 0.0233158 0.0509651
0.235889 0.0242313 0.0610971
0.300389 0.0257267 0.0716869
0.36965 0.0242466 0.0832227
0.441718 0.0206149 0.0956588
0.516579 0.0167086 0.108598
0.596414 0.0239872 0.12369
0.656092 0.0376745 0.139559
0.68011 0.0476692 0.150317
0.683436 0.0483406 0.156542
0.685878 0.0483558 0.164782
0.689235 0.0482643 0.177676
0.690776 0.048249 0.184482
0.690776 0.048249 0.184482
0.690776 0.048249 0.184482
0.690776 0.048249 0.184482
0.690776 0.048249 0.184482
0.690822 0.0482643 0.184558
0.690898 0.0483101 0.184695
0.691157 0.0484169 0.185092
0.691478 0.0485542 0.185641
0.692088 0.0488289 0.186664
0.692744 0.0491188 0.187716
0.018204 0.0201572 0.0252995
0.0181735 0.0203403 0.0256809
0.0180362 0.0196994 0.0248875
0.0181735 0.0189517 0.0240635
0.0209354 0.0194858 0.0239261
0.0321508 0.0213169 0.0251774
0.0437781 0.0230411 0.0267796
0.0651408 0.023621 0.0292668
0.0924697 0.0225986 0.0331731
0.126848 0.0216983 0.0386664
0.172335 0.0222934 0.0478218
0.228748 0.0236973 0.0591592
0.295125 0.0255131 0.0707103
0.365332 0.024567 0.0827344
0.437751 0.0208286 0.0952163
0.512505 0.0164645 0.107958
0.593118 0.0234684 0.122911
0.65449 0.0370947 0.138933
0.679591 0.047425 0.149889
0.683375 0.0483406 0.156329
0.685786 0.0483711 0.164446
0.689174 0.0482795 0.177447
0.690776 0.048249 0.184482
0.690776 0.048249 0.184482
0.690776 0.048249 0.184482
0.690776 0.048249 0.184482
0.690776 0.048249 0.184482
0.690822 0.0482643 0.184558
0.690898 0.0483101 0.184695
0.691157 0.0484169 0.185092
0.691478 0.0485542 0.185641
0.692103 0.0488289 0.186664
0.692744 0.0491188 0.187732
0.0217136 0.0300755 0.0320287
0.0216678 0.0303044 0.0323796
0.0212863 0.0293431 0.0302739
0.0208133 0.0270542 0.0279698
0.0256046 0.0273136 0.0276341
0.0350958 0.0304265 0.0289311
0.0452277 0.0320287 0.0304723
0.0628977 0.032578 0.0320897
0.0893111 0.0299687 0.0338445
0.12253 0.025391 0.0363775
0.166659 0.0221866 0.0432441
0.220829 0.020676 0.0534829
0.286244 0.0231174 0.0669566
0.35787 0.0245518 0.0805829
0.431586 0.0208896 0.0936904
0.508278 0.0162509 0.107332
0.590585 0.023209 0.122759
0.65304 0.0366217 0.138689
0.679026 0.0471962 0.149538
0.68336 0.0483558 0.156222
0.68571 0.0483711 0.164141
0.689113 0.0482795 0.177188
0.690776 0.048249 0.184482
0.690776 0.048249 0.184482
0.690776 0.048249 0.184482
0.690776 0.048249 0.184482
0.690776 0.048249 0.184482
0.690822 0.0482643 0.184558
0.690913 0.0483101 0.184695
0.691157 0.0484169 0.185107
0.691478 0.0485695 0.185641
0.692103 0.0488289 0.186664
0.692744 0.0491188 0.187732
0.025803 0.0396735 0.0398413
0.0257572 0.0399023 0.0402686
0.0253758 0.0398871 0.0380713
0.0250706 0.0390784 0.0360723
0.0283055 0.0379034 0.0324407
0.0384527 0.0394293 0.0327916
0.0481422 0.0403296 0.0335851
0.0653697 0.0403296 0.0354162
0.0905776 0.039292 0.0369421
0.123445 0.0347448 0.0372778
0.167422 0.027924 0.0404669
0.219516 0.019852 0.0468147
0.281514 0.0182956 0.0587472
0.349645 0.0208286 0.073518
0.422843 0.0188754 0.0883803
0.50074 0.0157778 0.104051
0.584451 0.022385 0.120562
0.651026 0.0360266 0.138109
0.678477 0.0469673 0.14931
0.683558 0.0484779 0.15639
0.685908 0.0485084 0.164309
0.689357 0.0484169 0.177432
0.691096 0.0483864 0.185
0.691081 0.0483864 0.184985
0.691081 0.0483864 0.184985
0.691081 0.0483864 0.184985
0.691081 0.0483864 0.184985
0.691096 0.0483864 0.185016
0.691112 0.0484016 0.185031
0.691264 0.0484627 0.185275
0.691524 0.0485847 0.185702
0.692103 0.0488289 0.186664
0.69276 0.0491188 0.187732
0.0294804 0.0514687 0.0462959
0.0294347 0.0517433 0.0467689
0.0290837 0.0517128 0.0453803
0.0287938 0.0509346 0.0445869
0.0288701 0.0495613 0.0398108
0.0386358 0.0500343 0.0367742
0.0508583 0.0510719 0.0373083
0.0671244 0.0513771 0.0375067
0.0947127 0.0495766 0.0406043
0.12517 0.0461891 0.0411231
0.167575 0.0395514 0.0417334
0.2206 0.0294041 0.0448768
0.281376 0.0231479 0.053254
0.346746 0.0172427 0.0630503
0.418921 0.0125582 0.0758831
0.495644 0.0150912 0.0945754
0.576013 0.0214694 0.112932
0.644358 0.034165 0.133761
0.676417 0.0461433 0.147402
0.683406 0.0485084 0.155825
0.685802 0.0485237 0.16379
0.689311 0.0484474 0.177111
0.691157 0.0484169 0.185092
0.691157 0.0484169 0.185092
0.691157 0.0484169 0.185092
0.691157 0.0484169 0.185092
0.691157 0.0484169 0.185092
0.691157 0.0484169 0.185092
0.691157 0.0484169 0.185092
0.691279 0.0484627 0.185306
0.691524 0.0485847 0.185718
0.692103 0.0488441 0.186679
0.69276 0.0491188 0.187732
0.0324254 0.0699321 0.0543221
0.0323796 0.0703746 0.0548409
0.0322118 0.0695201 0.0518044
0.032105 0.0688182 0.0509194
0.032166 0.0671702 0.0486
0.0361028 0.0660716 0.0435798
0.0516365 0.0676432 0.0400397
0.0707866 0.0684215 0.0405127
0.0957351 0.0672313 0.0413062
0.129549 0.063035 0.045304
0.173312 0.0558175 0.0469673
0.22475 0.0469368 0.0471351
0.284443 0.0366979 0.0514687
0.346807 0.027863 0.0601663
0.414939 0.017258 0.0697032
0.488029 0.0145113 0.0823682
0.568917 0.0204623 0.0970474
0.637034 0.0328985 0.11902
0.674769 0.045655 0.145006
0.682994 0.0485695 0.154253
0.684947 0.0485237 0.16083
0.688258 0.0484627 0.172992
0.6907 0.0484169 0.18294
0.691005 0.0484169 0.184421
0.691096 0.0484169 0.184848
0.691142 0.0484169 0.185046
0.691157 0.0484169 0.185092
0.691157 0.0484169 0.185092
0.691157 0.0484169 0.185092
0.691234 0.0484474 0.185245
0.691402 0.0485237 0.185504
0.691768 0.0486915 0.18613
0.69218 0.0488746 0.186801
0.0343633 0.0915999 0.0614023
0.034287 0.0919356 0.0618601
0.0341192 0.0916304 0.0599527
0.0340887 0.0909743 0.0589151
0.0343023 0.0899062 0.0576486
0.0361028 0.0880446 0.0529946
0.0484474 0.0880598 0.0452125
0.0696727 0.0905928 0.0435492
0.0982528 0.0906081 0.0441291
0.128756 0.0891127 0.0447395
0.175967 0.0818799 0.0501869
0.233707 0.0710307 0.0530861
0.297581 0.0602274 0.0573129
0.362249 0.0451209 0.0619974
0.427405 0.0293431 0.0669566
0.491188 0.0162966 0.0776837
0.563104 0.0198215 0.0930648
0.630243 0.0314031 0.112627
0.670054 0.0448157 0.134874
0.682261 0.0486763 0.151537
0.684047 0.0485542 0.157671
0.68603 0.0485542 0.164462
0.688609 0.0484932 0.17409
0.689952 0.0484474 0.179553
0.69041 0.0484169 0.181582
0.690593 0.0484016 0.182513
0.690684 0.0484169 0.182864
0.690745 0.0484321 0.183154
0.690806 0.0484321 0.183398
0.690944 0.0484779 0.183795
0.691142 0.0485389 0.184283
0.691554 0.0487068 0.185061
0.691997 0.0488899 0.185885
0.0375372 0.116899 0.0692912
0.0373236 0.117449 0.0701457
0.0375372 0.117388 0.0683604
0.0375219 0.116854 0.0674601
0.0374762 0.116228 0.0669566
0.0386664 0.114061 0.0634318
0.0448463 0.112398 0.0555734
0.0635843 0.11368 0.0484932
0.0915236 0.117052 0.046891
0.130526 0.116518 0.0473945
0.168917 0.117632 0.0481422
0.239368 0.103685 0.0573892
0.308324 0.0933547 0.0641947
0.376822 0.0810254 0.0688792
0.451575 0.0603799 0.0708324
0.519875 0.0315709 0.0733043
0.585351 0.022858 0.0892958
0.642405 0.0354467 0.112779
0.669032 0.0453193 0.12903
0.679591 0.0490425 0.141405
0.682948 0.048661 0.153582
0.684855 0.0486 0.160082
0.686305 0.0486152 0.164965
0.687053 0.0485847 0.167773
0.687404 0.0485542 0.169253
0.687633 0.0485542 0.170092
0.687907 0.0485542 0.171191
0.68838 0.0485084 0.173098
0.688853 0.0484779 0.175067
0.689311 0.0485237 0.176638
0.689769 0.0485847 0.178149
0.690349 0.0487373 0.179629
0.690913 0.0489204 0.180911
0.0410468 0.147707 0.0783856
0.0406653 0.148363 0.0793469
0.0417182 0.14847 0.0762798
0.0426947 0.148272 0.0750744
0.0425422 0.147509 0.0749523
0.043595 0.14583 0.0733501
0.0482032 0.143465 0.0679179
0.0580148 0.142992 0.0582437
0.0840314 0.145953 0.0525673
0.12076 0.151446 0.0501717
0.172656 0.148974 0.0515297
0.223194 0.153841 0.0520943
0.314412 0.137499 0.0696727
0.398322 0.125612 0.0770275
0.478706 0.115038 0.081117
0.555962 0.0918898 0.0848554
0.617548 0.0540627 0.0894484
0.652903 0.041886 0.102342
0.676234 0.0507362 0.12401
0.679088 0.0506294 0.132464
0.68069 0.0493324 0.143404
0.683223 0.0487373 0.154025
0.684733 0.0486915 0.159243
0.68542 0.0486458 0.161685
0.68571 0.0486305 0.162768
0.685924 0.0486305 0.163516
0.686122 0.0486305 0.164279
0.686259 0.0486305 0.164767
0.686458 0.0486305 0.165469
0.686717 0.0486458 0.166293
0.686992 0.0487221 0.166949
0.687343 0.0488899 0.167452
0.687648 0.0490883 0.167636
0.0458381 0.186374 0.0903487
0.0453193 0.187213 0.0914473
0.0490578 0.187427 0.0875105
0.0518502 0.187274 0.0848096
0.0518502 0.186755 0.0844739
0.0522774 0.185702 0.0838178
0.0555734 0.18291 0.0799878
0.0642557 0.181857 0.070634
0.0814374 0.182376 0.0582742
0.112215 0.189105 0.0543221
0.156878 0.197528 0.050782
0.230701 0.1944 0.0569772
0.301122 0.2065 0.05243
0.391943 0.199466 0.0767376
0.510246 0.17969 0.0917067
0.600549 0.166751 0.098497
0.677485 0.143313 0.108095
0.705745 0.106172 0.118791
0.694942 0.0723735 0.1205
0.68188 0.0554971 0.119036
0.680232 0.0521706 0.128832
0.681208 0.0497597 0.143236
0.683009 0.0491493 0.15169
0.683757 0.0490272 0.154559
0.684108 0.0489662 0.155886
0.684413 0.0489509 0.156985
0.684672 0.0489662 0.157839
0.684871 0.0489509 0.158556
0.685023 0.0489509 0.159091
0.685145 0.0489509 0.159503
0.685252 0.0489662 0.159777
0.68542 0.0490425 0.160067
0.685664 0.0491646 0.160372
0.0531472 0.234241 0.103868
0.0525063 0.23508 0.105043
0.0569619 0.235874 0.10135
0.0610666 0.236469 0.098497
0.0623789 0.236072 0.0972457
0.0621347 0.234928 0.0969406
0.0639506 0.233265 0.0946365
0.0707256 0.230411 0.0874952
0.0855879 0.230411 0.0713664
0.108095 0.232654 0.0603037
0.14342 0.245457 0.056611
0.205722 0.258732 0.0512398
0.30692 0.255665 0.0684977
0.39556 0.27396 0.0491035
0.478782 0.279164 0.071809
0.615824 0.256794 0.113298
0.725383 0.237491 0.128695
0.779492 0.217563 0.149905
0.780301 0.191821 0.155016
0.755688 0.153628 0.144549
0.714031 0.0941176 0.130129
0.686137 0.0592508 0.125689
0.679881 0.0508278 0.134096
0.680034 0.0496681 0.140261
0.680873 0.0495613 0.143236
0.68162 0.0495308 0.145769
0.682002 0.0494545 0.14725
0.682231 0.0493935 0.148196
0.682338 0.0493629 0.148684
0.682414 0.0493477 0.149004
0.682414 0.0493172 0.149157
0.682506 0.0493782 0.149279
0.682658 0.049485 0.14934
0.06009 0.294453 0.11986
0.0592203 0.295369 0.12108
0.0649271 0.296574 0.117174
0.0711833 0.297993 0.113207
0.0747387 0.298604 0.110903
0.0744945 0.297658 0.110613
0.0747234 0.296178 0.109957
0.079057 0.293278 0.105501
0.0893416 0.291936 0.0959182
0.109438 0.293233 0.0701305
0.137392 0.29897 0.0614633
0.182696 0.315206 0.055375
0.266621 0.328603 0.0495155
0.387747 0.3252 0.0847944
0.492836 0.348455 0.0502327
0.57583 0.363653 0.065919
0.706493 0.356023 0.121279
0.823926 0.332815 0.171527
0.846342 0.315511 0.186633
0.834241 0.28893 0.180438
0.816861 0.254459 0.172107
0.78175 0.193454 0.156222
0.711772 0.0914015 0.129549
0.685069 0.0592203 0.1205
0.681346 0.05449 0.121721
0.681315 0.0536507 0.125063
0.681208 0.052903 0.127947
0.680964 0.0524453 0.129442
0.680873 0.0520027 0.131228
0.68069 0.0516823 0.132296
0.680385 0.0514229 0.13283
0.680171 0.0512856 0.132937
0.68217 0.0536507 0.133562
0.0624094 0.358907 0.135622
0.0611734 0.359792 0.137087
0.0679332 0.361395 0.132738
0.0745098 0.363531 0.128511
0.078584 0.364874 0.125505
0.0792554 0.364385 0.124865
0.0793011 0.363348 0.12459
0.081529 0.361868 0.12282
0.0894484 0.358633 0.115343
0.10396 0.360861 0.101686
0.128511 0.362997 0.0664683
0.171405 0.371344 0.0594034
0.227283 0.387503 0.0493324
0.333486 0.402258 0.0497902
0.470741 0.399329 0.0977951
0.58851 0.42771 0.0633097
0.676555 0.450614 0.0695048
0.787396 0.454139 0.132784
0.86833 0.443915 0.190539
0.88159 0.417838 0.204776
0.87335 0.384329 0.201709
0.86247 0.353597 0.195422
0.842466 0.306279 0.18471
0.814389 0.2495 0.171481
0.800961 0.225956 0.16492
0.793256 0.21265 0.161837
0.786267 0.200763 0.159136
0.779721 0.190143 0.156435
0.774548 0.181933 0.154208
0.771389 0.177066 0.15256
0.769497 0.174258 0.151217
0.771023 0.176699 0.151171
0.77818 0.187411 0.155077
0.057084 0.425788 0.153277
0.0555276 0.426657 0.15491
0.0630808 0.429068 0.149935
0.0699168 0.431037 0.145098
0.0759442 0.433051 0.140917
0.0787671 0.433555 0.138827
0.0787976 0.4327 0.138521
0.078706 0.431952 0.138231
0.0843061 0.430106 0.133516
0.0972152 0.428321 0.122484
0.117281 0.432319 0.103502
0.159365 0.434562 0.0598611
0.210208 0.445747 0.0513313
0.281712 0.463386 0.0443275
0.406058 0.480568 0.0587472
0.555932 0.483955 0.101366
0.680781 0.511116 0.0895857
0.772107 0.537926 0.10721
0.842817 0.552377 0.15668
0.879286 0.546746 0.187366
0.884993 0.518959 0.194278
0.886137 0.484413 0.199115
0.885557 0.451148 0.203479
0.882383 0.419059 0.205859
0.878706 0.402106 0.204807
0.876097 0.39324 0.203326
0.873396 0.385199 0.201663
0.871717 0.379919 0.200671
0.87068 0.376654 0.200046
0.870604 0.376303 0.199969
0.87155 0.379797 0.200122
0.872312 0.385336 0.19942
0.874052 0.394705 0.199176
0.0463874 0.495201 0.175463
0.043946 0.496574 0.177951
0.0529488 0.498253 0.171664
0.061738 0.500648 0.165774
0.0698711 0.502831 0.160235
0.0751965 0.504509 0.156176
0.0754559 0.504311 0.155917
0.0755016 0.503609 0.155688
0.0774701 0.502235 0.153811
0.0880293 0.49958 0.144121
0.106691 0.500267 0.127489
0.135958 0.505806 0.0999924
0.197696 0.511299 0.0564279
0.254536 0.5252 0.0522927
0.345525 0.543923 0.0500801
0.482444 0.562676 0.0687266
0.64094 0.577386 0.109194
0.767819 0.597101 0.136614
0.848966 0.625086 0.166934
0.881392 0.637568 0.189731
0.888899 0.63386 0.194965
0.885405 0.614389 0.19115
0.882902 0.583993 0.188769
0.883406 0.554131 0.190539
0.884123 0.540261 0.192142
0.884489 0.534218 0.192935
0.884596 0.528984 0.193469
0.884886 0.52575 0.19411
0.884993 0.52398 0.194263
0.884962 0.524529 0.193881
0.88484 0.526787 0.19321
0.884367 0.531731 0.192035
0.883894 0.53991 0.190768
0.0544137 0.574823 0.206439
0.0516976 0.576181 0.210101
0.0615091 0.577447 0.202609
0.0707866 0.579705 0.195789
0.0799115 0.582467 0.189502
0.0882429 0.585519 0.18381
0.0911421 0.586236 0.181613
0.0909743 0.585489 0.181308
0.0904555 0.58439 0.180819
0.0942245 0.582223 0.175616
0.108553 0.579171 0.160327
0.134936 0.582727 0.136858
0.180957 0.590677 0.0970779
0.250675 0.598566 0.070634
0.319799 0.617014 0.0673991
0.425223 0.637049 0.0706645
0.564279 0.65597 0.0977646
0.724239 0.676585 0.143816
0.844968 0.684749 0.202548
0.904418 0.709346 0.232166
0.922744 0.713909 0.242313
0.921645 0.707637 0.23859
0.916381 0.696559 0.230991
0.905623 0.674632 0.216251
0.898039 0.659144 0.206226
0.89543 0.653117 0.202991
0.894591 0.650263 0.202243
0.894087 0.648249 0.202106
0.894469 0.648081 0.203037
0.895079 0.648859 0.204166
0.896513 0.651469 0.206302
0.898558 0.656153 0.209262
0.901823 0.663569 0.213855
0.080705 0.664622 0.251041
0.0776989 0.665843 0.25539
0.0875105 0.667567 0.247501
0.0973373 0.669993 0.240497
0.107347 0.672755 0.232807
0.117861 0.675685 0.224979
0.124331 0.677562 0.22002
0.124102 0.677028 0.219806
0.123751 0.676234 0.219532
0.12343 0.675242 0.219104
0.131228 0.67277 0.209201
0.151431 0.670329 0.187137
0.187198 0.675731 0.158221
0.248936 0.682399 0.113603
0.322301 0.690837 0.0992294
0.404105 0.706889 0.0982223
0.510506 0.721599 0.108339
0.647334 0.739406 0.142611
0.798642 0.761593 0.20322
0.898558 0.76109 0.264042
0.937697 0.778912 0.286641
0.947585 0.782086 0.29192
0.946151 0.778851 0.289204
0.94461 0.77229 0.284764
0.942382 0.762188 0.278126
0.941314 0.756878 0.274754
0.940932 0.754574 0.273365
0.940414 0.752544 0.272023
0.940246 0.751354 0.271366
0.940444 0.751278 0.271519
0.941115 0.752728 0.272755
0.942489 0.755886 0.275334
0.944305 0.760769 0.279057
0.103655 0.731136 0.297597
0.0998093 0.732265 0.303273
0.108263 0.732082 0.293873
0.117159 0.732967 0.28513
0.125856 0.733852 0.276631
0.134844 0.735103 0.268376
0.143145 0.736034 0.26041
0.145052 0.736095 0.258671
0.144808 0.735912 0.258747
0.144579 0.735454 0.258473
0.14641 0.734661 0.255283
0.161242 0.732097 0.236759
0.188235 0.730892 0.208789
0.234211 0.732662 0.170245
0.312306 0.734325 0.129702
0.39501 0.743481 0.120165
0.483604 0.754925 0.123171
0.59527 0.76907 0.145495
0.733623 0.790066 0.191058
0.865843 0.809552 0.257694
0.92842 0.801541 0.298405
0.956817 0.812909 0.316472
0.960189 0.81294 0.317494
0.95964 0.811353 0.316167
0.959228 0.80972 0.315007
0.958618 0.808484 0.313909
0.958343 0.807797 0.313344
0.958175 0.80737 0.312978
0.958099 0.807233 0.312856
0.958144 0.807416 0.313008
0.958358 0.807996 0.313481
0.958938 0.809323 0.314656
0.959396 0.810834 0.31577
0.107591 0.759915 0.333349
0.103395 0.760632 0.340246
0.110369 0.759747 0.329931
0.116915 0.758816 0.320317
0.12372 0.757809 0.310765
0.130785 0.75671 0.300801
0.139178 0.755413 0.289219
0.144152 0.754726 0.28307
0.144381 0.754696 0.282734
0.144488 0.754681 0.282567
0.14461 0.754665 0.282368
0.151324 0.753796 0.273625
0.173831 0.751293 0.245945
0.211002 0.748058 0.207095
0.275425 0.745068 0.154009
0.37261 0.749935 0.127871
0.466667 0.760082 0.126757
0.561547 0.771389 0.141604
0.684245 0.78909 0.177569
0.818128 0.812207 0.235172
0.902846 0.81062 0.285161
0.946746 0.814206 0.313741
0.962554 0.82153 0.32488
0.962768 0.821729 0.325216
0.962737 0.821591 0.324971
0.962676 0.821408 0.324544
0.962661 0.821378 0.324498
0.962661 0.821363 0.324468
0.962661 0.821347 0.324453
0.962646 0.821317 0.324422
0.962631 0.821286 0.324407
0.962631 0.821286 0.324407
0.962631 0.821241 0.324422
0.0943465 0.762646 0.358297
0.0916152 0.763378 0.365194
0.0964065 0.762325 0.354345
0.102663 0.761303 0.343343
0.109895 0.760174 0.331762
0.117739 0.758892 0.319982
0.127062 0.757443 0.306508
0.135637 0.755932 0.294514
0.137499 0.755657 0.291966
0.137499 0.755657 0.291966
0.137545 0.755657 0.291905
0.138811 0.755489 0.290089
0.156207 0.753216 0.267765
0.186892 0.750011 0.232029
0.245396 0.746319 0.178958
0.336873 0.747143 0.135195
0.450767 0.758267 0.126238
0.544656 0.769451 0.137804
0.650935 0.783902 0.166339
0.77052 0.803861 0.211902
0.874434 0.817914 0.267063
0.929122 0.808316 0.302556
0.958618 0.819455 0.321675
0.962753 0.821653 0.325093
0.962829 0.821912 0.325582
0.962829 0.821897 0.325567
0.962814 0.821866 0.325505
0.962814 0.821851 0.325521
0.962844 0.821836 0.325536
0.96286 0.821759 0.325521
0.962875 0.821729 0.325551
0.962905 0.821744 0.325628
0.962921 0.821805 0.325765
0.0884718 0.763897 0.37261
0.0910658 0.765316 0.379232
0.0887312 0.763668 0.369802
0.0944991 0.762753 0.358282
0.10132 0.761471 0.34548
0.109926 0.760037 0.331441
0.120439 0.758328 0.315526
0.133394 0.756115 0.297139
0.13846 0.755367 0.290242
0.138537 0.755367 0.29015
0.138582 0.755352 0.290089
0.138567 0.755352 0.290105
0.14667 0.754253 0.279393
0.175113 0.751186 0.245457
0.225559 0.747463 0.197482
0.308705 0.745647 0.143145
0.423255 0.755154 0.127718
0.534859 0.768078 0.136126
0.630884 0.780728 0.15993
0.737499 0.79794 0.197513
0.837018 0.815717 0.24535
0.908888 0.810819 0.289021
0.951003 0.81619 0.316594
0.962402 0.821378 0.324514
0.962722 0.821469 0.324804
0.962798 0.82153 0.325078
0.962829 0.821637 0.325322
0.962844 0.821622 0.325338
0.962829 0.821607 0.325322
0.962829 0.821607 0.325307
0.962844 0.821591 0.325292
0.962829 0.821576 0.325261
0.962814 0.82153 0.325185
0.0866407 0.764706 0.379446
0.0888075 0.76611 0.38616
0.0868696 0.764385 0.37612
0.0929274 0.763363 0.363333
0.100114 0.761975 0.348989
0.109209 0.760372 0.333608
0.120928 0.758389 0.315587
0.13695 0.755596 0.29247
0.14905 0.753933 0.276493
0.15024 0.753796 0.274922
0.15024 0.753796 0.274937
0.150072 0.753811 0.275166
0.150851 0.753735 0.274113
0.176181 0.751263 0.24535
0.218204 0.748104 0.205463
0.295506 0.745434 0.148028
0.397284 0.752407 0.1308
0.523613 0.766796 0.13489
0.621271 0.779339 0.157366
0.712077 0.793606 0.187472
0.79913 0.808789 0.225376
0.882139 0.812818 0.272206
0.939361 0.811872 0.309056
0.960891 0.820676 0.323445
0.962707 0.821744 0.324987
0.962707 0.821729 0.324987
0.962707 0.821744 0.325032
0.962722 0.821775 0.325093
0.962722 0.82182 0.325124
0.962707 0.821881 0.32517
0.962707 0.821927 0.3252
0.962707 0.821912 0.32517
0.962692 0.821836 0.325078
0.0911574 0.765347 0.375677
0.0885328 0.766262 0.383963
0.0937972 0.764584 0.369314
0.100618 0.763073 0.354955
0.109361 0.761379 0.338933
0.120104 0.759335 0.321401
0.133959 0.756664 0.300099
0.156008 0.753414 0.269917
0.17641 0.751232 0.244968
0.180575 0.750729 0.240208
0.180835 0.750698 0.239963
0.180529 0.750729 0.240375
0.179767 0.75082 0.241276
0.19498 0.749569 0.226337
0.232349 0.747295 0.193469
0.297414 0.745541 0.147494
0.389624 0.751675 0.130755
0.512779 0.765591 0.132265
0.614252 0.778363 0.155444
0.691035 0.790204 0.180056
0.766918 0.803067 0.210071
0.856901 0.813397 0.257267
0.926085 0.810727 0.300343
0.955932 0.818494 0.319997
0.9626 0.821698 0.324895
0.962707 0.821759 0.325002
0.962707 0.821759 0.325002
0.962692 0.82179 0.325032
0.962692 0.821836 0.325063
0.962692 0.821912 0.325139
0.962692 0.821958 0.32517
0.962692 0.821988 0.325185
0.962692 0.821958 0.32517
0.0966506 0.765484 0.371405
0.0948348 0.766445 0.379019
0.0979934 0.764797 0.366247
0.105013 0.763165 0.351736
0.113634 0.761303 0.336034
0.124468 0.75906 0.317998
0.139193 0.756283 0.295262
0.160967 0.753079 0.265446
0.186709 0.750225 0.234623
0.1935 0.749645 0.227512
0.1935 0.749645 0.227512
0.1935 0.749645 0.227512
0.19324 0.74966 0.227771
0.202884 0.74902 0.219028
0.244648 0.746548 0.182635
0.303441 0.745556 0.144045
0.388296 0.751476 0.127855
0.503319 0.764431 0.130602
0.602823 0.776989 0.152407
0.664866 0.786053 0.171221
0.734722 0.797559 0.196368
0.838224 0.814298 0.246265
0.914382 0.811643 0.292439
0.950301 0.816068 0.316274
0.961715 0.821256 0.324208
0.962692 0.821775 0.325002
0.962707 0.821759 0.325002
0.962692 0.82179 0.325032
0.962692 0.821836 0.325063
0.962692 0.821912 0.325139
0.962692 0.821958 0.32517
0.962692 0.821988 0.325185
0.962692 0.821988 0.325185
0.0962539 0.766766 0.379828
0.0991836 0.767926 0.385702
0.0950484 0.765774 0.374395
0.100908 0.764126 0.36022
0.108614 0.762402 0.344945
0.118822 0.760266 0.327428
0.133089 0.757321 0.304356
0.154208 0.753948 0.274296
0.18204 0.750668 0.239796
0.1935 0.749645 0.227512
0.1935 0.749645 0.227512
0.1935 0.749645 0.227512
0.1935 0.749645 0.227512
0.19559 0.749493 0.225544
0.234394 0.747112 0.191394
0.289342 0.744961 0.146288
0.374136 0.749905 0.129107
0.481605 0.761761 0.128222
0.589044 0.775143 0.148623
0.655344 0.784634 0.168154
0.718135 0.794842 0.189944
0.82089 0.812863 0.236759
0.904402 0.810819 0.286091
0.945113 0.813794 0.31284
0.960906 0.820706 0.323491
0.962692 0.821759 0.324987
0.962707 0.821759 0.325002
0.962692 0.82179 0.325032
0.962692 0.821836 0.325063
0.962692 0.821912 0.325139
0.962692 0.821958 0.32517
0.962692 0.821988 0.325185
0.962692 0.821988 0.325185
0.0950484 0.767727 0.386786
0.0974136 0.768811 0.392126
0.0935988 0.76669 0.381186
0.0976272 0.764996 0.367483
0.104616 0.763317 0.352728
0.114046 0.761257 0.335393
0.128008 0.758267 0.312108
0.148714 0.754742 0.28188
0.177127 0.751293 0.24538
0.19295 0.749691 0.228107
0.1935 0.749645 0.227512
0.1935 0.749645 0.227512
0.1935 0.749645 0.227512
