bundles/resolve-cinematic-luts/Phantom Luts/Ursa G2 Phntm Arri LUTs - V1/Gen5/Standard (No WB Offset)/Tungsten Ursa V1 - Gen5.cube
TITLE "Generated by Resolve"
LUT_3D_SIZE 9
0.00947585 0.00981155 0.0162966
0.0216678 0.00978103 0.0158389
0.12311 0.00695811 0.0262303
0.374914 0.00895705 0.0546578
0.633341 0.0332494 0.10103
0.707164 0.0652323 0.147539
0.717083 0.0665599 0.171283
0.717205 0.0666209 0.171435
0.718975 0.0674754 0.174105
0.0156863 0.0328222 0.0290837
0.0173495 0.0306706 0.0221408
0.101106 0.0249027 0.0256352
0.345815 0.00816358 0.0526589
0.624094 0.0307317 0.0975204
0.706752 0.0652323 0.146487
0.717357 0.0667124 0.171649
0.717388 0.0667277 0.171695
0.71899 0.0674907 0.174136
0.0270085 0.1393 0.0651408
0.026154 0.137789 0.0598306
0.0802625 0.141222 0.0344854
0.386069 0.0981155 0.0565042
0.612406 0.0301213 0.0687572
0.700435 0.0644694 0.132021
0.709621 0.0656901 0.15256
0.712535 0.0660716 0.159579
0.715419 0.0668193 0.165591
0 0.358633 0.103777
0 0.361425 0.0852216
0 0.352483 0.0547799
0.252888 0.375158 0.000411994
0.706767 0.388128 0.0963912
0.833494 0.292744 0.169207
0.693721 0.0668498 0.107347
0.693095 0.0652323 0.109834
0.69543 0.0683452 0.110704
0 0.6206 0.265782
0 0.623682 0.2421
0 0.623743 0.230549
0.0012665 0.613916 0.0983291
0.533715 0.639841 0.0495766
0.902052 0.685786 0.22887
0.89778 0.654856 0.210208
0.895338 0.647181 0.207095
0.900496 0.656886 0.214893
0.0739605 0.773693 0.427039
0.0703441 0.770062 0.405112
0.0673228 0.764858 0.370275
0.0670176 0.76199 0.348394
0.337804 0.762173 0.0909285
0.80174 0.819623 0.22768
0.968399 0.845319 0.345968
0.967926 0.844221 0.343297
0.968215 0.844282 0.344579
0.0915999 0.781949 0.432914
0.0843366 0.775906 0.403906
0.0758679 0.761532 0.318975
0.0760967 0.760662 0.312505
0.226398 0.754513 0.107225
0.63801 0.793423 0.149874
0.943603 0.837156 0.320974
0.967819 0.844831 0.34313
0.967788 0.844953 0.343191
0.0987411 0.787228 0.458
0.0899977 0.780529 0.426474
0.0753796 0.763592 0.33611
0.0760357 0.760266 0.311208
0.155901 0.749859 0.139055
0.594369 0.787213 0.13463
0.923049 0.832868 0.305455
0.967819 0.84445 0.342611
0.967758 0.845029 0.34313
0.106142 0.792599 0.482368
0.0923171 0.782574 0.435752
0.0753948 0.763043 0.331609
0.0760357 0.760281 0.311223
0.191363 0.752834 0.123156
0.608865 0.789151 0.139361
0.92549 0.832364 0.307591
0.967727 0.844419 0.342397
0.967758 0.84506 0.343175
0.0071107 0.0110628 0.0355383
0.0272679 0.012192 0.0364538
0.130053 0.0146639 0.0541695
0.39411 0.0123751 0.085359
0.64802 0.036286 0.126055
0.707973 0.0657054 0.14847
0.718074 0.0670939 0.17261
0.718273 0.067155 0.173053
0.719417 0.067689 0.174731
0.0138705 0.0264591 0.0328679
0.0135195 0.0239872 0.0312657
0.107942 0.0176089 0.0335241
0.358099 0.00959792 0.0590219
0.630411 0.0321813 0.106523
0.707713 0.0657664 0.147662
0.718425 0.067216 0.173251
0.718471 0.0672313 0.173342
0.719448 0.0677043 0.174823
0.0311894 0.123354 0.0876478
0.0279393 0.123125 0.0723583
0.0731365 0.129641 0.0348821
0.383948 0.0739605 0.0547036
0.61326 0.0296483 0.0757916
0.701778 0.0647288 0.134859
0.711376 0.066041 0.156481
0.715816 0.0666514 0.167315
0.717174 0.0671702 0.169726
0 0.346334 0.147768
0 0.347402 0.116152
0 0.347066 0.0720684
0.246632 0.366445 0.0018616
0.717357 0.362631 0.106065
0.814542 0.253849 0.159915
0.692546 0.065507 0.107485
0.693568 0.0648966 0.112352
0.69752 0.0699626 0.114122
0 0.615824 0.309483
0 0.616526 0.279973
0 0.618051 0.225879
0 0.612436 0.124041
0.529824 0.635096 0.0471962
0.901015 0.67921 0.224842
0.894377 0.645075 0.205585
0.89279 0.636118 0.203677
0.896941 0.645914 0.210056
0.0818189 0.780499 0.464515
0.0773022 0.776837 0.443702
0.0682994 0.766964 0.384222
0.0668956 0.763577 0.361196
0.314244 0.760113 0.0905318
0.800717 0.819409 0.227054
0.968277 0.845167 0.345388
0.967681 0.842802 0.341878
0.967971 0.843809 0.343526
0.104829 0.791714 0.47866
0.0969711 0.786068 0.452827
0.0786145 0.770138 0.374136
0.0759747 0.760708 0.313222
0.201892 0.75346 0.117388
0.630671 0.792386 0.147189
0.942596 0.836896 0.320226
0.967834 0.844846 0.343206
0.967803 0.844984 0.343282
0.112902 0.797086 0.502846
0.103593 0.790661 0.474159
0.0823682 0.773907 0.394553
0.0760357 0.760266 0.311208
0.13843 0.751247 0.161089
0.584085 0.786175 0.131762
0.919097 0.832105 0.302785
0.967803 0.844419 0.342504
0.967758 0.845014 0.34313
0.121355 0.802594 0.526604
0.107103 0.793179 0.484977
0.0822461 0.773816 0.393759
0.0760357 0.760266 0.311208
0.164324 0.752041 0.140047
0.600641 0.788052 0.136675
0.920653 0.831907 0.304051
0.967727 0.844388 0.34229
0.967758 0.84506 0.343175
0.00750744 0.0189975 0.129107
0.0420386 0.0184939 0.131823
0.13753 0.0228733 0.128588
0.408331 0.0279088 0.180133
0.689708 0.0443122 0.224857
0.723354 0.0675212 0.187808
0.716289 0.0668498 0.168078
0.716594 0.0669261 0.168765
0.717784 0.0674754 0.170565
0.00135805 0.0178073 0.0890974
0.00262455 0.0173037 0.112154
0.112291 0.0209659 0.115358
0.388983 0.0216831 0.143709
0.673976 0.0407263 0.185626
0.713466 0.0663462 0.161761
0.716945 0.0670024 0.169558
0.717144 0.0670329 0.170016
0.71812 0.0675212 0.17145
0.0293736 0.113375 0.115099
0.028336 0.110567 0.113817
0.090898 0.113664 0.120714
0.399893 0.0913252 0.117998
0.628855 0.03122 0.111604
0.70309 0.0649119 0.137789
0.715938 0.0666819 0.167605
0.717037 0.066804 0.170397
0.717952 0.0672923 0.171664
0.0120241 0.335531 0.221805
0.00953689 0.332738 0.20502
0 0.327611 0.142992
0.270619 0.35555 0.0211795
0.725856 0.331548 0.126375
0.792752 0.213886 0.149737
0.693736 0.0648051 0.113115
0.697627 0.0648356 0.123293
0.697597 0.065095 0.122362
0 0.609766 0.384314
0 0.610147 0.361898
0 0.604913 0.283604
0 0.60557 0.14641
0.525933 0.625635 0.0440375
0.89778 0.667002 0.216953
0.890623 0.628458 0.200336
0.889433 0.619348 0.198581
0.892409 0.630808 0.203189
0.0962234 0.788571 0.521385
0.0919814 0.786603 0.505455
0.0786908 0.777874 0.452781
0.0672618 0.764691 0.3691
0.255497 0.755749 0.0974594
0.797055 0.818723 0.224964
0.967987 0.84332 0.343725
0.967269 0.840238 0.339101
0.967544 0.842542 0.340993
0.128985 0.807568 0.548669
0.12137 0.802762 0.528237
0.10016 0.78854 0.464622
0.0758373 0.760861 0.31458
0.152789 0.750378 0.142443
0.615549 0.79028 0.141848
0.940108 0.836301 0.318441
0.967865 0.844892 0.343404
0.967849 0.845014 0.343481
0.139071 0.813382 0.57116
0.1299 0.807843 0.548882
0.106783 0.792813 0.483864
0.0758221 0.760784 0.315282
0.108736 0.753033 0.206271
0.571756 0.78471 0.128298
0.910475 0.830182 0.296864
0.967758 0.844358 0.34229
0.967758 0.844999 0.343099
0.151781 0.820905 0.600259
0.137469 0.812482 0.567697
0.109865 0.794888 0.493477
0.075761 0.760983 0.316762
0.116426 0.7505 0.183459
0.583078 0.785977 0.131395
0.912276 0.832929 0.297734
0.967697 0.844327 0.342046
0.967742 0.845106 0.343206
0.0207523 0.0404059 0.345602
0.0717479 0.0398108 0.351629
0.188922 0.0347601 0.352728
0.423331 0.0398413 0.363073
0.702785 0.0584115 0.422141
0.755215 0.0724041 0.414405
0.755047 0.0716869 0.387274
0.754696 0.0711986 0.374594
0.755901 0.0721141 0.37908
0.00511177 0.0383154 0.324193
0.0134279 0.0390631 0.331533
0.145403 0.0358587 0.348455
0.401251 0.0392309 0.344228
0.691951 0.0533761 0.39266
0.75317 0.0698711 0.378363
0.751507 0.0691081 0.337453
0.750347 0.0685588 0.326299
0.751278 0.0687877 0.333654
0 0.0862898 0.264286
0 0.0726177 0.278325
0.039704 0.0460365 0.32137
0.363668 0.0410315 0.318379
0.668849 0.0458076 0.347448
0.749844 0.0673838 0.343603
0.747478 0.0677348 0.302922
0.746303 0.0677501 0.292546
0.748211 0.0682383 0.302983
0.0254063 0.33608 0.320897
0.0248569 0.334722 0.319631
0.0256046 0.327214 0.311788
0.349493 0.358923 0.353216
0.762097 0.336797 0.355627
0.826246 0.205692 0.232258
0.693904 0.064622 0.114275
0.698085 0.0648661 0.124453
0.697887 0.0651865 0.12282
0.00753796 0.615915 0.489555
0.00466926 0.616373 0.483177
0 0.60885 0.453101
0 0.593881 0.342672
0.563043 0.613504 0.12752
0.907744 0.647425 0.234775
0.888899 0.61735 0.197742
0.887297 0.604898 0.195026
0.889342 0.617456 0.198199
0.127977 0.80058 0.616419
0.12607 0.801007 0.609628
0.113817 0.796384 0.576547
0.0785687 0.776699 0.463325
0.157534 0.754772 0.158556
0.826383 0.823987 0.246937
0.967437 0.840223 0.34049
0.966445 0.837049 0.335302
0.966903 0.841184 0.337911
0.18114 0.837171 0.657984
0.174243 0.833448 0.645472
0.152087 0.821256 0.602625
0.102373 0.790066 0.47155
0.116747 0.753506 0.196536
0.601602 0.788479 0.137316
0.93637 0.835706 0.315557
0.967941 0.845014 0.343847
0.96791 0.845136 0.343923
0.20238 0.845762 0.680308
0.187991 0.840024 0.6654
0.160998 0.826078 0.620035
0.108736 0.794049 0.49012
0.0858473 0.757153 0.268742
0.548943 0.782025 0.122545
0.897215 0.831968 0.287068
0.967681 0.844205 0.341924
0.967758 0.844968 0.343084
0.238178 0.85713 0.713634
0.212833 0.849454 0.691493
0.17319 0.832532 0.641382
0.11252 0.796658 0.501366
0.090837 0.756008 0.252369
0.557656 0.783062 0.124681
0.895171 0.833768 0.285466
0.967575 0.844175 0.341558
0.967758 0.84506 0.343175
0.109697 0.0658885 0.608316
0.167254 0.0650797 0.620203
0.293629 0.056733 0.633722
0.476677 0.0499428 0.625086
0.70042 0.0765545 0.607584
0.747372 0.0952621 0.622095
0.744091 0.0966049 0.635248
0.745083 0.0962692 0.631617
0.744381 0.0974899 0.637964
0.0646983 0.0639353 0.588022
0.0991531 0.0648356 0.600168
0.246021 0.0601358 0.629923
0.45333 0.0495155 0.623529
0.693233 0.0734875 0.601022
0.749599 0.0940414 0.610834
0.747036 0.09514 0.622248
0.748165 0.0946822 0.61738
0.747295 0.0959793 0.624979
0.0160372 0.0581064 0.537697
0.0421912 0.0611887 0.56405
0.151675 0.0640574 0.608576
0.407309 0.0489357 0.617685
0.677943 0.0681773 0.588968
0.753033 0.0920272 0.590967
0.751873 0.0925002 0.596841
0.752728 0.092134 0.592309
0.751614 0.0934157 0.602029
0 0.314687 0.564584
0 0.305058 0.57351
0 0.275273 0.582834
0.335775 0.200534 0.706004
0.716899 0.168139 0.638865
0.780026 0.108782 0.563577
0.762768 0.0923934 0.552346
0.760616 0.0902266 0.549813
0.761196 0.092607 0.561334
0.0450599 0.626444 0.600732
0.0461585 0.628901 0.6038
0.0452277 0.627634 0.601907
0.0557565 0.622995 0.597177
0.637659 0.645808 0.630304
0.972152 0.652338 0.646036
0.972915 0.614588 0.5738
0.973816 0.600153 0.565377
0.974975 0.612345 0.581613
0.172396 0.81384 0.717311
0.173953 0.815839 0.718273
0.170611 0.81532 0.710384
0.153933 0.808362 0.678477
0.302464 0.781186 0.556985
0.819211 0.84213 0.506798
0.962692 0.851865 0.542016
0.966278 0.834577 0.423636
0.966094 0.838651 0.432609
0.337697 0.880842 0.793667
0.338827 0.88072 0.793072
0.315969 0.87689 0.779614
0.23444 0.860456 0.730617
0.213489 0.824811 0.597864
0.628351 0.826581 0.474968
0.946639 0.847776 0.376135
0.968078 0.844923 0.344228
0.968048 0.845075 0.344289
0.414343 0.886168 0.815503
0.406073 0.884749 0.811551
0.372793 0.879637 0.794507
0.275196 0.86508 0.739879
0.170733 0.824537 0.602548
0.542397 0.807462 0.441047
0.909483 0.839368 0.33785
0.967605 0.84387 0.341299
0.967727 0.8448 0.342748
0.459159 0.894453 0.838026
0.444816 0.891691 0.830854
0.408591 0.885206 0.812696
0.307149 0.870359 0.759335
0.201053 0.830839 0.619776
0.565423 0.817243 0.474937
0.903593 0.844327 0.355734
0.967483 0.844038 0.341009
0.967697 0.844984 0.342901
0.292973 0.0897993 0.750057
0.320058 0.0884565 0.755016
0.393393 0.0855726 0.763989
0.523949 0.0857557 0.762402
0.686275 0.111147 0.746807
0.727123 0.127337 0.751583
0.720333 0.121645 0.74725
0.720592 0.121706 0.747021
0.721141 0.12311 0.74966
0.255543 0.0908064 0.740215
0.285451 0.0897688 0.747784
0.363012 0.0865644 0.760998
0.502235 0.0847028 0.7635
0.676051 0.107332 0.745983
0.72781 0.126619 0.748989
0.719356 0.120806 0.746609
0.71928 0.120806 0.7467
0.720211 0.122194 0.748806
0.238697 0.0906081 0.734066
0.238895 0.0908675 0.734539
0.293904 0.089128 0.749065
0.458045 0.0839399 0.764675
0.654612 0.100343 0.745327
0.728527 0.125017 0.744152
0.718715 0.117525 0.739651
0.718791 0.117357 0.739162
0.719387 0.118776 0.741756
0 0.170306 0.656306
0.0061799 0.148333 0.65391
0.0291905 0.102846 0.644999
0.356405 0.0852674 0.757122
0.616831 0.0959945 0.752209
0.734783 0.126116 0.738064
0.720821 0.114443 0.729397
0.719554 0.113451 0.728786
0.720241 0.116457 0.735149
0.0896468 0.617334 0.75758
0.0915999 0.61828 0.761181
0.092958 0.614481 0.766583
0.0956283 0.606271 0.777356
0.696147 0.621057 0.97731
0.937057 0.561929 0.894301
0.934188 0.483131 0.894392
0.931716 0.461753 0.892226
0.933059 0.479973 0.900252
0.213519 0.825483 0.802609
0.21709 0.828565 0.806516
0.218769 0.830137 0.80795
0.217411 0.829145 0.806271
0.493156 0.853239 0.834302
0.873579 0.878248 0.869825
0.962066 0.876997 0.869749
0.962112 0.87126 0.862318
0.961944 0.877028 0.869093
0.473625 0.908858 0.873381
0.480507 0.909911 0.875334
0.477089 0.908812 0.872938
0.452949 0.904677 0.862486
0.505898 0.899062 0.84918
0.811215 0.935347 0.882246
0.953964 0.951675 0.855924
0.97612 0.953857 0.87274
0.976013 0.954971 0.878019
0.600748 0.921416 0.898299
0.599054 0.921736 0.898741
0.58999 0.919982 0.895338
0.5617 0.914244 0.883421
0.519921 0.903609 0.859785
0.779706 0.930343 0.879591
0.925032 0.949355 0.852323
0.974655 0.942901 0.819684
0.975418 0.942504 0.816861
0.625483 0.926711 0.908675
0.621164 0.925902 0.90721
0.609964 0.923919 0.903288
0.579568 0.9178 0.890944
0.551888 0.90808 0.869429
0.79382 0.934417 0.890394
0.921279 0.9514 0.863539
0.971984 0.943618 0.823148
0.974655 0.939315 0.804181
0.576089 0.187671 0.870588
0.586206 0.186709 0.868727
0.625406 0.192645 0.86978
0.716899 0.210285 0.867704
0.819699 0.234073 0.851102
0.800244 0.207355 0.827161
0.759762 0.162448 0.78706
0.772976 0.176532 0.799741
0.783734 0.188922 0.811566
0.559686 0.184802 0.868849
0.570474 0.184863 0.868299
0.605982 0.189303 0.868864
0.700038 0.20708 0.869184
0.813367 0.232044 0.851926
0.799741 0.20679 0.826658
0.763272 0.166278 0.790539
0.762539 0.165515 0.789944
0.771328 0.175494 0.799634
0.539361 0.176272 0.861295
0.540734 0.177279 0.862333
0.567559 0.180102 0.863401
0.663554 0.19675 0.866819
0.793042 0.220905 0.848737
0.794202 0.200107 0.820478
0.760311 0.162753 0.786816
0.764431 0.167239 0.791028
0.77499 0.179385 0.802731
0.464073 0.179751 0.860883
0.486503 0.177539 0.861234
0.507393 0.168917 0.854658
0.577279 0.161456 0.844465
0.739635 0.189014 0.833997
0.77998 0.184298 0.806332
0.741314 0.142473 0.767666
0.741222 0.142397 0.767636
0.742229 0.143893 0.769711
0.202304 0.661982 0.882658
0.230442 0.672221 0.903304
0.304875 0.683513 0.945083
0.446921 0.684428 0.992386
0.785397 0.590951 0.994858
0.937545 0.560311 0.954101
0.933654 0.49781 0.951064
0.930983 0.478157 0.949264
0.932723 0.498405 0.952056
0.309789 0.859007 0.90425
0.324483 0.865431 0.911025
0.341527 0.870451 0.917967
0.368673 0.874372 0.929015
0.592203 0.890303 0.949386
0.889952 0.862943 0.966506
0.952102 0.852079 0.949615
0.951766 0.844083 0.948119
0.951934 0.851362 0.949508
0.533806 0.924392 0.911437
0.542718 0.925872 0.913756
0.545495 0.926116 0.91397
0.538903 0.925322 0.912749
0.582864 0.925338 0.913573
0.853376 0.945586 0.941085
0.954345 0.955032 0.95288
0.96878 0.954726 0.952499
0.968688 0.955276 0.953994
0.69601 0.938567 0.930327
0.695811 0.939147 0.931395
0.692943 0.938704 0.930663
0.684123 0.937057 0.927977
0.676661 0.935271 0.924056
0.865629 0.955825 0.947433
0.949737 0.968887 0.959564
0.971756 0.971008 0.954162
0.974945 0.971801 0.957061
0.712215 0.941238 0.93492
0.710094 0.941482 0.9355
0.705196 0.94078 0.934264
0.69279 0.938582 0.930388
0.685359 0.936248 0.92575
0.868955 0.956344 0.948363
0.948882 0.968933 0.960708
0.968566 0.971252 0.954864
0.974899 0.972 0.955047
0.615625 0.217151 0.89395
0.630884 0.221195 0.895781
0.671717 0.230701 0.897887
0.759548 0.251026 0.89514
0.857038 0.280095 0.884413
0.847959 0.266178 0.874098
0.80209 0.209369 0.828992
0.802106 0.209232 0.828687
0.80206 0.209567 0.829435
0.597665 0.212299 0.891478
0.613291 0.216587 0.893812
0.652705 0.226368 0.897231
0.744488 0.247501 0.896513
0.852171 0.277928 0.88455
0.850278 0.269383 0.876417
0.80209 0.209369 0.828992
0.80209 0.209415 0.829099
0.802045 0.20972 0.829786
0.576837 0.205707 0.8869
0.58146 0.207507 0.888563
0.61767 0.217792 0.894423
0.713451 0.239963 0.89752
0.838849 0.27335 0.885939
0.854124 0.274464 0.87953
0.802136 0.209049 0.82826
0.802136 0.20911 0.828382
0.80206 0.209613 0.829541
0.590585 0.23621 0.910964
0.582422 0.217914 0.897261
0.576684 0.206088 0.887556
0.655848 0.227253 0.897551
0.805814 0.263066 0.889738
0.859174 0.281743 0.88452
0.802167 0.208881 0.827878
0.802152 0.208942 0.828
0.802075 0.209476 0.829236
0.580728 0.694148 1
0.582742 0.691615 1
0.592096 0.675288 1
0.631601 0.648127 1
0.82179 0.571588 0.98172
0.937545 0.559091 0.954086
0.934936 0.51545 0.952193
0.934173 0.502251 0.951583
0.934676 0.517113 0.953246
0.533089 0.893034 0.948531
0.543938 0.89546 0.94934
0.552483 0.895521 0.949203
0.549325 0.891279 0.950256
0.662379 0.887663 0.949752
0.909148 0.85362 0.964279
0.951873 0.849729 0.9552
0.952056 0.842695 0.953735
0.951736 0.849668 0.955337
0.653742 0.935699 0.936828
0.659693 0.936858 0.938079
0.665293 0.93727 0.93846
0.671641 0.937163 0.939116
0.700526 0.937469 0.941665
0.867689 0.94728 0.955062
0.954223 0.951217 0.966232
0.966812 0.951186 0.965301
0.966766 0.951736 0.965927
0.757717 0.946944 0.944167
0.758602 0.947829 0.94583
0.757733 0.947784 0.945846
0.754223 0.947234 0.944884
0.746303 0.946242 0.943282
0.874708 0.959289 0.957015
0.952987 0.968505 0.967254
0.970825 0.970443 0.969802
0.972946 0.969741 0.969802
0.765423 0.947677 0.945129
0.764721 0.948531 0.946578
0.763256 0.948425 0.946487
0.760021 0.947936 0.945907
0.753689 0.946731 0.943847
0.882597 0.960296 0.958251
0.954223 0.970138 0.968429
0.970184 0.97261 0.971771
0.975265 0.971572 0.96968
0.619028 0.218189 0.894499
0.634791 0.22211 0.896086
0.675563 0.231525 0.897871
0.76347 0.252049 0.894774
0.857969 0.280598 0.884398
0.845792 0.263294 0.871992
0.80209 0.209369 0.828992
0.802106 0.209293 0.828809
0.802045 0.209644 0.829633
0.600931 0.213306 0.892103
0.616693 0.217639 0.894377
0.656001 0.227222 0.897505
0.747967 0.24828 0.896162
0.854246 0.278767 0.884428
0.8486 0.267048 0.874739
0.80209 0.209369 0.828992
0.80209 0.209415 0.829099
0.802029 0.209766 0.829892
0.576806 0.205783 0.887022
0.584665 0.208652 0.889464
0.621103 0.218738 0.894835
0.717067 0.24097 0.897658
0.84097 0.274113 0.885695
0.853101 0.27303 0.878523
0.802136 0.209049 0.82826
0.802136 0.20911 0.828382
0.80206 0.209613 0.829541
0.585763 0.224445 0.902113
0.576684 0.206088 0.887556
0.576684 0.206088 0.887556
0.656321 0.227375 0.897566
0.806836 0.263355 0.889601
0.858961 0.281407 0.884276
0.802167 0.208881 0.827878
0.802152 0.208942 0.828
0.802075 0.209476 0.829236
0.592371 0.674632 1
0.594263 0.671824 1
0.603189 0.654658 1
0.636713 0.626001 1
0.822782 0.55404 0.980224
0.936721 0.54168 0.95404
0.932815 0.493736 0.951095
0.930999 0.48159 0.949813
0.932754 0.499672 0.952087
0.550576 0.891539 0.949386
0.552773 0.893416 0.950057
0.552102 0.89305 0.950057
0.544518 0.887999 0.951476
0.660243 0.883558 0.950439
0.910613 0.845945 0.964096
0.951492 0.841978 0.95523
0.951232 0.835416 0.95433
0.951446 0.843565 0.955367
0.681163 0.936996 0.939269
0.682078 0.937713 0.939971
0.681987 0.937713 0.939971
0.679744 0.936996 0.9402
0.702327 0.936599 0.942351
0.867918 0.946242 0.955139
0.955261 0.94966 0.96669
0.9664 0.949798 0.96582
0.96643 0.950347 0.966171
0.76524 0.947982 0.945739
0.76495 0.948547 0.946578
0.764233 0.948547 0.946593
0.760327 0.948089 0.946197
0.758175 0.947967 0.94609
0.878294 0.960433 0.959625
0.951934 0.968215 0.969055
0.970397 0.96994 0.971847
0.972107 0.970489 0.972351
0.765179 0.948119 0.945968
0.76495 0.948547 0.946578
0.764935 0.948577 0.946624
0.764935 0.948577 0.946624
0.770047 0.949157 0.947219
0.887648 0.961547 0.960861
0.953689 0.97052 0.970352
0.970703 0.972946 0.973159
0.973877 0.973465 0.973022
