bundles/resolve-cinematic-luts/Phantom Luts/Ursa G2 Phntm Arri LUTs - V1/Gen5/Standard (No WB Offset)/Tungsten Ursa Legacy V1 - Gen5.cube
TITLE "Generated by Resolve"
LUT_3D_SIZE 5
0.0172122 0.0162356 0.0214694
0.104158 0.022797 0.0371099
0.599329 0.0243839 0.124315
0.690776 0.048249 0.184482
0.692134 0.0488594 0.18674
0.0375372 0.116899 0.0692912
0.0915236 0.117052 0.046891
0.585351 0.022858 0.0892958
0.687404 0.0485542 0.169253
0.690913 0.0489204 0.180911
0.0544137 0.574823 0.206439
0.0904555 0.58439 0.180819
0.564279 0.65597 0.0977646
0.898039 0.659144 0.206226
0.901823 0.663569 0.213855
0.0966506 0.765484 0.371405
0.186709 0.750225 0.234623
0.388296 0.751476 0.127855
0.961715 0.821256 0.324208
0.962692 0.821988 0.325185
0.0949874 0.773587 0.422751
0.174319 0.751369 0.248463
0.362432 0.748516 0.12987
0.957702 0.819013 0.321004
0.962692 0.821942 0.325154
0.0214389 0.0244907 0.10782
0.113359 0.0309758 0.109606
0.621592 0.0288701 0.202747
0.691188 0.0487526 0.182864
0.692561 0.0493477 0.18526
0.0359503 0.100206 0.103182
0.0842298 0.0995804 0.106294
0.584253 0.0226291 0.131762
0.690806 0.0485695 0.182315
0.692226 0.0490578 0.185657
0 0.556268 0.308843
0.0175174 0.553567 0.223102
0.553491 0.635599 0.0903487
0.888136 0.623117 0.195499
0.890059 0.628534 0.198169
0.0984665 0.784863 0.493736
0.0962234 0.770687 0.40444
0.339055 0.747112 0.136156
0.961425 0.821027 0.323934
0.962692 0.821988 0.325185
0.117983 0.797665 0.549477
0.093904 0.775174 0.435035
0.297169 0.745083 0.146914
0.952178 0.816571 0.31725
0.962661 0.822171 0.325322
0.0884413 0.0673991 0.543084
0.23183 0.0643015 0.553567
0.660639 0.0850843 0.544839
0.73695 0.101747 0.566522
0.737438 0.102495 0.569421
0.0185245 0.0588083 0.472374
0.119997 0.0666819 0.533364
0.6177 0.0775158 0.517052
0.735073 0.0986038 0.517922
0.736217 0.100618 0.522698
0.0397803 0.576211 0.549065
0.0391089 0.5776 0.550027
0.589639 0.599084 0.581567
0.956146 0.599863 0.56875
0.956222 0.597345 0.576867
0.298497 0.879103 0.800641
0.274556 0.871321 0.780179
0.166476 0.806058 0.554009
0.961517 0.836454 0.378439
0.962707 0.821988 0.325261
0.408515 0.900633 0.85658
0.358785 0.889845 0.828046
0.158038 0.810422 0.57702
0.941878 0.830137 0.373602
0.962676 0.822126 0.325292
0.512001 0.184512 0.852781
0.566735 0.186145 0.853361
0.801602 0.222995 0.831037
0.755291 0.167102 0.782315
0.77499 0.189425 0.802701
0.474693 0.176349 0.843778
0.505455 0.17882 0.847303
0.779568 0.211734 0.827985
0.748714 0.159701 0.775036
0.763027 0.176013 0.790585
0.185672 0.616358 0.870344
0.272969 0.632593 0.923766
0.763531 0.545846 0.983856
0.910887 0.457496 0.929366
0.910689 0.458488 0.930953
0.512123 0.933165 0.926177
0.52253 0.934249 0.928313
0.55465 0.93344 0.926589
0.945815 0.946258 0.944533
0.95053 0.946059 0.944884
0.683635 0.939864 0.937209
0.676234 0.93962 0.93698
0.653559 0.937591 0.933333
0.938277 0.949767 0.947768
0.951537 0.95053 0.943893
0.553216 0.206226 0.870497
0.61593 0.214923 0.874037
0.830671 0.258625 0.856931
0.790936 0.207416 0.817548
0.790875 0.207797 0.818463
0.509377 0.198154 0.863615
0.555932 0.206729 0.870924
0.821225 0.253635 0.855863
0.790982 0.207095 0.8168
0.79089 0.20766 0.818158
0.544793 0.630991 0.997803
0.554086 0.609232 1
0.811872 0.506706 0.960739
0.910307 0.454246 0.92961
0.910842 0.459922 0.931105
0.650172 0.938033 0.93521
0.651469 0.938704 0.935866
0.670787 0.93875 0.937621
0.947433 0.943023 0.949645
0.949798 0.942824 0.949248
0.740307 0.942107 0.939696
0.740124 0.942412 0.940307
0.745586 0.942687 0.940642
0.943786 0.950652 0.950729
0.950896 0.950668 0.950439
