bundles/resolve-cinematic-luts/Phantom Luts/Ursa G2 Phntm Arri LUTs - V1/Gen5/Standard (No WB Offset)/Tungsten Ursa V1 - Gen5.cube
TITLE "Generated by Resolve"
LUT_3D_SIZE 5
0.00947585 0.00981155 0.0162966
0.12311 0.00695811 0.0262303
0.633341 0.0332494 0.10103
0.717083 0.0665599 0.171283
0.718975 0.0674754 0.174105
0.0270085 0.1393 0.0651408
0.0802625 0.141222 0.0344854
0.612406 0.0301213 0.0687572
0.709621 0.0656901 0.15256
0.715419 0.0668193 0.165591
0 0.6206 0.265782
0 0.623743 0.230549
0.533715 0.639841 0.0495766
0.89778 0.654856 0.210208
0.900496 0.656886 0.214893
0.0915999 0.781949 0.432914
0.0758679 0.761532 0.318975
0.226398 0.754513 0.107225
0.943603 0.837156 0.320974
0.967788 0.844953 0.343191
0.106142 0.792599 0.482368
0.0753948 0.763043 0.331609
0.191363 0.752834 0.123156
0.92549 0.832364 0.307591
0.967758 0.84506 0.343175
0.00750744 0.0189975 0.129107
0.13753 0.0228733 0.128588
0.689708 0.0443122 0.224857
0.716289 0.0668498 0.168078
0.717784 0.0674754 0.170565
0.0293736 0.113375 0.115099
0.090898 0.113664 0.120714
0.628855 0.03122 0.111604
0.715938 0.0666819 0.167605
0.717952 0.0672923 0.171664
0 0.609766 0.384314
0 0.604913 0.283604
0.525933 0.625635 0.0440375
0.890623 0.628458 0.200336
0.892409 0.630808 0.203189
0.128985 0.807568 0.548669
0.10016 0.78854 0.464622
0.152789 0.750378 0.142443
0.940108 0.836301 0.318441
0.967849 0.845014 0.343481
0.151781 0.820905 0.600259
0.109865 0.794888 0.493477
0.116426 0.7505 0.183459
0.912276 0.832929 0.297734
0.967742 0.845106 0.343206
0.109697 0.0658885 0.608316
0.293629 0.056733 0.633722
0.70042 0.0765545 0.607584
0.744091 0.0966049 0.635248
0.744381 0.0974899 0.637964
0.0160372 0.0581064 0.537697
0.151675 0.0640574 0.608576
0.677943 0.0681773 0.588968
0.751873 0.0925002 0.596841
0.751614 0.0934157 0.602029
0.0450599 0.626444 0.600732
0.0452277 0.627634 0.601907
0.637659 0.645808 0.630304
0.972915 0.614588 0.5738
0.974975 0.612345 0.581613
0.337697 0.880842 0.793667
0.315969 0.87689 0.779614
0.213489 0.824811 0.597864
0.946639 0.847776 0.376135
0.968048 0.845075 0.344289
0.459159 0.894453 0.838026
0.408591 0.885206 0.812696
0.201053 0.830839 0.619776
0.903593 0.844327 0.355734
0.967697 0.844984 0.342901
0.576089 0.187671 0.870588
0.625406 0.192645 0.86978
0.819699 0.234073 0.851102
0.759762 0.162448 0.78706
0.783734 0.188922 0.811566
0.539361 0.176272 0.861295
0.567559 0.180102 0.863401
0.793042 0.220905 0.848737
0.760311 0.162753 0.786816
0.77499 0.179385 0.802731
0.202304 0.661982 0.882658
0.304875 0.683513 0.945083
0.785397 0.590951 0.994858
0.933654 0.49781 0.951064
0.932723 0.498405 0.952056
0.533806 0.924392 0.911437
0.545495 0.926116 0.91397
0.582864 0.925338 0.913573
0.954345 0.955032 0.95288
0.968688 0.955276 0.953994
0.712215 0.941238 0.93492
0.705196 0.94078 0.934264
0.685359 0.936248 0.92575
0.948882 0.968933 0.960708
0.974899 0.972 0.955047
0.619028 0.218189 0.894499
0.675563 0.231525 0.897871
0.857969 0.280598 0.884398
0.80209 0.209369 0.828992
0.802045 0.209644 0.829633
0.576806 0.205783 0.887022
0.621103 0.218738 0.894835
0.84097 0.274113 0.885695
0.802136 0.209049 0.82826
0.80206 0.209613 0.829541
0.592371 0.674632 1
0.603189 0.654658 1
0.822782 0.55404 0.980224
0.932815 0.493736 0.951095
0.932754 0.499672 0.952087
0.681163 0.936996 0.939269
0.681987 0.937713 0.939971
0.702327 0.936599 0.942351
0.955261 0.94966 0.96669
0.96643 0.950347 0.966171
0.765179 0.948119 0.945968
0.764935 0.948577 0.946624
0.770047 0.949157 0.947219
0.953689 0.97052 0.970352
0.973877 0.973465 0.973022
