bundles/resolve-cinematic-luts/Phantom Luts/Ursa G2 Phntm Arri LUTs - V1/Gen5/Standard (No WB Offset)/Tungsten Ursa Legacy V1 - Gen5.cube
TITLE "Generated by Resolve"
LUT_3D_SIZE 9
0.0172122 0.0162356 0.0214694
0.0294499 0.0175937 0.0234836
0.104158 0.022797 0.0371099
0.30457 0.0256199 0.0721141
0.599329 0.0243839 0.124315
0.685939 0.0483558 0.165011
0.690776 0.048249 0.184482
0.690898 0.0483101 0.184695
0.692134 0.0488594 0.18674
0.025803 0.0396735 0.0398413
0.0283055 0.0379034 0.0324407
0.0905776 0.039292 0.0369421
0.281514 0.0182956 0.0587472
0.584451 0.022385 0.120562
0.685908 0.0485084 0.164309
0.691081 0.0483864 0.184985
0.691112 0.0484016 0.185031
0.69276 0.0491188 0.187732
0.0375372 0.116899 0.0692912
0.0374762 0.116228 0.0669566
0.0915236 0.117052 0.046891
0.308324 0.0933547 0.0641947
0.585351 0.022858 0.0892958
0.682948 0.048661 0.153582
0.687404 0.0485542 0.169253
0.688853 0.0484779 0.175067
0.690913 0.0489204 0.180911
0.06009 0.294453 0.11986
0.0747387 0.298604 0.110903
0.0893416 0.291936 0.0959182
0.266621 0.328603 0.0495155
0.706493 0.356023 0.121279
0.816861 0.254459 0.172107
0.681346 0.05449 0.121721
0.680873 0.0520027 0.131228
0.68217 0.0536507 0.133562
0.0544137 0.574823 0.206439
0.0799115 0.582467 0.189502
0.0904555 0.58439 0.180819
0.180957 0.590677 0.0970779
0.564279 0.65597 0.0977646
0.922744 0.713909 0.242313
0.898039 0.659144 0.206226
0.894469 0.648081 0.203037
0.901823 0.663569 0.213855
0.0943465 0.762646 0.358297
0.109895 0.760174 0.331762
0.137499 0.755657 0.291966
0.156207 0.753216 0.267765
0.450767 0.758267 0.126238
0.874434 0.817914 0.267063
0.962829 0.821912 0.325582
0.962844 0.821836 0.325536
0.962921 0.821805 0.325765
0.0966506 0.765484 0.371405
0.113634 0.761303 0.336034
0.186709 0.750225 0.234623
0.19324 0.74966 0.227771
0.388296 0.751476 0.127855
0.734722 0.797559 0.196368
0.961715 0.821256 0.324208
0.962692 0.821836 0.325063
0.962692 0.821988 0.325185
0.0969711 0.769406 0.397116
0.0988479 0.764416 0.364004
0.169528 0.75169 0.253788
0.193698 0.749187 0.226459
0.340688 0.746975 0.1346
0.693004 0.790204 0.18027
0.957061 0.818723 0.320546
0.962707 0.821576 0.324834
0.962676 0.822095 0.325277
0.0949874 0.773587 0.422751
0.0953231 0.765942 0.374792
0.174319 0.751369 0.248463
0.193698 0.749187 0.226459
0.362432 0.748516 0.12987
0.706889 0.792386 0.185245
0.957702 0.819013 0.321004
0.962707 0.821607 0.324865
0.962692 0.821942 0.325154
0.0151064 0.0184939 0.0400854
0.0335851 0.0203708 0.0416419
0.104982 0.0264591 0.0564126
0.309422 0.0286717 0.0890974
0.604501 0.0254063 0.142473
0.686931 0.0488746 0.166232
0.691844 0.0487373 0.18613
0.692012 0.0487984 0.186511
0.693202 0.0493172 0.188434
0.0239719 0.0356451 0.0420233
0.0238193 0.0339666 0.0409094
0.0939956 0.0335851 0.0462196
0.286656 0.0269169 0.0743572
0.588647 0.02327 0.127352
0.686976 0.0489815 0.165881
0.692164 0.0488594 0.186755
0.69221 0.0488899 0.186862
0.693202 0.0493172 0.188479
0.0383154 0.106645 0.083772
0.0359197 0.106935 0.0730907
0.0851759 0.109682 0.0470588
0.307057 0.0775464 0.0624399
0.577935 0.0218051 0.0931563
0.683726 0.0487373 0.15581
0.688426 0.0487068 0.172335
0.690761 0.0485847 0.182086
0.69192 0.0490578 0.184253
0.040589 0.278935 0.141131
0.0495155 0.281086 0.125246
0.0778058 0.283635 0.103014
0.259617 0.318929 0.0500649
0.731243 0.322347 0.137667
0.79411 0.213916 0.161639
0.681056 0.0527047 0.128557
0.679789 0.0505379 0.135256
0.681956 0.0535134 0.134463
0.00503548 0.567834 0.244495
0.0354314 0.568444 0.218494
0.0885634 0.577096 0.177859
0.16286 0.585977 0.113451
0.560174 0.648981 0.0951095
0.919554 0.705333 0.236576
0.89308 0.644938 0.200809
0.890959 0.633524 0.199268
0.896391 0.649027 0.20676
0.0882429 0.767651 0.397452
0.0870832 0.764706 0.377081
0.126238 0.75758 0.307774
0.144915 0.754635 0.282002
0.434318 0.756298 0.125811
0.873487 0.817472 0.266453
0.962814 0.821897 0.325567
0.96286 0.821988 0.325765
0.962951 0.822171 0.326223
0.0950942 0.772931 0.419348
0.0971237 0.768811 0.392493
0.13637 0.75671 0.299351
0.192554 0.749722 0.228458
0.372198 0.749737 0.129656
0.726848 0.796262 0.193149
0.961608 0.82118 0.324102
0.962692 0.821836 0.325063
0.962692 0.821988 0.325185
0.0936599 0.776715 0.44416
0.0955825 0.772168 0.414359
0.119799 0.759686 0.324834
0.193698 0.749187 0.226459
0.319219 0.745663 0.137972
0.682765 0.788495 0.176745
0.955764 0.818158 0.319631
0.962707 0.821561 0.324819
0.962676 0.82208 0.325261
0.0934615 0.780545 0.470115
0.0946517 0.773953 0.42594
0.120348 0.759731 0.323888
0.193698 0.749187 0.226459
0.343145 0.747036 0.134569
0.698741 0.79118 0.182406
0.955856 0.818204 0.319722
0.962707 0.821607 0.324865
0.962676 0.822126 0.325292
0.0214389 0.0244907 0.10782
0.0457771 0.0256504 0.111299
0.113359 0.0309758 0.109606
0.310994 0.035935 0.142901
0.621592 0.0288701 0.202747
0.693645 0.0485847 0.194705
0.691188 0.0487526 0.182864
0.691371 0.0488136 0.183322
0.692561 0.0493477 0.18526
0.0117189 0.0265049 0.0792248
0.0170596 0.0240177 0.0972305
0.0956283 0.0296025 0.100832
0.294041 0.0316167 0.123201
0.605447 0.0261997 0.178027
0.689876 0.0488746 0.177172
0.691539 0.0488594 0.183856
0.691661 0.0488899 0.184161
0.692683 0.0493477 0.185779
0.0359503 0.100206 0.103182
0.0348363 0.0981308 0.10222
0.0842298 0.0995804 0.106294
0.301869 0.0873732 0.116197
0.584253 0.0226291 0.131762
0.684382 0.0487221 0.158068
0.690806 0.0485695 0.182315
0.691203 0.0486 0.184085
0.692226 0.0490578 0.185657
0.0435035 0.263676 0.183368
0.0413977 0.262135 0.172519
0.0412451 0.260075 0.137011
0.259617 0.301869 0.0671702
0.728267 0.2795 0.143175
0.769894 0.175051 0.150729
0.679622 0.0503243 0.13579
0.679286 0.0496681 0.137957
0.680781 0.0504616 0.138872
0 0.556268 0.308843
0 0.557519 0.287892
0.0175174 0.553567 0.223102
0.13872 0.573343 0.127291
0.553491 0.635599 0.0903487
0.912902 0.689448 0.226352
0.888136 0.623117 0.195499
0.886641 0.61207 0.193896
0.890059 0.628534 0.198169
0.0814374 0.774502 0.460105
0.0827039 0.772915 0.441962
0.0871901 0.76611 0.386328
0.138338 0.755505 0.290669
0.395773 0.752117 0.127047
0.869688 0.81706 0.264149
0.962814 0.821881 0.325521
0.96289 0.822065 0.325948
0.962936 0.822126 0.326116
0.0984665 0.784863 0.493736
0.0933242 0.780621 0.471809
0.0962234 0.770687 0.40444
0.191226 0.749828 0.229694
0.339055 0.747112 0.136156
0.711894 0.793576 0.187381
0.961425 0.821027 0.323934
0.962692 0.821836 0.325063
0.962692 0.821988 0.325185
0.106722 0.790372 0.518044
0.0992142 0.785214 0.494255
0.0945144 0.773617 0.424781
0.189548 0.749538 0.230793
0.281025 0.745144 0.157931
0.670451 0.786542 0.172625
0.952697 0.816785 0.317586
0.962722 0.821515 0.324788
0.962676 0.822049 0.325246
0.117983 0.797665 0.549477
0.105364 0.789517 0.513848
0.093904 0.775174 0.435035
0.188144 0.749645 0.232242
0.297169 0.745083 0.146914
0.681849 0.788388 0.176577
0.952178 0.816571 0.31725
0.962707 0.821607 0.324865
0.962661 0.822171 0.325322
0.0288701 0.0401007 0.273335
0.0679332 0.0400092 0.280003
0.151904 0.0376135 0.281468
0.329976 0.0519875 0.278889
0.626139 0.0508888 0.326406
0.708171 0.0528725 0.351202
0.707164 0.0507362 0.330205
0.70663 0.0497444 0.319692
0.707591 0.050309 0.323613
0.0171359 0.0381018 0.255146
0.0229343 0.0387884 0.260975
0.120607 0.0376135 0.277409
0.311254 0.0504616 0.263478
0.608881 0.0449836 0.301564
0.70631 0.0496986 0.321569
0.706462 0.0493629 0.291875
0.706249 0.0492561 0.284245
0.707439 0.0498512 0.290425
0.00347906 0.0805829 0.203769
0.000228885 0.0718395 0.217105
0.0474556 0.049958 0.259236
0.283543 0.0542 0.24564
0.579797 0.0429999 0.274357
0.705882 0.0491188 0.294499
0.704631 0.0486915 0.266255
0.703914 0.0485695 0.259159
0.705394 0.049134 0.266712
0.047776 0.260395 0.250111
0.0472419 0.25893 0.249363
0.0472572 0.251972 0.242634
0.2878 0.295476 0.29218
0.694499 0.282032 0.310735
0.793912 0.163134 0.240406
0.6795 0.0500649 0.136538
0.680232 0.0496376 0.140963
0.681849 0.0504158 0.142214
0.000885023 0.5561 0.418631
0 0.556573 0.411566
0 0.548928 0.379049
0 0.534813 0.26978
0.547951 0.595117 0.134813
0.906264 0.639643 0.228763
0.886259 0.609277 0.193347
0.884489 0.594827 0.191058
0.886183 0.611521 0.19263
0.106798 0.790768 0.565576
0.104524 0.790066 0.558053
0.0924697 0.783413 0.521416
0.0873884 0.767758 0.39765
0.314015 0.746838 0.15256
0.885863 0.813031 0.276509
0.962829 0.821927 0.325628
0.962768 0.821683 0.32517
0.962737 0.821637 0.325048
0.146014 0.814343 0.615381
0.139223 0.810483 0.600595
0.118242 0.797955 0.551629
0.0957198 0.771817 0.411658
0.289876 0.745418 0.151415
0.696834 0.79118 0.182025
0.961105 0.820798 0.323613
0.962692 0.821836 0.325063
0.962692 0.821988 0.325185
0.164828 0.823743 0.642252
0.151995 0.817472 0.624475
0.126513 0.802884 0.571054
0.0941634 0.774578 0.431144
0.228168 0.74699 0.194965
0.64828 0.783123 0.165347
0.944625 0.813489 0.312123
0.962722 0.821485 0.324773
0.962676 0.822019 0.325231
0.198199 0.839063 0.686244
0.175082 0.828794 0.656794
0.137957 0.809552 0.59588
0.093431 0.776242 0.442588
0.244465 0.74609 0.181582
0.656382 0.784268 0.167758
0.942184 0.812222 0.310674
0.962707 0.821607 0.324865
0.962676 0.822126 0.325292
0.0884413 0.0673991 0.543084
0.132235 0.0683146 0.546715
0.23183 0.0643015 0.553567
0.401511 0.0588388 0.546502
0.660639 0.0850843 0.544839
0.737163 0.102083 0.568032
0.73695 0.101747 0.566522
0.737011 0.101732 0.561639
0.737438 0.102495 0.569421
0.0554971 0.0650492 0.528389
0.0814069 0.0663005 0.534569
0.191821 0.0662852 0.550027
0.37882 0.0584421 0.544167
0.646357 0.0822461 0.535027
0.736614 0.100832 0.550744
0.736461 0.100633 0.546334
0.73637 0.100252 0.540566
0.736873 0.101137 0.548379
0.0185245 0.0588083 0.472374
0.038468 0.062211 0.500435
0.119997 0.0666819 0.533364
0.334005 0.0580606 0.535729
0.6177 0.0775158 0.517052
0.735378 0.0988479 0.521248
0.735073 0.0986038 0.517922
0.734829 0.0981308 0.513817
0.736217 0.100618 0.522698
0 0.245701 0.456886
0 0.239048 0.466255
0 0.22005 0.479393
0.257069 0.180056 0.588113
0.624918 0.165225 0.544762
0.747066 0.11104 0.499535
0.737728 0.100984 0.502342
0.733959 0.0957351 0.492103
0.736141 0.0989853 0.503883
0.0397803 0.576211 0.549065
0.0399634 0.579232 0.552483
0.0391089 0.5776 0.550027
0.0495155 0.56997 0.542458
0.589639 0.599084 0.581567
0.954772 0.618448 0.617487
0.956146 0.599863 0.56875
0.956024 0.585214 0.560479
0.956222 0.597345 0.576867
0.157214 0.811246 0.688121
0.158785 0.813138 0.689342
0.154055 0.811582 0.678798
0.134463 0.801846 0.638514
0.232898 0.778393 0.504814
0.832639 0.837629 0.465003
0.951965 0.851347 0.509987
0.957946 0.839231 0.425269
0.956863 0.841901 0.43624
0.298497 0.879103 0.800641
0.298451 0.87895 0.799863
0.274556 0.871321 0.780179
0.199588 0.842847 0.706279
0.166476 0.806058 0.554009
0.636637 0.816693 0.463966
0.961517 0.836454 0.378439
0.962722 0.821851 0.325185
0.962707 0.821988 0.325261
0.363912 0.890913 0.831388
0.356039 0.889372 0.826749
0.3234 0.881086 0.804318
0.231861 0.852293 0.723522
0.133822 0.802319 0.554376
0.55172 0.798947 0.439673
0.947662 0.825299 0.342977
0.962722 0.821332 0.324636
0.962692 0.821942 0.325154
0.408515 0.900633 0.85658
0.393973 0.897887 0.849332
0.358785 0.889845 0.828046
0.260395 0.862303 0.752468
0.158038 0.810422 0.57702
0.570123 0.807568 0.469368
0.941878 0.830137 0.373602
0.962707 0.821607 0.324865
0.962676 0.822126 0.325292
0.237903 0.098497 0.731121
0.262745 0.0977188 0.737606
0.334264 0.09514 0.7523
0.470817 0.09131 0.759899
0.67541 0.115572 0.744686
0.721141 0.128969 0.74377
0.716045 0.125475 0.742626
0.716381 0.125597 0.742473
0.716701 0.126909 0.745144
0.20296 0.0983139 0.719188
0.23032 0.0982986 0.728206
0.303929 0.0963302 0.746868
0.44741 0.091371 0.75996
0.662272 0.111604 0.744198
0.721828 0.128542 0.741772
0.715084 0.12401 0.740536
0.715053 0.124147 0.740902
0.715709 0.125307 0.742794
0.186984 0.0970321 0.711757
0.187228 0.0973373 0.712337
0.23798 0.0979477 0.729946
0.400015 0.0919966 0.757763
0.6327 0.103655 0.74406
0.722881 0.127306 0.737194
0.71458 0.120638 0.733166
0.714443 0.120363 0.732723
0.715221 0.121981 0.735576
0 0.157 0.63566
0.00323491 0.144427 0.641489
0.0297093 0.117433 0.64741
0.297597 0.0949874 0.741909
0.57966 0.101976 0.753994
0.727657 0.127031 0.728786
0.716991 0.117983 0.723003
0.71574 0.11667 0.721691
0.716152 0.11957 0.728298
0.0732128 0.575448 0.749767
0.074815 0.575326 0.753414
0.0751049 0.568643 0.7579
0.0789197 0.559991 0.770321
0.657359 0.585351 0.991562
0.918227 0.51783 0.897444
0.91136 0.461219 0.895552
0.90808 0.442206 0.891951
0.910842 0.458747 0.899733
0.221012 0.837568 0.81181
0.224964 0.841016 0.816098
0.22652 0.842512 0.817487
0.224445 0.84097 0.815
0.45333 0.86569 0.843214
0.871931 0.878218 0.867567
0.948135 0.879957 0.872709
0.948379 0.87808 0.870817
0.947997 0.884108 0.877775
0.445975 0.918486 0.896025
0.451942 0.919509 0.897948
0.447684 0.918303 0.895582
0.423499 0.913787 0.885588
0.460456 0.904509 0.866606
0.771328 0.919646 0.871763
0.947967 0.934905 0.841428
0.955367 0.939193 0.862638
0.9552 0.940581 0.869612
0.561776 0.927764 0.915297
0.560128 0.927855 0.915465
0.54963 0.926345 0.912688
0.518105 0.921111 0.901991
0.469642 0.909865 0.878401
0.729854 0.914839 0.870954
0.930297 0.936126 0.849088
0.955779 0.928344 0.811154
0.955566 0.928817 0.812512
0.589471 0.931792 0.92314
0.584619 0.93138 0.922332
0.572183 0.929641 0.919005
0.538567 0.924666 0.909072
0.501961 0.914137 0.887724
0.7458 0.920317 0.884413
0.925841 0.938094 0.861067
0.95581 0.929473 0.815595
0.955383 0.925628 0.798428
0.512001 0.184512 0.852781
0.522972 0.182589 0.85124
0.566735 0.186145 0.853361
0.678203 0.199313 0.848844
0.801602 0.222995 0.831037
0.786862 0.202747 0.813535
0.755291 0.167102 0.782315
0.767666 0.180591 0.79411
0.77499 0.189425 0.802701
0.494774 0.182513 0.850309
0.506355 0.181689 0.850095
0.545983 0.18436 0.852399
0.65684 0.196841 0.851164
0.798306 0.221653 0.830991
0.786496 0.20235 0.813184
0.750088 0.161563 0.777157
0.757 0.168994 0.784146
0.766125 0.179675 0.794247
0.474693 0.176349 0.843778
0.476036 0.177325 0.844892
0.505455 0.17882 0.847303
0.611963 0.18854 0.851118
0.779568 0.211734 0.827985
0.7823 0.197223 0.808392
0.748714 0.159701 0.775036
0.751812 0.163119 0.778241
0.763027 0.176013 0.790585
0.395361 0.180835 0.8365
0.419074 0.179202 0.83978
0.441733 0.171618 0.836957
0.520928 0.163973 0.835004
0.723201 0.185473 0.820645
0.77171 0.184985 0.797665
0.727413 0.137057 0.753674
0.727275 0.136934 0.753597
0.72781 0.137987 0.755322
0.185672 0.616358 0.870344
0.210849 0.625208 0.888182
0.272969 0.632593 0.923766
0.39826 0.633036 0.971588
0.763531 0.545846 0.983856
0.919402 0.516793 0.937133
0.910887 0.457496 0.929366
0.907469 0.438621 0.926772
0.910689 0.458488 0.930953
0.34374 0.891096 0.929519
0.354177 0.895537 0.932982
0.366445 0.898909 0.936553
0.386511 0.899916 0.942336
0.574166 0.909285 0.958968
0.895018 0.854841 0.957015
0.942718 0.843778 0.945968
0.94258 0.835981 0.94612
0.942763 0.845197 0.946288
0.512123 0.933165 0.926177
0.520394 0.934112 0.928038
0.52253 0.934249 0.928313
0.516182 0.933806 0.927443
0.55465 0.93344 0.926589
0.839475 0.943069 0.939513
0.945815 0.946258 0.944533
0.950713 0.945464 0.943908
0.95053 0.946059 0.944884
0.666423 0.938735 0.935546
0.666239 0.939071 0.936217
0.663142 0.938933 0.936049
0.654139 0.938537 0.935286
0.644068 0.936812 0.932021
0.851102 0.945708 0.943328
0.939269 0.949569 0.947005
0.951873 0.949722 0.942809
0.951598 0.950103 0.944595
0.683635 0.939864 0.937209
0.681712 0.939849 0.93724
0.676234 0.93962 0.93698
0.663233 0.938888 0.935943
0.653559 0.937591 0.933333
0.856336 0.945998 0.943816
0.938277 0.949767 0.947768
0.951583 0.950301 0.944213
0.951537 0.95053 0.943893
0.550256 0.205936 0.870451
0.567041 0.208408 0.872038
0.611887 0.214374 0.873976
0.723354 0.231022 0.867216
0.829984 0.257984 0.856565
0.824567 0.249928 0.850584
0.790936 0.207416 0.817548
0.790951 0.207324 0.817349
0.790875 0.207797 0.818463
0.531212 0.202808 0.867933
0.547799 0.205676 0.870375
0.590387 0.211597 0.873472
0.701778 0.22742 0.869505
0.829297 0.256825 0.855756
0.826444 0.252445 0.852415
0.790936 0.207416 0.817563
0.790936 0.207462 0.817685
0.79086 0.207904 0.818708
0.509377 0.198154 0.863615
0.514061 0.199405 0.864988
0.55227 0.206195 0.870619
0.660731 0.22092 0.872663
0.819333 0.252903 0.85594
0.829328 0.256123 0.85449
0.790982 0.207095 0.8168
0.790982 0.207156 0.816938
0.79089 0.20766 0.818158
0.520577 0.220798 0.881025
0.513832 0.207416 0.871199
0.50927 0.198444 0.864164
0.594186 0.212268 0.873701
0.784527 0.243259 0.85977
0.83299 0.26128 0.858122
0.791012 0.206943 0.816403
0.790997 0.207004 0.816556
0.790921 0.207523 0.817823
0.53434 0.651804 0.992218
0.535775 0.649149 0.993606
0.544656 0.631785 0.998718
0.585 0.603662 1
0.811276 0.524376 0.963912
0.919234 0.515862 0.936843
0.913878 0.475288 0.932128
0.911864 0.462852 0.930816
0.913863 0.477058 0.933288
0.519448 0.914534 0.957839
0.528222 0.915801 0.957397
0.53576 0.915434 0.956939
0.533608 0.91075 0.95819
0.644038 0.90396 0.956405
0.914687 0.844617 0.951583
0.942611 0.840848 0.945953
0.94258 0.834089 0.946197
0.942702 0.8421 0.946365
0.623545 0.937255 0.933761
0.629419 0.93785 0.934798
0.634821 0.938064 0.935058
0.64065 0.938186 0.935088
0.669108 0.938979 0.936782
0.86273 0.944747 0.946456
0.946899 0.943832 0.949584
0.950088 0.943511 0.948852
0.94992 0.943893 0.949371
0.732113 0.941634 0.939086
0.733318 0.942016 0.939788
0.732357 0.942016 0.939803
0.729061 0.941649 0.939223
0.719982 0.941238 0.938643
0.867399 0.947112 0.946197
0.943191 0.950103 0.949691
0.951019 0.950393 0.94992
0.950881 0.950713 0.9505
0.740185 0.942306 0.940108
0.739895 0.942382 0.94023
0.738338 0.942336 0.9402
0.735042 0.942046 0.939757
0.727764 0.941451 0.938888
0.87657 0.947372 0.946548
0.943725 0.950286 0.950072
0.950881 0.950698 0.950469
0.950759 0.951003 0.951034
0.553216 0.206226 0.870497
0.571206 0.208972 0.872358
0.61593 0.214923 0.874037
0.728634 0.23183 0.866468
0.830671 0.258625 0.856931
0.823133 0.248005 0.849195
0.790936 0.207416 0.817548
0.790951 0.207324 0.817334
0.790875 0.207797 0.818463
0.534264 0.203067 0.868086
0.551156 0.206165 0.870665
0.594232 0.212146 0.873594
0.707134 0.228122 0.868818
0.829725 0.257237 0.855955
0.825132 0.250675 0.851148
0.790936 0.207416 0.817563
0.790921 0.207462 0.81767
0.79086 0.207889 0.818677
0.509377 0.198154 0.863615
0.51725 0.2 0.865507
0.555932 0.206729 0.870924
0.665476 0.221714 0.87245
0.821225 0.253635 0.855863
0.828687 0.255146 0.853788
0.790982 0.207095 0.8168
0.790982 0.207156 0.816938
0.79089 0.20766 0.818158
0.516274 0.211933 0.874281
0.50927 0.198444 0.864164
0.50927 0.198444 0.864164
0.594644 0.212314 0.873671
0.78555 0.243519 0.859648
0.832837 0.261051 0.857939
0.791012 0.206943 0.816403
0.790997 0.206989 0.816541
0.790921 0.207523 0.817823
0.544793 0.630991 0.997803
0.54667 0.62826 0.999786
0.554086 0.609232 1
0.588678 0.580163 1
0.811872 0.506706 0.960739
0.916854 0.498558 0.935134
0.910307 0.454246 0.92961
0.908034 0.44242 0.927825
0.910842 0.459922 0.931105
0.534585 0.911528 0.957763
0.536675 0.912917 0.957702
0.535363 0.912322 0.957641
0.529763 0.907073 0.959625
0.642008 0.897978 0.955901
0.916289 0.835157 0.951461
0.942367 0.831571 0.946059
0.942321 0.824369 0.94609
0.942809 0.834089 0.946212
0.650172 0.938033 0.93521
0.651408 0.938567 0.935958
0.651469 0.938704 0.935866
0.648081 0.938552 0.935668
0.670787 0.93875 0.937621
0.86363 0.944289 0.946715
0.947433 0.943023 0.949645
0.949859 0.942611 0.948959
0.949798 0.942824 0.949248
0.740764 0.941238 0.938262
0.740536 0.941695 0.938933
0.739803 0.941741 0.93901
0.735698 0.941512 0.938781
0.733303 0.94136 0.938643
0.872557 0.946822 0.945678
0.943511 0.949752 0.949035
0.950912 0.950652 0.950393
0.950912 0.950652 0.950393
0.740307 0.942107 0.939696
0.740139 0.942382 0.940246
0.740124 0.942412 0.940307
0.740124 0.942412 0.940307
0.745586 0.942687 0.940642
0.882689 0.948043 0.947402
0.943786 0.950652 0.950729
0.950744 0.951019 0.95108
0.950896 0.950668 0.950439
