bundles/resolve-cinematic-luts/Phantom Luts/Ursa G2 Phntm Arri LUTs - V1/Gen5/Standard (No WB Offset)/Utopia Ursa V1 - Gen5.cube
TITLE "Generated by Resolve"
LUT_3D_SIZE 9
0.000762951 0.0280766 0.0361639
0.0207218 0.0267643 0.0361944
0.117937 0.0157778 0.0322271
0.356771 0.00309758 0.019501
0.617273 0.012604 0.0320897
0.745098 0.0326085 0.0606699
0.758724 0.0340581 0.0968338
0.759854 0.033753 0.0965591
0.775555 0.0293736 0.0924392
0.00151064 0.0416419 0.0417029
0.0129854 0.0391699 0.0377203
0.0916457 0.0294957 0.0337072
0.323568 0.00418097 0.0216526
0.603784 0.0112764 0.0292058
0.747768 0.031693 0.0586404
0.761593 0.0332647 0.0961471
0.761624 0.0332494 0.0961471
0.775708 0.0293126 0.0924086
0 0.145708 0.0430152
0 0.139437 0.0333104
0.0683909 0.145495 0.0229496
0.368872 0.0838788 0.0441291
0.601434 0.01355 0.00775158
0.742672 0.0304723 0.0434119
0.753063 0.0323033 0.0692454
0.75436 0.0322423 0.0738231
0.766751 0.0301671 0.0806592
0 0.448829 0.0784314
0 0.449714 0.064271
0 0.440146 0.0171817
0.292622 0.441779 0.0402991
0.67892 0.402228 0.0973526
0.865034 0.309468 0.13814
0.765621 0.052903 0.0378119
0.753231 0.0372473 0.0254673
0.756634 0.0365454 0.0289464
0.00195315 0.789517 0.29456
0.0128786 0.799588 0.256382
0.0125582 0.795483 0.251377
0.0859846 0.797574 0.0813458
0.629465 0.744427 0.147219
0.900969 0.715969 0.201648
0.923095 0.679133 0.170504
0.917311 0.660533 0.160861
0.914687 0.650614 0.160342
0.0445563 0.984405 0.468223
0.0486152 0.989868 0.423011
0.0540017 0.99147 0.402121
0.0729534 0.993851 0.352438
0.527947 0.971176 0.150637
0.877928 0.929229 0.272618
0.999969 0.908965 0.353017
0.999969 0.906477 0.332647
0.999969 0.903944 0.331411
0.078294 0.992935 0.486137
0.0787366 0.994675 0.425559
0.0963302 0.996231 0.346105
0.0964218 0.996246 0.346746
0.375662 0.986587 0.129885
0.774395 0.941253 0.241184
0.980301 0.906035 0.31957
0.999969 0.908461 0.343587
0.999969 0.908553 0.343145
0.081117 0.992386 0.510002
0.0816205 0.993561 0.455253
0.102876 0.995468 0.347066
0.103441 0.995499 0.345373
0.277668 0.991455 0.143374
0.730282 0.946532 0.229587
0.960784 0.915434 0.305257
0.999969 0.907988 0.340627
0.999969 0.908309 0.339712
0.0790265 0.992599 0.523857
0.0779736 0.994095 0.471122
0.0976883 0.995758 0.354788
0.103334 0.995514 0.345327
0.224277 0.994095 0.173007
0.717571 0.948272 0.225864
0.948196 0.923384 0.294865
0.999969 0.907851 0.338674
0.999969 0.908339 0.339284
0 0.0295262 0.0474861
0.0186923 0.0279545 0.0537881
0.126757 0.019791 0.0549325
0.374441 0.00425727 0.043534
0.632502 0.0133364 0.0524147
0.755001 0.0298772 0.0572061
0.768338 0.0313268 0.0940414
0.769528 0.0310369 0.0941329
0.780163 0.0280766 0.0912032
0.000564584 0.0364538 0.0458076
0.0091249 0.0343938 0.0430457
0.0998703 0.0205539 0.0357824
0.336858 0.00408942 0.0220798
0.610941 0.0111391 0.0333715
0.757427 0.0290227 0.0554208
0.771038 0.0306249 0.0936904
0.771099 0.0306096 0.0936751
0.780163 0.0280766 0.0912032
0 0.125429 0.0771954
0 0.126619 0.0484321
0.0635843 0.131472 0.0249638
0.367727 0.0590066 0.0346685
0.600275 0.0102235 0.0096437
0.74699 0.0299229 0.0460059
0.757015 0.0313726 0.0703136
0.761318 0.0317845 0.0831159
0.771603 0.0295262 0.085069
0 0.421164 0.12575
0 0.427619 0.0787976
0 0.429084 0.0347295
0.28127 0.428351 0.0378882
0.686442 0.370764 0.102541
0.85568 0.271305 0.126406
0.752728 0.0364385 0.0231174
0.752194 0.0359197 0.0296635
0.754482 0.0339361 0.0301366
0 0.767529 0.345785
0 0.777493 0.292668
0.0109712 0.786633 0.246571
0.0678874 0.793591 0.112367
0.623407 0.73698 0.143999
0.901701 0.704921 0.194507
0.918349 0.663996 0.161898
0.91252 0.642817 0.159579
0.910063 0.631601 0.159152
0.037583 0.980362 0.512581
0.0379644 0.985702 0.469459
0.0541238 0.991394 0.401556
0.0640116 0.992767 0.371984
0.501366 0.973968 0.14229
0.875822 0.929442 0.272251
0.999969 0.908675 0.349264
0.999969 0.902403 0.328649
0.999939 0.89926 0.326131
0.0796674 0.990707 0.542016
0.0766613 0.992706 0.493965
0.0836957 0.995377 0.381796
0.0908827 0.99585 0.355444
0.329717 0.990326 0.134249
0.771817 0.941543 0.240543
0.978973 0.906065 0.319036
0.999969 0.908507 0.343969
0.999969 0.908568 0.343648
0.0843214 0.99025 0.562203
0.0847486 0.991547 0.517143
0.0860456 0.994308 0.409827
0.103441 0.995499 0.345373
0.234409 0.992828 0.155383
0.7243 0.94728 0.227771
0.959381 0.919295 0.301411
0.999969 0.907958 0.340398
0.999969 0.908324 0.339529
0.0835737 0.990143 0.575051
0.0824903 0.991623 0.53048
0.0820783 0.994278 0.427649
0.103426 0.995499 0.345373
0.200641 0.995682 0.205127
0.711681 0.948959 0.224033
0.940688 0.923705 0.293278
0.999969 0.907835 0.338262
0.999969 0.908339 0.339284
0 0.0341955 0.135439
0.0192874 0.0316014 0.135912
0.13283 0.025864 0.134386
0.401953 0.0133669 0.145327
0.680369 0.0186007 0.163622
0.776638 0.031754 0.131228
0.766552 0.0311284 0.0882124
0.767834 0.0308537 0.0883803
0.778653 0.0278935 0.085832
0 0.0339666 0.0982834
0 0.0331121 0.127275
0.105745 0.0261387 0.118563
0.379538 0.00941482 0.104677
0.663035 0.016083 0.115511
0.77026 0.030457 0.0942245
0.769177 0.0305943 0.0889448
0.769497 0.0305486 0.0892653
0.779004 0.0279393 0.0868391
0 0.111788 0.118074
0 0.108232 0.114656
0.0779736 0.112596 0.120882
0.380331 0.076112 0.0818494
0.612055 0.0115206 0.0393072
0.748486 0.0302281 0.0502174
0.761242 0.0317693 0.0828412
0.763607 0.0320439 0.0898604
0.7729 0.0296635 0.0889906
0 0.384787 0.217639
0 0.383078 0.186648
0 0.392172 0.104097
0.292927 0.40499 0.0500191
0.690562 0.329244 0.116945
0.844358 0.234318 0.114046
0.751339 0.0347448 0.0293584
0.750652 0.031342 0.0367437
0.753002 0.0282444 0.036347
0 0.732021 0.430137
0 0.739055 0.389471
0 0.755749 0.290059
0.0467842 0.780133 0.138155
0.615244 0.723049 0.139391
0.901534 0.686275 0.181155
0.911879 0.639628 0.159197
0.907347 0.618921 0.159106
0.905257 0.607752 0.158434
0.032578 0.966064 0.579644
0.0274815 0.973175 0.5449
0.0360571 0.985229 0.474983
0.0565042 0.99144 0.396551
0.436744 0.979721 0.125353
0.871809 0.929946 0.271702
0.999969 0.905333 0.339818
0.999695 0.893812 0.320211
0.999466 0.890211 0.316976
0.0843061 0.986664 0.622492
0.0788586 0.988281 0.586877
0.0717632 0.991669 0.508827
0.0854047 0.995468 0.364752
0.240635 0.993866 0.148302
0.764691 0.942321 0.238514
0.976287 0.905898 0.318074
0.999969 0.908476 0.34464
0.999969 0.908598 0.344198
0.0950179 0.986648 0.638209
0.0889754 0.988449 0.60293
0.0856794 0.991012 0.527001
0.103441 0.995499 0.345373
0.191592 0.995926 0.214588
0.714336 0.948684 0.224872
0.953429 0.923873 0.295567
0.999969 0.907912 0.340017
0.999969 0.908309 0.339712
0.0953231 0.986481 0.649454
0.0892348 0.988083 0.615076
0.085359 0.990784 0.54078
0.103441 0.995499 0.345373
0.157076 0.996536 0.259251
0.699168 0.950881 0.220478
0.926665 0.925093 0.289326
0.999969 0.907744 0.337453
0.999969 0.908354 0.33901
0 0.0516213 0.359014
0.016022 0.0473335 0.359762
0.150301 0.0379339 0.35552
0.408545 0.0296635 0.358343
0.679561 0.0429236 0.397024
0.774762 0.0480354 0.398444
0.778851 0.0477607 0.381033
0.780316 0.0460059 0.370398
0.788403 0.0425269 0.365072
0 0.0504616 0.34287
0 0.0506142 0.352361
0.102876 0.04065 0.351827
0.387396 0.0293278 0.339437
0.670497 0.0370947 0.365042
0.778912 0.0415656 0.358587
0.783902 0.0396124 0.322606
0.784375 0.0378271 0.311543
0.791974 0.0345769 0.307271
0 0.0877699 0.274769
0 0.072694 0.296544
0.00544747 0.0511025 0.346181
0.350866 0.0307927 0.315114
0.64831 0.0285496 0.313573
0.777844 0.0382849 0.316594
0.782498 0.0364996 0.276585
0.78291 0.0361181 0.268833
0.790143 0.0336767 0.264683
0 0.355612 0.337682
0 0.350759 0.332937
0 0.341482 0.323354
0.334752 0.366842 0.359304
0.706249 0.32929 0.32398
0.866865 0.239399 0.221942
0.751095 0.0345617 0.0303349
0.749432 0.0291295 0.0365454
0.753338 0.0281987 0.0374304
0 0.700618 0.538521
0 0.700145 0.524269
0 0.697353 0.488853
0 0.717952 0.377676
0.635859 0.695766 0.22797
0.913603 0.648844 0.24654
0.908446 0.62501 0.158831
0.903395 0.59884 0.158877
0.901839 0.584772 0.158419
0.0392309 0.937682 0.683284
0.0303807 0.941405 0.665034
0.0233463 0.948165 0.623896
0.0255589 0.968002 0.506188
0.273365 0.992386 0.163134
0.889876 0.922499 0.299489
0.999771 0.896635 0.32546
0.998734 0.882918 0.310201
0.998077 0.878569 0.306218
0.102892 0.981353 0.735973
0.0953078 0.982391 0.714458
0.0846571 0.983993 0.667887
0.0647135 0.989288 0.534371
0.175525 0.997803 0.253285
0.75465 0.943542 0.237125
0.972747 0.90602 0.31725
0.999969 0.908614 0.345968
0.999969 0.908705 0.345785
0.150164 0.983001 0.751354
0.125246 0.983566 0.726864
0.104219 0.984558 0.677455
0.0871901 0.990295 0.544518
0.140322 0.996735 0.289387
0.698589 0.950973 0.220356
0.934295 0.924743 0.291646
0.999969 0.90782 0.339147
0.999969 0.908309 0.339864
0.164462 0.9832 0.762066
0.132326 0.983444 0.737209
0.105669 0.984512 0.687526
0.0881361 0.989502 0.557824
0.113909 0.996063 0.328328
0.665263 0.955734 0.209934
0.897917 0.927871 0.280659
0.999893 0.907393 0.334569
0.999969 0.908339 0.339284
0.00425727 0.0666972 0.60589
0.0906386 0.0621042 0.607706
0.235843 0.0534371 0.606973
0.435981 0.0471046 0.600793
0.682536 0.0640421 0.592523
0.764279 0.0797589 0.614832
0.759731 0.0823529 0.643305
0.760723 0.0818952 0.642695
0.768521 0.0787213 0.648035
0 0.0686656 0.596048
0.0112306 0.0660563 0.60238
0.181811 0.0563821 0.607492
0.410712 0.0470283 0.599847
0.67364 0.06215 0.58439
0.765698 0.078294 0.60087
0.761837 0.0807202 0.62739
0.763058 0.0800946 0.624582
0.770764 0.0769207 0.628412
0 0.066804 0.55172
0 0.0679332 0.579553
0.0794385 0.0623789 0.602625
0.359609 0.0471046 0.594476
0.654231 0.0584421 0.569177
0.765652 0.0769818 0.577005
0.763226 0.0786603 0.595438
0.763699 0.0782788 0.591623
0.769909 0.0758526 0.593835
0 0.309758 0.530327
0 0.294881 0.538796
0 0.26685 0.549813
0.278752 0.201556 0.665797
0.689693 0.188266 0.620829
0.799268 0.111009 0.555337
0.775601 0.0801099 0.538476
0.772244 0.0760815 0.534493
0.776379 0.0737011 0.534279
0 0.669947 0.63856
0 0.668254 0.636942
0 0.663996 0.632136
0 0.659159 0.628
0.625849 0.645319 0.627588
0.92079 0.622858 0.604623
0.927062 0.583139 0.538369
0.925322 0.558038 0.510781
0.924147 0.5449 0.500389
0.0552682 0.906935 0.774853
0.0480964 0.908431 0.769192
0.0434424 0.909438 0.755215
0.0345159 0.912398 0.7205
0.395758 0.935393 0.645747
0.868254 0.906691 0.585977
0.968795 0.872465 0.599588
0.977218 0.863432 0.485985
0.976669 0.85861 0.471809
0.262074 0.972076 0.84831
0.240208 0.97319 0.842023
0.196612 0.974731 0.826261
0.111696 0.977996 0.7776
0.224125 0.990158 0.675639
0.736141 0.982635 0.580484
0.978027 0.921523 0.485298
0.999969 0.908675 0.348959
0.999969 0.908705 0.348211
0.390585 0.969085 0.869917
0.371176 0.970169 0.861997
0.330602 0.973159 0.845045
0.21677 0.979965 0.790753
0.144549 0.986786 0.668147
0.662913 0.991836 0.557763
0.948318 0.933486 0.41091
0.999969 0.907835 0.34052
0.999969 0.908248 0.339864
0.399832 0.968429 0.874357
0.380804 0.969558 0.866453
0.340093 0.972503 0.849104
0.225162 0.979477 0.795575
0.113527 0.985473 0.65893
0.606424 0.996338 0.523781
0.923705 0.934203 0.387198
0.999542 0.907317 0.335332
0.999969 0.908278 0.338674
0.179599 0.0766155 0.769512
0.234089 0.0743267 0.771389
0.335409 0.0715038 0.775494
0.494118 0.0710765 0.776043
0.690471 0.0894484 0.763027
0.754681 0.108263 0.769223
0.74548 0.101122 0.770581
0.745876 0.101701 0.772015
0.752956 0.098909 0.780926
0.122255 0.0788739 0.764889
0.182528 0.0762646 0.768872
0.296361 0.0724193 0.774563
0.468299 0.0707103 0.776867
0.679011 0.0859236 0.762722
0.754391 0.107805 0.765148
0.744762 0.100298 0.767514
0.745525 0.10016 0.768994
0.752941 0.0970474 0.778164
0.10454 0.0791943 0.758572
0.104311 0.0791028 0.762158
0.207416 0.0751965 0.770047
0.413748 0.070573 0.775891
0.653635 0.0797131 0.762036
0.750332 0.108003 0.75288
0.73991 0.0993973 0.7523
0.740871 0.0987869 0.752331
0.749126 0.0950332 0.761532
0 0.198703 0.705043
0 0.165835 0.712276
0 0.124224 0.71667
0.285359 0.0749065 0.76875
0.608499 0.0827497 0.769909
0.760739 0.111849 0.741405
0.745586 0.0994278 0.737911
0.742672 0.0957961 0.734447
0.749264 0.0925612 0.741604
0 0.622065 0.773495
0 0.618341 0.777096
0 0.609705 0.779477
0 0.601083 0.788464
0.615671 0.591348 0.897795
0.918959 0.5673 0.852369
0.920974 0.499123 0.848753
0.9149 0.461006 0.840986
0.910735 0.442191 0.836789
0.0638895 0.882033 0.84715
0.0565957 0.882597 0.84802
0.05449 0.881178 0.84596
0.0513924 0.877546 0.841154
0.462379 0.868498 0.842878
0.853468 0.860273 0.845548
0.962173 0.850889 0.837888
0.961013 0.840146 0.822873
0.959747 0.833921 0.818677
0.373495 0.96347 0.904753
0.36524 0.963607 0.903532
0.351034 0.963928 0.89929
0.31812 0.965164 0.888334
0.454719 0.963394 0.875853
0.776989 0.968872 0.869154
0.960006 0.962264 0.837812
0.980468 0.954482 0.848585
0.97995 0.953094 0.844999
0.552132 0.959991 0.922332
0.543526 0.960143 0.92163
0.53048 0.96083 0.918349
0.499062 0.962051 0.908293
0.470344 0.964996 0.889158
0.73962 0.971664 0.878813
0.923751 0.967285 0.838483
0.983764 0.953964 0.797299
0.986023 0.951705 0.78027
0.556725 0.95996 0.9252
0.549172 0.960052 0.923384
0.535103 0.960494 0.919554
0.501228 0.961975 0.909102
0.439567 0.966491 0.88481
0.700374 0.970779 0.870573
0.900023 0.969314 0.827314
0.977722 0.952941 0.785657
0.987243 0.94844 0.754238
0.429313 0.0974441 0.817212
0.44506 0.0939498 0.816663
0.502998 0.0982071 0.821607
0.62063 0.115068 0.828153
0.760601 0.144228 0.816236
0.779431 0.145068 0.81062
0.767147 0.127947 0.798932
0.772473 0.138277 0.80354
0.78323 0.142748 0.815503
0.411521 0.0995956 0.816663
0.425772 0.0953078 0.816999
0.478492 0.0966812 0.820203
0.598444 0.111284 0.828855
0.752789 0.14197 0.81796
0.778286 0.143389 0.809552
0.766567 0.126909 0.798352
0.768002 0.127901 0.800061
0.774472 0.125887 0.807874
0.390311 0.0963912 0.813458
0.389593 0.0949264 0.815061
0.428229 0.0911879 0.814527
0.550591 0.10164 0.824323
0.730877 0.133028 0.818631
0.770657 0.138933 0.801205
0.760784 0.126375 0.79173
0.761715 0.126757 0.792828
0.768521 0.124025 0.801266
0.28838 0.143648 0.836637
0.322377 0.125292 0.831815
0.33962 0.103899 0.818982
0.458442 0.0907912 0.815442
0.672251 0.109789 0.817411
0.763943 0.130251 0.794827
0.755947 0.12369 0.786618
0.755749 0.122866 0.786557
0.762539 0.119677 0.794827
0 0.634882 0.844709
0 0.637247 0.853819
0.00810254 0.637034 0.861982
0.186557 0.633768 0.888655
0.701778 0.57438 0.955001
0.919875 0.555398 0.937133
0.914443 0.499825 0.929
0.905516 0.459297 0.921996
0.899702 0.440009 0.919753
0.114183 0.860395 0.917876
0.113024 0.859709 0.921141
0.120027 0.856413 0.923095
0.138979 0.848692 0.927016
0.48777 0.847837 0.928588
0.85568 0.835019 0.957244
0.955947 0.827817 0.941588
0.954437 0.813245 0.940597
0.952651 0.806531 0.940078
0.417884 0.954711 0.93312
0.412589 0.954528 0.933883
0.405478 0.954208 0.933135
0.390494 0.953582 0.931624
0.496193 0.948775 0.929351
0.806165 0.946654 0.938354
0.947585 0.946792 0.942168
0.971756 0.945556 0.940597
0.970504 0.943847 0.939681
0.641245 0.959319 0.944701
0.636713 0.959579 0.945602
0.63212 0.959457 0.944747
0.623072 0.959182 0.941894
0.616266 0.959213 0.937743
0.818631 0.965896 0.94699
0.932052 0.97171 0.94754
0.972915 0.970474 0.940902
0.976623 0.971038 0.944717
0.647166 0.959121 0.94548
0.641917 0.959457 0.94612
0.636118 0.959564 0.945571
0.624292 0.959167 0.942214
0.606195 0.959396 0.936584
0.795438 0.965148 0.94461
0.920089 0.971191 0.947662
0.964935 0.970336 0.938827
0.975402 0.970871 0.938827
0.582238 0.218524 0.885618
0.604303 0.22501 0.888853
0.652445 0.237278 0.892424
0.745632 0.258473 0.891279
0.849531 0.285542 0.879713
0.851026 0.281636 0.877043
0.815518 0.204974 0.844541
0.81474 0.205371 0.84329
0.817304 0.204059 0.847257
0.561837 0.212253 0.882704
0.584161 0.21912 0.887037
0.630808 0.232136 0.891249
0.728939 0.254551 0.893477
0.843351 0.283223 0.880079
0.852125 0.284367 0.878187
0.815518 0.204959 0.844541
0.815824 0.204822 0.844999
0.818555 0.203433 0.849165
0.539971 0.204562 0.877897
0.548287 0.207446 0.882567
0.591257 0.221393 0.887907
0.69369 0.246525 0.893767
0.828153 0.278767 0.881727
0.852827 0.288991 0.87718
0.813413 0.206043 0.841245
0.813779 0.205859 0.84181
0.817548 0.203937 0.847639
0.551415 0.249928 0.895582
0.544137 0.220035 0.88719
0.540734 0.206043 0.881682
0.631907 0.233448 0.891615
0.792065 0.269139 0.887327
0.854673 0.29308 0.879026
0.813535 0.209277 0.840635
0.812558 0.206485 0.839948
0.816403 0.204517 0.845899
0.439414 0.663157 0.922667
0.465766 0.653574 0.928496
0.481605 0.632364 0.934844
0.546532 0.607233 0.947082
0.785962 0.581323 0.954574
0.922805 0.571588 0.937453
0.921462 0.542092 0.934585
0.917403 0.514946 0.931182
0.913558 0.503655 0.930983
0.396643 0.866255 0.942306
0.403769 0.864912 0.94258
0.419638 0.862043 0.941695
0.435355 0.85333 0.938735
0.589807 0.849683 0.929076
0.890883 0.830869 0.964126
0.954391 0.826291 0.955962
0.954253 0.815045 0.95378
0.951675 0.808988 0.955062
0.555718 0.94551 0.949798
0.554559 0.945312 0.950957
0.55613 0.944442 0.950988
0.561166 0.941863 0.950866
0.616709 0.938201 0.95137
0.817945 0.939559 0.95729
0.947143 0.940368 0.965866
0.9691 0.939727 0.962966
0.968139 0.938262 0.963119
0.694789 0.959777 0.953841
0.689006 0.960052 0.955413
0.684474 0.959869 0.95491
0.675975 0.959548 0.953597
0.666865 0.959457 0.952422
0.827848 0.965377 0.959609
0.938628 0.967483 0.964645
0.970886 0.967849 0.965225
0.976135 0.967163 0.965423
0.712566 0.960464 0.955947
0.708278 0.960815 0.957076
0.703792 0.960739 0.956664
0.696406 0.960281 0.954772
0.685283 0.959884 0.952316
0.825376 0.965194 0.958999
0.935012 0.970306 0.965331
0.966964 0.972274 0.966567
0.97499 0.972122 0.965698
0.587488 0.22034 0.886397
0.609934 0.226673 0.88957
0.657847 0.238529 0.892683
0.750179 0.259525 0.890974
0.850446 0.286275 0.879789
0.850233 0.279576 0.876265
0.815488 0.204974 0.844511
0.814939 0.205249 0.843748
0.817639 0.203891 0.847791
0.567102 0.214054 0.883619
0.589578 0.220874 0.887663
0.635355 0.23331 0.891539
0.733196 0.255497 0.893065
0.845869 0.284092 0.879927
0.851514 0.282933 0.877546
0.815518 0.204959 0.844541
0.8159 0.204776 0.845121
0.818921 0.20325 0.849729
0.539971 0.204562 0.877897
0.553216 0.209171 0.883192
0.595743 0.222675 0.888365
0.698497 0.247608 0.893828
0.830365 0.279637 0.881498
0.852552 0.288334 0.876905
0.813413 0.206043 0.841245
0.813779 0.205859 0.84181
0.817548 0.203937 0.847639
0.546517 0.228061 0.887663
0.539834 0.2047 0.881239
0.540429 0.204623 0.881224
0.630945 0.232166 0.891188
0.791501 0.26894 0.887205
0.854673 0.293156 0.878965
0.813535 0.209216 0.840635
0.81265 0.206439 0.84007
0.816403 0.204517 0.845899
0.48307 0.632593 0.93402
0.489815 0.62118 0.937743
0.505699 0.597025 0.943648
0.560235 0.570321 0.9514
0.784482 0.54844 0.952941
0.919173 0.538613 0.934844
0.915038 0.504829 0.9299
0.908782 0.472709 0.924758
0.904387 0.459876 0.92369
0.456428 0.861219 0.938704
0.451484 0.858869 0.9393
0.445258 0.853727 0.938323
0.433005 0.842054 0.935699
0.586511 0.8374 0.924437
0.89424 0.815488 0.963714
0.952605 0.811612 0.955215
0.952117 0.800427 0.953262
0.949783 0.794614 0.953735
0.620905 0.942596 0.951247
0.617456 0.942123 0.95227
0.613993 0.940703 0.952087
0.606516 0.937652 0.951354
0.641596 0.934127 0.951522
0.816892 0.936873 0.957015
0.948699 0.936736 0.966293
0.967926 0.936645 0.964492
0.967147 0.934951 0.964843
0.713314 0.960327 0.956451
0.70901 0.960708 0.958129
0.706065 0.960662 0.958099
0.700648 0.960372 0.957763
0.69688 0.96025 0.957595
0.833417 0.964691 0.964401
0.935454 0.965743 0.968887
0.96997 0.966125 0.970047
0.975006 0.96611 0.969192
0.730602 0.960952 0.957641
0.728466 0.961166 0.958846
0.728237 0.961181 0.958968
0.728237 0.961181 0.958968
0.729885 0.961364 0.959121
0.838865 0.965835 0.964828
0.933501 0.970336 0.970169
0.965866 0.97229 0.972076
0.974899 0.97232 0.971511
