bundles/resolve-cinematic-luts/Phantom Luts/Ursa G2 Phntm Arri LUTs - V1/Gen5/Standard (No WB Offset)/Utopia Ursa V1 - Gen5.cube
TITLE "Generated by Resolve"
LUT_3D_SIZE 33
0.000762951 0.0280766 0.0361639
0.000747692 0.0280613 0.0361334
0.000717174 0.0280308 0.0361028
0.0108186 0.0273136 0.0350195
0.0207218 0.0267643 0.0361944
0.0348669 0.0256504 0.0360876
0.0556802 0.0235447 0.0349279
0.0822003 0.0202792 0.0336614
0.117937 0.0157778 0.0322271
0.164248 0.0111696 0.0298161
0.222858 0.00807202 0.0269932
0.289235 0.00520333 0.0234379
0.356771 0.00309758 0.019501
0.427649 0.00183108 0.0167544
0.494285 0.0033875 0.020325
0.556909 0.00712596 0.0258946
0.617273 0.012604 0.0320897
0.672526 0.0191806 0.0371557
0.715846 0.026276 0.0423285
0.737896 0.0310216 0.0516518
0.745098 0.0326085 0.0606699
0.750484 0.0330663 0.0745708
0.75668 0.033814 0.0911421
0.758724 0.0340581 0.0968338
0.758724 0.0340581 0.0968338
0.758724 0.0340581 0.0968338
0.758724 0.0340581 0.0968338
0.759091 0.0339513 0.0967422
0.759854 0.033753 0.0965591
0.761959 0.0331579 0.0960708
0.764904 0.0323339 0.0953384
0.770138 0.030869 0.0939803
0.775555 0.0293736 0.0924392
0.000717174 0.0280308 0.0361028
0.000732433 0.0280461 0.0361181
0.000717174 0.0280308 0.0361028
0.00512703 0.0278019 0.035584
0.0156252 0.0271305 0.0354162
0.0282902 0.0262455 0.0366522
0.0488594 0.0242161 0.0351873
0.0762646 0.0210117 0.0338293
0.112398 0.016495 0.0325017
0.158709 0.0115816 0.0301976
0.216876 0.00833143 0.0272831
0.283925 0.00538643 0.023743
0.352468 0.00325017 0.019791
0.423819 0.002121 0.0171359
0.491325 0.00329595 0.0201572
0.554421 0.00689708 0.0256046
0.615061 0.0123445 0.0318914
0.670832 0.0189517 0.0370336
0.714626 0.0260166 0.0419013
0.737591 0.03093 0.0513466
0.745007 0.0325933 0.060441
0.750347 0.0330816 0.0741588
0.756649 0.0337987 0.0910964
0.758724 0.0340581 0.0968338
0.758724 0.0340581 0.0968338
0.758724 0.0340581 0.0968338
0.758724 0.0340581 0.0968338
0.759091 0.0339513 0.0967422
0.759854 0.033753 0.0965591
0.761959 0.0331579 0.0960708
0.76492 0.0323186 0.0953384
0.770169 0.0308537 0.0939803
0.775601 0.0293584 0.0924392
0.000717174 0.0280308 0.0361028
0.000747692 0.0280613 0.0361486
0.000747692 0.0280613 0.0361334
0.000717174 0.0280308 0.0361028
0.00843824 0.0275425 0.0351873
0.0189059 0.0270848 0.0359045
0.0353704 0.0256199 0.0360266
0.0616007 0.0230106 0.0348211
0.0956893 0.0185702 0.0334478
0.142779 0.0123751 0.0306859
0.203052 0.00892653 0.0278325
0.274723 0.00602731 0.024506
0.347097 0.00375372 0.0206607
0.419364 0.00216678 0.0173037
0.488472 0.0034638 0.0202487
0.552087 0.00677501 0.025391
0.612787 0.0120546 0.0317082
0.669337 0.0186007 0.0367437
0.713603 0.0256504 0.0412757
0.737346 0.0308385 0.0510109
0.7449 0.032578 0.0601663
0.75021 0.0330968 0.0737011
0.756634 0.0337987 0.0910506
0.758724 0.0340581 0.0968338
0.758724 0.0340581 0.0968338
0.758724 0.0340581 0.0968338
0.758724 0.0340581 0.0968338
0.759091 0.0339513 0.0967422
0.759854 0.033753 0.0965591
0.761959 0.0331579 0.0960708
0.76492 0.0323186 0.0953384
0.770199 0.0308537 0.0939498
0.775647 0.0293431 0.0924239
0.00177005 0.0330358 0.0388495
0.00173953 0.0325475 0.0386206
0.00180056 0.0312505 0.0373999
0.004654 0.0311437 0.0371557
0.0119936 0.0317388 0.0370031
0.019852 0.0319677 0.0366522
0.0331731 0.0309606 0.0379034
0.0573129 0.0273289 0.0349432
0.0883955 0.0214694 0.0327916
0.130007 0.0142061 0.0313878
0.186679 0.0100099 0.028809
0.257588 0.0065156 0.0251621
0.332265 0.00399786 0.0212711
0.407843 0.00221256 0.0175021
0.481758 0.00315862 0.0192111
0.549111 0.00679026 0.0252079
0.610803 0.0116732 0.0313878
0.668589 0.0181277 0.0363928
0.713741 0.0250095 0.0403449
0.738811 0.0302892 0.0502785
0.746334 0.0321355 0.0593881
0.751369 0.0327459 0.0728313
0.757717 0.0334936 0.0907301
0.75967 0.0337987 0.0965896
0.759564 0.0338293 0.0966354
0.759457 0.0338598 0.0966506
0.75938 0.033875 0.0966812
0.75964 0.033814 0.0966201
0.76022 0.0336461 0.0964675
0.762142 0.0330968 0.0960098
0.764981 0.0323033 0.0953078
0.77023 0.0308385 0.0939498
0.775677 0.0293278 0.0924239
0.00151064 0.0416419 0.0417029
0.00161746 0.0411994 0.0416571
0.00175479 0.0403601 0.0394903
0.00495918 0.0388952 0.0381933
0.0129854 0.0391699 0.0377203
0.0220645 0.0390936 0.0387732
0.0358587 0.0384375 0.0390478
0.0596933 0.0353246 0.037583
0.0916457 0.0294957 0.0337072
0.134203 0.0198215 0.0294347
0.186328 0.0106661 0.0274662
0.251835 0.00675975 0.0252079
0.323568 0.00418097 0.0216526
0.397833 0.00225834 0.0177005
0.470817 0.00262455 0.0169985
0.53846 0.00587472 0.0217899
0.603784 0.0112764 0.0292058
0.665217 0.0175631 0.0353399
0.712627 0.0244907 0.0393225
0.739742 0.0298772 0.0495766
0.747768 0.031693 0.0586404
0.753109 0.0322576 0.0717327
0.759716 0.0329442 0.0901656
0.761639 0.0332494 0.0961318
0.761593 0.0332647 0.0961471
0.761547 0.0332647 0.0961471
0.761517 0.0332799 0.0961624
0.761532 0.0332647 0.0961776
0.761624 0.0332494 0.0961471
0.762905 0.0328832 0.0958267
0.765225 0.0322423 0.0952468
0.770245 0.0308385 0.0939498
0.775708 0.0293126 0.0924086
0 0.0535744 0.0445106
0 0.0529335 0.0442817
0 0.0519722 0.0418402
0.000457771 0.0506447 0.0377661
0.0078584 0.0501564 0.036286
0.0188602 0.0517128 0.036408
0.0355993 0.0508278 0.0373388
0.0623789 0.0475776 0.0406806
0.0952621 0.0406043 0.0377356
0.139071 0.0322576 0.0323949
0.193851 0.0185855 0.0238193
0.257557 0.00782788 0.0204623
0.324285 0.00421149 0.0187381
0.391821 0.00236515 0.0175631
0.464881 0.00236515 0.0167391
0.531563 0.00531014 0.0189517
0.593957 0.0102083 0.0226749
0.655894 0.0166018 0.0297856
0.707164 0.0238041 0.0365454
0.738628 0.0295567 0.0482338
0.7476 0.0315862 0.0578164
0.753033 0.0322118 0.0706188
0.759869 0.0328527 0.0896773
0.761913 0.0331426 0.095964
0.761944 0.0331579 0.096025
0.761959 0.0331579 0.0960708
0.761959 0.0331579 0.0960708
0.761959 0.0331579 0.0960708
0.761959 0.0331579 0.0960708
0.763073 0.0328374 0.0957961
0.765286 0.0322271 0.0952316
0.770245 0.0308385 0.0939498
0.775738 0.0293126 0.0924086
0 0.0758831 0.0466773
0 0.075288 0.0458839
0 0.0742504 0.045594
0 0.0719463 0.0402991
0 0.0705882 0.0332036
0.0112001 0.0726024 0.0313115
0.0270237 0.0742504 0.0317235
0.062089 0.0707408 0.0393835
0.0977035 0.064744 0.0425574
0.147112 0.0518502 0.0399023
0.202808 0.04094 0.0324865
0.269825 0.0256199 0.023209
0.33518 0.00880446 0.0127871
0.400854 0.00274662 0.0115358
0.466987 0.00241093 0.0130159
0.529549 0.00512703 0.0167849
0.59057 0.00978103 0.0199588
0.651026 0.0157778 0.0238193
0.703609 0.0231022 0.0327153
0.737301 0.0293126 0.0455634
0.746624 0.0313878 0.0551308
0.750652 0.0320439 0.0643931
0.757122 0.032517 0.0821546
0.760678 0.0329595 0.0917983
0.761349 0.0330663 0.094255
0.761639 0.0330968 0.0951858
0.761807 0.0331273 0.0956588
0.761852 0.0331426 0.0957961
0.761868 0.0331426 0.0958267
0.762615 0.032929 0.0956741
0.764126 0.032517 0.0953536
0.767315 0.031632 0.0945907
0.770901 0.0306401 0.0935988
0 0.105776 0.0469215
0 0.10518 0.0450446
0 0.10425 0.045182
0 0.102159 0.0412757
0 0.099443 0.0344091
0 0.100313 0.024033
0.0149538 0.103517 0.0245365
0.0441138 0.104921 0.0273136
0.0950942 0.0992599 0.0415961
0.147601 0.0915694 0.0440223
0.213504 0.0702678 0.0438544
0.28452 0.0553597 0.0357366
0.35227 0.040238 0.0280766
0.416342 0.0233921 0.0179446
0.475486 0.00567636 0.00563058
0.535317 0.00541695 0.00808728
0.591684 0.0096437 0.0151217
0.650889 0.0155642 0.020737
0.701106 0.0225681 0.0275731
0.735363 0.0289464 0.04065
0.744991 0.0310979 0.0508888
0.748699 0.0317845 0.0594644
0.752667 0.0322881 0.0686961
0.755932 0.0324102 0.078172
0.758206 0.0326848 0.0844434
0.759258 0.0327764 0.0876326
0.759731 0.0328527 0.0889296
0.760037 0.0328985 0.089662
0.760342 0.032929 0.0906386
0.761212 0.0327764 0.0912947
0.762951 0.0323796 0.0915999
0.766339 0.0315251 0.0914015
0.770092 0.0305486 0.0908827
0 0.145708 0.0430152
0 0.145144 0.0409552
0 0.144015 0.0411841
0 0.142672 0.040177
0 0.139437 0.0333104
0 0.136645 0.023621
0 0.138796 0.0152132
0.020325 0.144717 0.0169223
0.0683909 0.145495 0.0229496
0.138903 0.136599 0.0434424
0.210834 0.128542 0.0460212
0.294469 0.0994736 0.0504158
0.368872 0.0838788 0.0441291
0.43566 0.0688182 0.0368811
0.497276 0.0512245 0.0278477
0.551904 0.0274662 0.0176699
0.601434 0.01355 0.00775158
0.655528 0.0155337 0.012192
0.701991 0.0220188 0.0221408
0.733974 0.0285039 0.0309911
0.742672 0.0304723 0.0434119
0.746517 0.0313573 0.0530098
0.750118 0.0319982 0.0618906
0.752453 0.0323186 0.0674449
0.753063 0.0323033 0.0692454
0.753353 0.0322881 0.070222
0.753597 0.0322728 0.0709697
0.753811 0.0322576 0.0717937
0.75436 0.0322423 0.0738231
0.75613 0.0321508 0.0762341
0.758572 0.0318456 0.0785077
0.762615 0.0310521 0.079942
0.766751 0.0301671 0.0806592
0 0.20119 0.0394293
0 0.200793 0.0346532
0 0.199695 0.0346227
0 0.198611 0.0349584
0 0.195804 0.0315404
0 0.191379 0.0231632
0 0.190936 0.0101472
0 0.192462 0.00471504
0.0305791 0.202258 0.00743114
0.100023 0.201984 0.0185702
0.196597 0.188296 0.0463874
0.285771 0.184314 0.0480964
0.377951 0.15227 0.0593729
0.452476 0.134981 0.0589761
0.521416 0.120882 0.0556191
0.581628 0.102327 0.049836
0.63389 0.0749828 0.0394446
0.679057 0.04094 0.0271763
0.713817 0.0269932 0.0171511
0.73994 0.0281071 0.0225834
0.743236 0.0287327 0.0277714
0.746624 0.0297704 0.0419318
0.749691 0.0306401 0.0516823
0.751598 0.0311742 0.0576333
0.752148 0.0314031 0.0601663
0.752392 0.0315404 0.0616159
0.752636 0.0316625 0.0628367
0.752819 0.0317845 0.0638285
0.752987 0.0318761 0.0647593
0.753674 0.0317998 0.0654459
0.755108 0.0314946 0.0657359
0.758221 0.0307164 0.0653849
0.761761 0.0297856 0.0646983
0 0.271794 0.0421454
0 0.27248 0.0349737
0 0.271489 0.0346075
0 0.270344 0.0347601
0 0.268772 0.0342107
0 0.264103 0.0262303
0 0.25864 0.0158083
0 0.26128 0
0.00323491 0.26331 0
0.0527504 0.276646 0.00015259
0.145556 0.273747 0.0183413
0.267582 0.254047 0.0528115
0.364843 0.257069 0.0504768
0.455543 0.235538 0.0650339
0.53434 0.208026 0.0783551
0.60415 0.192462 0.0793774
0.666819 0.175402 0.0792401
0.722438 0.155062 0.0771191
0.762234 0.124453 0.0674754
0.768292 0.0653239 0.0441749
0.753277 0.0367285 0.0250095
0.747234 0.0296635 0.0252995
0.749172 0.0290379 0.0381323
0.751247 0.0295567 0.0459602
0.751965 0.0296941 0.0481422
0.752377 0.0298161 0.0495003
0.752743 0.0299077 0.0505226
0.753017 0.0300145 0.0514382
0.753277 0.0300908 0.0523995
0.753658 0.0301213 0.0532845
0.754116 0.0301061 0.0539712
0.75581 0.0297246 0.0540932
0.758282 0.0291295 0.0538033
0 0.357748 0.0542916
0 0.359396 0.0462654
0 0.359319 0.0436561
0 0.358083 0.0434119
0 0.356756 0.0432288
0 0.354498 0.0396735
0 0.348943 0.0275273
0 0.345861 0.0121157
0 0.348608 0
0.0154269 0.353033 0
0.0868696 0.365835 0
0.209674 0.358801 0.0250401
0.350347 0.333059 0.0648508
0.445533 0.337209 0.0652781
0.529274 0.331136 0.0701915
0.609583 0.309117 0.0881056
0.68275 0.280415 0.105608
0.746975 0.263783 0.112001
0.798611 0.246601 0.113024
0.829892 0.214954 0.106142
0.820798 0.171023 0.0903944
0.788693 0.0988022 0.0581826
0.758236 0.0439918 0.0290379
0.748562 0.029572 0.0306554
0.748898 0.0288243 0.0361028
0.749447 0.0289158 0.0377356
0.749752 0.0289921 0.0385443
0.750042 0.0290684 0.0396887
0.750256 0.0291142 0.04065
0.750423 0.02916 0.0413214
0.750576 0.0291905 0.041886
0.751858 0.0289158 0.0419928
0.754223 0.0283665 0.0415808
0 0.448829 0.0784314
0 0.450721 0.0704814
0 0.451942 0.0649424
0 0.450935 0.0645304
0 0.449714 0.064271
0 0.448203 0.0632792
0 0.444831 0.0555428
0 0.439368 0.0403906
0 0.440146 0.0171817
0.00334173 0.441321 0
0.0400702 0.449073 0
0.138918 0.45626 0
0.292622 0.441779 0.0402991
0.433478 0.412482 0.0836957
0.52488 0.415305 0.0847791
0.602899 0.416617 0.0779431
0.67892 0.402228 0.0973526
0.753307 0.377401 0.123018
0.814084 0.353033 0.1411
0.856733 0.334707 0.14374
0.865034 0.309468 0.13814
0.856626 0.272816 0.127001
0.837842 0.21387 0.106859
0.792416 0.105882 0.0617227
0.765621 0.052903 0.0378119
0.755962 0.0392157 0.0281376
0.753704 0.0372015 0.0249332
0.753277 0.037232 0.024094
0.753231 0.0372473 0.0254673
0.753246 0.0372625 0.0273899
0.753185 0.0372625 0.028809
0.754238 0.0370642 0.0292363
0.756634 0.0365454 0.0289464
0 0.541497 0.115877
0 0.543603 0.107271
0 0.545724 0.0992447
0 0.545327 0.097612
0 0.544381 0.0971389
0 0.543145 0.0965896
0 0.541558 0.0949874
0 0.537469 0.0809949
0 0.532265 0.0618143
0.00291447 0.537041 0.0325933
0.0173037 0.536217 0
0.0847944 0.54432 0
0.213931 0.542901 0.0104524
0.384344 0.519814 0.0591135
0.512718 0.489464 0.105303
0.601938 0.490562 0.10312
0.675425 0.494453 0.09691
0.746197 0.488701 0.111315
0.812558 0.472938 0.136202
0.865339 0.451545 0.156664
0.886381 0.42707 0.16492
0.886213 0.400534 0.164614
0.880217 0.368612 0.156069
0.869413 0.320867 0.141588
0.859541 0.282872 0.13022
0.854307 0.264286 0.124163
0.850141 0.250416 0.119707
0.845914 0.237644 0.115297
0.842008 0.225818 0.111254
0.838163 0.215061 0.10724
0.834836 0.205814 0.104051
0.832532 0.197925 0.100954
0.831266 0.190875 0.0978256
0 0.628794 0.16817
0 0.630808 0.158221
0 0.633021 0.148867
0 0.633967 0.143862
0 0.633295 0.142931
0 0.632349 0.142214
0 0.63122 0.141588
0 0.629206 0.136187
0.000961318 0.62501 0.116091
0.00689708 0.623011 0.0907454
0.0172427 0.627436 0.0527962
0.0571298 0.628107 0
0.147433 0.631113 0
0.308263 0.621958 0.0328374
0.471458 0.596796 0.080705
0.592554 0.570016 0.124926
0.674876 0.565301 0.129534
0.742733 0.567681 0.128252
0.806592 0.569696 0.127443
0.858167 0.563394 0.143954
0.893431 0.547219 0.159228
0.896895 0.5308 0.16257
0.89543 0.51014 0.163973
0.893202 0.477699 0.16527
0.890379 0.441703 0.165789
0.888808 0.425162 0.165682
0.887968 0.41387 0.165789
0.886595 0.404303 0.164874
0.885466 0.397208 0.163287
0.884276 0.391135 0.161273
0.883162 0.385916 0.159487
0.882612 0.381369 0.1579
0.882078 0.377707 0.155825
0 0.710933 0.229389
0 0.713222 0.218952
0.000350958 0.71548 0.209186
0.00303655 0.717723 0.199451
0.00320439 0.717525 0.197848
0.00320439 0.716854 0.19736
0.00318914 0.716045 0.19678
0.00311284 0.714687 0.195132
0.00582895 0.711833 0.182666
0.0121157 0.708064 0.157519
0.0218662 0.708995 0.124239
0.0445716 0.713893 0.0744488
0.120333 0.713359 0.0167391
0.236942 0.711269 0.0218509
0.414725 0.69485 0.0716869
0.553277 0.671534 0.112047
0.669947 0.651164 0.14847
0.743053 0.6374 0.162829
0.805249 0.63949 0.164065
0.856992 0.643793 0.158938
0.897856 0.642771 0.155383
0.908522 0.632151 0.157595
0.907164 0.619196 0.158206
0.903944 0.603403 0.158083
0.901091 0.58146 0.158602
0.900206 0.57171 0.15935
0.899687 0.565301 0.159991
0.898894 0.559045 0.160281
0.898711 0.553765 0.160998
0.898116 0.548608 0.161181
0.897993 0.544503 0.161807
0.897719 0.540734 0.161669
0.89752 0.537545 0.160983
0.00195315 0.789517 0.29456
0.00477607 0.792218 0.283848
0.00782788 0.795117 0.273533
0.0110475 0.798001 0.263233
0.0128786 0.799588 0.256382
0.0128328 0.799069 0.255467
0.0126192 0.798184 0.254719
0.0124361 0.797131 0.254231
0.0125582 0.795483 0.251377
0.0175937 0.791913 0.229587
0.025452 0.788266 0.19881
0.0454871 0.794308 0.155596
0.0859846 0.797574 0.0813458
0.200061 0.792813 0.0371099
0.347906 0.785229 0.0593881
0.51046 0.765835 0.117601
0.629465 0.744427 0.147219
0.739101 0.727306 0.178225
0.806394 0.708904 0.201083
0.860899 0.712245 0.200931
0.900969 0.715969 0.201648
0.930388 0.710887 0.194278
0.930709 0.701259 0.186908
0.927169 0.690898 0.179141
0.923095 0.679133 0.170504
0.920684 0.67155 0.165103
0.919631 0.667567 0.162921
0.918303 0.663966 0.161364
0.917311 0.660533 0.160861
0.916686 0.657679 0.160983
0.915801 0.654994 0.160723
0.915206 0.652613 0.160601
0.914687 0.650614 0.160342
0.014374 0.863615 0.353536
0.0170596 0.866392 0.343709
0.0196689 0.869413 0.333425
0.0226444 0.872541 0.323049
0.0261387 0.875761 0.312474
0.0263981 0.875776 0.310338
0.0261082 0.875105 0.309789
0.0259556 0.874281 0.309194
0.0256504 0.873243 0.308125
0.027512 0.871672 0.299992
0.0348669 0.868803 0.271122
0.046952 0.867979 0.233036
0.0823529 0.875288 0.173571
0.156054 0.873442 0.075288
0.30074 0.862593 0.0645914
0.464042 0.851072 0.106523
0.597223 0.832349 0.156527
0.701335 0.814328 0.183536
0.801358 0.799878 0.213001
0.862165 0.781353 0.243809
0.908843 0.784955 0.238224
0.945052 0.785397 0.240589
0.959167 0.778195 0.236774
0.956771 0.768063 0.230671
0.952453 0.757916 0.224277
0.948745 0.74876 0.21857
0.946807 0.744457 0.215732
0.945861 0.741711 0.214267
0.944762 0.738994 0.212482
0.943679 0.736629 0.210758
0.943069 0.734722 0.209598
0.942458 0.733074 0.208515
0.941909 0.73167 0.207584
0.0271916 0.923506 0.402213
0.0296941 0.925902 0.392386
0.0318151 0.928878 0.382818
0.034226 0.931884 0.372824
0.0373388 0.93521 0.362081
0.0395361 0.936934 0.355337
0.0393835 0.93666 0.354299
0.0392004 0.936095 0.35375
0.0390173 0.935347 0.353124
0.0391852 0.934371 0.350927
0.0435798 0.932845 0.333944
0.0536049 0.930999 0.300542
0.0794995 0.934585 0.251255
0.129946 0.938964 0.170596
0.269551 0.92871 0.0889448
0.427283 0.91548 0.105821
0.563745 0.902235 0.15346
0.675532 0.88574 0.191928
0.767758 0.87187 0.217731
0.858991 0.861158 0.246876
0.905104 0.84387 0.27509
0.948333 0.844312 0.282658
0.978988 0.841962 0.277867
0.984344 0.83653 0.274311
0.981338 0.828473 0.269108
0.978027 0.820401 0.263676
0.976669 0.817014 0.261601
0.975708 0.814557 0.260014
0.974823 0.81239 0.258595
0.974044 0.810651 0.257298
0.973632 0.809323 0.256474
0.973251 0.808072 0.255741
0.972793 0.806928 0.255039
0.0397803 0.966583 0.441627
0.0412757 0.968811 0.431357
0.0427863 0.971298 0.420615
0.0445869 0.973892 0.410391
0.0473335 0.976761 0.399771
0.0512856 0.97966 0.388602
0.0516823 0.979904 0.386435
0.0515908 0.979568 0.386114
0.0513924 0.979095 0.385687
0.0512398 0.978576 0.385412
0.0522011 0.97789 0.380835
0.0602274 0.977111 0.353552
0.0769513 0.977081 0.314061
0.121553 0.982666 0.243992
0.196536 0.980011 0.131197
0.40087 0.961273 0.110552
0.54049 0.950896 0.151049
0.652094 0.93843 0.199374
0.74612 0.924849 0.225315
0.829358 0.914473 0.251804
0.904418 0.90869 0.275273
0.944411 0.896696 0.298512
0.979507 0.88896 0.321233
0.998047 0.885298 0.315175
0.998474 0.880735 0.308522
0.997452 0.874754 0.303105
0.996765 0.871077 0.299931
0.996368 0.869276 0.298451
0.996048 0.867918 0.297551
0.995758 0.866667 0.296681
0.995514 0.865675 0.295918
0.995392 0.865019 0.295415
0.995315 0.864485 0.295018
0.0445563 0.984405 0.468223
0.0453803 0.985656 0.457954
0.0456397 0.987213 0.446357
0.0468147 0.988617 0.434684
0.0486152 0.989868 0.423011
0.0519875 0.990982 0.409827
0.0538186 0.991409 0.40267
0.0539712 0.99147 0.402243
0.0540017 0.99147 0.402121
0.0540475 0.991455 0.401984
0.0544289 0.991516 0.400687
0.0590677 0.992218 0.385733
0.0729534 0.993851 0.352438
0.107332 0.996201 0.296712
0.172457 0.995911 0.197955
0.341863 0.987167 0.119738
0.527947 0.971176 0.150637
0.631861 0.959838 0.1935
0.722652 0.947356 0.225193
0.802594 0.937514 0.248676
0.877928 0.929229 0.272618
0.932616 0.92546 0.288777
0.968154 0.907088 0.319341
0.996033 0.907576 0.341085
0.999969 0.908965 0.353017
0.999969 0.90808 0.341985
0.999969 0.907393 0.334401
0.999969 0.907027 0.333165
0.999969 0.906477 0.332647
0.999969 0.905745 0.332006
0.999969 0.905089 0.331579
0.999969 0.904494 0.331395
0.999969 0.903944 0.331411
0.0469215 0.984817 0.485847
0.0464332 0.985443 0.475196
0.0458076 0.986603 0.46331
0.0462806 0.987839 0.450874
0.0479133 0.989227 0.437644
0.0514839 0.990372 0.423056
0.0551308 0.991226 0.409384
0.0554208 0.991272 0.40827
0.0554055 0.991272 0.408286
0.0554055 0.991272 0.408286
0.0554055 0.991272 0.408286
0.0567788 0.991547 0.40444
0.0696269 0.993545 0.375448
0.0972 0.996078 0.330709
0.154635 0.996918 0.243122
0.262547 0.992462 0.138003
0.497673 0.975174 0.145525
0.619608 0.961944 0.1897
0.704021 0.9505 0.220966
0.778775 0.940307 0.242649
0.846021 0.932982 0.262913
0.906569 0.926955 0.281758
0.957809 0.915694 0.3037
0.985656 0.90692 0.326574
0.999756 0.908186 0.344137
0.999969 0.909041 0.35256
0.999969 0.909483 0.357839
0.999969 0.90927 0.356115
0.999969 0.909224 0.355352
0.999969 0.909194 0.354498
0.999969 0.909163 0.353964
0.999969 0.909148 0.353689
0.999969 0.909087 0.353735
0.0532998 0.986648 0.495293
0.0526284 0.987137 0.484459
0.0512245 0.98793 0.471992
0.0502937 0.988739 0.458915
0.0499886 0.989593 0.444022
0.0520943 0.990539 0.427375
0.0571908 0.991699 0.409705
0.0590524 0.992004 0.403845
0.0588846 0.991958 0.403937
0.0587167 0.991958 0.40412
0.0584573 0.991913 0.404273
0.0590372 0.99202 0.403174
0.0694285 0.993729 0.385458
0.0944076 0.996033 0.345388
0.141299 0.997345 0.271626
0.221454 0.993988 0.151385
0.437491 0.980957 0.134051
0.607767 0.963714 0.186206
0.690303 0.952193 0.21677
0.760525 0.942748 0.237385
0.821759 0.93579 0.255253
0.874311 0.929778 0.272068
0.944686 0.924865 0.29131
0.973404 0.906508 0.316838
0.996338 0.907088 0.332128
0.999969 0.908354 0.343435
0.999969 0.908858 0.349065
0.999969 0.909102 0.351995
0.999969 0.909163 0.352239
0.999969 0.909178 0.35198
0.999969 0.909194 0.35198
0.999969 0.909178 0.352209
0.999969 0.909163 0.352651
0.0628672 0.989853 0.49482
0.0625772 0.990097 0.483513
0.0618906 0.9906 0.470649
0.0613565 0.99144 0.457633
0.0611582 0.99202 0.441733
0.0625162 0.992493 0.422599
0.0679637 0.993484 0.399832
0.0724956 0.99411 0.385351
0.0724346 0.994095 0.385138
0.0720836 0.994049 0.385763
0.0716869 0.993973 0.386435
0.0712291 0.993927 0.387121
0.0755932 0.994446 0.380224
0.0999619 0.996429 0.344106
0.138399 0.997528 0.283665
0.211963 0.995209 0.169619
0.388647 0.985336 0.129915
0.589822 0.966033 0.178027
0.684871 0.953124 0.214878
0.746258 0.944549 0.233036
0.800076 0.938186 0.248951
0.84303 0.933394 0.261738
0.921416 0.926146 0.285939
0.961746 0.909255 0.310597
0.989609 0.906203 0.323781
0.999786 0.907637 0.336553
0.999969 0.908293 0.342763
0.999969 0.908598 0.346502
0.999969 0.908675 0.347158
0.999969 0.908705 0.346899
0.999969 0.908736 0.3467
0.999969 0.908751 0.346761
0.999969 0.908751 0.347066
0.078294 0.992935 0.486137
0.0783246 0.99324 0.473884
0.0781262 0.993545 0.459571
0.0778515 0.993927 0.443732
0.0787366 0.994675 0.425559
0.079942 0.99498 0.402365
0.087068 0.995651 0.374899
0.0955215 0.996185 0.348486
0.0963302 0.996231 0.346105
0.0962539 0.996216 0.346242
0.0959793 0.996201 0.346716
0.0950637 0.996155 0.348302
0.0964218 0.996246 0.346746
0.116075 0.997116 0.318639
0.150607 0.997528 0.263844
0.213291 0.995148 0.168185
0.375662 0.986587 0.129885
0.569924 0.96762 0.166629
0.676493 0.954314 0.212177
0.732143 0.946624 0.228473
0.774395 0.941253 0.241184
0.823316 0.935668 0.255558
0.900862 0.927825 0.280232
0.956893 0.920363 0.298497
0.980301 0.906035 0.31957
0.998047 0.906889 0.330053
0.999969 0.907912 0.33843
0.999969 0.908278 0.342184
0.999969 0.908461 0.343587
0.999969 0.908507 0.343404
0.999969 0.908537 0.34316
0.999969 0.908537 0.343069
0.999969 0.908553 0.343145
0.0795758 0.993255 0.491524
0.0795758 0.993515 0.47895
0.0796521 0.993805 0.46569
0.0793011 0.994125 0.449775
0.0796216 0.994537 0.43151
0.0811017 0.995117 0.408713
0.0865492 0.995636 0.380728
0.0961013 0.996262 0.350484
0.0986191 0.996353 0.34258
0.0986191 0.996353 0.34258
0.0986191 0.996353 0.34258
0.0985275 0.996338 0.342748
0.100008 0.996429 0.340642
0.116396 0.997131 0.31606
0.154849 0.99736 0.253178
0.213611 0.994934 0.164858
0.367666 0.98703 0.128618
0.551888 0.969665 0.159609
0.663584 0.956283 0.208469
0.711772 0.949386 0.222217
0.744213 0.94493 0.231876
0.807477 0.937148 0.250462
0.883024 0.929122 0.27451
0.945998 0.924727 0.291585
0.970565 0.906004 0.316289
0.994293 0.906401 0.325322
0.999969 0.907607 0.335302
0.999969 0.907988 0.339025
0.999969 0.908232 0.341176
0.999969 0.908278 0.341009
0.999969 0.908293 0.340734
0.999969 0.908309 0.340627
0.999969 0.908293 0.340642
0.0794537 0.992935 0.497978
0.0792859 0.993439 0.48571
0.0790265 0.993835 0.472923
0.0789349 0.994095 0.457893
0.0789502 0.994446 0.439811
0.0805524 0.995087 0.417456
0.0840009 0.995453 0.389044
0.0939651 0.996124 0.356878
0.0986191 0.996353 0.34258
0.0986191 0.996353 0.34258
0.0986191 0.996353 0.34258
0.0986191 0.996353 0.34258
0.0988174 0.996353 0.342306
0.108217 0.996826 0.327855
0.14551 0.997421 0.268696
0.200076 0.996002 0.187579
0.334325 0.989685 0.131365
0.5178 0.973114 0.147677
0.648814 0.95816 0.201221
0.705043 0.9505 0.22034
