bundles/resolve-cinematic-luts/Phantom Luts/Ursa G2 Phntm Arri LUTs - V1/Gen5/Standard (No WB Offset)/Utopia Ursa V1 - Gen5.cube
TITLE "Generated by Resolve"
LUT_3D_SIZE 5
0.000762951 0.0280766 0.0361639
0.117937 0.0157778 0.0322271
0.617273 0.012604 0.0320897
0.758724 0.0340581 0.0968338
0.775555 0.0293736 0.0924392
0 0.145708 0.0430152
0.0683909 0.145495 0.0229496
0.601434 0.01355 0.00775158
0.753063 0.0323033 0.0692454
0.766751 0.0301671 0.0806592
0.00195315 0.789517 0.29456
0.0125582 0.795483 0.251377
0.629465 0.744427 0.147219
0.923095 0.679133 0.170504
0.914687 0.650614 0.160342
0.078294 0.992935 0.486137
0.0963302 0.996231 0.346105
0.375662 0.986587 0.129885
0.980301 0.906035 0.31957
0.999969 0.908553 0.343145
0.0790265 0.992599 0.523857
0.0976883 0.995758 0.354788
0.224277 0.994095 0.173007
0.948196 0.923384 0.294865
0.999969 0.908339 0.339284
0 0.0341955 0.135439
0.13283 0.025864 0.134386
0.680369 0.0186007 0.163622
0.766552 0.0311284 0.0882124
0.778653 0.0278935 0.085832
0 0.111788 0.118074
0.0779736 0.112596 0.120882
0.612055 0.0115206 0.0393072
0.761242 0.0317693 0.0828412
0.7729 0.0296635 0.0889906
0 0.732021 0.430137
0 0.755749 0.290059
0.615244 0.723049 0.139391
0.911879 0.639628 0.159197
0.905257 0.607752 0.158434
0.0843061 0.986664 0.622492
0.0717632 0.991669 0.508827
0.240635 0.993866 0.148302
0.976287 0.905898 0.318074
0.999969 0.908598 0.344198
0.0953231 0.986481 0.649454
0.085359 0.990784 0.54078
0.157076 0.996536 0.259251
0.926665 0.925093 0.289326
0.999969 0.908354 0.33901
0.00425727 0.0666972 0.60589
0.235843 0.0534371 0.606973
0.682536 0.0640421 0.592523
0.759731 0.0823529 0.643305
0.768521 0.0787213 0.648035
0 0.066804 0.55172
0.0794385 0.0623789 0.602625
0.654231 0.0584421 0.569177
0.763226 0.0786603 0.595438
0.769909 0.0758526 0.593835
0 0.669947 0.63856
0 0.663996 0.632136
0.625849 0.645319 0.627588
0.927062 0.583139 0.538369
0.924147 0.5449 0.500389
0.262074 0.972076 0.84831
0.196612 0.974731 0.826261
0.224125 0.990158 0.675639
0.978027 0.921523 0.485298
0.999969 0.908705 0.348211
0.399832 0.968429 0.874357
0.340093 0.972503 0.849104
0.113527 0.985473 0.65893
0.923705 0.934203 0.387198
0.999969 0.908278 0.338674
0.429313 0.0974441 0.817212
0.502998 0.0982071 0.821607
0.760601 0.144228 0.816236
0.767147 0.127947 0.798932
0.78323 0.142748 0.815503
0.390311 0.0963912 0.813458
0.428229 0.0911879 0.814527
0.730877 0.133028 0.818631
0.760784 0.126375 0.79173
0.768521 0.124025 0.801266
0 0.634882 0.844709
0.00810254 0.637034 0.861982
0.701778 0.57438 0.955001
0.914443 0.499825 0.929
0.899702 0.440009 0.919753
0.417884 0.954711 0.93312
0.405478 0.954208 0.933135
0.496193 0.948775 0.929351
0.947585 0.946792 0.942168
0.970504 0.943847 0.939681
0.647166 0.959121 0.94548
0.636118 0.959564 0.945571
0.606195 0.959396 0.936584
0.920089 0.971191 0.947662
0.975402 0.970871 0.938827
0.587488 0.22034 0.886397
0.657847 0.238529 0.892683
0.850446 0.286275 0.879789
0.815488 0.204974 0.844511
0.817639 0.203891 0.847791
0.539971 0.204562 0.877897
0.595743 0.222675 0.888365
0.830365 0.279637 0.881498
0.813413 0.206043 0.841245
0.817548 0.203937 0.847639
0.48307 0.632593 0.93402
0.505699 0.597025 0.943648
0.784482 0.54844 0.952941
0.915038 0.504829 0.9299
0.904387 0.459876 0.92369
0.620905 0.942596 0.951247
0.613993 0.940703 0.952087
0.641596 0.934127 0.951522
0.948699 0.936736 0.966293
0.967147 0.934951 0.964843
0.730602 0.960952 0.957641
0.728237 0.961181 0.958968
0.729885 0.961364 0.959121
0.933501 0.970336 0.970169
0.974899 0.97232 0.971511
