bundles/resolve-cinematic-luts/Phantom Luts/P4k & P6K Phntm Film LUTs - V6/P4K/Gen 4 Colour/White Balance Offset (+Magenta Boost)/P4k Bleach Gen4 WBO.cube
TITLE "Generated by Resolve"
LUT_3D_SIZE 5
0.0153353 0.0269474 0.0176242
0.0803998 0.0319371 0.0271305
0.31519 0.046128 0.0500801
0.616342 0.0714122 0.0896925
0.797864 0.113436 0.143481
0.0302434 0.153872 0.0602121
0.136202 0.183505 0.0355383
0.516167 0.148898 0.0584421
0.733883 0.193378 0.114199
0.893828 0.295949 0.198047
0.000396735 0.423087 0.123415
0.00787366 0.445655 0.0184024
0.525399 0.59353 0.0705882
0.815549 0.658885 0.144686
0.924224 0.702419 0.245655
0.0551156 0.711406 0.38378
0.0529183 0.718746 0.257618
0.429816 0.752956 0.143069
0.784405 0.829587 0.220447
0.909865 0.863691 0.387228
0.0896162 0.778836 0.528664
0.0918135 0.777951 0.384573
0.361288 0.787747 0.27068
0.762005 0.851972 0.360204
0.903212 0.894286 0.506828
0.0260319 0.0313573 0.0740063
0.0986496 0.0331273 0.0781262
0.376989 0.043061 0.140917
0.649897 0.0540932 0.208682
0.810361 0.0837262 0.301122
0.0250553 0.13814 0.118425
0.164767 0.163836 0.160616
0.562615 0.141604 0.14522
0.766094 0.155474 0.18262
0.865278 0.21323 0.242206
0 0.407126 0.224506
0 0.424949 0.132662
0.530571 0.585321 0.113451
0.850782 0.638666 0.249027
0.93312 0.675242 0.340246
0.0566567 0.691875 0.471382
0.0528573 0.697124 0.371588
0.291722 0.735698 0.166827
0.774884 0.81828 0.227573
0.918715 0.85214 0.413382
0.103304 0.783322 0.611399
0.092668 0.778775 0.523156
0.210498 0.780133 0.286656
0.713939 0.834531 0.341558
0.889998 0.890288 0.475563
0.0608377 0.0380865 0.253239
0.181445 0.0399481 0.273884
0.441428 0.0463264 0.320836
0.694057 0.0631571 0.48249
0.827665 0.0838026 0.573312
0.0145571 0.0879683 0.290318
0.151919 0.0518807 0.412924
0.543633 0.0577401 0.4159
0.743053 0.0719615 0.507225
0.832273 0.0900893 0.558663
0.000396735 0.39704 0.357244
0.00015259 0.403189 0.372549
0.612284 0.569253 0.574716
0.861875 0.595514 0.597177
0.930098 0.615152 0.620859
0.0621653 0.676875 0.563394
0.0612345 0.670283 0.536202
0.363485 0.729305 0.544198
0.800458 0.806271 0.588632
0.943786 0.834134 0.654063
0.123613 0.782986 0.673716
0.115541 0.774639 0.640787
0.244984 0.776486 0.558389
0.688792 0.839277 0.573343
0.900557 0.900984 0.629206
0.123934 0.0440833 0.472007
0.282185 0.0479591 0.524147
0.530648 0.0509804 0.543862
0.734432 0.0727092 0.618997
0.847715 0.0935683 0.694957
0.00886549 0.042237 0.449424
0.234211 0.050248 0.597452
0.574594 0.0529946 0.601984
0.772366 0.0798962 0.653422
0.849027 0.0948806 0.697826
0.00874342 0.371054 0.568948
0.0175021 0.361547 0.606607
0.681331 0.502083 0.804211
0.907195 0.545953 0.813275
0.954971 0.555291 0.830839
0.0670634 0.674311 0.639017
0.066804 0.666728 0.635462
0.459312 0.728588 0.713375
0.835584 0.787259 0.784756
0.944045 0.801343 0.796658
0.142046 0.77969 0.709712
0.148669 0.771008 0.693614
0.405615 0.79321 0.708598
0.78735 0.883619 0.799374
0.932952 0.909163 0.807431
0.223835 0.0518349 0.625574
0.389929 0.0545357 0.657542
0.611231 0.0607156 0.672312
0.776196 0.082536 0.718624
0.864958 0.102251 0.76701
0.0627604 0.0490425 0.613626
0.344198 0.0575418 0.701946
0.636866 0.0641794 0.708766
0.799664 0.0880446 0.740749
0.865629 0.10312 0.768093
0.0150149 0.356619 0.667735
0.0469673 0.34519 0.709178
0.748089 0.445823 0.896117
0.93608 0.500587 0.891402
0.963668 0.515496 0.890471
0.0693828 0.673533 0.708385
0.0865797 0.662776 0.719142
0.52137 0.714794 0.80473
0.881041 0.767422 0.875532
0.954711 0.781933 0.881559
0.153689 0.77882 0.739467
0.16257 0.770794 0.733028
0.416022 0.790753 0.759091
0.817746 0.88806 0.859403
0.936309 0.900175 0.874983
