bundles/resolve-cinematic-luts/Phantom Luts/P4k & P6K Phntm Film LUTs - V6/P4K/Gen 4 Colour/White Balance Offset (+Magenta Boost)/P4k Eterna Gen4-Legacy WBO.cube
TITLE "Generated by Resolve"
LUT_3D_SIZE 9
0.016846 0.0444648 0.044358
0.0636454 0.0496223 0.0537423
0.130602 0.0572519 0.061738
0.239796 0.0731212 0.0890364
0.385 0.090013 0.126055
0.539574 0.110063 0.166995
0.685222 0.13373 0.209049
0.713115 0.146395 0.22649
0.741588 0.14374 0.242695
0.0274205 0.0748608 0.0639963
0.0511177 0.0755169 0.0555886
0.125978 0.0744182 0.0623178
0.229328 0.0737316 0.0732433
0.372641 0.0817731 0.0962997
0.540749 0.097261 0.141268
0.680888 0.119387 0.187366
0.699519 0.131792 0.19881
0.731579 0.136049 0.212604
0.0393225 0.160906 0.105348
0.0308232 0.180529 0.0767987
0.140246 0.175799 0.0673075
0.294469 0.155505 0.0941634
0.444633 0.155367 0.113115
0.607599 0.15787 0.135027
0.723857 0.173083 0.1691
0.735424 0.177172 0.1738
0.741985 0.170626 0.174212
0.0556039 0.320974 0.176272
0.0352331 0.357122 0.15108
0.040238 0.369772 0.0854963
0.300954 0.376028 0.0711376
0.556573 0.381842 0.0805219
0.743328 0.367422 0.15465
0.862211 0.371817 0.217472
0.877699 0.38027 0.227604
0.87631 0.374807 0.22649
0.0530556 0.567391 0.31429
0.0314946 0.598413 0.296025
0.030869 0.623911 0.240665
0.0858778 0.613901 0.0858473
0.517418 0.612238 0.103838
0.736339 0.609857 0.146853
0.896178 0.603571 0.234272
0.916548 0.613642 0.25182
0.915389 0.602335 0.249378
0.145159 0.78677 0.482582
0.135988 0.80885 0.474144
0.134203 0.823392 0.44126
0.142931 0.824063 0.343328
0.374334 0.82002 0.183505
0.700267 0.814145 0.210864
0.887053 0.807782 0.291218
0.937346 0.800275 0.347311
0.937346 0.787213 0.336553
0.227619 0.901442 0.611368
0.22594 0.904051 0.59971
0.221256 0.905013 0.572366
0.216068 0.905241 0.509743
0.244602 0.902831 0.363073
0.571069 0.92105 0.288609
0.864759 0.924086 0.359579
0.941299 0.924636 0.511833
0.939315 0.92047 0.499474
0.229908 0.906996 0.645609
0.236667 0.903929 0.629816
0.240375 0.900999 0.603891
0.232563 0.901045 0.551263
0.244678 0.904677 0.469368
0.422782 0.926345 0.370352
0.738628 0.92462 0.395636
0.939864 0.931914 0.537774
0.938872 0.935561 0.592309
0.229252 0.909102 0.662593
0.228962 0.908171 0.647517
0.233768 0.905531 0.62443
0.231083 0.903578 0.577951
0.237766 0.903944 0.498741
0.327031 0.918944 0.393072
0.645487 0.926757 0.376867
0.918105 0.930587 0.48069
0.938689 0.935699 0.594095
0.0275883 0.0463111 0.0710918
0.0722667 0.0513619 0.0717632
0.136706 0.0581216 0.0868391
0.241169 0.0674601 0.115038
0.386618 0.0796368 0.149554
0.544472 0.0976883 0.190448
0.702968 0.120394 0.237369
0.728328 0.131273 0.256947
0.750805 0.129778 0.274922
0.0257877 0.0660868 0.0639658
0.0471962 0.0625162 0.0668345
0.140551 0.0645304 0.0768292
0.254337 0.0742657 0.0985428
0.401999 0.0870375 0.134386
0.575738 0.103822 0.178714
0.72575 0.134035 0.225666
0.73785 0.140688 0.239506
0.75494 0.139467 0.254643
0.04094 0.148302 0.117632
0.0322728 0.159106 0.105898
0.140185 0.16759 0.0745251
0.297002 0.136858 0.097734
0.43859 0.133043 0.114885
0.600916 0.131762 0.141466
0.712032 0.14313 0.179858
0.718212 0.144915 0.186526
0.729152 0.138827 0.192874
0.049424 0.299504 0.194903
0.0368963 0.327932 0.181415
0.0411536 0.360784 0.114931
0.299031 0.367987 0.0736706
0.558984 0.361257 0.092668
0.739849 0.347951 0.161929
0.861891 0.358663 0.221302
0.874418 0.365026 0.229892
0.872038 0.357061 0.228504
0.0547951 0.542138 0.332372
0.0339055 0.566445 0.320516
0.0251469 0.594034 0.259297
0.0514687 0.60412 0.104585
0.507973 0.601587 0.102113
0.735454 0.59852 0.145342
0.895613 0.593408 0.236591
0.917769 0.60177 0.255604
0.916365 0.588663 0.252964
0.13138 0.76141 0.495384
0.12076 0.78114 0.487221
0.117723 0.796536 0.447623
0.128557 0.806348 0.34284
0.349416 0.81149 0.181216
0.692332 0.805875 0.204974
0.887388 0.798062 0.289754
0.937377 0.790967 0.348455
0.937423 0.777722 0.33875
0.222965 0.894408 0.625986
0.224262 0.898161 0.615137
0.221195 0.902113 0.585489
0.21326 0.902815 0.510445
0.240726 0.9019 0.373846
0.559762 0.919646 0.28603
0.861143 0.922316 0.354116
0.940902 0.922377 0.507362
0.939147 0.918059 0.496818
0.237888 0.906325 0.671275
0.245579 0.902708 0.655512
0.244984 0.901305 0.627558
0.235203 0.901198 0.567468
0.243992 0.904143 0.477058
0.403983 0.925505 0.376684
0.726452 0.924758 0.395209
0.939193 0.931853 0.534859
0.938872 0.935592 0.593347
0.235508 0.909361 0.68809
0.238132 0.9075 0.67451
0.239353 0.905318 0.64947
0.238514 0.902495 0.597833
0.236576 0.903502 0.506477
0.317617 0.917922 0.400565
0.630198 0.927001 0.377417
0.914733 0.930449 0.477592
0.938918 0.935592 0.595682
0.0447242 0.0495766 0.126436
0.0886244 0.0537881 0.130083
0.155444 0.0607767 0.117861
0.255283 0.0700999 0.137011
0.390707 0.0807813 0.176806
0.541848 0.0949569 0.220905
0.697963 0.112474 0.267796
0.727123 0.122042 0.295232
0.748714 0.118837 0.320531
0.0265354 0.0672007 0.0977646
0.0343633 0.0495613 0.127855
0.151965 0.060914 0.122301
0.263294 0.0705119 0.13579
0.399924 0.079881 0.174182
0.563973 0.0962539 0.220584
0.716747 0.118395 0.271763
0.73373 0.125154 0.296788
0.753902 0.122072 0.32166
0.0409705 0.143343 0.130617
0.0365454 0.147555 0.139055
0.147829 0.150469 0.153872
0.320653 0.139132 0.160678
0.47454 0.131075 0.180499
0.634562 0.133547 0.21117
0.740154 0.151797 0.249943
0.742351 0.149966 0.261219
0.752926 0.142596 0.275975
0.0506294 0.280827 0.214954
0.0411231 0.300237 0.220035
0.0391546 0.319631 0.186084
0.302205 0.357427 0.100313
0.567987 0.327184 0.158038
0.751019 0.308431 0.194751
0.864881 0.328664 0.241459
0.869139 0.328923 0.247761
0.86511 0.316991 0.248142
0.0603037 0.512245 0.358312
0.0416114 0.530022 0.361318
0.0339666 0.549111 0.326253
0.0337987 0.588983 0.165148
0.497017 0.584085 0.107469
0.739757 0.568673 0.170657
0.899779 0.563729 0.255222
0.923629 0.567452 0.276722
0.921782 0.550912 0.274662
0.119783 0.726268 0.518349
0.106966 0.737606 0.515175
0.0970779 0.74432 0.480629
0.0980697 0.765972 0.36849
0.267979 0.794125 0.195621
0.673472 0.783734 0.193423
0.887678 0.772625 0.288426
0.937713 0.769085 0.351873
0.936919 0.755001 0.34284
0.21416 0.877852 0.647822
0.21529 0.880949 0.64065
0.214038 0.883024 0.614862
0.207477 0.889799 0.540719
0.227497 0.897292 0.398856
0.533806 0.914977 0.282017
0.851926 0.917693 0.341756
0.940429 0.915938 0.496635
0.938628 0.910658 0.490013
0.252171 0.905013 0.709697
0.247395 0.906294 0.700236
0.25539 0.901579 0.674357
0.245167 0.901106 0.615732
0.23975 0.902205 0.505516
0.366171 0.922866 0.394263
0.700328 0.925185 0.39472
0.936965 0.931121 0.525887
0.940536 0.934737 0.597147
0.244388 0.908721 0.726711
0.242283 0.909224 0.717067
0.252171 0.905196 0.694835
0.250919 0.902007 0.646052
0.23476 0.902159 0.541787
0.290074 0.914168 0.423529
0.591363 0.928023 0.380423
0.906096 0.930297 0.468421
0.938582 0.935836 0.598047
0.0690013 0.0516365 0.212222
0.108385 0.0542458 0.231769
0.17435 0.0619211 0.202365
0.283528 0.0740368 0.191073
0.415991 0.0865339 0.224002
0.567285 0.0990311 0.266804
0.709361 0.114229 0.318868
0.730358 0.119844 0.350027
0.753933 0.116655 0.387717
0.023209 0.060029 0.169879
0.0407568 0.0495766 0.212604
0.164858 0.0578927 0.238163
0.28777 0.0737316 0.201083
0.41413 0.0856947 0.226429
0.573663 0.0997177 0.275578
0.721431 0.116564 0.336431
0.737209 0.120607 0.370993
0.759457 0.117998 0.410101
0.0395361 0.136461 0.168734
0.0319524 0.129641 0.202899
0.0952926 0.101915 0.274907
0.318227 0.100801 0.240238
0.442069 0.104372 0.243351
0.581994 0.104982 0.279698
0.717968 0.117998 0.329671
0.730785 0.122744 0.359274
0.748196 0.120317 0.389532
0.0508431 0.268498 0.235706
0.0419165 0.282979 0.253452
0.0496986 0.292576 0.268666
0.32607 0.314397 0.316075
0.573724 0.294011 0.323888
0.792035 0.286809 0.351034
0.877852 0.280507 0.372564
0.868574 0.262745 0.378271
0.863264 0.246754 0.386694
0.0614023 0.486351 0.385657
0.0433356 0.502098 0.402457
0.0446937 0.509224 0.396353
0.0934768 0.53579 0.351431
0.489326 0.551843 0.246372
0.746426 0.52491 0.31548
0.916259 0.515892 0.345403
0.930282 0.508888 0.34641
0.927886 0.488624 0.341405
0.114458 0.69369 0.542657
0.100587 0.699641 0.547143
0.0931258 0.696468 0.529198
0.0864424 0.703899 0.469718
0.196933 0.770001 0.307103
0.65803 0.750927 0.247471
0.899733 0.725139 0.339239
0.938521 0.72842 0.377356
0.938018 0.712612 0.373373
0.220203 0.853132 0.669581
0.203189 0.859861 0.671122
0.201984 0.856245 0.651576
0.195926 0.854139 0.597848
0.212436 0.882551 0.485222
0.444785 0.91284 0.32665
0.832364 0.907042 0.335378
0.941466 0.899641 0.492256
0.940276 0.891829 0.491844
0.264408 0.904265 0.754177
0.253773 0.907652 0.751537
0.266377 0.903014 0.731151
0.265095 0.901671 0.687877
0.247974 0.901595 0.589166
0.294453 0.913436 0.443153
0.647349 0.925139 0.39855
0.932723 0.928985 0.51107
0.943145 0.933425 0.602823
0.257084 0.908186 0.771298
0.254566 0.908904 0.766003
0.252979 0.908766 0.750607
0.267353 0.902892 0.709728
0.251164 0.903044 0.629694
0.252735 0.906661 0.486351
0.505531 0.929366 0.394675
0.87744 0.929335 0.448264
0.939071 0.935683 0.603876
0.113619 0.0543374 0.339162
0.144671 0.0562753 0.362951
0.227955 0.0606699 0.360113
0.317174 0.0761425 0.311177
0.452049 0.0919966 0.307179
0.608286 0.104173 0.349966
0.727733 0.121996 0.376303
0.739712 0.123842 0.410483
0.759106 0.119066 0.449531
0.0294041 0.0501106 0.283757
0.0689097 0.0519417 0.324208
0.178485 0.0580453 0.361456
0.307286 0.0734264 0.332815
0.442832 0.0909133 0.312978
0.605173 0.103548 0.360052
0.73608 0.122164 0.399908
0.743648 0.123659 0.438422
0.760327 0.120073 0.486107
0.0337377 0.106615 0.246876
0.0264134 0.0958267 0.283558
0.0520333 0.0583658 0.341009
0.290639 0.0686961 0.370611
0.446967 0.0916762 0.327733
0.59147 0.106035 0.358404
0.72488 0.124681 0.401831
0.734752 0.127169 0.438804
0.75256 0.123125 0.483665
0.0579995 0.256641 0.290471
0.0505074 0.263508 0.32314
0.053666 0.257267 0.363745
0.23476 0.248371 0.476143
0.565103 0.226764 0.455833
0.750759 0.226169 0.45832
0.83624 0.211307 0.475242
0.813611 0.189624 0.483925
0.809186 0.175494 0.497292
0.061677 0.468833 0.413489
0.0449378 0.480629 0.434882
0.0449378 0.487129 0.44712
0.122667 0.502174 0.471275
0.502113 0.49073 0.493248
0.74226 0.474113 0.498909
0.917006 0.474815 0.521691
0.931975 0.464332 0.533349
0.931533 0.43917 0.533013
0.117449 0.664164 0.561761
0.0957351 0.67126 0.572366
0.0897688 0.66601 0.566842
0.108736 0.666239 0.551476
0.3449 0.692195 0.535225
0.6392 0.694774 0.450172
0.881804 0.67393 0.50724
0.941329 0.678584 0.519722
0.940215 0.664988 0.51313
0.212482 0.830839 0.689128
0.195117 0.835492 0.693523
0.184375 0.830228 0.680705
0.182605 0.81677 0.641611
0.256229 0.85272 0.604318
0.453651 0.889113 0.514809
0.81677 0.87509 0.49987
0.94551 0.865599 0.568551
0.943343 0.862623 0.559625
0.283101 0.901518 0.787564
0.267018 0.906813 0.790509
0.256718 0.909285 0.781491
0.266896 0.903822 0.746349
0.273075 0.902312 0.687694
0.37496 0.926879 0.606378
0.595972 0.929656 0.52372
0.928359 0.929427 0.550896
0.943618 0.933974 0.637644
0.282887 0.904845 0.805219
0.273259 0.908095 0.806363
0.263218 0.910796 0.798917
0.268666 0.907759 0.770321
0.275334 0.90396 0.714595
0.298466 0.917815 0.628641
0.506508 0.934554 0.545754
0.82002 0.92755 0.491676
0.944152 0.933608 0.633783
0.16878 0.0598611 0.456535
0.192111 0.0613565 0.485618
0.268147 0.0653086 0.498787
0.371771 0.0732891 0.469795
0.486061 0.0932937 0.436164
0.654688 0.109957 0.446036
0.737346 0.125505 0.475593
0.736843 0.127535 0.483146
0.753796 0.122789 0.520363
0.0917372 0.055024 0.4112
0.11667 0.0566567 0.445808
0.208438 0.0620127 0.481758
0.348241 0.0697032 0.485664
0.47953 0.0917067 0.454963
0.650172 0.109987 0.454765
0.738491 0.126009 0.492988
0.741222 0.127077 0.514992
0.757214 0.123293 0.562676
0.0309911 0.0720684 0.339635
0.0261692 0.0653239 0.380423
0.0715648 0.0541543 0.425269
0.288319 0.0657816 0.4878
0.469368 0.0892195 0.479423
0.630991 0.110689 0.452247
0.729366 0.128054 0.488563
0.734569 0.129915 0.514595
0.74905 0.126818 0.563973
0.0641947 0.230426 0.379278
0.0546273 0.230503 0.413489
0.0544594 0.220783 0.445899
0.153094 0.187518 0.538933
0.48629 0.141604 0.574731
0.704356 0.160189 0.523323
0.788373 0.172122 0.523705
0.763088 0.152499 0.521096
0.754849 0.135454 0.53518
0.0603494 0.459251 0.47483
0.0411994 0.46717 0.500542
0.0403296 0.468162 0.524956
0.0720989 0.455161 0.574151
0.433906 0.445121 0.666728
0.746883 0.418082 0.627008
0.907759 0.418326 0.620951
0.925719 0.396155 0.638102
0.921462 0.366201 0.652598
0.115496 0.648722 0.58764
0.0922713 0.650996 0.598459
0.0862898 0.645151 0.599298
0.0908827 0.638392 0.596582
0.36875 0.65568 0.630304
0.649897 0.635233 0.638865
0.880903 0.622827 0.643565
0.94139 0.623026 0.661921
0.940658 0.612619 0.664057
0.216495 0.807599 0.702541
0.187091 0.813046 0.709422
0.174731 0.80531 0.702144
0.172702 0.793164 0.682795
0.344656 0.816602 0.691508
0.542245 0.827863 0.680003
0.79852 0.832624 0.622614
0.94139 0.823346 0.674174
0.94139 0.819287 0.682109
0.302266 0.893095 0.804395
0.273121 0.901762 0.812085
0.261402 0.903334 0.807034
0.256428 0.900175 0.781598
0.299458 0.905562 0.760281
0.496788 0.92311 0.753719
0.643076 0.930495 0.692683
0.935378 0.927245 0.694713
0.952026 0.928435 0.749645
0.294957 0.905409 0.835477
0.286442 0.908858 0.839475
0.27866 0.911864 0.83743
0.276478 0.912749 0.822187
0.29337 0.910323 0.789532
0.44979 0.926711 0.780056
0.611078 0.931411 0.741787
0.812436 0.929458 0.682811
0.94551 0.934798 0.732326
0.227832 0.0662699 0.566979
0.244678 0.0677348 0.599893
0.307103 0.0712139 0.622034
0.411658 0.0757916 0.619501
0.532891 0.090837 0.594415
0.679744 0.115007 0.568765
0.735912 0.130755 0.562325
0.733318 0.132433 0.573953
0.748363 0.127825 0.598718
0.156207 0.0617075 0.521614
0.172656 0.0627146 0.559838
0.253101 0.0680095 0.600015
0.373358 0.0741894 0.623728
0.520485 0.0886244 0.613367
0.678676 0.115312 0.590356
0.73637 0.131289 0.574838
0.738445 0.131823 0.591608
0.751232 0.128161 0.61828
0.0369726 0.0564584 0.449928
0.0437324 0.0551003 0.484627
0.123171 0.0597391 0.536049
0.298573 0.0700236 0.601587
0.487327 0.0836194 0.621393
0.667445 0.113008 0.608194
0.729778 0.134035 0.570199
0.730694 0.134981 0.585107
0.743877 0.131304 0.612634
0.0637675 0.206134 0.463752
0.0544289 0.2 0.496971
0.0530098 0.179706 0.517174
0.0987411 0.135348 0.574746
0.415946 0.0947738 0.639902
0.623636 0.107836 0.619226
0.724895 0.135317 0.543633
0.72781 0.136522 0.562051
0.741695 0.13228 0.592355
0.0653239 0.447059 0.564492
0.0505989 0.447211 0.593851
0.0520485 0.438071 0.615457
0.0662852 0.41355 0.652598
0.362493 0.400366 0.792569
0.712245 0.345296 0.818753
0.902831 0.352316 0.721325
0.915373 0.352468 0.716686
0.906432 0.317037 0.738216
0.117556 0.63859 0.636378
0.090837 0.640223 0.653223
0.0865644 0.629816 0.656825
0.0881971 0.614328 0.667842
0.285954 0.620737 0.746044
0.594751 0.59823 0.805463
0.879271 0.575982 0.765133
0.940993 0.573922 0.763561
0.939727 0.555001 0.772396
0.215183 0.794079 0.72639
0.184512 0.796338 0.734081
0.17116 0.785031 0.728191
0.162509 0.768734 0.716228
0.280018 0.788998 0.73846
0.55845 0.791501 0.763592
0.801251 0.776913 0.778439
0.944228 0.768307 0.788296
0.944579 0.766827 0.798672
0.303227 0.886183 0.819287
0.274372 0.894179 0.826856
0.262333 0.893797 0.822995
0.260197 0.889509 0.808469
0.311925 0.903395 0.811872
0.565988 0.91107 0.832135
0.718547 0.915496 0.830106
0.929381 0.919264 0.791608
0.951553 0.917876 0.830686
0.332921 0.902098 0.854292
0.308003 0.912352 0.866758
0.301869 0.916732 0.870253
0.306264 0.918929 0.864271
0.325795 0.92401 0.85597
0.534051 0.929961 0.869856
0.688121 0.930404 0.871824
0.816648 0.933913 0.832059
0.949752 0.935149 0.841917
0.290242 0.0746777 0.665171
0.303029 0.0759899 0.68632
0.352224 0.0794232 0.701808
0.434287 0.0847639 0.71371
0.563439 0.0975357 0.712566
0.697307 0.122957 0.706783
0.745998 0.133242 0.696315
0.745556 0.133486 0.692226
0.744457 0.133883 0.68513
0.226978 0.069276 0.640055
0.237156 0.0711376 0.659281
0.308415 0.0762798 0.688594
0.397482 0.0822614 0.708705
0.542306 0.0949722 0.719265
0.696025 0.124544 0.722332
0.745953 0.134539 0.715633
0.745892 0.134707 0.713878
0.747417 0.13434 0.714549
0.0758831 0.0588693 0.562066
0.0941787 0.0610056 0.590219
0.185458 0.0675975 0.639628
0.322789 0.076936 0.689998
0.495781 0.0894636 0.717098
0.678172 0.12224 0.728466
0.74377 0.13576 0.717388
0.74226 0.136553 0.708568
0.74725 0.134707 0.716136
0.0547036 0.175906 0.553613
0.0498665 0.169055 0.57232
0.0600137 0.144106 0.592615
0.0759136 0.0949416 0.609415
0.381567 0.0813916 0.695964
0.602869 0.108431 0.720287
0.744106 0.133715 0.705058
0.742397 0.135103 0.678233
0.749111 0.132555 0.680262
0.0642863 0.434501 0.671046
0.0636149 0.431449 0.691875
0.0670329 0.415534 0.710491
0.0738079 0.384131 0.730068
0.306386 0.349035 0.866194
0.662379 0.288975 0.897566
0.856367 0.276722 0.851499
0.865217 0.265766 0.797635
0.868605 0.26067 0.792706
0.113497 0.631891 0.712902
0.103212 0.627741 0.728634
0.101793 0.611856 0.736843
0.104433 0.586984 0.751019
0.229953 0.577935 0.844327
0.552514 0.561135 0.908568
0.856229 0.521828 0.915648
0.937041 0.51931 0.85745
0.936645 0.522042 0.856718
0.207828 0.786786 0.773297
0.187213 0.784466 0.781476
0.179721 0.771084 0.779675
0.169482 0.748775 0.77525
0.207401 0.745769 0.811521
0.498512 0.755276 0.872175
0.743816 0.739254 0.90837
0.936385 0.720607 0.882872
0.94107 0.71783 0.87895
0.309117 0.878889 0.832746
0.268818 0.888808 0.845594
0.261936 0.884276 0.841581
0.255299 0.875273 0.829664
0.273823 0.876905 0.829068
0.509148 0.901503 0.869047
0.71603 0.906142 0.890654
0.914321 0.903014 0.900694
0.952911 0.896056 0.898756
0.344808 0.910185 0.879042
0.325612 0.918318 0.889479
0.32398 0.921126 0.892638
0.32958 0.923186 0.890959
0.344182 0.926604 0.888533
0.535256 0.935225 0.91046
0.722759 0.935912 0.921721
0.861112 0.937026 0.923568
0.954147 0.93521 0.9066
0.350958 0.080827 0.711223
0.357794 0.0812543 0.712352
0.38172 0.0827955 0.716274
0.441764 0.0869612 0.724498
0.566934 0.100603 0.732403
0.710735 0.129168 0.742992
0.746471 0.137102 0.746471
0.74667 0.137285 0.74667
0.7467 0.137301 0.746242
0.301167 0.0775769 0.699809
0.317784 0.0788434 0.70515
0.349493 0.0807965 0.711116
0.409537 0.0846113 0.720394
0.536568 0.0962081 0.730953
0.70341 0.127916 0.742672
0.746593 0.137224 0.746593
0.74696 0.137591 0.74696
0.747051 0.137667 0.747051
0.154406 0.0676585 0.650385
0.18439 0.0702678 0.667018
0.250034 0.0747387 0.688289
0.345251 0.0804303 0.710231
0.48806 0.090959 0.72874
0.675853 0.122927 0.741238
0.746578 0.137209 0.746578
0.747082 0.137697 0.747082
0.747204 0.137819 0.747189
0.0733501 0.144289 0.630854
0.0818341 0.141329 0.647791
0.098146 0.116045 0.656382
0.123705 0.0760052 0.653819
0.376959 0.0824292 0.715404
0.588632 0.107805 0.737911
0.742321 0.135912 0.745769
0.747143 0.137758 0.747143
0.747173 0.137621 0.746395
0.0876173 0.419791 0.759869
0.0955062 0.41648 0.774029
0.106691 0.400732 0.788739
0.124407 0.368338 0.801785
0.283391 0.305821 0.856443
0.604181 0.233677 0.867185
0.793912 0.212573 0.821439
0.800839 0.194965 0.800839
0.799329 0.192767 0.79762
0.132891 0.618479 0.798093
0.136446 0.611444 0.807507
0.138689 0.596841 0.816144
0.139483 0.571283 0.824216
0.2056 0.540093 0.875364
0.528237 0.520104 0.934325
0.818708 0.479942 0.934646
0.929854 0.46006 0.929854
0.928939 0.449348 0.925765
0.199268 0.781582 0.832578
0.197284 0.772732 0.836667
0.192218 0.75761 0.838499
0.187289 0.731716 0.841337
0.219593 0.704753 0.870375
0.458274 0.715297 0.929625
0.715984 0.698756 0.93785
0.928405 0.670558 0.936004
0.936004 0.666896 0.934066
0.27332 0.886213 0.872969
0.271183 0.882246 0.873335
0.266667 0.875578 0.871168
0.260166 0.864088 0.867201
0.263874 0.851011 0.869169
0.433982 0.87718 0.916945
0.668299 0.882887 0.93109
0.882765 0.880842 0.933974
0.934188 0.872312 0.933227
0.334737 0.922438 0.908278
0.338155 0.923186 0.909911
0.341238 0.923842 0.910536
0.346258 0.925185 0.909758
0.350958 0.925719 0.905623
0.475761 0.934295 0.921599
0.695796 0.935699 0.931716
0.873457 0.938125 0.937942
0.94136 0.941253 0.941176
