bundles/resolve-cinematic-luts/Phantom Luts/P4k & P6K Phntm Film LUTs - V6/P4K/Gen 4 Colour/White Balance Offset (+Magenta Boost)/P4k Eastman Gen4-Legacy WBO.cube
TITLE "Generated by Resolve"
LUT_3D_SIZE 9
0.0390021 0.0390021 0.0390021
0.062623 0.0390021 0.0433814
0.138308 0.0390021 0.0487068
0.256626 0.043595 0.043183
0.366537 0.0473182 0.0422065
0.452064 0.0663005 0.0474708
0.532143 0.0916915 0.0613565
0.597986 0.114611 0.0881971
0.584512 0.131106 0.103044
0.0543832 0.0643473 0.0564279
0.067628 0.066453 0.0522621
0.129931 0.0638437 0.0585184
0.239628 0.0593423 0.0470588
0.343557 0.0593729 0.0390021
0.424842 0.0683452 0.0401617
0.501656 0.0909133 0.0473335
0.572229 0.11693 0.0618143
0.558679 0.131029 0.0682078
0.0668193 0.13434 0.0803082
0.0612345 0.137758 0.0623331
0.136599 0.154513 0.0701152
0.298634 0.136751 0.0751049
0.421515 0.132067 0.0723888
0.519936 0.155245 0.08159
0.609735 0.182712 0.102144
0.684306 0.211414 0.127047
0.674083 0.220935 0.129854
0.0902419 0.279713 0.128252
0.0757 0.287785 0.102586
0.09514 0.29749 0.0840009
0.326436 0.358953 0.107301
0.511543 0.357961 0.105241
0.625284 0.320165 0.126024
0.716945 0.318135 0.1467
0.777813 0.332143 0.170703
0.771603 0.342229 0.176333
0.0965286 0.447593 0.213001
0.0838483 0.443839 0.173098
0.0816815 0.436942 0.1196
0.189761 0.46865 0.107088
0.494911 0.541054 0.132601
0.639078 0.540566 0.155322
0.750027 0.518013 0.173327
0.801465 0.50425 0.20174
0.802274 0.51458 0.20853
0.127962 0.590677 0.32723
0.11545 0.580423 0.29865
0.106203 0.563333 0.22153
0.140581 0.558785 0.141466
0.397589 0.634745 0.174105
0.615198 0.689433 0.20177
0.741756 0.691752 0.233173
0.829786 0.680644 0.271977
0.836667 0.681132 0.289952
0.179171 0.708064 0.427176
0.167285 0.694636 0.397223
0.149905 0.672221 0.329046
0.152453 0.646876 0.219989
0.362509 0.686458 0.199176
0.581521 0.770733 0.253544
0.727916 0.798733 0.277317
0.825391 0.797833 0.339574
0.84007 0.796735 0.381094
0.213352 0.759014 0.494697
0.201572 0.744671 0.462669
0.181216 0.720272 0.393042
0.171313 0.692546 0.310323
0.268482 0.689891 0.230167
0.506752 0.761913 0.269978
0.696544 0.820615 0.309209
0.813748 0.83064 0.362051
0.834974 0.837308 0.446693
0.220813 0.76611 0.5149
0.210071 0.753536 0.486305
0.189105 0.729503 0.422629
0.176822 0.704112 0.349325
0.237003 0.692119 0.275486
0.441199 0.733593 0.2795
0.640391 0.808927 0.333471
0.80209 0.832212 0.372137
0.834592 0.839139 0.459693
0.0429999 0.0390021 0.0528878
0.0675212 0.0390021 0.0580606
0.142565 0.039704 0.0745556
0.262089 0.0390021 0.0621195
0.363928 0.0390021 0.0474098
0.444083 0.0482185 0.053254
0.523278 0.0695811 0.0757916
0.58349 0.0842298 0.110338
0.572778 0.0849622 0.119951
0.0501106 0.0552834 0.0583047
0.0643473 0.0549172 0.0633707
0.142077 0.0533303 0.0653544
0.257755 0.0492256 0.0473335
0.354726 0.0534676 0.0429084
0.436957 0.0747845 0.0480201
0.518547 0.10074 0.0638285
0.581155 0.123247 0.0926375
0.57821 0.134798 0.107668
0.064744 0.124132 0.0916304
0.0595254 0.127352 0.0816052
0.137255 0.144503 0.073991
0.303502 0.11577 0.0776989
0.413458 0.119387 0.0664073
0.504036 0.141253 0.0765393
0.587274 0.166232 0.0961624
0.648966 0.189441 0.124102
0.6318 0.194034 0.123934
0.0864271 0.264698 0.148302
0.0771191 0.27097 0.128115
0.0804303 0.28571 0.0859083
0.324025 0.34905 0.107958
0.51989 0.328099 0.110979
0.628565 0.293828 0.131746
0.721386 0.295293 0.150408
0.775631 0.315953 0.173983
0.764736 0.323613 0.17702
0.107347 0.449577 0.25214
0.0903792 0.44181 0.219455
0.0815442 0.435279 0.141344
0.168383 0.459144 0.10396
0.492775 0.533181 0.130999
0.647639 0.525246 0.153979
0.752514 0.491432 0.179767
0.802884 0.483406 0.206043
0.799756 0.490883 0.211261
0.135103 0.593545 0.355047
0.123766 0.583597 0.333623
0.106386 0.564721 0.257069
0.118624 0.550958 0.15491
0.373999 0.621363 0.168841
0.612299 0.680507 0.196841
0.744457 0.679347 0.229923
0.829862 0.661418 0.27216
0.833951 0.662913 0.288548
0.185534 0.711421 0.449271
0.174426 0.698924 0.422339
0.154986 0.677043 0.35967
0.145754 0.647211 0.250095
0.329458 0.673503 0.194171
0.560586 0.760983 0.2477
0.722515 0.793164 0.271992
0.825589 0.790967 0.33611
0.839902 0.788128 0.377462
0.221683 0.769177 0.517143
0.211521 0.756558 0.488655
0.188968 0.731167 0.418357
0.170718 0.69865 0.332341
0.236164 0.686564 0.236378
0.485924 0.753277 0.260594
0.685802 0.817899 0.301549
0.810651 0.830167 0.354147
0.836011 0.836698 0.441199
0.228458 0.775891 0.536873
0.220142 0.765316 0.512291
0.199649 0.742519 0.450431
0.179446 0.712093 0.372198
0.212177 0.692897 0.291386
0.399161 0.719707 0.272908
0.617304 0.802274 0.331136
0.793683 0.832181 0.368414
0.834714 0.839002 0.4589
0.0455482 0.0390021 0.0954147
0.0877089 0.0390021 0.100435
0.14876 0.0419623 0.103593
0.267826 0.0390021 0.115587
0.37615 0.0390021 0.119081
0.456916 0.0390021 0.137667
0.536278 0.0565499 0.160464
0.581933 0.0762188 0.192447
0.572091 0.0874952 0.211017
0.0416724 0.0501106 0.0839704
0.0558938 0.0426184 0.106004
0.139803 0.0458534 0.103502
0.263569 0.0390021 0.0962997
0.373785 0.0390021 0.0807813
0.45156 0.0390021 0.0875868
0.533028 0.0536965 0.116442
0.582849 0.0777752 0.158007
0.574792 0.0894331 0.176471
0.059205 0.120974 0.105684
0.0561074 0.120073 0.108705
0.147066 0.131533 0.139437
0.315129 0.11075 0.129015
0.444465 0.103212 0.104952
0.538262 0.117647 0.112688
0.625437 0.136828 0.137865
0.655436 0.146319 0.157137
0.635676 0.145174 0.155062
0.0845808 0.259586 0.173007
0.0785534 0.25774 0.165194
0.0993973 0.28365 0.156619
0.336492 0.343725 0.167407
0.531289 0.290684 0.163531
0.639918 0.266117 0.156649
0.732738 0.277119 0.170703
0.769055 0.295064 0.190723
0.754269 0.299825 0.192569
0.113909 0.452049 0.28957
0.106157 0.447868 0.281331
0.0911879 0.433768 0.220295
0.130739 0.449226 0.124804
0.490608 0.524422 0.145205
0.664805 0.496635 0.17499
0.758114 0.451225 0.197757
0.808927 0.446159 0.229908
0.800259 0.448615 0.235248
0.140307 0.594598 0.385885
0.135256 0.588846 0.378347
0.121584 0.573129 0.329961
0.106096 0.548531 0.197696
0.334417 0.600931 0.167575
0.607569 0.668086 0.194797
0.753506 0.658808 0.233585
0.826978 0.630182 0.277317
0.827558 0.632273 0.287327
0.189853 0.711971 0.473869
0.184146 0.703395 0.461326
0.168368 0.685634 0.411429
0.143084 0.653559 0.306996
0.249546 0.654582 0.198962
0.524315 0.744121 0.23978
0.715114 0.783597 0.26479
0.827344 0.778637 0.334157
0.840726 0.77406 0.375189
0.230915 0.780026 0.545937
0.224521 0.770672 0.52961
0.206149 0.750149 0.468055
0.174853 0.711589 0.371557
0.19263 0.684672 0.259953
0.448112 0.737819 0.248447
0.662043 0.813123 0.292515
0.805554 0.829953 0.345296
0.838468 0.834638 0.434928
0.238148 0.788205 0.566094
0.232822 0.780835 0.549462
0.217731 0.763943 0.497414
0.187869 0.72755 0.411414
0.186816 0.696803 0.320485
0.342443 0.706065 0.269337
0.578592 0.788708 0.325154
0.779828 0.832029 0.362982
0.833005 0.838407 0.454337
0.0477455 0.0435798 0.180667
0.0923781 0.0428473 0.192264
0.168109 0.0408026 0.19086
0.267765 0.0390021 0.187015
0.379339 0.0393835 0.206241
0.46952 0.055375 0.235142
0.561105 0.0830091 0.261692
0.59649 0.100053 0.29482
0.584878 0.108186 0.305852
0.0390021 0.0471656 0.152117
0.0527962 0.0439002 0.19118
0.148333 0.0407416 0.201251
0.262409 0.0390021 0.185794
0.374975 0.0395514 0.204654
0.468528 0.0546578 0.220172
0.557519 0.0791791 0.24506
0.591226 0.0965133 0.278035
0.579461 0.104463 0.287816
0.0412757 0.108141 0.167346
0.0390021 0.0987869 0.181308
0.11342 0.090898 0.246418
0.287449 0.0835737 0.226246
0.413809 0.06804 0.218036
0.508431 0.0729534 0.220584
0.585504 0.08748 0.23946
0.613504 0.102022 0.261143
0.597177 0.103624 0.261097
0.0704967 0.255863 0.210605
0.0633707 0.254215 0.213428
0.0990921 0.280735 0.248722
0.341634 0.319844 0.333883
0.529671 0.289204 0.330373
0.674464 0.246403 0.302907
0.764736 0.240208 0.293736
0.767346 0.230945 0.291936
0.750393 0.231312 0.291371
0.110903 0.453178 0.325963
0.105074 0.449836 0.327306
0.108278 0.445335 0.313207
0.229236 0.482719 0.344182
0.504067 0.518242 0.33843
0.665965 0.460945 0.32105
0.77554 0.416571 0.299504
0.815076 0.407736 0.289921
0.802365 0.405737 0.285832
0.141253 0.594965 0.418982
0.13901 0.590356 0.418387
0.136477 0.582712 0.398779
0.134478 0.573938 0.3449
0.298421 0.584375 0.272328
0.603586 0.653696 0.297169
0.76701 0.613504 0.312276
0.821408 0.583322 0.303105
0.81767 0.578119 0.302785
0.192767 0.712047 0.501625
0.189975 0.704982 0.498558
0.183581 0.69427 0.475502
0.167025 0.674861 0.409201
0.199023 0.653544 0.294423
0.452979 0.705562 0.272801
0.706645 0.772473 0.30457
0.833646 0.759838 0.350423
0.84268 0.751064 0.379828
0.237034 0.78706 0.575082
0.234104 0.779324 0.56527
0.226535 0.768307 0.539513
0.203494 0.741878 0.465492
0.17998 0.701839 0.34342
0.338125 0.703914 0.256397
0.610162 0.800183 0.302907
0.802915 0.829175 0.340169
0.839963 0.831724 0.437201
0.247959 0.801205 0.602319
0.24567 0.796902 0.590768
0.240085 0.788388 0.567697
0.219409 0.764782 0.500877
0.184726 0.717189 0.386114
0.266773 0.697612 0.290318
0.512581 0.761517 0.313222
0.753429 0.830793 0.355856
0.833265 0.837629 0.448051
0.0504768 0.0476692 0.273167
0.102541 0.0438392 0.287251
0.202808 0.0390021 0.29131
0.282841 0.0404669 0.277729
0.376959 0.0484016 0.284977
0.482338 0.065568 0.304311
0.578622 0.101274 0.356207
0.610956 0.114412 0.378164
0.598611 0.120668 0.387976
0.0390021 0.047776 0.245014
0.0554513 0.0480049 0.283635
0.171725 0.0390021 0.301823
0.276753 0.0403601 0.284123
0.376349 0.0487831 0.285542
0.481987 0.066041 0.302861
0.579187 0.102174 0.350271
0.607217 0.114214 0.368978
0.595987 0.120516 0.377737
0.0390021 0.0844434 0.23978
0.0390021 0.0725719 0.251621
0.087129 0.0515145 0.315419
0.269993 0.0456855 0.30573
0.376898 0.051194 0.288502
0.483207 0.06598 0.301396
0.583001 0.098085 0.333776
0.609644 0.108858 0.346914
0.600214 0.114397 0.353765
0.047837 0.229343 0.281041
0.0406958 0.219211 0.2869
0.0535286 0.216968 0.324193
0.317113 0.236652 0.443122
0.511894 0.250034 0.44622
0.657145 0.230365 0.453696
0.751705 0.224811 0.453071
0.745037 0.212833 0.454612
0.731533 0.215686 0.450385
0.0987106 0.450156 0.370352
0.093431 0.446845 0.374121
0.0927749 0.442054 0.374746
0.245243 0.486488 0.446952
0.5122 0.494911 0.507225
0.668315 0.454841 0.490608
0.793927 0.399908 0.452583
0.829801 0.384131 0.445747
0.818357 0.379583 0.44152
0.13756 0.594583 0.450614
0.135515 0.589853 0.453117
0.135088 0.584207 0.445197
0.183688 0.599802 0.456168
0.417762 0.616053 0.503304
0.630045 0.64242 0.498299
0.757671 0.584787 0.466529
0.828138 0.543023 0.432563
0.825254 0.535256 0.425422
0.191073 0.709697 0.531395
0.188754 0.702159 0.529915
0.185168 0.692882 0.515358
0.187274 0.686107 0.492927
0.299123 0.682948 0.468406
0.455924 0.692027 0.426917
0.706859 0.756664 0.462165
0.836149 0.714977 0.463478
0.841459 0.71104 0.450431
0.239307 0.788724 0.60032
0.237064 0.78143 0.593301
0.232868 0.773312 0.577035
0.224506 0.760021 0.545129
0.235538 0.748974 0.490257
0.335866 0.716091 0.393301
0.547143 0.767956 0.405325
0.798733 0.83183 0.442878
0.846265 0.829206 0.487984
0.255619 0.812512 0.636408
0.255451 0.809613 0.630854
0.253513 0.805478 0.617151
0.247196 0.79585 0.586831
0.231434 0.771695 0.519051
0.283604 0.729534 0.422004
0.422095 0.735546 0.383719
0.714046 0.832502 0.433845
0.835218 0.841291 0.473503
0.0652628 0.0493019 0.344259
0.128664 0.042649 0.35935
0.23003 0.0393378 0.368231
0.311635 0.043183 0.356634
0.386419 0.0571145 0.356878
0.483284 0.0805219 0.376608
0.589395 0.112703 0.413016
0.613703 0.130114 0.45716
0.608911 0.135744 0.466636
0.0390021 0.0523537 0.323919
0.073106 0.0487831 0.352956
0.197192 0.0402991 0.374716
0.304936 0.0427405 0.363561
0.385138 0.0572976 0.36022
0.483772 0.0822919 0.378363
0.591501 0.113069 0.412146
0.613886 0.129198 0.45362
0.607477 0.135042 0.461433
0.0390021 0.061265 0.295552
0.0390021 0.0524453 0.305821
0.105547 0.0458839 0.370703
0.283345 0.0425269 0.378073
0.379187 0.0568093 0.365866
0.483085 0.0827192 0.3785
0.591043 0.110491 0.406607
0.618387 0.124529 0.443809
0.60795 0.130694 0.447379
0.0390021 0.191928 0.33521
0.0390021 0.178973 0.339101
0.0390021 0.158999 0.371893
0.280873 0.148669 0.488731
0.486366 0.181292 0.506157
0.602884 0.189151 0.498253
0.695216 0.190402 0.503487
0.687251 0.176364 0.4981
0.672206 0.178424 0.490547
0.0785534 0.433265 0.43125
0.0746471 0.425086 0.433982
0.0740978 0.408408 0.441169
0.204242 0.438102 0.526986
0.503197 0.436103 0.623316
0.684596 0.444663 0.616251
0.812604 0.409232 0.606577
0.851118 0.393896 0.606775
0.836881 0.388006 0.598856
0.129671 0.590524 0.490669
0.126818 0.58529 0.493385
0.125322 0.579385 0.491386
0.161013 0.593454 0.515358
0.435996 0.621698 0.594247
0.635447 0.621714 0.632532
0.766888 0.57641 0.606165
0.84155 0.528893 0.57142
0.836561 0.52018 0.566629
0.187762 0.707683 0.558587
0.185626 0.700069 0.557504
0.182666 0.69192 0.548653
0.194537 0.689647 0.542794
0.3888 0.712993 0.5897
0.554452 0.719722 0.621622
0.737713 0.743313 0.620706
0.82884 0.690105 0.582208
0.843137 0.674128 0.570733
0.239094 0.788998 0.625208
0.237476 0.781842 0.621256
0.234897 0.774334 0.608454
0.231922 0.765194 0.586984
0.315343 0.776852 0.591073
0.433402 0.764675 0.575814
0.563622 0.777279 0.554696
0.80621 0.838972 0.592447
0.864576 0.831846 0.608865
0.262989 0.820813 0.667735
0.263325 0.818845 0.664332
0.262684 0.81651 0.655543
0.259785 0.811414 0.63624
0.267704 0.807584 0.613886
0.379858 0.801953 0.595743
0.472175 0.779751 0.556512
0.695003 0.835981 0.583795
0.852506 0.863752 0.597848
0.0995346 0.049012 0.400427
0.161044 0.0449989 0.414328
0.249928 0.0457923 0.425757
0.336568 0.0522469 0.421042
0.407004 0.0671397 0.420829
0.493782 0.0983597 0.441962
0.590036 0.134066 0.479301
0.613626 0.145281 0.503716
0.616403 0.148806 0.518486
0.0442512 0.055024 0.381949
0.10695 0.0490425 0.407446
0.219806 0.0459449 0.429145
0.327382 0.0521096 0.427878
0.405249 0.0674296 0.425132
0.495598 0.0991531 0.445426
0.592996 0.134264 0.480781
0.614282 0.144945 0.502022
0.615061 0.148333 0.513848
0.0390021 0.0559243 0.338369
0.0390021 0.0564279 0.36437
0.143053 0.0476844 0.423819
0.300435 0.0512093 0.438773
0.398489 0.0675669 0.432059
0.492226 0.0989853 0.448096
0.589166 0.133288 0.477485
0.612726 0.143526 0.494133
0.612573 0.145876 0.501595
0.0390021 0.155169 0.370779
0.0390021 0.141085 0.371862
0.0390021 0.119173 0.402441
0.245869 0.0960555 0.497597
0.436423 0.122133 0.513603
0.539071 0.14432 0.513085
0.628946 0.165438 0.519387
0.639353 0.162325 0.512581
0.630549 0.159823 0.506676
0.0660716 0.406439 0.478401
0.0626841 0.395911 0.478309
0.059968 0.375235 0.483665
0.174289 0.388968 0.586603
0.482521 0.373129 0.707042
0.706371 0.41445 0.729595
0.817258 0.405829 0.705165
0.845106 0.389975 0.703761
0.831189 0.380545 0.693126
0.117418 0.580575 0.542367
0.114946 0.573068 0.542947
0.113542 0.562432 0.547539
0.1626 0.569711 0.596139
0.394919 0.580102 0.67013
0.631083 0.574502 0.738445
0.789319 0.580331 0.72546
0.866453 0.547356 0.709911
0.862211 0.538369 0.705577
0.183062 0.703471 0.595544
0.180133 0.695399 0.593805
0.176013 0.686748 0.588083
0.181399 0.682582 0.590036
0.365881 0.710918 0.65153
0.571496 0.725368 0.706706
0.740276 0.725414 0.736889
0.841749 0.68191 0.708995
0.857496 0.665537 0.700725
0.237949 0.787961 0.648295
0.236606 0.781537 0.644221
0.234821 0.775448 0.635111
0.237369 0.768917 0.623468
0.342016 0.788678 0.64918
0.522744 0.806714 0.69688
0.654017 0.815854 0.726574
0.830777 0.841489 0.727184
0.875486 0.828107 0.722683
0.272938 0.826917 0.692073
0.273152 0.824811 0.690196
0.273518 0.82298 0.683528
0.273732 0.819593 0.671061
0.311345 0.826123 0.671733
0.455482 0.846036 0.705531
0.581872 0.852125 0.728283
0.714305 0.860334 0.720302
0.87361 0.892912 0.733181
0.144732 0.053315 0.455726
0.193637 0.052903 0.466545
0.26949 0.0569924 0.479805
0.356802 0.0673533 0.485451
0.434363 0.0847639 0.489143
0.523079 0.117571 0.512337
0.606043 0.14963 0.540948
0.62385 0.158419 0.558724
0.626642 0.160021 0.566445
0.0925612 0.0567483 0.44152
0.151537 0.0537423 0.460914
0.24329 0.0560464 0.480385
0.345235 0.066392 0.489403
0.431342 0.0843214 0.492149
0.523049 0.118379 0.514565
0.606531 0.150164 0.542611
0.62388 0.158419 0.558419
0.625788 0.159976 0.564813
0.0390021 0.0605631 0.388556
0.0518959 0.0598001 0.42504
0.181003 0.0549783 0.473106
0.317281 0.0641031 0.493553
0.420661 0.0825971 0.496132
0.516533 0.116869 0.516228
0.602991 0.148974 0.541573
0.623468 0.157809 0.5552
0.624796 0.159243 0.55993
0.0390021 0.12047 0.395789
0.0390021 0.107027 0.395987
0.0390021 0.0848707 0.424369
0.232822 0.0644236 0.497475
0.401099 0.0904707 0.51841
0.510719 0.122698 0.529198
0.597223 0.148806 0.542031
0.623774 0.157855 0.549767
0.623758 0.157824 0.549386
0.0558938 0.378241 0.515709
0.052491 0.364431 0.514382
0.0523232 0.342351 0.520409
0.199359 0.34229 0.640925
0.502174 0.331411 0.756939
0.71989 0.373617 0.786099
0.810208 0.383627 0.765576
0.825925 0.368505 0.751385
0.815 0.355428 0.739773
0.114824 0.561959 0.596139
0.111681 0.55285 0.596201
0.11046 0.539849 0.601129
0.176287 0.544167 0.656825
0.366354 0.530739 0.731228
0.630198 0.524453 0.81413
0.822446 0.559884 0.826871
0.885237 0.545434 0.803357
0.881453 0.532891 0.793408
0.17528 0.693782 0.641032
0.171115 0.683833 0.639368
0.168276 0.671412 0.639918
0.192859 0.666331 0.661936
0.358846 0.677348 0.727932
0.531411 0.679927 0.77113
0.754406 0.68304 0.831525
0.863966 0.682063 0.812757
0.882307 0.66862 0.80708
0.236057 0.784451 0.676738
0.232929 0.777752 0.672984
0.22977 0.771359 0.667613
0.231556 0.765179 0.664958
0.329442 0.786297 0.702708
0.508888 0.808362 0.754498
0.675914 0.826139 0.801373
0.835187 0.829862 0.83061
0.88368 0.815778 0.823163
0.290883 0.83209 0.713481
0.288594 0.829404 0.710292
0.288228 0.827115 0.705364
0.292393 0.82443 0.699275
0.340826 0.834348 0.712169
0.494179 0.859388 0.757778
0.646021 0.879194 0.801694
0.784573 0.89134 0.835767
0.885573 0.905013 0.834638
0.203906 0.0602426 0.499138
0.241474 0.062211 0.506691
0.307744 0.0696269 0.518837
0.387732 0.0824903 0.527016
0.47158 0.10341 0.534691
0.561166 0.135592 0.552148
0.620783 0.158572 0.567544
0.627115 0.161715 0.57052
0.62739 0.161837 0.570809
0.164813 0.0598306 0.490394
0.209979 0.0609751 0.501869
0.285756 0.0670329 0.516838
0.377127 0.0810559 0.527749
0.467384 0.101869 0.534112
0.55996 0.135607 0.552453
0.619883 0.158328 0.567529
0.627192 0.161791 0.570611
0.627405 0.16199 0.570871
0.0551003 0.0638132 0.449027
0.127565 0.0602274 0.478233
0.234791 0.0624552 0.508324
0.352285 0.0770428 0.526879
0.453788 0.0988937 0.534112
0.554864 0.135363 0.554299
0.616663 0.157153 0.566995
0.627283 0.161898 0.570718
0.627527 0.162158 0.571099
0.0390021 0.0930953 0.420356
0.0390021 0.0797284 0.419898
0.0513619 0.0652934 0.44921
0.27097 0.0665293 0.51722
0.413199 0.0912032 0.534813
0.525811 0.126543 0.550439
0.604608 0.153536 0.565148
0.627329 0.161944 0.570794
0.62768 0.162356 0.571359
0.059678 0.35375 0.549218
0.0601816 0.339559 0.548363
0.0688182 0.315358 0.552316
0.253376 0.296483 0.659022
0.554253 0.306783 0.755703
0.723461 0.333043 0.762951
0.796963 0.344793 0.750683
0.802136 0.335592 0.740154
0.79118 0.320653 0.72958
0.120668 0.549752 0.63476
0.11841 0.540093 0.634287
0.121492 0.527703 0.639704
0.210895 0.517906 0.690181
0.404242 0.495308 0.762524
0.703227 0.513359 0.855329
0.848768 0.529885 0.848035
0.888029 0.524407 0.832303
0.885954 0.513329 0.828901
0.179385 0.680293 0.676631
0.17438 0.669367 0.674342
0.178866 0.659205 0.679377
0.226963 0.649516 0.705272
0.369162 0.648386 0.756115
0.546212 0.639048 0.805463
0.805051 0.658869 0.873335
0.883925 0.657588 0.857099
0.893462 0.650935 0.851759
0.235004 0.778378 0.702968
0.232441 0.771252 0.700954
0.235828 0.765026 0.703624
0.256153 0.757046 0.713237
0.359472 0.770123 0.755749
0.519585 0.784588 0.800443
0.671244 0.79823 0.839857
0.856001 0.799268 0.875044
0.889738 0.797513 0.866682
0.297292 0.831647 0.730129
0.293675 0.828779 0.727642
0.293355 0.826596 0.725399
0.297276 0.823987 0.724483
0.344244 0.834195 0.741985
0.486488 0.858137 0.785199
0.640665 0.879484 0.828565
0.804044 0.897322 0.870375
0.886748 0.900328 0.881529
