bundles/resolve-cinematic-luts/Phantom Luts/P4k & P6K Phntm Film LUTs - V6/P4K/Gen 4 Colour/White Balance Offset (+Magenta Boost)/P4k EastmanRM Gen4 WBO.cube
TITLE "Generated by Resolve"
LUT_3D_SIZE 5
0.0411231 0.0301671 0.0354467
0.186313 0.0259861 0.0376287
0.468132 0.0267338 0.0491798
0.618372 0.053727 0.096849
0.644282 0.101122 0.183291
0.0563211 0.176974 0.0703441
0.159625 0.196948 0.0496834
0.511498 0.124926 0.0554055
0.699199 0.155306 0.110292
0.713237 0.171817 0.149477
0.0485237 0.494652 0.16939
0.0484169 0.493462 0.0690776
0.572534 0.623758 0.101305
0.839597 0.595743 0.231998
0.864363 0.60853 0.271305
0.218845 0.733608 0.499977
0.204044 0.727825 0.449165
0.366751 0.712123 0.236515
0.837034 0.882719 0.440681
0.902159 0.8925 0.595636
0.261646 0.771389 0.58819
0.251759 0.754894 0.515419
0.330816 0.728939 0.323903
0.828901 0.895674 0.497856
0.895949 0.915938 0.675898
0.0426947 0.0433967 0.106279
0.173236 0.0363012 0.102937
0.456367 0.0322881 0.114443
0.586603 0.0517891 0.164294
0.609216 0.0897536 0.245014
0.0499886 0.159731 0.121538
0.17496 0.176959 0.168917
0.540475 0.0806287 0.113787
0.667063 0.0967269 0.159747
0.660258 0.108904 0.19913
0.0501869 0.493584 0.275959
0.0461128 0.494713 0.205997
0.573266 0.612039 0.105898
0.85536 0.545419 0.227405
0.868345 0.55259 0.270115
0.219104 0.7337 0.535348
0.20882 0.733623 0.5084
0.262486 0.696696 0.270756
0.83331 0.877058 0.427619
0.905455 0.883299 0.586633
0.275792 0.778592 0.623011
0.275013 0.768856 0.573343
0.270741 0.729274 0.382101
0.793774 0.887419 0.483146
0.895354 0.916609 0.681361
0.056672 0.069337 0.315724
0.224384 0.0473335 0.355398
0.462562 0.0473793 0.321965
0.625238 0.106249 0.360876
0.621225 0.127443 0.418051
0.0415961 0.111162 0.272969
0.0843214 0.0551308 0.37171
0.462028 0.05037 0.336858
0.645151 0.098558 0.323827
0.63183 0.119585 0.383444
0.0499123 0.483803 0.39411
0.0465858 0.48452 0.424033
0.599115 0.565377 0.557031
0.904158 0.474235 0.530159
0.900374 0.462486 0.542367
0.220386 0.727794 0.585718
0.204623 0.731777 0.591943
0.271061 0.745693 0.522225
0.830076 0.86717 0.567086
0.911223 0.861875 0.633722
0.302663 0.785824 0.672618
0.293996 0.785412 0.665415
0.290745 0.774166 0.580941
0.706233 0.853635 0.559075
0.89691 0.920317 0.713558
0.131319 0.0620279 0.483818
0.283909 0.06981 0.502846
0.443183 0.0821698 0.502571
0.629313 0.143114 0.542
0.637369 0.155169 0.573999
0.0422675 0.0959945 0.385992
0.174655 0.0670787 0.499992
0.43798 0.0843671 0.511635
0.639673 0.145724 0.546914
0.639582 0.15613 0.574105
0.0441138 0.418372 0.529503
0.0446174 0.398123 0.539803
0.560098 0.393759 0.792187
0.90132 0.425208 0.823804
0.885374 0.406821 0.810651
0.221424 0.714717 0.641886
0.205966 0.718654 0.657923
0.363149 0.755993 0.706096
0.833066 0.835859 0.820798
0.901747 0.822583 0.815183
0.362448 0.80325 0.717876
0.348394 0.806302 0.725872
0.384466 0.816999 0.726177
0.777661 0.90399 0.831861
0.89691 0.93341 0.862654
0.285679 0.0872206 0.536965
0.366476 0.0962844 0.549645
0.495308 0.11487 0.566339
0.632914 0.162799 0.61297
0.643687 0.168994 0.61976
0.137713 0.0847028 0.508507
0.301793 0.0891127 0.540246
0.485313 0.112566 0.564248
0.637171 0.164523 0.614633
0.642267 0.170214 0.622415
0.0571756 0.358633 0.596704
0.0639353 0.331853 0.599542
0.616464 0.306538 0.799222
0.811994 0.339406 0.797986
0.800366 0.325948 0.784909
0.22269 0.70663 0.710567
0.227237 0.70898 0.720119
0.415869 0.734478 0.771664
0.841184 0.789975 0.884153
0.89221 0.797162 0.884596
0.400061 0.816938 0.752346
0.39411 0.819303 0.759869
0.445014 0.831159 0.773342
0.80911 0.917967 0.879286
0.909468 0.937362 0.89514
