bundles/resolve-cinematic-luts/Phantom Luts/P4k & P6K Phntm Film LUTs - V6/P4K/Gen 4 Colour/White Balance Offset (+Magenta Boost)/P4k EastmanRM Gen4 WBO.cube
TITLE "Generated by Resolve"
LUT_3D_SIZE 9
0.0411231 0.0301671 0.0354467
0.0687419 0.0286564 0.0362249
0.186313 0.0259861 0.0376287
0.330373 0.0245365 0.0422827
0.468132 0.0267338 0.0491798
0.555001 0.0352331 0.0676738
0.618372 0.053727 0.096849
0.673289 0.0869764 0.135058
0.644282 0.101122 0.183291
0.043534 0.075761 0.0460059
0.0551003 0.0773632 0.0406195
0.167697 0.05626 0.0413825
0.322988 0.0339361 0.0385138
0.45304 0.0271763 0.0407263
0.533349 0.0308385 0.0509194
0.592493 0.0439002 0.0754864
0.637034 0.0618296 0.0986191
0.611292 0.079469 0.141466
0.0563211 0.176974 0.0703441
0.050248 0.17998 0.0476844
0.159625 0.196948 0.0496834
0.390738 0.162142 0.0507973
0.511498 0.124926 0.0554055
0.624155 0.131121 0.0731823
0.699199 0.155306 0.110292
0.742367 0.171954 0.130831
0.713237 0.171817 0.149477
0.0510109 0.331029 0.085771
0.0451972 0.339071 0.0586862
0.0550393 0.342382 0.0392309
0.362158 0.423117 0.0516213
0.624704 0.409323 0.0701762
0.745602 0.367224 0.101717
0.81384 0.370153 0.147539
0.843885 0.383673 0.182696
0.831922 0.389105 0.196048
0.0485237 0.494652 0.16939
0.0460975 0.499275 0.139086
0.0484169 0.493462 0.0690776
0.15378 0.518242 0.045304
0.572534 0.623758 0.101305
0.764385 0.615061 0.171649
0.839597 0.595743 0.231998
0.868803 0.603418 0.260334
0.864363 0.60853 0.271305
0.100023 0.639933 0.366873
0.0903334 0.644724 0.361151
0.0912795 0.635721 0.287602
0.116243 0.611658 0.15053
0.422553 0.694041 0.166888
0.720699 0.779492 0.269886
0.860426 0.77702 0.358297
0.90724 0.780163 0.428367
0.911955 0.783688 0.421347
0.218845 0.733608 0.499977
0.212558 0.734539 0.490455
0.204044 0.727825 0.449165
0.19588 0.705531 0.353399
0.366751 0.712123 0.236515
0.645884 0.830182 0.348257
0.837034 0.882719 0.440681
0.904387 0.888685 0.575021
0.902159 0.8925 0.595636
0.267582 0.76553 0.560616
0.263218 0.76051 0.541024
0.252995 0.749844 0.496406
0.248096 0.73608 0.433295
0.327596 0.728298 0.323964
0.603387 0.814862 0.3879
0.826612 0.895003 0.493492
0.900236 0.910246 0.622766
0.898009 0.915129 0.669535
0.261646 0.771389 0.58819
0.2589 0.767224 0.566751
0.251759 0.754894 0.515419
0.248753 0.737911 0.439719
0.330816 0.728939 0.323903
0.615839 0.8206 0.395392
0.828901 0.895674 0.497856
0.901091 0.910872 0.630076
0.895949 0.915938 0.675898
0.0414893 0.0341497 0.0511482
0.063508 0.0324407 0.0523537
0.17055 0.0323033 0.0582437
0.31545 0.0286412 0.064744
0.446494 0.0282444 0.0754406
0.526345 0.032578 0.0973831
0.590524 0.0518502 0.137301
0.632441 0.0773175 0.17644
0.615427 0.0893873 0.214145
0.0426947 0.0615702 0.0528878
0.0555428 0.0595254 0.0578622
0.165393 0.0452735 0.0582895
0.316609 0.0315404 0.0581064
0.442802 0.0300145 0.0674144
0.533227 0.0394293 0.0894789
0.602975 0.0627146 0.125505
0.652033 0.0948806 0.163607
0.633555 0.10277 0.195468
0.0524453 0.165667 0.0967269
0.0487678 0.17174 0.0797742
0.159106 0.188586 0.0552529
0.380087 0.130831 0.0595712
0.501701 0.099382 0.0623026
0.596124 0.0909285 0.0732586
0.649744 0.103456 0.105013
0.682246 0.115938 0.124926
0.653849 0.115511 0.143725
0.0508583 0.322423 0.130846
0.0457465 0.328069 0.102571
0.0479286 0.333379 0.0404059
0.365286 0.414359 0.0516518
0.637522 0.376379 0.0745556
0.746593 0.338491 0.108873
0.817533 0.341863 0.157382
0.843473 0.359701 0.187198
0.830091 0.362676 0.202716
0.0494392 0.495186 0.219547
0.0461891 0.499504 0.202533
0.0469673 0.494087 0.092546
0.12282 0.509926 0.0440375
0.575036 0.619608 0.0970779
0.769863 0.603372 0.173114
0.844297 0.579217 0.226459
0.871336 0.585992 0.252979
0.864912 0.590524 0.265049
0.100389 0.639994 0.393011
0.0906081 0.645945 0.392401
0.0884413 0.640192 0.327932
0.101457 0.615641 0.186999
0.404623 0.685817 0.159152
0.720882 0.776974 0.265202
0.865385 0.771832 0.35845
0.906477 0.774121 0.430365
0.907469 0.778012 0.432105
0.218448 0.734966 0.5178
0.214206 0.735698 0.508568
0.206867 0.730831 0.473259
0.194247 0.710826 0.380529
0.326253 0.702327 0.237629
0.632258 0.824445 0.339452
0.836027 0.880858 0.437171
0.905119 0.886137 0.57232
0.903349 0.889845 0.593072
0.265812 0.770443 0.585
0.27068 0.765087 0.557916
0.26041 0.755566 0.51873
0.249256 0.740551 0.453498
0.304677 0.72723 0.339635
0.580468 0.804303 0.378531
0.816999 0.892836 0.488594
0.900618 0.90985 0.61857
0.897826 0.915328 0.67129
0.267796 0.774777 0.603235
0.268345 0.770016 0.580285
0.261311 0.760845 0.539406
0.250523 0.742199 0.459525
0.306111 0.727916 0.341558
0.59028 0.80827 0.385351
0.819028 0.893538 0.493263
0.898039 0.91046 0.622477
0.895872 0.916121 0.677485
0.0426947 0.0433967 0.106279
0.079408 0.0366217 0.113451
0.173236 0.0363012 0.102937
0.330556 0.0347753 0.107897
0.456367 0.0322881 0.114443
0.534585 0.0367895 0.136736
0.586603 0.0517891 0.164294
0.626856 0.0778821 0.205615
0.609216 0.0897536 0.245014
0.0403906 0.0537575 0.0883345
0.0444343 0.0408637 0.117113
0.152926 0.0385595 0.111009
0.321477 0.033753 0.0958114
0.454566 0.0306401 0.101396
0.534752 0.0351873 0.116335
0.599771 0.0580606 0.1626
0.635462 0.0825818 0.200809
0.618341 0.094316 0.238422
0.0499886 0.159731 0.121538
0.0461433 0.159442 0.13373
0.17496 0.176959 0.168917
0.401129 0.127718 0.132708
0.540475 0.0806287 0.113787
0.613596 0.0715801 0.12285
0.667063 0.0967269 0.159747
0.68574 0.106767 0.175128
0.660258 0.108904 0.19913
0.051667 0.317037 0.179706
0.0474708 0.318929 0.178302
0.0549477 0.33994 0.136965
0.382712 0.406271 0.12607
0.643809 0.330632 0.12639
0.757916 0.293111 0.141451
0.829831 0.302998 0.188937
0.844602 0.313726 0.206012
0.827726 0.31696 0.225971
0.0501869 0.493584 0.275959
0.0472114 0.498863 0.286381
0.0461128 0.494713 0.205997
0.0694133 0.500374 0.0571145
0.573266 0.612039 0.105898
0.781537 0.57499 0.194064
0.85536 0.545419 0.227405
0.875807 0.549386 0.255299
0.868345 0.55259 0.270115
0.100145 0.636759 0.423514
0.0896468 0.642695 0.43209
0.0866255 0.641932 0.390982
0.0881666 0.624552 0.254902
0.360418 0.666636 0.149187
0.721508 0.770504 0.249683
0.871229 0.760845 0.364508
0.903883 0.760693 0.431769
0.904356 0.763912 0.435904
0.219104 0.7337 0.535348
0.210986 0.736507 0.53843
0.20882 0.733623 0.5084
0.194888 0.719631 0.427939
0.262486 0.696696 0.270756
0.604547 0.812222 0.324086
0.83331 0.877058 0.427619
0.907118 0.880705 0.566003
0.905455 0.883299 0.586633
0.27454 0.775402 0.608011
0.269673 0.773602 0.598825
0.272923 0.765103 0.557
0.252461 0.748211 0.488502
0.267994 0.727367 0.376883
0.531884 0.783093 0.359518
0.799146 0.888472 0.480537
0.898848 0.909377 0.608286
0.898192 0.915404 0.672343
0.275792 0.778592 0.623011
0.271122 0.776898 0.61326
0.275013 0.768856 0.573343
0.256947 0.751247 0.499199
0.270741 0.729274 0.382101
0.527779 0.781415 0.36022
0.793774 0.887419 0.483146
0.892927 0.909743 0.60734
0.895354 0.916609 0.681361
0.0474556 0.0555886 0.200702
0.094377 0.0426947 0.221164
0.179675 0.0426337 0.220722
0.337667 0.0380102 0.197101
0.463676 0.0413977 0.219547
0.55024 0.0506447 0.235752
0.606241 0.0735332 0.254383
0.626078 0.0882582 0.281163
0.603906 0.0982986 0.32221
0.040238 0.0569467 0.162783
0.0509041 0.0549172 0.215122
0.159945 0.0429389 0.236149
0.327794 0.0393835 0.209308
0.46656 0.0420233 0.219272
0.554467 0.0496223 0.22063
0.607889 0.0721447 0.244327
0.626017 0.0858473 0.267155
0.603861 0.095552 0.306844
0.0422217 0.142779 0.188128
0.041825 0.131792 0.21265
0.123247 0.109819 0.307073
0.361349 0.0986343 0.275227
0.519585 0.0683452 0.219135
0.583581 0.0557259 0.196948
0.627878 0.0726635 0.208469
0.651331 0.0887312 0.230426
0.635584 0.0999466 0.268513
0.0496223 0.308507 0.241978
0.0457618 0.309041 0.258167
0.0622263 0.330831 0.292302
0.414038 0.377874 0.37232
0.655344 0.318776 0.344274
0.809857 0.24332 0.327382
0.855146 0.222599 0.324773
0.850065 0.217258 0.324102
0.825299 0.224079 0.35346
0.0505074 0.49102 0.331884
0.0468147 0.494057 0.354055
0.0470283 0.493614 0.335622
0.15256 0.532372 0.33402
0.574762 0.593362 0.321386
0.779278 0.530205 0.310979
0.8719 0.507469 0.297963
0.881666 0.507012 0.301472
0.874052 0.509972 0.317403
0.103639 0.632593 0.455497
0.0903334 0.638926 0.474128
0.0892348 0.639948 0.459297
0.0882734 0.641703 0.397391
0.278141 0.640818 0.225559
0.716579 0.763531 0.31165
0.878599 0.737545 0.403967
0.898604 0.735561 0.439902
0.89781 0.735592 0.44506
0.220508 0.731075 0.558221
0.208011 0.735424 0.569802
0.207218 0.734783 0.553216
0.203113 0.729168 0.50367
0.216709 0.708995 0.364797
0.54818 0.784878 0.3252
0.834394 0.873823 0.419364
0.911727 0.871962 0.560678
0.90985 0.873091 0.579919
0.284901 0.780179 0.635187
0.279835 0.780255 0.631922
0.277012 0.777142 0.614694
0.274907 0.76582 0.558404
0.253925 0.740597 0.447974
0.446159 0.754192 0.338949
0.772076 0.880934 0.468421
0.89543 0.90898 0.599496
0.897978 0.91603 0.677165
0.287098 0.782132 0.646723
0.283848 0.781933 0.641886
0.280064 0.780209 0.626566
0.28069 0.769192 0.570809
0.25536 0.743282 0.459373
0.432929 0.751415 0.340642
0.749111 0.874403 0.474571
0.883024 0.908171 0.585168
0.896056 0.916991 0.684688
0.056672 0.069337 0.315724
0.107744 0.0462806 0.347662
0.224384 0.0473335 0.355398
0.327459 0.0474403 0.345373
0.462562 0.0473793 0.321965
0.557717 0.0692454 0.325963
0.625238 0.106249 0.360876
0.642298 0.117739 0.379614
0.621225 0.127443 0.418051
0.0416114 0.0714122 0.275273
0.0608072 0.0704509 0.331624
0.188571 0.0483406 0.367025
0.320821 0.048127 0.357977
0.465736 0.0484321 0.32871
0.561776 0.0712749 0.329244
0.629648 0.10724 0.359335
0.641901 0.117449 0.377737
0.61941 0.128283 0.417655
0.0415961 0.111162 0.272969
0.0417487 0.0943465 0.288243
0.0843214 0.0551308 0.37171
0.306111 0.0510262 0.376242
0.462028 0.05037 0.336858
0.577173 0.0681621 0.309468
0.645151 0.098558 0.323827
0.656565 0.108965 0.343191
0.63183 0.119585 0.383444
0.0425727 0.269795 0.325673
0.0428473 0.259403 0.343038
0.0442359 0.253971 0.381659
0.354986 0.260563 0.527245
0.626551 0.274205 0.544198
0.7897 0.228946 0.491386
0.812894 0.206287 0.453269
0.800717 0.198657 0.449088
0.774838 0.205097 0.472602
0.0499123 0.483803 0.39411
0.0467842 0.485893 0.419638
0.0465858 0.48452 0.424033
0.185672 0.528145 0.493172
0.599115 0.565377 0.557031
0.795941 0.515557 0.534768
0.904158 0.474235 0.530159
0.911131 0.46334 0.530556
0.900374 0.462486 0.542367
0.10724 0.628031 0.489509
0.0911116 0.633143 0.513558
0.0899825 0.633539 0.510414
0.106371 0.643961 0.503914
0.414374 0.683604 0.528939
0.719646 0.739239 0.540581
0.861585 0.695354 0.527611
0.890623 0.687053 0.513588
0.885786 0.687083 0.522057
0.220386 0.727794 0.585718
0.206989 0.731136 0.59762
0.204623 0.731777 0.591943
0.203098 0.730037 0.571084
0.271061 0.745693 0.522225
0.53312 0.768704 0.474968
0.830076 0.86717 0.567086
0.913252 0.861082 0.627207
0.911223 0.861875 0.633722
0.305272 0.782635 0.655863
0.293385 0.784314 0.663966
0.288151 0.7832 0.656275
0.285206 0.780758 0.633616
0.28893 0.772549 0.572686
0.454932 0.779751 0.480156
0.745266 0.870283 0.565225
0.892882 0.911864 0.630198
0.898009 0.919814 0.708446
0.302663 0.785824 0.672618
0.297917 0.78584 0.671626
0.293996 0.785412 0.665415
0.291478 0.783917 0.644999
0.290745 0.774166 0.580941
0.432853 0.779599 0.49012
0.706233 0.853635 0.559075
0.877852 0.910842 0.61912
0.89691 0.920317 0.713558
0.0862593 0.0780041 0.411109
0.141527 0.0527047 0.442039
0.260044 0.0553292 0.450523
0.35874 0.057145 0.44892
0.440269 0.0610819 0.437476
0.555032 0.0846876 0.41532
0.63978 0.122042 0.441444
0.657588 0.132052 0.475212
0.634058 0.140566 0.509758
0.0467536 0.0864576 0.383993
0.0896162 0.0751812 0.426505
0.223896 0.0554665 0.457191
0.354925 0.0575723 0.457191
0.43978 0.0635691 0.44625
0.556115 0.0897383 0.426734
0.645151 0.125109 0.448692
0.651423 0.1346 0.484886
0.628992 0.142962 0.518013
0.0418097 0.0831922 0.316747
0.0420996 0.086244 0.356359
0.118212 0.0539254 0.453681
0.327657 0.0580911 0.465888
0.430365 0.0643931 0.454368
0.561349 0.0908827 0.426459
0.660426 0.12137 0.431464
0.668482 0.12961 0.462165
0.641077 0.138933 0.498192
0.0428168 0.213291 0.387442
0.0425879 0.199466 0.400504
0.0426032 0.175647 0.432731
0.294286 0.137438 0.559319
0.53402 0.165972 0.588907
0.650095 0.162661 0.53875
0.699718 0.147738 0.472068
0.693004 0.14078 0.462287
0.664881 0.146624 0.48716
0.0454108 0.458732 0.475502
0.0448768 0.45684 0.495628
0.0444038 0.444343 0.502678
0.124041 0.469108 0.585855
0.559655 0.478706 0.706111
0.798077 0.50042 0.718929
0.923262 0.465751 0.688167
0.930098 0.452155 0.692424
0.910063 0.455512 0.70808
0.10721 0.618158 0.534737
0.0917525 0.623621 0.558572
0.0914931 0.624125 0.561837
0.100603 0.629969 0.572702
0.452888 0.686366 0.657359
0.735912 0.713252 0.703532
0.874189 0.679133 0.688441
0.905043 0.668971 0.691508
0.899992 0.669032 0.697505
0.22855 0.721263 0.604517
0.206317 0.725902 0.624201
0.204547 0.726284 0.623117
0.207889 0.727459 0.618341
0.379904 0.764477 0.644968
0.632013 0.809598 0.693828
0.831708 0.850187 0.709148
0.902647 0.841764 0.728862
0.901213 0.842405 0.733867
0.313832 0.780255 0.672053
0.295766 0.781659 0.682094
0.293416 0.781704 0.67924
0.290272 0.780682 0.67071
0.322774 0.794827 0.664988
0.574258 0.842298 0.694453
0.752773 0.873289 0.704082
0.893187 0.920089 0.755215
0.901411 0.923247 0.790021
0.316854 0.790692 0.696483
0.312886 0.790997 0.697093
0.310536 0.791028 0.694224
0.30811 0.790616 0.685542
0.319524 0.795422 0.671305
0.552605 0.843244 0.698161
0.724987 0.870375 0.709087
0.866667 0.91725 0.754574
0.893156 0.928084 0.805508
0.131319 0.0620279 0.483818
0.190997 0.0644388 0.494942
0.283909 0.06981 0.502846
0.376837 0.07393 0.507179
0.443183 0.0821698 0.502571
0.533944 0.109697 0.514992
0.629313 0.143114 0.542
0.648142 0.149645 0.554818
0.637369 0.155169 0.573999
0.093904 0.0971389 0.452644
0.138277 0.0643778 0.491402
0.255848 0.0699626 0.504768
0.368261 0.0759289 0.510735
0.445777 0.0854505 0.509148
0.538674 0.113893 0.523171
0.635203 0.146242 0.548837
0.642634 0.152331 0.563638
0.635935 0.156771 0.578668
0.0422675 0.0959945 0.385992
0.057084 0.0985275 0.437736
0.174655 0.0670787 0.499992
0.339498 0.0770428 0.513466
0.43798 0.0843671 0.511635
0.537026 0.115602 0.528725
0.639673 0.145724 0.546914
0.652903 0.150164 0.555245
0.639582 0.15613 0.574105
0.0423743 0.152956 0.412055
0.0424201 0.140749 0.411597
0.0425116 0.117845 0.42739
0.240818 0.076463 0.515038
0.422187 0.0880598 0.524193
0.52813 0.115511 0.534051
0.64152 0.14522 0.542428
0.661448 0.146944 0.537972
0.644373 0.153353 0.558465
0.0441138 0.418372 0.529503
0.044358 0.413825 0.537713
0.0446174 0.398123 0.539803
0.126345 0.410376 0.654871
0.560098 0.393759 0.792187
0.795972 0.441932 0.841062
0.90132 0.425208 0.823804
0.904921 0.402884 0.808728
0.885374 0.406821 0.810651
0.0902571 0.599802 0.593225
0.0811475 0.601205 0.607126
0.0812848 0.598245 0.612909
0.110826 0.608148 0.651255
0.408469 0.63621 0.728222
0.714183 0.656687 0.814649
0.871305 0.674479 0.820706
0.914992 0.662226 0.813825
0.906905 0.663951 0.821134
0.221424 0.714717 0.641886
0.206088 0.718593 0.656229
0.205966 0.718654 0.657923
0.208316 0.718517 0.659571
0.363149 0.755993 0.706096
0.657847 0.814359 0.786038
0.833066 0.835859 0.820798
0.905394 0.821317 0.806943
0.901747 0.822583 0.815183
0.314702 0.779034 0.691096
0.301656 0.781079 0.70045
0.303716 0.782513 0.700786
0.310994 0.78526 0.700587
0.378058 0.8065 0.71632
0.646235 0.864363 0.788602
0.796551 0.893416 0.82536
0.88542 0.912245 0.833509
0.900923 0.915984 0.845365
0.362448 0.80325 0.717876
0.346716 0.8047 0.725902
0.348394 0.806302 0.725872
0.352438 0.808072 0.724132
0.384466 0.816999 0.726177
0.622858 0.871931 0.789731
0.777661 0.90399 0.831861
0.860471 0.921065 0.844129
0.89691 0.93341 0.862654
0.207767 0.0762951 0.516823
0.251255 0.0794232 0.52282
0.32018 0.0864576 0.532143
0.397971 0.0924697 0.54049
0.470756 0.104936 0.547646
0.547356 0.127459 0.565896
0.627588 0.158465 0.599832
0.640558 0.165835 0.613733
0.643305 0.168002 0.618219
0.161151 0.0748455 0.511238
0.217639 0.0778363 0.520958
0.300786 0.0850843 0.531273
0.392401 0.0934768 0.542412
0.471351 0.105516 0.550179
0.553796 0.131182 0.572091
0.633036 0.1617 0.605661
0.641382 0.166629 0.615106
0.641581 0.16878 0.619547
0.0762646 0.105257 0.461387
0.126375 0.0878614 0.498894
0.24445 0.0803235 0.525292
0.369131 0.0924239 0.541527
0.465599 0.105486 0.552102
0.552697 0.131792 0.574334
0.633417 0.161685 0.605997
0.644129 0.166552 0.614649
0.64155 0.169345 0.620691
0.0423743 0.111666 0.409262
0.0423896 0.101396 0.406302
0.0567483 0.105379 0.451774
0.284443 0.0845197 0.532616
0.435203 0.0987411 0.549386
0.538308 0.128023 0.570977
0.628473 0.160342 0.603449
0.644785 0.16582 0.610391
0.641993 0.168078 0.615778
0.0450294 0.379461 0.554131
0.0453956 0.375357 0.561227
0.0469062 0.359838 0.569284
0.23061 0.351583 0.698039
0.624994 0.350164 0.826581
0.786328 0.375067 0.845304
0.84181 0.380011 0.829969
0.836072 0.360143 0.81387
0.828626 0.360983 0.812757
0.0869764 0.58526 0.637919
0.0852216 0.585733 0.643442
0.0849928 0.581872 0.648188
0.138109 0.591928 0.699046
0.430732 0.597986 0.771908
0.751385 0.624414 0.873655
0.880552 0.651179 0.895109
0.91632 0.646464 0.893294
0.905028 0.647623 0.89308
0.209216 0.705959 0.678553
0.203494 0.707301 0.685969
0.205463 0.706462 0.689677
0.225818 0.712688 0.70782
0.397757 0.742168 0.761013
0.653056 0.790158 0.829923
0.831769 0.805631 0.874815
0.898116 0.809766 0.866865
0.895857 0.809812 0.868223
0.319783 0.775265 0.707317
0.304891 0.778027 0.718685
0.31014 0.780453 0.72108
0.317067 0.782788 0.723888
0.385016 0.803876 0.747173
0.641352 0.861418 0.818891
0.808103 0.895018 0.86566
0.880476 0.906722 0.881254
0.899229 0.908171 0.883726
0.384436 0.813046 0.742107
0.373526 0.813733 0.747341
0.378164 0.81532 0.747906
0.386877 0.817563 0.747723
0.429206 0.827649 0.757885
0.65864 0.882841 0.823621
0.809949 0.916686 0.869322
0.87512 0.930953 0.886229
0.904952 0.936767 0.886702
0.285679 0.0872206 0.536965
0.317067 0.0908217 0.542275
0.366476 0.0962844 0.549645
0.429847 0.101289 0.557702
0.495308 0.11487 0.566339
0.567544 0.137407 0.585733
0.632914 0.162799 0.61297
0.643244 0.168475 0.61886
0.643687 0.168994 0.61976
0.249546 0.0830091 0.530907
0.287861 0.0876936 0.538079
0.34844 0.0941482 0.546731
0.422873 0.10074 0.55697
0.494667 0.114733 0.566217
0.570001 0.138293 0.586877
0.636851 0.164782 0.615122
0.642466 0.169009 0.620096
0.642115 0.169741 0.621714
0.137713 0.0847028 0.508507
0.204318 0.0801556 0.526558
0.301793 0.0891127 0.540246
0.4 0.0990616 0.55407
0.485313 0.112566 0.564248
0.567529 0.138552 0.588159
0.637171 0.164523 0.614633
0.645182 0.168887 0.619058
0.642267 0.170214 0.622415
0.0460059 0.106294 0.438849
0.0488441 0.106767 0.447288
0.115511 0.102571 0.493233
0.329778 0.0925917 0.544411
0.454536 0.10547 0.55967
0.55378 0.135286 0.58526
0.632761 0.163668 0.614145
0.646769 0.169223 0.619257
0.643977 0.170443 0.622385
0.0571756 0.358633 0.596704
0.0600137 0.35404 0.602914
0.0639353 0.331853 0.599542
0.259159 0.305165 0.687495
0.616464 0.306538 0.799222
0.757473 0.331518 0.810162
0.811994 0.339406 0.797986
0.800671 0.318593 0.778836
0.800366 0.325948 0.784909
0.105638 0.584329 0.675242
0.109117 0.585916 0.683803
0.114137 0.582864 0.690852
0.169711 0.577829 0.718257
0.443854 0.578088 0.776715
0.771191 0.611643 0.883253
0.885527 0.63238 0.897963
0.917281 0.629496 0.898299
0.906279 0.631327 0.898314
0.22269 0.70663 0.710567
0.221988 0.708904 0.715679
0.227237 0.70898 0.720119
0.262242 0.711879 0.736416
0.415869 0.734478 0.771664
0.659586 0.775235 0.837919
0.841184 0.789975 0.884153
0.893278 0.796719 0.883864
0.89221 0.797162 0.884596
0.341405 0.781094 0.733974
0.329915 0.784314 0.743313
0.340627 0.78703 0.748379
0.360433 0.790234 0.75555
0.437507 0.808148 0.776226
0.660227 0.859052 0.839231
0.812345 0.890272 0.879088
0.894453 0.897871 0.888365
0.907774 0.896895 0.883833
0.400061 0.816938 0.752346
0.387625 0.817288 0.757916
0.39411 0.819303 0.759869
0.405692 0.821805 0.763043
0.445014 0.831159 0.773342
0.655848 0.882872 0.834073
0.80911 0.917967 0.879286
0.879072 0.933104 0.897505
0.909468 0.937362 0.89514
