bundles/resolve-cinematic-luts/Phantom Luts/P4k & P6K Phntm Film LUTs - V6/P4K/Gen 4 Colour/White Balance Offset (+Magenta Boost)/P4k Vision Gen4 WBO.cube
TITLE "Generated by Resolve"
LUT_3D_SIZE 9
0.0224155 0.0224155 0.0224155
0.0417945 0.0259403 0.0225071
0.137469 0.0312657 0.0188144
0.302647 0.0346075 0.0204776
0.45655 0.0470436 0.0292821
0.622812 0.079118 0.049958
0.768444 0.119005 0.0940414
0.786725 0.145266 0.104463
0.789944 0.163653 0.105272
0.0208438 0.0694591 0.033051
0.0375677 0.0688945 0.0245518
0.155932 0.0495613 0.0231632
0.313115 0.047013 0.0220645
0.468956 0.0632334 0.0335699
0.638331 0.101884 0.0617075
0.766033 0.150866 0.0977646
0.784268 0.168643 0.107424
0.787518 0.193164 0.112474
0.0238193 0.197589 0.0741436
0.0234073 0.187106 0.0403601
0.113313 0.211566 0.0372778
0.362768 0.164752 0.0418097
0.521492 0.152117 0.0686198
0.66424 0.188968 0.0945602
0.762524 0.2392 0.125475
0.777966 0.266941 0.139651
0.780392 0.282567 0.145418
0.053254 0.393896 0.183795
0.056611 0.393881 0.13286
0.0625772 0.384176 0.0935225
0.297749 0.405982 0.0603494
0.547601 0.37435 0.0654154
0.669535 0.371695 0.128313
0.757137 0.385229 0.190372
0.774807 0.401114 0.204959
0.776989 0.417075 0.208011
0.0895247 0.574807 0.360678
0.103151 0.57789 0.31809
0.101427 0.567666 0.238193
0.196338 0.568338 0.166949
0.495537 0.582956 0.109972
0.70164 0.564294 0.095613
0.786999 0.565026 0.214374
0.805035 0.580636 0.23949
0.803388 0.569787 0.234684
0.1579 0.740963 0.529656
0.161746 0.742992 0.504921
0.172412 0.745937 0.449882
0.161547 0.723049 0.324071
0.394568 0.725551 0.303075
0.643748 0.740597 0.211536
0.794064 0.732616 0.227634
0.831617 0.740505 0.326574
0.829572 0.727993 0.306706
0.230106 0.834897 0.654826
0.239841 0.833494 0.633829
0.250065 0.833051 0.594385
0.258762 0.824125 0.513756
0.369162 0.80798 0.396399
0.560357 0.816251 0.385901
0.757076 0.827543 0.351797
0.831662 0.831952 0.478782
0.832242 0.826841 0.471534
0.216648 0.845212 0.687922
0.231113 0.841825 0.66865
0.246952 0.836728 0.630442
0.27483 0.834669 0.58056
0.353826 0.824109 0.502815
0.568948 0.82562 0.503655
0.710689 0.838575 0.450782
0.826749 0.853101 0.529351
0.834669 0.859022 0.568246
0.207446 0.847547 0.701274
0.221515 0.844739 0.683558
0.24509 0.839506 0.652705
0.262196 0.835187 0.600717
0.299153 0.828428 0.522515
0.512322 0.824369 0.502113
0.651591 0.836545 0.468971
0.805859 0.847791 0.486656
0.834974 0.859602 0.570565
0.0246586 0.0256352 0.060441
0.0635538 0.0242161 0.0520027
0.193133 0.021622 0.0607919
0.354604 0.0196689 0.0577707
0.515114 0.0305791 0.0630655
0.687602 0.0633097 0.0920119
0.78706 0.100267 0.120226
0.795865 0.120516 0.120546
0.797864 0.151781 0.110857
0.0214237 0.0544289 0.0413672
0.0424964 0.052903 0.0461585
0.187549 0.0375372 0.0295415
0.338796 0.0359045 0.0300145
0.481102 0.0459602 0.0376745
0.649866 0.0738537 0.0645457
0.777584 0.121981 0.10016
0.791119 0.150576 0.105959
0.790707 0.178607 0.109331
0.0191501 0.173877 0.0941176
0.021912 0.174533 0.0680247
0.112749 0.192737 0.0317693
0.372778 0.124025 0.0526741
0.528466 0.131975 0.0673838
0.676265 0.168109 0.0934462
0.770581 0.218463 0.119524
0.780972 0.245609 0.13048
0.7823 0.272007 0.140719
0.0370794 0.375067 0.216159
0.0501106 0.379065 0.173175
0.0502785 0.370626 0.0898299
0.295338 0.395193 0.0568093
0.554696 0.352178 0.0754559
0.672328 0.350164 0.137407
0.763668 0.364065 0.187778
0.775799 0.386481 0.200977
0.777234 0.406546 0.206271
0.0751659 0.562997 0.386954
0.0858015 0.56466 0.350744
0.0987106 0.564599 0.264332
0.168368 0.562066 0.166339
0.4925 0.57644 0.108553
0.704387 0.551385 0.10811
0.786969 0.555947 0.21976
0.802716 0.569131 0.240223
0.79971 0.557397 0.232502
0.148409 0.733318 0.545892
0.152956 0.734417 0.522499
0.16437 0.738598 0.474235
0.157641 0.721492 0.349187
0.382559 0.720745 0.301106
0.639368 0.734813 0.208148
0.794903 0.72517 0.225879
0.83064 0.733425 0.331319
0.828977 0.719966 0.313695
0.21474 0.834607 0.668635
0.230167 0.83122 0.647166
0.241657 0.828901 0.608347
0.256367 0.825254 0.530282
0.332601 0.806149 0.394659
0.548531 0.812436 0.386633
0.753292 0.824216 0.34052
0.831739 0.827863 0.471321
0.832502 0.822721 0.467094
0.202899 0.848173 0.705104
0.218357 0.844892 0.686503
0.244938 0.838727 0.650431
0.265782 0.834989 0.59353
0.329152 0.825177 0.510796
0.556786 0.825101 0.505623
0.697139 0.838529 0.454917
0.824735 0.852079 0.522713
0.834821 0.85919 0.568978
0.194568 0.850401 0.717296
0.208713 0.847288 0.700298
0.231846 0.842573 0.67039
0.25481 0.835767 0.614038
0.291981 0.830839 0.538567
0.496162 0.82504 0.505013
0.642145 0.835431 0.476646
0.801938 0.846891 0.480766
0.834989 0.859815 0.572381
0.0424048 0.0311589 0.189197
0.0972457 0.0295567 0.144396
0.202243 0.0221561 0.136843
0.357504 0.024918 0.183764
0.517891 0.0380865 0.2038
0.69337 0.0659342 0.243168
0.78175 0.102647 0.273396
0.789014 0.107744 0.255283
0.803952 0.115862 0.194018
0.0239719 0.0409094 0.141711
0.0442969 0.0277409 0.171313
0.173785 0.022034 0.119738
0.349676 0.0248875 0.131991
0.511299 0.0303655 0.129809
0.700526 0.0670787 0.183795
0.790738 0.102556 0.200198
0.800534 0.114168 0.178103
0.805173 0.123369 0.142962
0.0192721 0.160479 0.146029
0.0194858 0.15317 0.144594
0.18677 0.184573 0.175051
0.442405 0.140749 0.13666
0.59884 0.105409 0.106432
0.7337 0.122347 0.122942
0.808423 0.167559 0.14966
0.805417 0.19234 0.143923
0.79884 0.227481 0.141314
0.0196689 0.357885 0.260288
0.0243229 0.353887 0.235569
0.0451972 0.363088 0.170504
0.316655 0.390249 0.0975814
0.560143 0.330327 0.128847
0.699062 0.309239 0.164263
0.777569 0.339681 0.200229
0.779904 0.357763 0.208484
0.781399 0.375921 0.211749
0.0462806 0.546761 0.418494
0.0562905 0.545495 0.395636
0.0804913 0.548058 0.335561
0.110079 0.551583 0.197421
0.487892 0.565759 0.109789
0.711269 0.530236 0.149767
0.783505 0.541802 0.242039
0.795956 0.550088 0.258549
0.795483 0.543755 0.248508
0.114534 0.721721 0.56994
0.126329 0.720638 0.551156
0.146349 0.720806 0.510536
0.155016 0.719768 0.396689
0.360067 0.71281 0.299382
0.63299 0.72578 0.204456
0.797498 0.712993 0.233585
0.828687 0.721904 0.343557
0.826169 0.707454 0.329229
0.182971 0.832578 0.691554
0.197375 0.828779 0.671077
0.227771 0.822904 0.63386
0.246433 0.822385 0.558694
0.282445 0.803601 0.407233
0.530053 0.807111 0.388739
0.748196 0.819516 0.32578
0.832181 0.821973 0.464042
0.833326 0.816999 0.46305
0.179843 0.853101 0.734051
0.19263 0.850629 0.717571
0.22092 0.844495 0.684199
0.252155 0.835813 0.618357
0.298741 0.829007 0.53138
0.532784 0.825528 0.510964
0.679271 0.838483 0.463554
0.821012 0.851255 0.515328
0.834928 0.859419 0.570642
0.176165 0.854444 0.740902
0.187671 0.852049 0.725719
0.211505 0.846754 0.698039
0.248478 0.838224 0.64271
0.288701 0.834241 0.565148
0.46949 0.825589 0.50898
0.63003 0.833982 0.487663
0.795239 0.846159 0.474769
0.835203 0.860243 0.574182
0.0814679 0.0346685 0.351141
0.150027 0.0324102 0.316884
0.246159 0.0346532 0.281239
0.369558 0.0208286 0.286717
0.53196 0.0485695 0.355123
0.695415 0.0862593 0.41503
0.753033 0.107637 0.433204
0.758129 0.112581 0.418708
0.773205 0.116732 0.394186
0.0279545 0.0358587 0.323537
0.0818952 0.0310826 0.340734
0.215839 0.0328069 0.28513
0.35584 0.0202335 0.273182
0.518151 0.0428168 0.331258
0.689601 0.0886549 0.385733
0.762051 0.109789 0.394018
0.770535 0.116777 0.392737
0.784054 0.119783 0.361654
0.0282902 0.127626 0.336782
0.0312505 0.110964 0.349477
0.180621 0.0816663 0.378561
0.389868 0.0632486 0.312016
0.532311 0.063035 0.312871
0.699367 0.0828107 0.320638
0.780072 0.117113 0.342962
0.787152 0.120378 0.324208
0.798962 0.120104 0.26508
0.01944 0.344625 0.347448
0.0195315 0.338384 0.343496
0.0195315 0.335851 0.351247
0.401755 0.379126 0.379446
0.641688 0.318563 0.336065
0.784543 0.296727 0.313924
0.819913 0.310109 0.300649
0.812802 0.317311 0.283619
0.802823 0.338308 0.270848
0.0299229 0.533867 0.471778
0.0305791 0.528939 0.457481
0.0318303 0.522622 0.42855
0.157061 0.551781 0.389044
0.509758 0.566491 0.290089
0.710658 0.531579 0.316426
0.788922 0.523903 0.327047
0.791058 0.525063 0.32874
0.791852 0.522072 0.310338
0.0782025 0.707652 0.605737
0.0793622 0.706264 0.594705
0.0927443 0.701595 0.568582
0.139559 0.701015 0.496376
0.306523 0.710826 0.357839
0.625223 0.714122 0.24062
0.802594 0.693996 0.299855
0.824994 0.705272 0.377554
0.821408 0.688792 0.36939
0.141863 0.82533 0.721386
0.147768 0.822354 0.706844
0.166629 0.817853 0.679164
0.219181 0.808698 0.615976
0.25771 0.807797 0.486076
0.514107 0.800107 0.421118
0.740322 0.812299 0.311742
0.833646 0.812909 0.460594
0.835218 0.806256 0.460609
0.164965 0.857404 0.772732
0.163348 0.85716 0.760815
0.177661 0.854139 0.738079
0.223865 0.84419 0.681636
0.27779 0.834638 0.583139
0.48687 0.826993 0.519387
0.653635 0.836942 0.48426
0.813184 0.849348 0.502953
0.835065 0.859953 0.574136
0.165667 0.858045 0.773068
0.164523 0.857481 0.762402
0.175357 0.8551 0.742611
0.214847 0.846296 0.695888
0.262501 0.835218 0.602502
0.41442 0.826139 0.520027
0.610758 0.831708 0.508324
0.781659 0.844129 0.464454
0.835798 0.86099 0.578424
0.149645 0.0400702 0.479652
0.224781 0.039765 0.454017
0.319753 0.043183 0.428824
0.41062 0.0436866 0.41706
0.551705 0.049134 0.455848
0.713726 0.0976883 0.533059
0.760998 0.111238 0.572534
0.759655 0.106432 0.56109
0.753872 0.0928664 0.508232
0.0701457 0.0542763 0.481819
0.14992 0.0397192 0.474067
0.285557 0.0398718 0.435691
0.398154 0.0515145 0.417273
0.541161 0.0468605 0.445853
0.705242 0.0935683 0.521569
0.758144 0.102556 0.554025
0.754864 0.0942397 0.531975
0.756008 0.0978866 0.491814
0.041825 0.080705 0.462959
0.0388647 0.0539101 0.459419
0.179797 0.0393378 0.462577
0.361517 0.0483558 0.409232
0.51957 0.0421454 0.426184
0.687114 0.0848249 0.494133
0.74905 0.0915236 0.512993
0.750973 0.0977951 0.494759
0.757336 0.104768 0.467521
0.0224155 0.305531 0.517266
0.0287633 0.291615 0.524956
0.0544594 0.265553 0.555581
0.411887 0.243229 0.576532
0.614481 0.236789 0.534188
0.755413 0.204089 0.536171
0.798383 0.193225 0.528588
0.797604 0.190478 0.503182
0.801205 0.201068 0.47039
0.025452 0.522622 0.544747
0.0244297 0.518608 0.542031
0.0236362 0.510323 0.536629
0.138689 0.53727 0.562692
0.576699 0.553002 0.56054
0.778729 0.513664 0.536141
0.857511 0.504204 0.523339
0.852705 0.501793 0.502693
0.835096 0.487175 0.453727
0.0569619 0.6963 0.654704
0.0566262 0.692943 0.647181
0.0602121 0.686168 0.633616
0.0808118 0.677729 0.602319
0.420111 0.70428 0.575616
0.666957 0.716915 0.506737
0.803983 0.698482 0.524346
0.822919 0.694118 0.511284
0.81651 0.672206 0.47126
0.132708 0.815274 0.757336
0.132036 0.811765 0.744259
0.132631 0.805844 0.726833
0.131258 0.798825 0.693187
0.25037 0.79794 0.619562
0.560525 0.808698 0.573877
0.743404 0.814527 0.5019
0.840787 0.807477 0.514855
0.841337 0.796185 0.496513
0.167514 0.86096 0.81474
0.166476 0.860883 0.807523
0.17026 0.859693 0.794278
0.170001 0.858076 0.766262
0.230274 0.844434 0.686778
0.454566 0.836072 0.595422
0.642237 0.838102 0.545785
0.808545 0.848936 0.501839
0.835721 0.860395 0.581125
0.166384 0.861173 0.812284
0.167468 0.860609 0.804944
0.171359 0.859525 0.792111
0.170199 0.858152 0.766445
0.219944 0.846113 0.695979
0.308858 0.834104 0.569863
0.572427 0.830076 0.535668
0.753582 0.842283 0.466529
0.83653 0.862791 0.587839
0.258396 0.0534981 0.589471
0.315389 0.0559548 0.576959
0.398154 0.0636454 0.56878
0.493309 0.0862287 0.567575
0.591196 0.0794537 0.579004
0.724605 0.0908675 0.62565
0.769604 0.108537 0.659571
0.768963 0.105882 0.669123
0.771893 0.10869 0.662928
0.177157 0.0662089 0.598169
0.256931 0.0528267 0.58529
0.36405 0.0598917 0.569711
0.476112 0.083238 0.564309
0.580484 0.0786297 0.573907
0.718242 0.0887007 0.617884
0.770306 0.111223 0.655222
0.770108 0.108659 0.662638
0.773648 0.112581 0.655787
0.0518807 0.0691081 0.578454
0.100114 0.0738689 0.591073
0.278401 0.053315 0.576715
0.436347 0.0715801 0.557763
0.5579 0.0762341 0.56199
0.703746 0.0852369 0.601999
0.770214 0.114824 0.647379
0.770993 0.113359 0.654704
0.773358 0.117067 0.643473
0.0688334 0.245792 0.646326
0.0703899 0.22385 0.647608
0.0814984 0.183047 0.659998
0.402152 0.122148 0.651286
0.577005 0.141512 0.616007
0.701991 0.100771 0.601953
0.773617 0.132738 0.63267
0.773495 0.127306 0.637705
0.771664 0.123033 0.58912
0.0204318 0.496757 0.675029
0.0204471 0.488685 0.678416
0.0202029 0.474601 0.685191
0.1823 0.480674 0.743542
0.600336 0.459983 0.737346
0.766812 0.467033 0.70161
0.833204 0.454414 0.697581
0.832609 0.434897 0.678233
0.832151 0.384863 0.635126
0.0692607 0.685542 0.713237
0.0671702 0.680934 0.71017
0.0666667 0.674784 0.705653
0.0682994 0.664088 0.700603
0.418372 0.687999 0.710048
0.711513 0.697734 0.705287
0.848875 0.674479 0.695583
0.880888 0.663981 0.684184
0.877028 0.648707 0.649332
0.118791 0.807996 0.791806
0.112184 0.803891 0.783688
0.108782 0.797284 0.773297
0.113954 0.78996 0.756344
0.30457 0.790784 0.729366
0.625086 0.808713 0.725643
0.783764 0.81561 0.681208
0.860868 0.808515 0.686717
0.85713 0.796048 0.667506
0.184085 0.864179 0.846464
0.176257 0.863691 0.841154
0.170489 0.860594 0.83154
0.169223 0.855589 0.814969
0.186969 0.848844 0.782071
0.516075 0.856413 0.743603
0.713726 0.864469 0.727916
0.821088 0.876967 0.683268
0.851896 0.874662 0.689281
0.181933 0.865293 0.844572
0.177478 0.865888 0.840635
0.174212 0.865736 0.834516
0.176272 0.863554 0.821256
0.187579 0.859297 0.790494
0.310231 0.850813 0.720134
0.629709 0.857481 0.701549
0.758434 0.866392 0.654337
0.844587 0.877928 0.661677
0.367407 0.0775769 0.682506
0.406012 0.0811627 0.67718
0.47068 0.0858015 0.67303
0.555779 0.103883 0.673365
0.654246 0.120394 0.687221
0.741482 0.109377 0.703319
0.77583 0.122789 0.72607
0.777798 0.122835 0.736385
0.778668 0.123095 0.739788
0.303746 0.0703441 0.681895
0.363867 0.0767376 0.679042
0.442329 0.0838788 0.673777
0.537545 0.0986343 0.669749
0.643778 0.123308 0.684215
0.735729 0.108705 0.698924
0.775494 0.123384 0.72195
0.777234 0.123354 0.731777
0.777874 0.123781 0.734524
0.134478 0.0942397 0.681834
0.224155 0.062211 0.674708
0.375341 0.0772259 0.674571
0.498436 0.0869459 0.663264
0.61828 0.11667 0.673533
0.722393 0.106386 0.690257
0.774166 0.124269 0.712947
0.77583 0.124727 0.72163
0.776455 0.125124 0.72343
0.0890822 0.180224 0.717922
0.0932326 0.156924 0.714549
0.109972 0.114214 0.6963
0.405509 0.0803845 0.673701
0.570184 0.107973 0.662211
0.696147 0.104784 0.676951
0.774227 0.117052 0.698756
0.776089 0.120195 0.703471
0.776761 0.120272 0.703029
0.0618448 0.474693 0.781003
0.0700847 0.464866 0.785016
0.0852674 0.446204 0.793301
0.276066 0.428229 0.832563
0.62034 0.383719 0.810681
0.763638 0.392432 0.781262
0.830808 0.370672 0.778241
0.828489 0.341375 0.769802
0.82501 0.31667 0.749508
0.0366827 0.666087 0.797009
0.0339666 0.659983 0.796857
0.0314336 0.649989 0.798672
0.0616617 0.639612 0.813687
0.44831 0.649607 0.837629
0.73872 0.637247 0.827451
0.844816 0.647379 0.81004
0.868528 0.637308 0.804959
0.864118 0.612726 0.77496
0.133471 0.800931 0.827741
0.127474 0.796155 0.822675
0.12369 0.78941 0.817105
0.121492 0.780499 0.810147
0.28658 0.781048 0.807294
0.617517 0.799939 0.81236
0.802167 0.803372 0.806851
0.884306 0.789181 0.80087
0.887419 0.774655 0.783459
0.226398 0.860365 0.86244
0.215564 0.858473 0.858442
0.210544 0.85507 0.852079
0.216663 0.85008 0.841733
0.272328 0.845335 0.825833
0.5617 0.859968 0.818006
0.741054 0.872648 0.813703
0.844938 0.884886 0.804623
0.878843 0.881575 0.79678
0.25449 0.866636 0.867079
0.246235 0.86717 0.865034
0.241199 0.867033 0.86096
0.237552 0.866941 0.853971
0.232227 0.866011 0.839902
0.413031 0.866712 0.816724
0.641306 0.884215 0.806531
0.803052 0.895582 0.810513
0.866224 0.913207 0.807248
0.450248 0.0916304 0.721645
0.480323 0.093843 0.720623
0.529488 0.0966201 0.716899
0.6065 0.118486 0.72285
0.698451 0.13611 0.73518
0.762676 0.118959 0.73959
0.779904 0.123018 0.744244
0.780194 0.123598 0.744472
0.780392 0.12401 0.744656
0.412406 0.0889296 0.72433
0.450202 0.0916304 0.72166
0.508431 0.0959335 0.718761
0.589944 0.112886 0.720714
0.690181 0.140887 0.735058
0.758541 0.119158 0.739147
0.77995 0.12311 0.744274
0.780362 0.123812 0.74461
0.780652 0.124239 0.744808
0.271519 0.0727245 0.719356
0.364034 0.0835431 0.723491
0.456214 0.0917525 0.720897
0.555489 0.102586 0.718013
0.668956 0.134783 0.731395
0.750607 0.119799 0.738796
0.780026 0.123232 0.74432
0.780652 0.124178 0.744778
0.781003 0.124651 0.745037
0.143542 0.136217 0.748394
0.149157 0.117174 0.733532
0.227787 0.107439 0.726589
0.473259 0.0932479 0.719753
0.616007 0.121401 0.721569
0.729839 0.122194 0.735912
0.779721 0.122972 0.744152
0.781018 0.124697 0.745052
0.78146 0.125399 0.745464
0.145068 0.454017 0.84799
0.15172 0.440803 0.85127
0.16788 0.416617 0.854582
0.391455 0.375326 0.859495
0.646052 0.321279 0.813458
0.772137 0.324269 0.797162
0.822644 0.302586 0.798428
0.820493 0.27718 0.794598
0.815442 0.246174 0.788281
0.054963 0.65713 0.85774
0.0598611 0.651438 0.860655
0.0730755 0.640391 0.863066
0.181888 0.62591 0.876692
0.530022 0.61706 0.900893
0.769009 0.597787 0.868864
0.851072 0.605524 0.857374
0.87042 0.595056 0.854185
0.866987 0.567727 0.846464
0.116762 0.788815 0.871092
0.110918 0.782788 0.869215
0.106828 0.774243 0.868345
0.143221 0.765438 0.871351
0.361486 0.762539 0.882963
0.637873 0.770169 0.895811
0.820508 0.764324 0.883146
0.883085 0.764248 0.867552
0.884611 0.749401 0.859968
0.254704 0.855085 0.883299
0.242985 0.85275 0.880552
0.23592 0.848737 0.876478
0.24155 0.843793 0.870573
0.290242 0.838682 0.865232
0.565133 0.852461 0.865995
0.745693 0.866361 0.869444
0.859052 0.878782 0.873243
0.88896 0.869581 0.868299
0.324788 0.870161 0.885801
0.3243 0.869703 0.883345
0.326818 0.869123 0.879667
0.335195 0.868513 0.874464
0.350622 0.867704 0.866743
0.483925 0.874952 0.860426
0.681315 0.896147 0.860853
0.81088 0.918242 0.873381
0.894759 0.929107 0.887678
0.466072 0.0927443 0.720974
0.492363 0.0941787 0.719081
0.537835 0.0974441 0.716686
0.612985 0.120027 0.722957
0.702022 0.133501 0.73431
0.765057 0.118547 0.739132
0.779263 0.122271 0.743786
0.780423 0.123888 0.744656
0.780697 0.124269 0.744823
0.432395 0.090013 0.72224
0.465782 0.0926986 0.720958
0.517815 0.0963912 0.718044
0.597513 0.115526 0.721752
0.69453 0.13843 0.735225
0.760739 0.118578 0.738994
0.779431 0.122469 0.743923
0.78056 0.124086 0.744732
0.78088 0.124483 0.74493
0.321065 0.0782788 0.721462
0.396307 0.0867628 0.723949
0.472938 0.0934005 0.72108
0.56524 0.105623 0.718471
0.675303 0.136553 0.733135
0.752239 0.119112 0.73814
0.77969 0.122759 0.744106
0.780804 0.124392 0.744884
0.781125 0.124849 0.745144
0.177417 0.116304 0.74139
0.18529 0.108476 0.732357
0.266972 0.071809 0.719158
0.491463 0.0941024 0.719081
0.62623 0.124651 0.724926
0.733883 0.12079 0.73785
0.779858 0.122972 0.744213
0.78117 0.124941 0.745174
0.781537 0.125521 0.745556
0.219425 0.42266 0.870207
0.218601 0.40621 0.867628
0.216342 0.376638 0.861692
0.390784 0.320867 0.84622
0.633188 0.266514 0.798306
0.758465 0.271641 0.785794
0.813519 0.249317 0.788479
0.810285 0.219532 0.781826
0.805829 0.185245 0.77525
0.171176 0.652461 0.892851
0.17496 0.644282 0.892531
0.180514 0.629099 0.891157
0.251621 0.6038 0.889982
0.530297 0.587304 0.898863
0.766674 0.565484 0.859556
0.847211 0.570764 0.849668
0.865507 0.559869 0.848829
0.859632 0.527153 0.842191
0.193042 0.783932 0.897047
0.188922 0.778134 0.897093
0.18233 0.767926 0.897169
0.228504 0.752132 0.894423
0.389151 0.743282 0.895537
0.657969 0.747158 0.908721
0.829114 0.739437 0.889723
0.884657 0.739223 0.881392
0.884352 0.721736 0.879179
0.267063 0.851423 0.899351
0.27303 0.847425 0.899153
0.28748 0.84242 0.897978
0.318669 0.835828 0.896864
0.376547 0.828931 0.896178
0.58027 0.841443 0.901686
0.752377 0.849989 0.90782
0.86627 0.851362 0.904906
0.887343 0.845365 0.898619
0.350545 0.871763 0.896559
0.354116 0.871855 0.896361
0.360235 0.87216 0.896193
0.371405 0.872282 0.895674
0.390936 0.872816 0.895338
0.498711 0.878935 0.893965
0.684932 0.899016 0.896803
0.820935 0.923217 0.908751
0.899596 0.936553 0.919921
