bundles/resolve-cinematic-luts/Phantom Luts/P4k & P6K Phntm Film LUTs - V6/P4K/Gen 4 Colour/White Balance Offset (+Magenta Boost)/P4k Vision Gen4 WBO.cube
TITLE "Generated by Resolve"
LUT_3D_SIZE 33
0.0224155 0.0224155 0.0224155
0.0224155 0.0224155 0.0224155
0.0224155 0.0224155 0.0224155
0.0266728 0.0235599 0.0224765
0.0417945 0.0259403 0.0225071
0.0587625 0.0276341 0.0217288
0.0816663 0.0289921 0.0207218
0.105821 0.0291447 0.0196384
0.137469 0.0312657 0.0188144
0.178347 0.0314336 0.0180514
0.221408 0.0323186 0.0182498
0.262562 0.0329442 0.0194553
0.302647 0.0346075 0.0204776
0.342397 0.0361639 0.02327
0.382879 0.0384222 0.0242161
0.424033 0.0420081 0.0261234
0.45655 0.0470436 0.0292821
0.501488 0.0541085 0.0358892
0.545159 0.0623178 0.0420081
0.583886 0.0711528 0.0461891
0.622812 0.079118 0.049958
0.675944 0.0885176 0.0663157
0.709377 0.100465 0.071931
0.737819 0.113237 0.0780194
0.768444 0.119005 0.0940414
0.782498 0.129702 0.0999161
0.784863 0.135775 0.102785
0.785992 0.140932 0.10399
0.786725 0.145266 0.104463
0.783001 0.150317 0.0999008
0.786877 0.154192 0.102968
0.787976 0.158007 0.103532
0.789944 0.163653 0.105272
0.0224155 0.0224155 0.0224155
0.0224155 0.0224155 0.0224155
0.0224155 0.0224155 0.0224155
0.027039 0.0236515 0.0224308
0.0416571 0.0261387 0.0225071
0.060502 0.0280919 0.0216526
0.083299 0.0287022 0.0205997
0.108049 0.0297551 0.0196384
0.1411 0.0317235 0.0188449
0.183093 0.0317235 0.0180056
0.223224 0.032578 0.0173648
0.262043 0.0331731 0.0174411
0.301534 0.0348058 0.0181888
0.341695 0.0363317 0.0217288
0.382803 0.0392767 0.0235904
0.424704 0.0428626 0.0261234
0.459953 0.0488136 0.0305791
0.50071 0.0555886 0.03505
0.54403 0.0644083 0.0409705
0.58967 0.0742046 0.0492256
0.63328 0.0826123 0.0565042
0.673457 0.0914015 0.0638285
0.70602 0.102617 0.0696422
0.743038 0.118257 0.0855879
0.767315 0.125429 0.0932479
0.782727 0.135485 0.100481
0.783886 0.140124 0.10222
0.784436 0.144717 0.102983
0.781826 0.149752 0.0994278
0.784482 0.154101 0.102586
0.786084 0.157519 0.103105
0.788464 0.162737 0.104814
0.788785 0.167666 0.105486
0.0224613 0.024567 0.0224613
0.0224155 0.0224155 0.0224155
0.0224155 0.0224155 0.0224155
0.0227207 0.0245365 0.0224613
0.0374151 0.025864 0.0224765
0.0591592 0.0294804 0.0217136
0.084123 0.0303349 0.0205386
0.111452 0.0326543 0.019913
0.143709 0.0334783 0.0192569
0.182895 0.0325322 0.018265
0.220569 0.0328374 0.0175631
0.261341 0.0345159 0.0171664
0.30425 0.0373541 0.0194705
0.343084 0.0387121 0.0204013
0.381048 0.0402533 0.0224765
0.422477 0.0431678 0.0252384
0.457542 0.049012 0.0299077
0.505318 0.0603342 0.0372168
0.544396 0.0659953 0.041001
0.589197 0.0760662 0.0488136
0.632486 0.0852369 0.0561379
0.676539 0.0995193 0.0674449
0.710414 0.108324 0.0754101
0.742428 0.121187 0.0860914
0.767407 0.134279 0.0954299
0.782071 0.138598 0.100313
0.783734 0.14406 0.102007
0.783871 0.148074 0.102831
0.783703 0.153521 0.102495
0.784421 0.157427 0.103151
0.78645 0.161776 0.104219
0.787655 0.16762 0.105913
0.789151 0.174197 0.10779
0.0220188 0.0456855 0.0238804
0.0221256 0.043534 0.0221256
0.0222629 0.0415961 0.0222629
0.0259098 0.0435035 0.0223087
0.0367895 0.0459907 0.0221714
0.0634623 0.0406806 0.0217899
0.0892348 0.0373083 0.0209964
0.114977 0.0375067 0.0202029
0.147341 0.0379644 0.0195773
0.187411 0.0372931 0.0187228
0.227146 0.0387884 0.0183566
0.267567 0.0397345 0.0185855
0.306828 0.0395514 0.0184787
0.343175 0.0399176 0.018677
0.382879 0.043595 0.023331
0.427176 0.0491188 0.0270848
0.463447 0.0562905 0.0317693
0.505531 0.0630198 0.0373846
0.543465 0.0669261 0.0402686
0.59353 0.0817731 0.051667
0.637598 0.093431 0.0606699
0.6766 0.103075 0.0684215
0.710491 0.112001 0.0767376
0.741665 0.124193 0.0866865
0.768154 0.140826 0.0974746
0.783032 0.144305 0.102022
0.781399 0.149569 0.099382
0.7832 0.153109 0.102449
0.783856 0.157382 0.103395
0.785519 0.163241 0.105318
0.786191 0.169162 0.106722
0.787503 0.175402 0.108446
0.78851 0.179782 0.109148
0.0208438 0.0694591 0.033051
0.0208591 0.0679942 0.0276341
0.0208591 0.0650034 0.0247654
0.0247044 0.0650645 0.0247654
0.0375677 0.0688945 0.0245518
0.059968 0.0699474 0.0216831
0.0942092 0.062211 0.0215152
0.121569 0.0548867 0.0252384
0.155932 0.0495613 0.0231632
0.195804 0.0469368 0.0212406
0.235401 0.0466316 0.0209659
0.275242 0.0467689 0.0217899
0.313115 0.047013 0.0220645
0.350927 0.0489204 0.0249943
0.389944 0.0520638 0.0263066
0.43093 0.0563211 0.02916
0.468956 0.0632334 0.0335699
0.512169 0.0724651 0.040116
0.555505 0.0817426 0.0468452
0.598321 0.0923629 0.0545815
0.638331 0.101884 0.0617075
0.678019 0.10988 0.0709087
0.715358 0.122652 0.0811933
0.743038 0.137026 0.0892195
0.766033 0.150866 0.0977646
0.781567 0.161227 0.104005
0.783764 0.156466 0.103517
0.783642 0.160647 0.104341
0.784268 0.168643 0.107424
0.784894 0.17586 0.109361
0.785168 0.180987 0.10985
0.786938 0.184894 0.111162
0.787518 0.193164 0.112474
0.0224765 0.0955978 0.0415045
0.0226749 0.0952163 0.035523
0.0222324 0.0915236 0.0301366
0.0230564 0.0894179 0.0296941
0.0334325 0.0933394 0.03093
0.0538949 0.0966506 0.0285191
0.0811627 0.0966506 0.0220035
0.124239 0.0878309 0.0214694
0.163058 0.0742199 0.0250706
0.205539 0.0627451 0.0270542
0.243824 0.0580148 0.0259556
0.283314 0.0563668 0.0261845
0.322637 0.0572824 0.0277104
0.360006 0.0603952 0.0289616
0.398978 0.0640726 0.03122
0.440101 0.0695201 0.0342107
0.482597 0.0784619 0.0403296
0.525841 0.0882277 0.0470283
0.567071 0.0977646 0.054139
0.607431 0.107225 0.0612192
0.647532 0.117342 0.0689555
0.685954 0.128176 0.077409
0.717754 0.139651 0.0860151
0.744823 0.152285 0.0949264
0.767086 0.162692 0.102541
0.781338 0.17557 0.109407
0.783749 0.175372 0.109682
0.783429 0.180819 0.110887
0.7832 0.18703 0.111879
0.783475 0.19202 0.112871
0.783703 0.19855 0.114183
0.783902 0.2047 0.115816
0.785245 0.212818 0.118395
0.0246433 0.122713 0.0530709
0.0251774 0.123186 0.0448463
0.025391 0.120027 0.0364385
0.0251469 0.117296 0.0352331
0.0297704 0.118181 0.0353246
0.0465705 0.122866 0.0361334
0.0713512 0.125261 0.0315404
0.105241 0.125475 0.0228885
0.164233 0.111528 0.0222934
0.210346 0.097612 0.0256962
0.255375 0.0823224 0.0308843
0.295048 0.0747845 0.0316472
0.333181 0.074876 0.0323949
0.372045 0.075761 0.0339666
0.410452 0.0803082 0.0368048
0.452674 0.0881819 0.0419928
0.49691 0.0981308 0.0492256
0.538918 0.107729 0.0562295
0.578866 0.11696 0.0630808
0.617487 0.126131 0.0696574
0.656489 0.135805 0.0768902
0.691981 0.147311 0.0858015
0.722271 0.159503 0.0945907
0.747051 0.172854 0.10219
0.765988 0.186328 0.109392
0.777173 0.199557 0.114488
0.780285 0.205249 0.116579
0.780377 0.204547 0.11632
0.780987 0.209781 0.118639
0.780255 0.214771 0.119173
0.781598 0.221454 0.121935
0.781888 0.227497 0.124285
0.782544 0.234714 0.126619
0.0238651 0.156451 0.0629129
0.0252079 0.157214 0.053666
0.0251621 0.15407 0.0433967
0.0252384 0.150805 0.0386511
0.0255894 0.146899 0.0386358
0.0336004 0.153521 0.0384527
0.0580301 0.15758 0.0403754
0.0878614 0.162249 0.0328069
0.132631 0.163653 0.0226749
0.210208 0.144778 0.0231174
0.262318 0.131746 0.0293584
0.307378 0.11429 0.0357366
0.350942 0.10486 0.0402686
0.388342 0.10396 0.0429236
0.428565 0.108476 0.0475929
0.469062 0.113054 0.0528115
0.509743 0.121187 0.0584573
0.549767 0.12932 0.0644541
0.588464 0.13872 0.0717479
0.626444 0.149126 0.0793469
0.663569 0.159823 0.0873274
0.696254 0.172488 0.0948348
0.723095 0.184833 0.102281
0.745388 0.198322 0.109087
0.763821 0.211078 0.116045
0.775769 0.224018 0.122789
0.779126 0.230762 0.125841
0.779126 0.236362 0.127535
0.779599 0.235355 0.127291
0.779507 0.240314 0.128435
0.77995 0.245655 0.130678
0.780911 0.251179 0.133104
0.781262 0.257404 0.134737
0.0238193 0.197589 0.0741436
0.0248264 0.198123 0.0645914
0.0250248 0.196063 0.0539712
0.0237736 0.19144 0.0427863
0.0234073 0.187106 0.0403601
0.0246586 0.186404 0.0403601
0.0399023 0.19823 0.0437629
0.0733501 0.203647 0.04654
0.113313 0.211566 0.0372778
0.178561 0.213077 0.02533
0.259297 0.194888 0.0247196
0.317891 0.179538 0.0345617
0.362768 0.164752 0.0418097
0.407111 0.152682 0.0543679
0.446662 0.146914 0.0591287
0.482887 0.148318 0.0636606
0.521492 0.152117 0.0686198
0.560678 0.158358 0.0747234
0.596384 0.166567 0.0804761
0.630854 0.177371 0.0878767
0.66424 0.188968 0.0945602
0.695689 0.200946 0.102434
0.720958 0.213382 0.109743
0.744137 0.226474 0.118044
0.762524 0.2392 0.125475
0.774411 0.249622 0.132158
0.778058 0.256916 0.135149
0.777539 0.261677 0.13666
0.777966 0.266941 0.139651
0.778424 0.267124 0.139574
0.778607 0.271672 0.141054
0.779431 0.27744 0.143053
0.780392 0.282567 0.145418
0.0316167 0.248234 0.0960708
0.0323033 0.248936 0.0873732
0.032929 0.248432 0.0766766
0.0320592 0.244099 0.0650339
0.0300908 0.238392 0.0536812
0.0288853 0.232807 0.0511177
0.0365606 0.240497 0.0544137
0.057557 0.251743 0.0575265
0.0987259 0.256275 0.059617
0.147402 0.262516 0.0433814
0.226749 0.261845 0.0283055
0.308782 0.244953 0.0243687
0.368719 0.228412 0.0397192
0.411093 0.218662 0.0443275
0.451698 0.206821 0.0561379
0.489296 0.202533 0.0699168
0.526268 0.201266 0.076997
0.563897 0.202167 0.0842908
0.598169 0.205875 0.0892805
0.633188 0.212268 0.0967575
0.665858 0.221454 0.104021
0.695964 0.231571 0.112093
0.72256 0.244053 0.120439
0.743862 0.256016 0.128374
0.761273 0.268055 0.136065
0.773144 0.279286 0.143023
0.777096 0.285664 0.147555
0.776974 0.290303 0.149844
0.777096 0.295949 0.152148
0.776883 0.300649 0.154711
0.777691 0.300603 0.154452
0.778546 0.305531 0.156573
0.779477 0.310735 0.158434
0.0382086 0.29781 0.11841
0.0388342 0.298039 0.108583
0.0397192 0.298192 0.0994736
0.0398413 0.297093 0.0885481
0.0379797 0.291798 0.0760357
0.0367742 0.286122 0.0657664
0.0358587 0.28307 0.0641947
0.0505379 0.294606 0.068452
0.0780346 0.304021 0.0708019
0.126314 0.308614 0.0716259
0.192981 0.312459 0.0491951
0.278599 0.311589 0.0314794
0.358358 0.297185 0.0227665
0.416037 0.282338 0.0422827
0.459922 0.271809 0.0496071
0.498253 0.264714 0.0631266
0.532799 0.259236 0.0781415
0.564843 0.25977 0.0935531
0.598718 0.259617 0.102434
0.634043 0.258885 0.110597
0.667811 0.26421 0.117968
0.697765 0.269535 0.125521
0.723033 0.277241 0.132738
0.743954 0.288472 0.141894
0.760861 0.299855 0.1505
0.772885 0.310903 0.158602
0.776593 0.317723 0.163928
0.776394 0.321981 0.165667
0.77644 0.326421 0.168048
0.776913 0.331487 0.171939
0.776913 0.335988 0.174212
0.77792 0.335836 0.173999
0.779751 0.340902 0.176822
0.0454261 0.346105 0.1458
0.0462501 0.346136 0.134981
0.0471351 0.346532 0.124544
0.0475319 0.346716 0.113787
0.0468452 0.343267 0.102403
0.045182 0.338476 0.0885786
0.0432898 0.33283 0.0778058
0.0442664 0.333577 0.0778363
0.0697795 0.345769 0.0824903
0.101671 0.354009 0.0834211
0.162997 0.356634 0.0809339
0.242573 0.359747 0.0539101
0.330663 0.359747 0.0340276
0.405371 0.346365 0.0219577
0.460319 0.334737 0.0424811
0.505745 0.32369 0.0598154
0.543404 0.318288 0.0737011
0.575891 0.315663 0.0890211
0.604974 0.31519 0.101854
0.633158 0.317556 0.11693
0.664485 0.318822 0.133028
0.694759 0.318502 0.142168
0.72134 0.323568 0.150774
0.742504 0.328801 0.159075
0.760403 0.335164 0.168414
0.773037 0.344884 0.179156
0.777005 0.351003 0.184039
0.776791 0.355077 0.186221
0.777249 0.358953 0.189197
0.777173 0.363836 0.191089
0.776944 0.369848 0.192935
0.777462 0.371664 0.193118
0.778363 0.376089 0.194537
0.053254 0.393896 0.183795
0.0534676 0.39353 0.170291
0.0545205 0.393378 0.1561
0.0559243 0.393896 0.143816
0.056611 0.393881 0.13286
0.0557717 0.389578 0.119188
0.0541695 0.384497 0.102251
0.0513161 0.378195 0.0915847
0.0625772 0.384176 0.0935225
0.0928969 0.395407 0.0972457
0.133135 0.402518 0.0990158
0.209995 0.403632 0.0896925
0.297749 0.405982 0.0603494
0.379049 0.407782 0.0394293
0.449317 0.393729 0.0245823
0.502861 0.384771 0.0425727
0.547601 0.37435 0.0654154
0.586984 0.369589 0.0865644
0.6168 0.368109 0.102083
0.643519 0.368933 0.115114
0.669535 0.371695 0.128313
0.694881 0.373129 0.142992
0.718639 0.376959 0.161059
0.738903 0.380987 0.179919
0.757137 0.385229 0.190372
0.771054 0.390295 0.199145
0.775647 0.392416 0.202747
0.775601 0.396277 0.203891
0.774807 0.401114 0.204959
0.774914 0.406882 0.206943
0.774945 0.412009 0.208408
0.776287 0.417273 0.20827
0.776989 0.417075 0.208011
0.062562 0.440955 0.224033
0.0637064 0.440986 0.212711
0.0641489 0.44065 0.199359
0.0648508 0.440848 0.185672
0.0661479 0.440772 0.170489
0.0662852 0.4392 0.155047
0.0663157 0.435187 0.139284
0.0631876 0.428733 0.116167
0.0615549 0.424704 0.106828
0.0865492 0.434379 0.110338
0.119326 0.443275 0.112596
0.176043 0.447608 0.113863
0.26276 0.449393 0.095552
0.352575 0.450278 0.0681468
0.424964 0.451728 0.0483101
0.493492 0.440131 0.0305333
0.546761 0.432731 0.0437476
0.589136 0.423758 0.0730602
0.626993 0.417746 0.0982681
0.656718 0.417304 0.116442
0.682658 0.419348 0.131243
0.705074 0.423362 0.144152
0.725582 0.4271 0.156817
0.743526 0.430961 0.171679
0.759686 0.43505 0.186526
0.773297 0.439933 0.199268
0.777752 0.442664 0.20415
0.777859 0.443168 0.204303
0.777966 0.443488 0.204227
0.778622 0.445945 0.204196
0.779721 0.450095 0.204608
0.780179 0.453849 0.204471
0.78146 0.458167 0.205066
0.0711833 0.486519 0.267933
0.0750439 0.487648 0.25774
0.0758984 0.487495 0.244694
0.0755779 0.486519 0.23093
0.0763104 0.486732 0.216144
0.0777752 0.485939 0.200046
0.0772717 0.482719 0.182483
0.0769055 0.47924 0.163256
0.0740978 0.472953 0.133227
0.0746624 0.470573 0.123247
0.114427 0.481575 0.127245
0.155276 0.488182 0.12755
0.225422 0.490745 0.132708
0.318639 0.494759 0.104356
0.403357 0.495216 0.0804761
0.470359 0.49691 0.0631418
0.537758 0.485512 0.038468
0.589502 0.479271 0.0465248
0.629084 0.471366 0.0800336
0.664073 0.465827 0.109285
0.695109 0.463844 0.131579
0.718837 0.467094 0.147951
0.737057 0.471473 0.162966
0.752499 0.476844 0.176471
0.766384 0.482048 0.189609
0.779355 0.487633 0.202731
0.784543 0.492164 0.209293
0.785 0.49308 0.210285
0.784924 0.492958 0.210269
0.784924 0.492409 0.210239
0.784726 0.4907 0.209873
0.785245 0.492805 0.210163
0.786511 0.495491 0.210834
0.0796216 0.530587 0.313039
0.0841993 0.531792 0.303609
0.0883192 0.533013 0.29308
0.0887007 0.532662 0.280476
0.0877394 0.531456 0.264012
0.0879377 0.531273 0.246845
0.0895552 0.529564 0.230243
0.0884108 0.52517 0.209842
0.0882582 0.521462 0.189151
0.085771 0.515251 0.151156
0.104143 0.518227 0.144335
0.148562 0.525856 0.145312
0.202655 0.53019 0.148623
0.277699 0.534005 0.161349
0.371878 0.538506 0.115801
0.451682 0.538598 0.0940108
0.513695 0.539651 0.0790265
0.578332 0.529839 0.053315
0.62945 0.524498 0.0507057
0.666941 0.517693 0.0869306
0.701076 0.513252 0.118593
0.729107 0.509743 0.147631
0.748959 0.512047 0.168627
0.764202 0.517601 0.186633
0.776654 0.524193 0.200992
0.78793 0.531075 0.212284
0.793484 0.536294 0.220615
0.794614 0.537789 0.221866
0.794522 0.537469 0.221729
0.794491 0.536645 0.221698
0.794049 0.535027 0.221332
0.793835 0.533059 0.220752
0.793912 0.531212 0.220325
0.0895247 0.574807 0.360678
0.0932326 0.576135 0.352102
0.0972152 0.577035 0.342092
0.10161 0.578012 0.330907
0.103151 0.57789 0.31809
0.1019 0.576822 0.299687
0.101823 0.576165 0.280125
0.10164 0.572183 0.260151
0.101427 0.567666 0.238193
0.10016 0.562661 0.21239
0.0979171 0.557671 0.171252
0.139239 0.563806 0.165621
0.196338 0.568338 0.166949
0.249104 0.573709 0.182361
0.326604 0.577386 0.186725
0.421912 0.582437 0.130404
0.495537 0.582956 0.109972
0.554391 0.585794 0.095201
0.614023 0.574899 0.0762646
0.665156 0.570657 0.0598764
0.70164 0.564294 0.095613
0.733104 0.56051 0.127214
0.757183 0.558663 0.158633
0.774289 0.559945 0.190494
0.786999 0.565026 0.214374
0.797299 0.571618 0.22858
0.803143 0.577661 0.236561
0.80499 0.580697 0.239521
0.805035 0.580636 0.23949
0.80502 0.580056 0.239399
0.804456 0.577676 0.23856
0.8038 0.57438 0.2374
0.803388 0.569787 0.234684
0.10042 0.618723 0.40705
0.102678 0.619654 0.399054
0.106432 0.620386 0.389761
0.110048 0.621073 0.38056
0.115404 0.622065 0.369192
0.118547 0.622309 0.354635
0.116442 0.621546 0.333989
0.114763 0.618662 0.312123
0.114778 0.614221 0.289723
0.113725 0.609201 0.264332
0.111971 0.603433 0.233753
0.112734 0.59939 0.189731
0.185443 0.606424 0.191836
0.245884 0.610483 0.203616
0.297993 0.615808 0.218418
0.37586 0.62005 0.207782
0.471382 0.624155 0.148653
0.537057 0.626261 0.129076
0.59234 0.630289 0.113664
0.645624 0.619043 0.103075
0.697383 0.614389 0.079942
0.73286 0.609064 0.108492
0.759365 0.606836 0.140536
0.77998 0.606058 0.175814
0.794934 0.607919 0.211475
0.805142 0.612818 0.235126
0.811933 0.618891 0.248768
0.813947 0.623407 0.253162
0.813993 0.623331 0.252979
0.813535 0.622141 0.251377
0.813428 0.619883 0.250751
0.812863 0.616053 0.249073
0.812451 0.611261 0.247364
0.113695 0.661173 0.450462
0.115969 0.661601 0.442695
0.118013 0.662257 0.435126
0.120562 0.663035 0.4271
0.12491 0.664164 0.417609
0.130831 0.665385 0.40531
0.134859 0.666056 0.389593
0.131777 0.66421 0.366491
0.128481 0.660258 0.34313
0.127367 0.654902 0.316915
0.126268 0.649241 0.287739
0.125826 0.6439 0.25478
0.152132 0.644083 0.217975
0.241062 0.647807 0.225788
0.297795 0.652247 0.239979
0.347112 0.656947 0.252461
0.430289 0.662287 0.221775
0.517968 0.664103 0.171038
0.574075 0.667094 0.151293
0.626932 0.670939 0.138643
0.676936 0.661067 0.128481
0.725734 0.65536 0.11136
0.758633 0.653361 0.125597
0.781277 0.651652 0.161425
0.797635 0.651698 0.205768
0.81059 0.6542 0.240024
0.817685 0.658564 0.261936
0.821088 0.663691 0.271611
0.821225 0.664103 0.271412
0.820874 0.663066 0.269856
0.819547 0.660609 0.26743
0.819455 0.656413 0.265858
0.818845 0.651667 0.263172
0.134157 0.702571 0.492088
0.134691 0.702998 0.485695
0.135683 0.703578 0.478294
0.136675 0.704204 0.471138
0.138659 0.704616 0.462135
0.14284 0.705318 0.45153
0.148959 0.706386 0.438071
0.151797 0.707256 0.420691
0.148669 0.704768 0.397848
0.144167 0.700313 0.371817
0.142061 0.694072 0.341482
0.140826 0.687526 0.30753
0.150332 0.684688 0.274418
0.21593 0.685542 0.249516
0.298054 0.687724 0.262654
0.348562 0.691859 0.274586
0.396155 0.695247 0.282521
0.480278 0.700893 0.234409
0.560204 0.702144 0.195956
0.608865 0.705501 0.181659
0.65893 0.71014 0.168994
0.705089 0.700816 0.160098
0.750408 0.695598 0.150179
0.780621 0.695018 0.156527
0.798993 0.69485 0.204135
0.813397 0.695781 0.245716
0.822751 0.69839 0.277501
0.826963 0.702998 0.292454
0.826947 0.704067 0.294286
0.826703 0.702464 0.291432
0.825757 0.699825 0.287587
0.825681 0.696345 0.284764
0.824842 0.691096 0.279744
0.1579 0.740963 0.529656
0.158587 0.741543 0.524849
0.159304 0.742214 0.519112
0.159899 0.74258 0.512566
0.161746 0.742992 0.504921
0.164111 0.743542 0.496101
0.166934 0.744503 0.484154
0.172244 0.746166 0.4701
0.172412 0.745937 0.449882
0.166659 0.741741 0.426047
0.16173 0.736278 0.397253
0.158953 0.729595 0.362387
0.161547 0.723049 0.324071
0.189837 0.720043 0.289647
0.284688 0.721553 0.284276
0.350652 0.722698 0.295033
0.394568 0.725551 0.303075
0.440696 0.729885 0.301625
0.527855 0.735348 0.248936
0.599664 0.736538 0.220386
0.643748 0.740597 0.211536
0.689632 0.744442 0.20354
0.731212 0.73608 0.199908
0.767315 0.73225 0.202853
0.794064 0.732616 0.227634
0.814115 0.734844 0.255467
0.826413 0.736782 0.293935
0.831159 0.738827 0.319646
0.831617 0.740505 0.326574
0.831189 0.739086 0.322728
0.830793 0.736919 0.318975
0.830945 0.734035 0.313252
0.829572 0.727993 0.306706
0.18349 0.772183 0.565972
0.184985 0.772686 0.561349
0.185748 0.772854 0.55584
0.186343 0.773037 0.549798
0.187442 0.773297 0.542824
0.189746 0.773831 0.534493
0.192035 0.775021 0.524529
0.196063 0.775937 0.511788
0.20116 0.776532 0.495811
0.197086 0.774151 0.473915
0.190387 0.769192 0.447501
0.184695 0.763424 0.414572
0.184314 0.756603 0.375006
0.197024 0.75169 0.335744
0.243793 0.748821 0.306645
0.347524 0.74873 0.313207
0.399222 0.750439 0.322438
0.439048 0.753353 0.329381
0.48748 0.758923 0.315816
0.574411 0.764599 0.26508
0.638025 0.765957 0.24683
0.678248 0.769574 0.240238
0.719829 0.773449 0.237369
0.754818 0.766247 0.240513
0.783841 0.764843 0.267582
0.805356 0.765225 0.298116
0.822461 0.76704 0.326802
0.831907 0.7691 0.352682
0.834226 0.770947 0.367117
0.83415 0.770016 0.363867
0.833829 0.768002 0.358206
0.83415 0.765362 0.3514
0.833921 0.760693 0.343236
0.207034 0.797955 0.598657
0.20798 0.798352 0.594461
0.208881 0.798489 0.5897
0.210468 0.798505 0.58349
0.211948 0.798581 0.576883
0.213916 0.798627 0.569131
0.215 0.799222 0.559884
0.217197 0.799817 0.548043
0.221424 0.800626 0.533043
0.223636 0.800275 0.515221
0.220066 0.796613 0.491676
0.21474 0.791196 0.462043
0.209995 0.784497 0.425162
0.212909 0.77821 0.382132
0.238407 0.774289 0.345663
0.317845 0.772854 0.333547
0.400946 0.772015 0.340948
0.441444 0.773648 0.34844
0.480247 0.778286 0.352407
0.535485 0.784909 0.326452
0.618723 0.789151 0.28574
0.672572 0.790616 0.272328
0.71014 0.794629 0.269505
0.744213 0.796658 0.27483
0.773159 0.792554 0.301961
0.797604 0.791394 0.334478
0.816358 0.792004 0.363745
0.828199 0.793622 0.390066
0.832715 0.794858 0.407691
0.833021 0.794675 0.410513
0.832685 0.792691 0.404898
0.833295 0.790311 0.398779
0.832593 0.786206 0.38941
0.224308 0.819043 0.628885
0.22533 0.819135 0.623972
0.226215 0.819059 0.61883
0.227161 0.819028 0.613626
0.228428 0.818936 0.607416
0.230152 0.818936 0.599893
0.232181 0.818921 0.5906
0.234791 0.818982 0.579095
0.23772 0.819455 0.565713
0.241871 0.81976 0.549767
0.24416 0.818326 0.530724
0.239551 0.813306 0.503471
0.234012 0.807416 0.471122
0.231968 0.801129 0.432609
0.240833 0.794644 0.386847
0.289494 0.792279 0.360357
0.386969 0.790921 0.359518
0.446097 0.790631 0.367788
0.482155 0.793622 0.375158
0.519585 0.798749 0.368231
0.583703 0.806088 0.33579
0.661433 0.80737 0.30544
0.704265 0.809537 0.298787
0.735744 0.812085 0.302037
0.765866 0.815106 0.328496
0.790494 0.812497 0.364294
0.810788 0.812406 0.396445
0.825605 0.81384 0.424033
0.831937 0.815 0.444312
0.83241 0.814954 0.450721
0.832578 0.813519 0.446494
0.832517 0.81178 0.440421
0.83299 0.808316 0.432303
0.230106 0.834897 0.654826
0.233738 0.834302 0.650019
0.237675 0.833616 0.645701
0.238895 0.833509 0.640009
0.239841 0.833494 0.633829
0.241306 0.833265 0.626123
0.243336 0.833066 0.617273
0.246647 0.832898 0.606378
0.250065 0.833051 0.594385
0.254612 0.833234 0.580041
0.260945 0.83183 0.563836
0.262562 0.829252 0.542611
0.258762 0.824125 0.513756
0.254505 0.817761 0.478737
0.255573 0.8121 0.436683
0.290455 0.808438 0.406149
0.369162 0.80798 0.396399
0.443976 0.806134 0.395712
0.487709 0.806775 0.399191
0.520211 0.810285 0.400824
0.560357 0.816251 0.385901
0.624445 0.822553 0.353796
0.692943 0.822354 0.333196
0.730648 0.824155 0.330251
0.757076 0.827543 0.351797
0.784176 0.830167 0.390097
0.805814 0.829572 0.425147
0.823133 0.83035 0.454383
0.831662 0.831952 0.478782
0.832731 0.832959 0.489113
0.832395 0.831479 0.484764
0.832227 0.829419 0.478691
0.832242 0.826841 0.471534
0.225849 0.842451 0.67245
0.229313 0.841642 0.668559
0.232441 0.841047 0.663508
0.236378 0.840253 0.658122
0.241047 0.839261 0.652033
0.242847 0.838483 0.644892
0.24387 0.837598 0.63563
0.245686 0.836667 0.624704
0.249531 0.83624 0.614832
0.254917 0.835584 0.603265
0.261997 0.834928 0.589273
0.271031 0.834134 0.571023
0.27541 0.833387 0.549813
0.272923 0.828428 0.518456
0.272084 0.822751 0.482872
0.295354 0.817609 0.450843
0.362966 0.816327 0.439139
0.436133 0.815259 0.435904
0.491936 0.81445 0.434104
0.52842 0.815732 0.43624
0.557595 0.820294 0.427558
0.598688 0.826001 0.407126
0.656962 0.828946 0.379507
0.717784 0.830518 0.36939
0.751034 0.833677 0.379965
0.775265 0.83711 0.406775
0.800885 0.841016 0.444739
0.819547 0.842878 0.47895
0.83061 0.846006 0.509453
0.832166 0.84773 0.523873
0.832288 0.846922 0.520333
0.832227 0.845167 0.515236
0.831815 0.842725 0.508492
0.221988 0.843519 0.678538
0.224659 0.843015 0.674205
0.227893 0.842329 0.670024
0.231815 0.84155 0.664469
0.236561 0.840467 0.658274
0.242069 0.839246 0.651133
0.243503 0.838437 0.642496
0.244862 0.837308 0.632166
0.247929 0.836622 0.622095
0.253559 0.835966 0.610559
0.260105 0.835508 0.598917
0.269123 0.835096 0.58587
0.279454 0.834791 0.570443
0.284016 0.833661 0.549996
0.285267 0.829328 0.520211
0.309636 0.824353 0.495262
0.365499 0.821775 0.480858
0.431312 0.821988 0.477806
