bundles/resolve-cinematic-luts/Phantom Luts/P4k & P6K Phntm Film LUTs - V6/P4K/Gen 4 Colour/White Balance Offset (+Magenta Boost)/P4k Vision Gen4 WBO.cube
TITLE "Generated by Resolve"
LUT_3D_SIZE 5
0.0224155 0.0224155 0.0224155
0.137469 0.0312657 0.0188144
0.45655 0.0470436 0.0292821
0.768444 0.119005 0.0940414
0.789944 0.163653 0.105272
0.0238193 0.197589 0.0741436
0.113313 0.211566 0.0372778
0.521492 0.152117 0.0686198
0.762524 0.2392 0.125475
0.780392 0.282567 0.145418
0.0895247 0.574807 0.360678
0.101427 0.567666 0.238193
0.495537 0.582956 0.109972
0.786999 0.565026 0.214374
0.803388 0.569787 0.234684
0.230106 0.834897 0.654826
0.250065 0.833051 0.594385
0.369162 0.80798 0.396399
0.757076 0.827543 0.351797
0.832242 0.826841 0.471534
0.207446 0.847547 0.701274
0.24509 0.839506 0.652705
0.299153 0.828428 0.522515
0.651591 0.836545 0.468971
0.834974 0.859602 0.570565
0.0424048 0.0311589 0.189197
0.202243 0.0221561 0.136843
0.517891 0.0380865 0.2038
0.78175 0.102647 0.273396
0.803952 0.115862 0.194018
0.0192721 0.160479 0.146029
0.18677 0.184573 0.175051
0.59884 0.105409 0.106432
0.808423 0.167559 0.14966
0.79884 0.227481 0.141314
0.0462806 0.546761 0.418494
0.0804913 0.548058 0.335561
0.487892 0.565759 0.109789
0.783505 0.541802 0.242039
0.795483 0.543755 0.248508
0.182971 0.832578 0.691554
0.227771 0.822904 0.63386
0.282445 0.803601 0.407233
0.748196 0.819516 0.32578
0.833326 0.816999 0.46305
0.176165 0.854444 0.740902
0.211505 0.846754 0.698039
0.288701 0.834241 0.565148
0.63003 0.833982 0.487663
0.835203 0.860243 0.574182
0.149645 0.0400702 0.479652
0.319753 0.043183 0.428824
0.551705 0.049134 0.455848
0.760998 0.111238 0.572534
0.753872 0.0928664 0.508232
0.041825 0.080705 0.462959
0.179797 0.0393378 0.462577
0.51957 0.0421454 0.426184
0.74905 0.0915236 0.512993
0.757336 0.104768 0.467521
0.025452 0.522622 0.544747
0.0236362 0.510323 0.536629
0.576699 0.553002 0.56054
0.857511 0.504204 0.523339
0.835096 0.487175 0.453727
0.132708 0.815274 0.757336
0.132631 0.805844 0.726833
0.25037 0.79794 0.619562
0.743404 0.814527 0.5019
0.841337 0.796185 0.496513
0.166384 0.861173 0.812284
0.171359 0.859525 0.792111
0.219944 0.846113 0.695979
0.572427 0.830076 0.535668
0.83653 0.862791 0.587839
0.367407 0.0775769 0.682506
0.47068 0.0858015 0.67303
0.654246 0.120394 0.687221
0.77583 0.122789 0.72607
0.778668 0.123095 0.739788
0.134478 0.0942397 0.681834
0.375341 0.0772259 0.674571
0.61828 0.11667 0.673533
0.774166 0.124269 0.712947
0.776455 0.125124 0.72343
0.0618448 0.474693 0.781003
0.0852674 0.446204 0.793301
0.62034 0.383719 0.810681
0.830808 0.370672 0.778241
0.82501 0.31667 0.749508
0.133471 0.800931 0.827741
0.12369 0.78941 0.817105
0.28658 0.781048 0.807294
0.802167 0.803372 0.806851
0.887419 0.774655 0.783459
0.25449 0.866636 0.867079
0.241199 0.867033 0.86096
0.232227 0.866011 0.839902
0.641306 0.884215 0.806531
0.866224 0.913207 0.807248
0.466072 0.0927443 0.720974
0.537835 0.0974441 0.716686
0.702022 0.133501 0.73431
0.779263 0.122271 0.743786
0.780697 0.124269 0.744823
0.321065 0.0782788 0.721462
0.472938 0.0934005 0.72108
0.675303 0.136553 0.733135
0.77969 0.122759 0.744106
0.781125 0.124849 0.745144
0.219425 0.42266 0.870207
0.216342 0.376638 0.861692
0.633188 0.266514 0.798306
0.813519 0.249317 0.788479
0.805829 0.185245 0.77525
0.193042 0.783932 0.897047
0.18233 0.767926 0.897169
0.389151 0.743282 0.895537
0.829114 0.739437 0.889723
0.884352 0.721736 0.879179
0.350545 0.871763 0.896559
0.360235 0.87216 0.896193
0.390936 0.872816 0.895338
0.684932 0.899016 0.896803
0.899596 0.936553 0.919921
