bundles/resolve-cinematic-luts/Phantom Luts/P4k & P6K Phntm Film LUTs - V6/P4K/Gen 4 Colour/White Balance Offset (+Magenta Boost)/P4k Eterna Gen4-Legacy WBO.cube
TITLE "Generated by Resolve"
LUT_3D_SIZE 5
0.016846 0.0444648 0.044358
0.130602 0.0572519 0.061738
0.385 0.090013 0.126055
0.685222 0.13373 0.209049
0.741588 0.14374 0.242695
0.0393225 0.160906 0.105348
0.140246 0.175799 0.0673075
0.444633 0.155367 0.113115
0.723857 0.173083 0.1691
0.741985 0.170626 0.174212
0.0530556 0.567391 0.31429
0.030869 0.623911 0.240665
0.517418 0.612238 0.103838
0.896178 0.603571 0.234272
0.915389 0.602335 0.249378
0.227619 0.901442 0.611368
0.221256 0.905013 0.572366
0.244602 0.902831 0.363073
0.864759 0.924086 0.359579
0.939315 0.92047 0.499474
0.229252 0.909102 0.662593
0.233768 0.905531 0.62443
0.237766 0.903944 0.498741
0.645487 0.926757 0.376867
0.938689 0.935699 0.594095
0.0447242 0.0495766 0.126436
0.155444 0.0607767 0.117861
0.390707 0.0807813 0.176806
0.697963 0.112474 0.267796
0.748714 0.118837 0.320531
0.0409705 0.143343 0.130617
0.147829 0.150469 0.153872
0.47454 0.131075 0.180499
0.740154 0.151797 0.249943
0.752926 0.142596 0.275975
0.0603037 0.512245 0.358312
0.0339666 0.549111 0.326253
0.497017 0.584085 0.107469
0.899779 0.563729 0.255222
0.921782 0.550912 0.274662
0.21416 0.877852 0.647822
0.214038 0.883024 0.614862
0.227497 0.897292 0.398856
0.851926 0.917693 0.341756
0.938628 0.910658 0.490013
0.244388 0.908721 0.726711
0.252171 0.905196 0.694835
0.23476 0.902159 0.541787
0.591363 0.928023 0.380423
0.938582 0.935836 0.598047
0.113619 0.0543374 0.339162
0.227955 0.0606699 0.360113
0.452049 0.0919966 0.307179
0.727733 0.121996 0.376303
0.759106 0.119066 0.449531
0.0337377 0.106615 0.246876
0.0520333 0.0583658 0.341009
0.446967 0.0916762 0.327733
0.72488 0.124681 0.401831
0.75256 0.123125 0.483665
0.061677 0.468833 0.413489
0.0449378 0.487129 0.44712
0.502113 0.49073 0.493248
0.917006 0.474815 0.521691
0.931533 0.43917 0.533013
0.212482 0.830839 0.689128
0.184375 0.830228 0.680705
0.256229 0.85272 0.604318
0.81677 0.87509 0.49987
0.943343 0.862623 0.559625
0.282887 0.904845 0.805219
0.263218 0.910796 0.798917
0.275334 0.90396 0.714595
0.506508 0.934554 0.545754
0.944152 0.933608 0.633783
0.227832 0.0662699 0.566979
0.307103 0.0712139 0.622034
0.532891 0.090837 0.594415
0.735912 0.130755 0.562325
0.748363 0.127825 0.598718
0.0369726 0.0564584 0.449928
0.123171 0.0597391 0.536049
0.487327 0.0836194 0.621393
0.729778 0.134035 0.570199
0.743877 0.131304 0.612634
0.0653239 0.447059 0.564492
0.0520485 0.438071 0.615457
0.362493 0.400366 0.792569
0.902831 0.352316 0.721325
0.906432 0.317037 0.738216
0.215183 0.794079 0.72639
0.17116 0.785031 0.728191
0.280018 0.788998 0.73846
0.801251 0.776913 0.778439
0.944579 0.766827 0.798672
0.332921 0.902098 0.854292
0.301869 0.916732 0.870253
0.325795 0.92401 0.85597
0.688121 0.930404 0.871824
0.949752 0.935149 0.841917
0.350958 0.080827 0.711223
0.38172 0.0827955 0.716274
0.566934 0.100603 0.732403
0.746471 0.137102 0.746471
0.7467 0.137301 0.746242
0.154406 0.0676585 0.650385
0.250034 0.0747387 0.688289
0.48806 0.090959 0.72874
0.746578 0.137209 0.746578
0.747204 0.137819 0.747189
0.0876173 0.419791 0.759869
0.106691 0.400732 0.788739
0.283391 0.305821 0.856443
0.793912 0.212573 0.821439
0.799329 0.192767 0.79762
0.199268 0.781582 0.832578
0.192218 0.75761 0.838499
0.219593 0.704753 0.870375
0.715984 0.698756 0.93785
0.936004 0.666896 0.934066
0.334737 0.922438 0.908278
0.341238 0.923842 0.910536
0.350958 0.925719 0.905623
0.695796 0.935699 0.931716
0.94136 0.941253 0.941176
