bundles/resolve-cinematic-luts/Phantom Luts/P4k & P6K Phntm Film LUTs - V6/P4K/Gen 4 Colour/White Balance Offset (+Magenta Boost)/P4k EastmanRM Gen4 WBO.cube
TITLE "Generated by Resolve"
LUT_3D_SIZE 33
0.0411231 0.0301671 0.0354467
0.0412299 0.0300145 0.0352636
0.0430152 0.0297551 0.0353552
0.0513619 0.0291295 0.0357519
0.0687419 0.0286564 0.0362249
0.0927596 0.0283055 0.0367895
0.121736 0.027451 0.0369421
0.154055 0.0267948 0.0371252
0.186313 0.0259861 0.0376287
0.216434 0.0255131 0.0383459
0.250172 0.0251469 0.0398718
0.289387 0.0247044 0.0412299
0.330373 0.0245365 0.0422827
0.369009 0.0247654 0.0430152
0.405234 0.0252384 0.0440375
0.437446 0.0260014 0.0462348
0.468132 0.0267338 0.0491798
0.496025 0.0278019 0.0525978
0.515862 0.0300298 0.0569314
0.535729 0.032517 0.0620584
0.555001 0.0352331 0.0676738
0.571618 0.0386053 0.0738537
0.586389 0.0424659 0.0802625
0.601694 0.0475776 0.0879225
0.618372 0.053727 0.096849
0.636408 0.0618296 0.107134
0.655009 0.0720684 0.118593
0.668009 0.0813306 0.127749
0.673289 0.0869764 0.135058
0.672343 0.0915389 0.144091
0.667277 0.0940261 0.153384
0.655955 0.0977188 0.168002
0.644282 0.101122 0.183291
0.0411994 0.0300298 0.0352941
0.0411688 0.0301061 0.0353704
0.0413519 0.0304265 0.0355383
0.0463722 0.0295872 0.0357519
0.0600443 0.0293431 0.0361791
0.0812085 0.0289464 0.0364996
0.108385 0.0287022 0.0372015
0.138674 0.0281224 0.037644
0.173465 0.0271611 0.037705
0.206653 0.0263981 0.0380865
0.241581 0.0258183 0.0389258
0.280171 0.0254063 0.0401007
0.321248 0.0248112 0.0412757
0.360891 0.0249027 0.0419318
0.398764 0.0255283 0.0430915
0.433951 0.0262608 0.0440375
0.466911 0.0267185 0.0463722
0.495201 0.0275883 0.0494545
0.513954 0.0298466 0.0539406
0.534524 0.0318914 0.058793
0.551659 0.034226 0.0634775
0.567391 0.0374609 0.0697642
0.581933 0.0411383 0.0762341
0.596704 0.0453956 0.0829023
0.613214 0.0508583 0.0915236
0.629435 0.0571908 0.0998856
0.646998 0.0657664 0.109926
0.65803 0.0740368 0.117372
0.66331 0.07953 0.124071
0.663142 0.0843671 0.133562
0.659266 0.0888685 0.143343
0.650874 0.0949874 0.15996
0.640772 0.10016 0.175952
0.0417639 0.031693 0.0359655
0.0415198 0.0311131 0.0356298
0.0413214 0.0303655 0.0354925
0.0440681 0.0305333 0.0353246
0.0548104 0.0306096 0.0356603
0.0742657 0.0302129 0.0360571
0.0993668 0.0302892 0.0370947
0.128115 0.0298009 0.0379034
0.159991 0.0289769 0.038468
0.196857 0.0280156 0.0386053
0.234195 0.0270237 0.0387274
0.275578 0.0260624 0.0392462
0.316243 0.025391 0.0402838
0.3552 0.024979 0.0408331
0.391546 0.0251469 0.0411841
0.425849 0.025864 0.0421912
0.458549 0.0262303 0.0435798
0.488075 0.0269322 0.0460365
0.509834 0.0289616 0.0501259
0.531258 0.0308537 0.0548409
0.548928 0.033402 0.0600595
0.563607 0.0362249 0.0657206
0.577249 0.0397192 0.0723125
0.591791 0.043534 0.0789349
0.606836 0.0481575 0.0857557
0.622751 0.0533608 0.0933547
0.639094 0.0601968 0.101915
0.64863 0.0664378 0.10779
0.652354 0.0711833 0.113527
0.652613 0.0769665 0.122499
0.649622 0.0817121 0.13257
0.641413 0.0885328 0.149279
0.631449 0.0940261 0.16524
0.0428321 0.0496223 0.0404669
0.0423743 0.0492256 0.0390784
0.0426337 0.048188 0.0381781
0.0462806 0.0488441 0.0381628
0.0579385 0.0487221 0.038819
0.0788128 0.0446174 0.0380713
0.106859 0.0424811 0.0381018
0.132692 0.0387579 0.0385138
0.158373 0.0353552 0.0381781
0.18967 0.0329137 0.0390631
0.228763 0.0305791 0.0392615
0.272786 0.0285344 0.0390478
0.31667 0.0266728 0.0389563
0.354208 0.0255741 0.039292
0.388632 0.0251469 0.0398718
0.421103 0.0259251 0.0405737
0.452079 0.0261997 0.0416114
0.479789 0.0267033 0.0436713
0.501167 0.0282597 0.0472419
0.523552 0.0296788 0.0508125
0.542199 0.0319066 0.0554971
0.558419 0.0350652 0.0614023
0.572869 0.0385138 0.0679484
0.586404 0.0420081 0.0738994
0.601419 0.0458381 0.0808881
0.617624 0.0505989 0.0882429
0.6327 0.0563363 0.0956741
0.641932 0.0619669 0.100664
0.644282 0.0652171 0.105257
0.64361 0.0700084 0.11339
0.640177 0.0745556 0.121935
0.631067 0.0807507 0.137713
0.620523 0.0860456 0.153185
0.043534 0.075761 0.0460059
0.0430152 0.0758679 0.0425879
0.0430304 0.074815 0.0404517
0.045182 0.0740978 0.04065
0.0551003 0.0773632 0.0406195
0.0790875 0.0759594 0.0412757
0.109987 0.0704509 0.0425269
0.139223 0.0629892 0.0415503
0.167697 0.05626 0.0413825
0.19501 0.0521706 0.0423285
0.230671 0.047776 0.0419318
0.277897 0.039353 0.0397803
0.322988 0.0339361 0.0385138
0.362524 0.0302739 0.0384985
0.396658 0.0283818 0.0389563
0.425116 0.0276036 0.0393378
0.45304 0.0271763 0.0407263
0.477791 0.0272374 0.042359
0.496895 0.028397 0.0447089
0.517021 0.0292821 0.0477302
0.533349 0.0308385 0.0509194
0.547906 0.0336614 0.0562295
0.562646 0.0368811 0.0623484
0.576928 0.0402991 0.0686198
0.592493 0.0439002 0.0754864
0.608454 0.0484016 0.0817731
0.623682 0.0534829 0.0890211
0.634379 0.058854 0.0952926
0.637034 0.0618296 0.0986191
0.635477 0.0648203 0.104768
0.632776 0.0691081 0.113252
0.62295 0.0747387 0.12694
0.611292 0.079469 0.141466
0.0452125 0.102113 0.0515755
0.0441901 0.103395 0.0469215
0.0436713 0.102739 0.0434577
0.0451362 0.101869 0.0424048
0.0513619 0.104341 0.0435645
0.070573 0.106874 0.0434272
0.102235 0.105638 0.0441444
0.135882 0.101442 0.0460365
0.171908 0.0916304 0.0468147
0.205249 0.0795911 0.0447395
0.241886 0.06804 0.0443427
0.281071 0.0604105 0.0445106
0.323644 0.0538491 0.0441596
0.366415 0.0460212 0.0429694
0.406317 0.0393378 0.0406806
0.439567 0.0355993 0.0400397
0.467796 0.0333715 0.0413825
0.489525 0.0326696 0.0427405
0.506035 0.0324559 0.0446174
0.521782 0.032578 0.0473487
0.535668 0.0338445 0.0505989
0.547127 0.0352941 0.0543832
0.557 0.0371099 0.058381
0.567758 0.0391394 0.062974
0.580285 0.0419928 0.0668193
0.596246 0.0455634 0.0736706
0.612451 0.0502632 0.0804608
0.625101 0.0557107 0.0863203
0.628305 0.0582742 0.089189
0.628244 0.0615091 0.0945144
0.625818 0.0650645 0.102129
0.615518 0.0694438 0.114717
0.604273 0.0747845 0.129198
0.047425 0.126574 0.0583658
0.0462196 0.128862 0.0529183
0.0459449 0.128237 0.0468299
0.0471504 0.126467 0.0439002
0.053193 0.125994 0.043595
0.0725261 0.128573 0.0447089
0.10985 0.130861 0.0439155
0.142809 0.128481 0.0435645
0.184924 0.123339 0.0452277
0.227543 0.112337 0.0454414
0.268742 0.0975967 0.04477
0.308522 0.0823377 0.0442359
0.343496 0.0739452 0.0449989
0.379248 0.0691691 0.0448768
0.413718 0.0636301 0.044892
0.448035 0.059556 0.045182
0.47834 0.0555734 0.0453498
0.50518 0.0505684 0.0455024
0.525963 0.0468452 0.0461891
0.542596 0.0457465 0.0489662
0.555245 0.0456855 0.0529793
0.565057 0.0465095 0.0567788
0.573648 0.0478828 0.0610056
0.582544 0.0496529 0.0656138
0.593347 0.052079 0.0703746
0.606989 0.0561685 0.0758984
0.621088 0.0611582 0.081117
0.632105 0.0664073 0.0851759
0.634302 0.0680705 0.0862745
0.635935 0.0721447 0.0899062
0.635782 0.0760357 0.0944533
0.630503 0.0796063 0.102571
0.624369 0.08336 0.112428
0.0538338 0.149538 0.0631571
0.0509651 0.152804 0.0571603
0.0490272 0.153918 0.0505684
0.0484321 0.153002 0.0468757
0.05066 0.152575 0.0461891
0.0643473 0.154665 0.0470741
0.0949874 0.158236 0.0488441
0.133959 0.160403 0.0471504
0.170871 0.159091 0.0469062
0.229694 0.15111 0.0483253
0.281743 0.139422 0.0474098
0.326802 0.1243 0.0477607
0.363424 0.109071 0.0459144
0.395575 0.0961776 0.0466468
0.426993 0.0936294 0.0472725
0.45893 0.0896162 0.0483558
0.490623 0.0873732 0.0496223
0.5196 0.0855116 0.0511788
0.545678 0.0846571 0.0537575
0.567056 0.0858625 0.0572366
0.584222 0.0845808 0.0602426
0.598337 0.0823529 0.0635843
0.610147 0.0813306 0.0670176
0.623301 0.0860456 0.0739757
0.637079 0.091783 0.0812085
0.652018 0.0982376 0.0885939
0.666423 0.104921 0.0951553
0.675685 0.108171 0.0992752
0.676097 0.108003 0.0992752
0.675746 0.109377 0.101747
0.672816 0.111208 0.105852
0.663661 0.11223 0.111864
0.653712 0.113268 0.118669
0.0563211 0.176974 0.0703441
0.0528267 0.179965 0.0647135
0.0501869 0.182071 0.0572519
0.0497597 0.18117 0.0500343
0.050248 0.17998 0.0476844
0.0568246 0.180636 0.0471351
0.0795148 0.184421 0.0483864
0.116854 0.191196 0.0501411
0.159625 0.196948 0.0496834
0.206058 0.196323 0.0491035
0.28481 0.186755 0.0510567
0.344656 0.177462 0.0506294
0.390738 0.162142 0.0507973
0.4271 0.144442 0.0510109
0.45388 0.132265 0.0507515
0.480629 0.124987 0.0519722
0.511498 0.124926 0.0554055
0.540948 0.124468 0.0588693
0.570993 0.125826 0.0627298
0.598978 0.127733 0.0670024
0.624155 0.131121 0.0731823
0.646204 0.136065 0.0807202
0.66453 0.141711 0.0898909
0.682063 0.148089 0.0999161
0.699199 0.155306 0.110292
0.715648 0.161807 0.118502
0.731716 0.168368 0.126177
0.741741 0.172671 0.130663
0.742367 0.171954 0.130831
0.738415 0.17023 0.131243
0.733532 0.169574 0.134218
0.723507 0.17052 0.141299
0.713237 0.171817 0.149477
0.0550546 0.207446 0.0735027
0.0513924 0.211017 0.0682078
0.0489357 0.214084 0.0607004
0.0478981 0.214054 0.0525063
0.0476692 0.211597 0.0463111
0.0484779 0.211414 0.0453193
0.0574044 0.215778 0.045304
0.087892 0.223545 0.0471962
0.133944 0.235279 0.0506905
0.192401 0.246876 0.0514534
0.253544 0.248936 0.0512093
0.34432 0.238743 0.0547799
0.410819 0.231861 0.0548409
0.459495 0.218341 0.0551156
0.498039 0.198413 0.0585031
0.526833 0.184894 0.0605173
0.550408 0.178775 0.0636301
0.57615 0.174914 0.0682994
0.605295 0.175601 0.0738842
0.634485 0.176974 0.0810712
0.662791 0.180133 0.0880598
0.688853 0.185245 0.0965133
0.712322 0.190997 0.106188
0.732464 0.197696 0.115755
0.750515 0.205219 0.125216
0.766293 0.21239 0.133516
0.780621 0.220371 0.141527
0.78941 0.225544 0.146609
0.791012 0.22649 0.147219
0.788113 0.226169 0.149447
0.783459 0.226246 0.153185
0.773983 0.228199 0.161654
0.763409 0.230533 0.171176
0.0532845 0.245029 0.0758831
0.0500954 0.248829 0.0718547
0.0476539 0.252125 0.0648051
0.0467079 0.253056 0.0561379
0.0464942 0.25156 0.0479744
0.0462501 0.248722 0.0432441
0.0484932 0.251637 0.0433661
0.0612192 0.260853 0.0444038
0.0994278 0.272602 0.0469978
0.157946 0.288975 0.0513619
0.240925 0.305501 0.052903
0.309819 0.308843 0.0524147
0.40502 0.299153 0.0563973
0.473991 0.293004 0.0575418
0.524544 0.282643 0.0569619
0.561837 0.266575 0.0585794
0.594934 0.248539 0.0665599
0.620295 0.241962 0.0726024
0.644633 0.241382 0.0786297
0.668666 0.236942 0.0862593
0.694942 0.236606 0.0954147
0.72015 0.23856 0.10573
0.743496 0.242908 0.115648
0.763821 0.249317 0.124834
0.780621 0.256443 0.134493
0.79559 0.26421 0.143999
0.807614 0.272007 0.151888
0.815259 0.277226 0.157977
0.816693 0.278416 0.159228
0.81503 0.278309 0.160906
0.811841 0.278676 0.163394
0.804089 0.280461 0.170947
0.794415 0.282872 0.179965
0.0527962 0.287999 0.0808118
0.0496071 0.291569 0.0770275
0.0473487 0.294209 0.0708476
0.0463722 0.295903 0.0624094
0.0458839 0.295415 0.0532692
0.0459907 0.292714 0.0444495
0.0458076 0.290684 0.0418555
0.0505684 0.297978 0.0421759
0.06804 0.309087 0.0434882
0.110979 0.322621 0.0461891
0.189899 0.345342 0.0509804
0.296742 0.364874 0.0522316
0.369223 0.368277 0.0519417
0.461967 0.360159 0.0569314
0.529198 0.354818 0.061265
0.579278 0.347494 0.0608835
0.618372 0.335897 0.061265
0.650858 0.316808 0.0709239
0.678264 0.306538 0.0797894
0.701259 0.303914 0.0875868
0.722698 0.303624 0.096376
0.74377 0.302388 0.106203
0.765515 0.301549 0.118791
0.783703 0.30309 0.130449
0.799695 0.308949 0.141619
0.81323 0.315923 0.152667
0.824201 0.322744 0.16286
0.831388 0.328573 0.170794
0.83238 0.329641 0.171756
0.831632 0.329732 0.172595
0.830076 0.330114 0.17435
0.824506 0.33164 0.179797
0.81651 0.333822 0.188632
0.0510109 0.331029 0.085771
0.0481575 0.333501 0.0819562
0.0461433 0.336248 0.0775311
0.0454566 0.338262 0.068925
0.0451972 0.339071 0.0586862
0.0453803 0.336263 0.0495155
0.0459602 0.332494 0.0403754
0.0462654 0.333181 0.0392462
0.0550393 0.342382 0.0392309
0.0809033 0.355276 0.0404212
0.132525 0.371649 0.0432593
0.245228 0.403784 0.0498054
0.362158 0.423117 0.0516213
0.427039 0.426047 0.0517891
0.513237 0.419486 0.0584573
0.577523 0.414816 0.0671397
0.624704 0.409323 0.0701762
0.663645 0.400031 0.0726177
0.695171 0.384771 0.0792248
0.722515 0.372702 0.0899367
0.745602 0.367224 0.101717
0.765118 0.365621 0.112535
0.783185 0.366827 0.123491
0.799283 0.367971 0.134813
0.81384 0.370153 0.147539
0.825956 0.372168 0.159884
0.835996 0.376272 0.172198
0.843214 0.38291 0.181552
0.843885 0.383673 0.182696
0.843641 0.384024 0.183108
0.843244 0.384665 0.183825
0.839094 0.38645 0.188159
0.831922 0.389105 0.196048
0.0488136 0.371969 0.0907912
0.0469215 0.374243 0.0877241
0.0455024 0.376547 0.0827497
0.0449073 0.378363 0.0746319
0.0445716 0.379782 0.0653391
0.0445716 0.378866 0.0556954
0.0449378 0.376516 0.0467079
0.0453346 0.372747 0.0378576
0.0474403 0.376287 0.0372168
0.0608988 0.386892 0.0370336
0.0967727 0.401053 0.038407
0.166278 0.422202 0.0422065
0.314763 0.463325 0.0512703
0.423041 0.478676 0.0530404
0.482277 0.481102 0.0559091
0.55964 0.475959 0.0653544
0.621347 0.471977 0.0781262
0.664057 0.467857 0.0865949
0.69987 0.460578 0.0936904
0.729747 0.449836 0.0984512
0.755306 0.437125 0.107103
0.778073 0.429114 0.120027
0.796551 0.427222 0.134051
0.811566 0.427771 0.145693
0.824521 0.429465 0.158724
0.835752 0.432609 0.172427
0.845014 0.436881 0.184527
0.851759 0.441794 0.194369
0.851789 0.442344 0.194629
0.851789 0.442649 0.194766
0.851881 0.443168 0.19498
0.849012 0.444556 0.199268
0.843214 0.44683 0.207675
0.0471504 0.413169 0.103014
0.0457923 0.415274 0.100603
0.0450294 0.417151 0.0961929
0.0446632 0.418723 0.0872816
0.0444648 0.420233 0.077348
0.0445258 0.4206 0.0652934
0.0447089 0.418372 0.0549325
0.0451209 0.415549 0.0448157
0.0461128 0.413352 0.0372015
0.0523079 0.419745 0.0365148
0.0756847 0.431678 0.0367895
0.123583 0.446967 0.0386053
0.223789 0.476173 0.0448463
0.38613 0.518822 0.0589303
0.479149 0.530938 0.0608682
0.53225 0.533043 0.0667124
0.602518 0.528161 0.0802167
0.661021 0.52517 0.0966659
0.700465 0.521263 0.110384
0.730907 0.515297 0.120745
0.757977 0.50724 0.127459
0.78088 0.496056 0.134752
0.801205 0.488502 0.144213
0.817716 0.485878 0.157015
0.831083 0.485786 0.171283
0.84184 0.487175 0.186587
0.85124 0.489464 0.201282
0.857694 0.492744 0.210575
0.858351 0.494591 0.211749
0.858579 0.49514 0.21207
0.85864 0.495689 0.212222
0.855726 0.497017 0.216205
0.849912 0.499413 0.224689
0.046891 0.453651 0.129076
0.0459144 0.455833 0.127169
0.045243 0.457847 0.121981
0.0450141 0.4589 0.112505
0.0449683 0.460121 0.0996109
0.0449989 0.460929 0.0843977
0.0451667 0.459693 0.0723125
0.0457313 0.457145 0.0592203
0.0466316 0.453696 0.0479286
0.0479438 0.451713 0.0395209
0.0644236 0.461936 0.0381476
0.10454 0.475227 0.0392462
0.172 0.493721 0.0429389
0.295689 0.53283 0.057435
0.450736 0.570138 0.0747539
0.528817 0.579232 0.0771344
0.57702 0.580758 0.0851759
0.641962 0.576638 0.100862
0.6963 0.573175 0.120928
0.73344 0.569421 0.138247
0.760601 0.564263 0.152224
0.784421 0.557565 0.164004
0.803586 0.549676 0.174121
0.820294 0.543679 0.183078
0.834669 0.54168 0.193652
0.846616 0.541588 0.203708
0.856748 0.543267 0.215381
0.863645 0.545098 0.224781
0.865461 0.547433 0.226658
0.865583 0.548058 0.226703
0.865599 0.549004 0.226886
0.863111 0.550683 0.231327
0.857816 0.553002 0.239826
0.0485237 0.494652 0.16939
0.0474098 0.496696 0.168597
0.0465248 0.498375 0.164904
0.0462501 0.498665 0.153918
0.0460975 0.499275 0.139086
0.0463874 0.499718 0.119387
0.0468299 0.49897 0.101946
0.0474708 0.496529 0.0844892
0.0484169 0.493462 0.0690776
0.0503548 0.490181 0.0555581
0.0560311 0.489555 0.0457465
0.0938277 0.50338 0.043061
0.15378 0.518242 0.045304
0.237522 0.542809 0.0550851
0.371771 0.587579 0.0795911
0.508415 0.615976 0.0973068
0.572534 0.623758 0.101305
0.618357 0.625879 0.110506
0.678172 0.621668 0.12697
0.729305 0.61854 0.149676
0.764385 0.615061 0.171649
0.789273 0.609888 0.192218
0.810071 0.60412 0.209598
0.826337 0.599207 0.221866
0.839597 0.595743 0.231998
0.850523 0.594949 0.24036
0.860731 0.597131 0.250004
0.866453 0.600214 0.256992
0.868803 0.603418 0.260334
0.869078 0.604425 0.260929
0.869154 0.605524 0.261769
0.86743 0.606928 0.264912
0.864363 0.60853 0.271305
0.052842 0.535256 0.219287
0.0515755 0.536721 0.218631
0.0504463 0.538277 0.216281
0.0497902 0.538781 0.207294
0.0492256 0.538659 0.192859
0.0494392 0.537987 0.173266
0.0502327 0.537148 0.150134
0.0509041 0.534508 0.126879
0.0522774 0.530755 0.104707
0.0546426 0.527337 0.0840314
0.0593118 0.524437 0.0674907
0.0833448 0.528695 0.0539712
0.146792 0.543191 0.0522164
0.217121 0.561349 0.058732
0.310658 0.593042 0.0771954
0.447166 0.638712 0.110384
0.558663 0.659342 0.127138
0.613016 0.666484 0.133715
0.655665 0.668559 0.142397
0.710475 0.664714 0.158755
0.758465 0.660731 0.186114
0.792065 0.657633 0.214694
0.816388 0.653544 0.239048
0.83389 0.648753 0.257145
0.848112 0.644739 0.271229
0.859098 0.644221 0.282521
0.868254 0.646479 0.292409
0.874067 0.651194 0.300633
0.876371 0.655039 0.304494
0.876677 0.65597 0.30544
0.876661 0.656947 0.306218
0.876036 0.658183 0.3084
0.874907 0.659724 0.311574
0.0607767 0.57351 0.271839
0.0594339 0.574914 0.270649
0.0579232 0.576593 0.269886
0.0569772 0.577279 0.263508
0.0566567 0.577234 0.252079
0.0566567 0.575509 0.234455
0.0567941 0.573861 0.211017
0.0574655 0.570596 0.186618
0.0589761 0.566674 0.160678
0.0616312 0.562402 0.132967
0.0658427 0.55787 0.105226
0.0766155 0.555398 0.0822614
0.139223 0.565682 0.0659495
0.213169 0.582391 0.0694896
0.286778 0.60621 0.0823987
0.387701 0.644343 0.111742
0.514748 0.684627 0.145098
0.606729 0.700282 0.162325
0.650797 0.706676 0.170886
0.689784 0.708659 0.181994
0.739651 0.705013 0.201816
0.785245 0.701244 0.232105
0.818265 0.697917 0.261311
0.840284 0.695491 0.285069
0.856733 0.692226 0.305318
0.869535 0.689754 0.321599
0.878935 0.69044 0.333349
0.884718 0.694102 0.34165
0.886946 0.698329 0.3467
0.887465 0.700389 0.348531
0.887953 0.701457 0.349233
0.887739 0.702296 0.350484
0.887526 0.70341 0.352544
0.0753033 0.607446 0.321065
0.0740063 0.608881 0.320378
0.0718853 0.610697 0.321263
0.0703136 0.611933 0.317525
0.0691844 0.612299 0.309499
0.0689403 0.61149 0.294514
0.0701152 0.609766 0.275624
0.0710307 0.606363 0.250782
0.0714427 0.601328 0.224643
0.0723735 0.596063 0.195682
0.076051 0.590494 0.163989
0.0830701 0.585412 0.1299
0.110674 0.583871 0.0950637
0.209445 0.601526 0.0867323
0.286244 0.624537 0.0984512
0.358267 0.652171 0.119646
0.458061 0.691707 0.153735
0.573251 0.725628 0.186023
0.650477 0.738201 0.204349
0.687221 0.744427 0.218433
0.721767 0.747036 0.232898
0.76672 0.744533 0.254124
0.809644 0.740642 0.282231
0.841138 0.737972 0.308888
0.862348 0.737392 0.332845
0.878584 0.735744 0.354452
0.89015 0.734722 0.371511
0.895537 0.737011 0.382223
0.898497 0.740581 0.388281
0.899046 0.74284 0.390143
0.899046 0.743709 0.390524
0.899199 0.744854 0.391165
0.899504 0.746014 0.392004
0.100023 0.639933 0.366873
0.0978408 0.641245 0.366796
0.0946517 0.643137 0.36878
0.0922408 0.644236 0.366888
0.0903334 0.644724 0.361151
0.0899214 0.644099 0.350011
0.0897383 0.642329 0.333532
0.0909133 0.640024 0.312535
0.0912795 0.635721 0.287602
0.0917678 0.629587 0.259663
0.0924849 0.622538 0.227298
0.0975357 0.616388 0.192416
0.116243 0.611658 0.15053
0.177401 0.615228 0.116533
0.282948 0.639567 0.121965
0.355688 0.665888 0.141283
0.422553 0.694041 0.166888
0.517586 0.732174 0.201282
0.626154 0.762234 0.233661
0.691371 0.773663 0.255253
0.720699 0.779492 0.269886
0.752987 0.783215 0.286534
0.793667 0.78143 0.308095
0.831815 0.778195 0.333471
0.860426 0.77702 0.358297
0.881209 0.776867 0.381384
0.896696 0.776455 0.402655
0.905013 0.776761 0.419196
0.90724 0.780163 0.428367
0.90811 0.781659 0.429709
0.909072 0.782315 0.426963
0.910689 0.78294 0.423499
0.911955 0.783688 0.421347
0.135332 0.666392 0.394293
0.133227 0.667536 0.395117
0.129015 0.669703 0.398764
0.125902 0.671168 0.399374
0.123583 0.671809 0.396765
0.122545 0.671351 0.387991
0.121645 0.669703 0.374548
0.121126 0.667018 0.356558
0.121187 0.663554 0.334279
0.120668 0.657908 0.308797
0.12105 0.650767 0.277592
0.122911 0.642985 0.241779
0.134676 0.637568 0.201572
0.170169 0.634699 0.158343
0.262852 0.648737 0.142367
0.361959 0.679637 0.161822
0.428 0.707668 0.185031
0.490196 0.735271 0.210468
0.584695 0.771832 0.244572
0.681514 0.796155 0.27425
0.732204 0.80502 0.294072
0.75903 0.811017 0.309834
0.787747 0.814221 0.326802
0.822797 0.812573 0.34725
0.855421 0.810742 0.372274
0.881544 0.810468 0.399054
0.900099 0.810529 0.422461
0.911635 0.811063 0.445457
0.913024 0.813336 0.460639
0.912581 0.814908 0.465873
0.912764 0.816022 0.466316
0.913542 0.816556 0.464012
0.914412 0.817136 0.461921
0.168078 0.690761 0.42887
0.165652 0.692149 0.430045
0.162264 0.694148 0.434363
0.158846 0.69543 0.435203
0.156024 0.69604 0.432883
0.154406 0.695491 0.425467
0.153002 0.694224 0.414466
0.151522 0.692058 0.399268
0.149584 0.688304 0.380087
0.148119 0.68365 0.357641
0.147387 0.678035 0.330831
0.148409 0.669673 0.295827
0.154772 0.662242 0.256962
0.171435 0.656031 0.211307
0.228443 0.657649 0.17464
0.340291 0.683497 0.181216
0.421653 0.714122 0.207263
0.479316 0.74052 0.230961
0.543023 0.76939 0.257404
0.638544 0.804486 0.291493
0.723659 0.824781 0.31989
0.76408 0.833127 0.339132
0.789197 0.838865 0.355825
0.814267 0.841581 0.373022
0.844053 0.841184 0.396262
0.871489 0.84097 0.425818
0.893034 0.841215 0.454963
0.906966 0.841596 0.481086
0.911238 0.843015 0.502205
0.910552 0.844877 0.511513
0.910414 0.845823 0.513649
0.910719 0.84654 0.512886
0.911757 0.846708 0.510094
0.195163 0.713603 0.465797
0.1944 0.713924 0.464149
0.191577 0.715129 0.465843
0.189197 0.715892 0.465232
0.186374 0.716365 0.463172
0.184421 0.715801 0.456992
0.182605 0.714717 0.447684
0.18085 0.712703 0.434653
0.178515 0.70985 0.4177
0.176379 0.705608 0.398108
0.174151 0.700191 0.374014
0.173388 0.693767 0.344671
0.175647 0.684504 0.306737
0.186038 0.677501 0.265171
0.215061 0.672999 0.21796
0.297383 0.683146 0.199298
0.410101 0.71809 0.224079
0.472786 0.745266 0.249805
0.526833 0.770596 0.274266
0.595331 0.801266 0.303212
0.687861 0.833249 0.336309
0.761959 0.850294 0.363653
0.793225 0.857282 0.380911
0.815595 0.862333 0.397284
0.837812 0.865599 0.419806
0.863249 0.866636 0.451438
0.88513 0.866697 0.485481
0.900603 0.867033 0.514809
0.908339 0.868269 0.539483
0.907439 0.869322 0.552514
0.906889 0.870161 0.55552
0.906798 0.870954 0.555993
0.907393 0.871519 0.554498
0.218845 0.733608 0.499977
0.219333 0.733333 0.496269
0.217899 0.733593 0.494301
0.215381 0.734142 0.492821
0.212558 0.734539 0.490455
0.210651 0.733867 0.484718
0.208667 0.732448 0.476036
0.206668 0.730373 0.464317
0.204044 0.727825 0.449165
0.201083 0.723934 0.431312
0.198657 0.719005 0.41091
0.196841 0.713344 0.386084
0.19588 0.705531 0.353399
0.202029 0.6972 0.315236
0.217166 0.689921 0.268605
0.275074 0.692348 0.235828
0.366751 0.712123 0.236515
0.46334 0.748135 0.264714
0.518822 0.773648 0.290517
0.574273 0.799451 0.317067
0.645884 0.830182 0.348257
0.730373 0.857404 0.378744
0.791302 0.871229 0.40325
0.817411 0.877333 0.419867
0.837034 0.882719 0.440681
0.858076 0.886351 0.476143
0.878386 0.887739 0.514794
0.894713 0.887984 0.54789
0.904387 0.888685 0.575021
0.903471 0.890593 0.592264
0.902815 0.891279 0.594278
0.902281 0.891859 0.595315
0.902159 0.8925 0.595636
0.237125 0.750851 0.531029
0.238148 0.750286 0.526802
0.238468 0.749691 0.522148
0.2374 0.749325 0.51838
0.235294 0.749279 0.515145
0.233082 0.748837 0.51043
0.231266 0.747417 0.50248
0.228611 0.745113 0.491249
0.225772 0.742565 0.477272
0.2224 0.738827 0.461601
0.219898 0.734722 0.443519
0.217914 0.729137 0.421897
0.21593 0.722683 0.394766
0.217746 0.714427 0.361822
0.22797 0.70721 0.323278
0.267781 0.705318 0.285252
0.338293 0.715145 0.268589
0.41854 0.73724 0.274784
0.502358 0.770703 0.30251
0.557504 0.795941 0.329274
0.617914 0.823621 0.359014
0.686793 0.851026 0.388663
0.761883 0.873777 0.416434
0.81149 0.885618 0.441215
0.835416 0.891569 0.463172
0.854017 0.896834 0.494621
0.87425 0.901045 0.538643
0.890623 0.903502 0.577356
0.900328 0.90547 0.609842
0.900496 0.907607 0.630762
0.899825 0.908476 0.634058
0.899382 0.909087 0.635416
0.899245 0.909514 0.63624
0.252384 0.76228 0.554849
0.252552 0.761868 0.551476
0.252399 0.761059 0.547372
0.251804 0.760082 0.542229
0.24947 0.759152 0.536614
0.246693 0.757687 0.530419
0.243702 0.756054 0.52282
0.240284 0.753613 0.512703
0.237934 0.751278 0.501808
