bundles/resolve-cinematic-luts/Phantom Luts/P4k & P6K Phntm Film LUTs - V6/P4K/Gen 4 Colour/White Balance Offset (+Magenta Boost)/P4k Eastman Gen4-Legacy WBO.cube
TITLE "Generated by Resolve"
LUT_3D_SIZE 33
0.0390021 0.0390021 0.0390021
0.0390021 0.0390021 0.0390021
0.0420844 0.0390021 0.0390021
0.0506142 0.0390021 0.0400854
0.062623 0.0390021 0.0433814
0.0774243 0.0390021 0.0460212
0.0941939 0.0390021 0.0480201
0.114412 0.0390021 0.0490272
0.138308 0.0390021 0.0487068
0.165606 0.0390021 0.0492561
0.194797 0.0406348 0.0480354
0.226215 0.0419318 0.0450446
0.256626 0.043595 0.043183
0.285328 0.0441901 0.0420081
0.313832 0.0446326 0.041413
0.341268 0.0453346 0.0419928
0.366537 0.0473182 0.0422065
0.390433 0.051194 0.0429541
0.413687 0.055314 0.0443275
0.434501 0.0604715 0.0452735
0.452064 0.0663005 0.0474708
0.46949 0.0722667 0.0501106
0.489555 0.0793622 0.0531319
0.510903 0.0855726 0.0564126
0.532143 0.0916915 0.0613565
0.55436 0.098558 0.0676738
0.573602 0.104417 0.0744945
0.588312 0.109667 0.0814984
0.597986 0.114611 0.0881971
0.60029 0.11899 0.0937819
0.599161 0.122484 0.0975509
0.592386 0.126421 0.100237
0.584512 0.131106 0.103044
0.0390021 0.0390021 0.0390021
0.0390021 0.0390021 0.0390021
0.0390021 0.0390021 0.0390021
0.0477455 0.0390021 0.0395209
0.0572671 0.0390021 0.0428321
0.0711223 0.0390021 0.0462196
0.0869917 0.0390021 0.0478828
0.105669 0.0390021 0.0488289
0.127764 0.0398108 0.0491188
0.153155 0.0410163 0.0491188
0.181842 0.0428321 0.0480812
0.213016 0.0437476 0.0449226
0.24416 0.0450141 0.0419776
0.274907 0.0458991 0.040116
0.304402 0.0467689 0.0395209
0.332052 0.0471656 0.0392462
0.35874 0.0480964 0.0396429
0.3832 0.0505226 0.0403449
0.406638 0.0544594 0.041825
0.42768 0.0591135 0.0430915
0.444999 0.0646067 0.0451362
0.46273 0.0708019 0.0470283
0.482551 0.0777905 0.0493324
0.504158 0.0852369 0.0529183
0.525414 0.0916304 0.0567025
0.546563 0.0977188 0.0616617
0.5664 0.104021 0.0681315
0.58143 0.109636 0.0745708
0.590738 0.114519 0.0799573
0.591577 0.11754 0.0837415
0.589593 0.120729 0.0863813
0.583398 0.125277 0.0893568
0.575799 0.130236 0.0919356
0.0419318 0.0390021 0.0390021
0.0402991 0.0390021 0.0390021
0.0408789 0.0390021 0.0390021
0.0477302 0.0390021 0.0408179
0.0555428 0.0390021 0.0435492
0.0682383 0.0409705 0.0471656
0.0825208 0.0423743 0.049073
0.099443 0.0433661 0.050782
0.119814 0.0438544 0.0508583
0.145647 0.0433204 0.0496834
0.175113 0.0441138 0.0487373
0.206165 0.0449836 0.0454719
0.236576 0.0462501 0.0420691
0.265629 0.0473182 0.0395056
0.293584 0.0484779 0.0390021
0.321187 0.0491951 0.0390021
0.348913 0.0506905 0.0390021
0.375021 0.0520638 0.0390021
0.399405 0.0548257 0.0393835
0.421592 0.0595407 0.0408789
0.438743 0.064332 0.0433356
0.456992 0.0701152 0.0454261
0.476692 0.0770733 0.047013
0.498497 0.0848554 0.049836
0.520104 0.0921645 0.0539254
0.541238 0.0982528 0.0578927
0.560708 0.104448 0.0632029
0.576318 0.110277 0.0694743
0.584772 0.114641 0.0739147
0.585657 0.117952 0.0772717
0.583337 0.12015 0.0787976
0.576593 0.124269 0.0807965
0.568399 0.128923 0.0826581
0.0489204 0.0469673 0.0484321
0.047425 0.0468147 0.0471504
0.0492409 0.04654 0.0458076
0.0537118 0.0475319 0.0457465
0.0616312 0.0496071 0.0477607
0.0742046 0.0512551 0.0506752
0.0880446 0.0513924 0.0527657
0.103059 0.0517128 0.0543069
0.12134 0.051667 0.0545663
0.145205 0.0522774 0.0540169
0.1729 0.051957 0.0513924
0.202808 0.0510414 0.0470283
0.234318 0.0505531 0.0433356
0.261997 0.0512245 0.0396887
0.28893 0.0513924 0.0390021
0.314687 0.0514229 0.0390021
0.342123 0.0526894 0.0390021
0.368292 0.054078 0.0390021
0.391974 0.0566415 0.0390021
0.413672 0.0606851 0.0390021
0.429313 0.0649729 0.0409094
0.447669 0.0699321 0.0430304
0.468147 0.0762493 0.0446174
0.489891 0.0838636 0.0472572
0.512673 0.0923781 0.0503243
0.53489 0.099443 0.0548104
0.555016 0.105837 0.0595254
0.570626 0.111254 0.064332
0.579339 0.115511 0.0683604
0.581781 0.119249 0.071931
0.579126 0.121263 0.0732586
0.571847 0.124804 0.074464
0.563378 0.129244 0.0757
0.0543832 0.0643473 0.0564279
0.0526741 0.0646372 0.0545968
0.0533455 0.0639353 0.0521248
0.0582895 0.0645762 0.0520943
0.067628 0.066453 0.0522621
0.0806897 0.0680095 0.0536355
0.0951858 0.0679637 0.0561685
0.110552 0.0660716 0.0577401
0.129931 0.0638437 0.0585184
0.151812 0.0610208 0.0572061
0.179263 0.0602121 0.0546578
0.209552 0.0593118 0.0508583
0.239628 0.0593423 0.0470588
0.267674 0.0600443 0.0439307
0.294423 0.0606241 0.0403906
0.320363 0.0596933 0.0394903
0.343557 0.0593729 0.0390021
0.366888 0.0602884 0.0390021
0.389456 0.0615244 0.0390021
0.409125 0.0644083 0.0390021
0.424842 0.0683452 0.0401617
0.443 0.0724041 0.041413
0.461433 0.07776 0.0428321
0.481559 0.0843824 0.0451057
0.501656 0.0909133 0.0473335
0.523598 0.0995956 0.0501259
0.543725 0.106172 0.0538491
0.561517 0.112245 0.0580758
0.572229 0.11693 0.0618143
0.576638 0.12134 0.0652018
0.574121 0.123217 0.0661631
0.567346 0.126757 0.0672465
0.558679 0.131029 0.0682078
0.0578775 0.081117 0.0627909
0.0560006 0.0820935 0.0602426
0.0558785 0.0817884 0.0577249
0.0597391 0.0816205 0.0560006
0.0675669 0.0831464 0.0572671
0.0825513 0.0844892 0.0564126
0.0967575 0.085008 0.0558785
0.11371 0.084123 0.0578164
0.135897 0.0795453 0.0591135
0.161608 0.0739452 0.0598459
0.189776 0.0695811 0.0573281
0.218387 0.0683757 0.0543069
0.248646 0.0687419 0.051194
0.278279 0.0694438 0.047837
0.305974 0.071107 0.0450752
0.331243 0.0737621 0.0435492
0.354376 0.0761425 0.0428016
0.376883 0.0788586 0.0427253
0.399039 0.0785534 0.0427253
0.418021 0.0807202 0.0426795
0.434546 0.0840009 0.0438849
0.451713 0.0869306 0.0444038
0.467918 0.0904402 0.0450446
0.486473 0.0958877 0.0469368
0.504356 0.101015 0.0484627
0.522103 0.106249 0.0501564
0.540642 0.112016 0.0525826
0.556039 0.116854 0.0552071
0.567147 0.120638 0.0575875
0.570748 0.123919 0.059205
0.568399 0.125277 0.0593881
0.560922 0.128954 0.059266
0.553597 0.134081 0.0608835
0.0588998 0.0963455 0.0679026
0.0568246 0.0978866 0.0643015
0.0558938 0.0977951 0.0611582
0.0578317 0.0970474 0.0578164
0.0657969 0.0982376 0.0581064
0.0782635 0.0998093 0.0596323
0.0984512 0.102373 0.0590524
0.113893 0.102113 0.0583505
0.138323 0.101061 0.0599222
0.168399 0.0941634 0.0609751
0.201907 0.0864729 0.0618296
0.236393 0.0819867 0.0590219
0.265126 0.0803845 0.0560769
0.293217 0.0816205 0.0534066
0.321965 0.0834363 0.0515145
0.348989 0.0862898 0.0498665
0.373938 0.0897536 0.0492409
0.396979 0.0938888 0.049134
0.418662 0.0980697 0.0492103
0.43946 0.102785 0.0506447
0.458198 0.107744 0.0525216
0.476982 0.112612 0.0545357
0.495857 0.117678 0.0578164
0.513085 0.121767 0.0593729
0.53138 0.126528 0.0618601
0.549737 0.131441 0.0646372
0.56701 0.135988 0.0674449
0.583505 0.141405 0.0712749
0.597086 0.14789 0.0762951
0.600336 0.14966 0.0776532
0.598383 0.150896 0.0779889
0.591653 0.151888 0.0767681
0.583886 0.153109 0.0754406
0.0639353 0.112764 0.0734722
0.0615244 0.114687 0.0686198
0.0588083 0.115618 0.0652476
0.0577249 0.11516 0.0607004
0.0614481 0.115587 0.058854
0.0744182 0.1187 0.0613107
0.0939345 0.121981 0.0645304
0.115618 0.124681 0.0640116
0.134661 0.124605 0.062623
0.169223 0.122591 0.063859
0.207141 0.115114 0.0649729
0.247242 0.105653 0.0657664
0.284428 0.100587 0.0641031
0.312825 0.0976883 0.0610513
0.339818 0.100526 0.059678
0.367437 0.103685 0.0581064
0.395605 0.107713 0.0582132
0.420768 0.112779 0.0591745
0.444404 0.118074 0.0607614
0.466392 0.12372 0.0625467
0.487068 0.129381 0.0649119
0.507652 0.13518 0.0679026
0.52842 0.14136 0.0719005
0.549615 0.148119 0.0764172
0.56994 0.154894 0.0814069
0.589776 0.161395 0.0868086
0.609125 0.167758 0.0929732
0.62678 0.174701 0.0991684
0.641794 0.181582 0.105394
0.646387 0.185397 0.108598
0.644831 0.186969 0.109102
0.638743 0.188617 0.108736
0.632105 0.190448 0.108675
0.0668193 0.13434 0.0803082
0.0640421 0.136889 0.0754253
0.0612192 0.138521 0.0708476
0.0595407 0.13843 0.0665599
0.0612345 0.137758 0.0623331
0.0674601 0.13991 0.0614939
0.0836805 0.144411 0.0645609
0.109514 0.149905 0.0692912
0.136599 0.154513 0.0701152
0.161013 0.156359 0.0689555
0.208621 0.153643 0.0694133
0.254307 0.147295 0.0709239
0.298634 0.136751 0.0751049
0.337545 0.130785 0.0747539
0.367773 0.127459 0.0727855
0.393591 0.128603 0.0716411
0.421515 0.132067 0.0723888
0.448051 0.137407 0.0735637
0.47361 0.142458 0.0751507
0.49752 0.148486 0.0778973
0.519936 0.155245 0.08159
0.54168 0.161868 0.0856794
0.564019 0.16849 0.0902266
0.587045 0.175463 0.0955215
0.609735 0.182712 0.102144
0.631632 0.190158 0.109224
0.650309 0.196887 0.1149
0.668406 0.204013 0.121096
0.684306 0.211414 0.127047
0.688716 0.21529 0.129732
0.687175 0.216861 0.130053
0.681147 0.218708 0.130098
0.674083 0.220935 0.129854
0.0688945 0.160571 0.0872206
0.0661173 0.162631 0.0821393
0.062562 0.165545 0.0763104
0.0603952 0.165881 0.071107
0.0590829 0.164294 0.0654612
0.0627451 0.165011 0.0630198
0.0727855 0.169879 0.0640726
0.0953078 0.177218 0.068986
0.129351 0.186435 0.0765545
0.16669 0.195102 0.0787976
0.200381 0.199496 0.0784619
0.257954 0.197223 0.0785229
0.310384 0.195026 0.0809186
0.355413 0.187137 0.0848402
0.392828 0.176013 0.0890211
0.425986 0.172259 0.0885481
0.452674 0.170581 0.0884108
0.478309 0.172122 0.0900587
0.502342 0.174487 0.0922713
0.527489 0.179385 0.094377
0.551019 0.185504 0.0974746
0.57438 0.192401 0.102083
0.597192 0.199222 0.107164
0.619745 0.205539 0.111437
0.642741 0.212848 0.11696
0.665537 0.220279 0.122988
0.685588 0.227329 0.128878
0.70312 0.234241 0.133822
0.717296 0.240894 0.138766
0.721584 0.245518 0.1411
0.720607 0.24712 0.141787
0.714595 0.249119 0.141665
0.708186 0.251453 0.141802
0.0731823 0.192401 0.0962539
0.0698711 0.194827 0.0913558
0.0659342 0.197894 0.0857099
0.0632944 0.199054 0.0792401
0.0618296 0.19852 0.073579
0.0607156 0.196475 0.0671092
0.0669261 0.199878 0.0661173
0.0833906 0.209079 0.0699474
0.114275 0.221332 0.0782177
0.161364 0.235508 0.0899519
0.215763 0.247929 0.0925307
0.254719 0.252857 0.0915084
0.317449 0.252934 0.092607
0.369467 0.251759 0.092668
0.412848 0.245441 0.0938888
0.448325 0.236652 0.0973373
0.47985 0.223987 0.103487
0.507698 0.2215 0.103548
0.53254 0.220722 0.104829
0.557351 0.222904 0.108095
0.581018 0.224414 0.111254
0.602777 0.226307 0.114931
0.62594 0.232517 0.1187
0.649042 0.237995 0.123339
0.671336 0.244236 0.127108
0.693675 0.25098 0.132845
0.712871 0.258244 0.138628
0.729671 0.264836 0.143771
0.743099 0.270588 0.148211
0.74876 0.275074 0.150774
0.747112 0.2766 0.15108
0.742306 0.278553 0.151415
0.735485 0.280858 0.151583
0.081239 0.233616 0.110475
0.0768749 0.235752 0.105241
0.0723125 0.238071 0.0997024
0.0695201 0.240803 0.0930648
0.0676127 0.240497 0.085481
0.0665751 0.23856 0.0780499
0.0667124 0.238224 0.0723735
0.0776226 0.246143 0.0739452
0.103456 0.26038 0.0812543
0.142916 0.274983 0.0925917
0.207263 0.2925 0.104433
0.272816 0.304295 0.102464
0.312596 0.309361 0.10132
0.372793 0.308751 0.101442
0.422858 0.308186 0.100816
0.465141 0.303532 0.100343
0.499947 0.295918 0.10164
0.529686 0.282338 0.106371
0.556344 0.272847 0.114336
0.58201 0.269841 0.118273
0.605844 0.270756 0.120775
0.629633 0.271244 0.123888
0.651591 0.272541 0.127321
0.674739 0.274586 0.131685
0.697017 0.276967 0.137316
0.7187 0.282673 0.142336
0.736095 0.288029 0.148104
0.751553 0.294087 0.153811
0.763241 0.299901 0.158587
0.76939 0.304921 0.162829
0.767391 0.306157 0.163165
0.762524 0.307988 0.163317
0.756405 0.310124 0.163851
0.0902419 0.279713 0.128252
0.0854658 0.281621 0.122469
0.0809186 0.284413 0.117327
0.0778668 0.28719 0.110658
0.0757 0.287785 0.102586
0.0746777 0.286244 0.0936751
0.0731975 0.283772 0.0844892
0.0762036 0.286152 0.080354
0.09514 0.29749 0.0840009
0.125887 0.311391 0.0920119
0.175418 0.327108 0.103532
0.258183 0.34818 0.113085
0.326436 0.358953 0.107301
0.364935 0.363363 0.107561
0.421408 0.362036 0.108324
0.469932 0.361517 0.106981
0.511543 0.357961 0.105241
0.545815 0.351644 0.106065
0.574487 0.338552 0.11017
0.599908 0.328069 0.116915
0.625284 0.320165 0.126024
0.64863 0.315465 0.133257
0.672572 0.315984 0.136919
0.695674 0.31696 0.141314
0.716945 0.318135 0.1467
0.736614 0.318975 0.153094
0.753338 0.322911 0.159533
0.766949 0.326665 0.165713
0.777813 0.332143 0.170703
0.783932 0.337102 0.175067
0.782452 0.338628 0.175433
0.777447 0.340337 0.175845
0.771603 0.342229 0.176333
0.0958572 0.324483 0.145418
0.0920729 0.325734 0.139498
0.0877546 0.327459 0.133547
0.0842603 0.329549 0.125978
0.0811322 0.331167 0.117891
0.0796368 0.330648 0.109224
0.0782635 0.328588 0.0988937
0.0773785 0.32668 0.0883955
0.0866255 0.332036 0.0862745
0.111788 0.344762 0.0909895
0.149569 0.359152 0.0990311
0.214893 0.377737 0.110567
0.312352 0.401022 0.117189
0.376593 0.41001 0.109346
0.411597 0.412909 0.111192
0.463218 0.411902 0.113176
0.509957 0.411551 0.113054
0.55053 0.409079 0.112398
0.583627 0.403388 0.11342
0.611917 0.393179 0.117906
0.636851 0.383383 0.123995
0.660197 0.373785 0.132784
0.683558 0.366659 0.142519
0.707195 0.361212 0.152819
0.729091 0.360174 0.159625
0.748257 0.361776 0.164202
0.765133 0.36347 0.170199
0.778607 0.366781 0.176089
0.78883 0.369924 0.18143
0.794644 0.373938 0.18558
0.793362 0.37612 0.186358
0.788815 0.377951 0.186755
0.7832 0.380209 0.187411
0.0971084 0.366476 0.164172
0.0935683 0.367041 0.157473
0.0890822 0.368002 0.150134
0.0862135 0.369543 0.142412
0.0831159 0.371069 0.133349
0.0813611 0.370932 0.123735
0.0801862 0.369085 0.113268
0.0798352 0.366842 0.101717
0.0800183 0.365972 0.0904707
0.100481 0.375433 0.0907149
0.130999 0.388785 0.0959182
0.177447 0.403723 0.103624
0.265339 0.427893 0.115862
0.364752 0.449943 0.11899
0.420722 0.457145 0.112184
0.452811 0.459876 0.115938
0.499702 0.458686 0.120333
0.544625 0.457435 0.123766
0.582467 0.455863 0.124376
0.615976 0.451545 0.126696
0.644846 0.444785 0.130831
0.669535 0.43563 0.135546
0.691737 0.425162 0.143038
0.714748 0.414649 0.152926
0.735653 0.409445 0.16231
0.75613 0.407141 0.172213
0.772229 0.406668 0.179736
0.785092 0.408408 0.186679
0.795224 0.410849 0.192386
0.800946 0.414252 0.196933
0.799954 0.416724 0.198154
0.795895 0.418235 0.198322
0.790326 0.419974 0.19881
0.0967575 0.407614 0.187198
0.0937362 0.407218 0.179522
0.0895094 0.407248 0.171221
0.0864271 0.407538 0.162066
0.0834974 0.408377 0.15082
0.0818799 0.408484 0.140154
0.0809949 0.407034 0.129259
0.0808118 0.404654 0.117144
0.0809186 0.401831 0.102846
0.0851759 0.402777 0.0922103
0.118349 0.416983 0.0951705
0.154269 0.429618 0.100237
0.217594 0.446754 0.108415
0.321752 0.47744 0.12224
0.413184 0.494621 0.124346
0.459709 0.500298 0.120592
0.490654 0.5028 0.126406
0.533333 0.501793 0.132082
0.575082 0.50074 0.137407
0.612177 0.499748 0.139193
0.644144 0.496269 0.142061
0.673198 0.490379 0.145739
0.699153 0.482811 0.149996
0.722087 0.47332 0.156176
0.742901 0.462547 0.16611
0.760449 0.456687 0.174395
0.776394 0.45391 0.182406
0.788647 0.455055 0.188571
0.798581 0.457542 0.194003
0.803738 0.461234 0.198016
0.804028 0.464973 0.199863
0.800427 0.466102 0.20032
0.795422 0.467399 0.201053
0.0965286 0.447593 0.213001
0.0932326 0.445777 0.204501
0.0891432 0.444846 0.196338
0.0865187 0.444175 0.185885
0.0838483 0.443839 0.173098
0.0822156 0.443793 0.159304
0.0813306 0.442008 0.146334
0.0810559 0.439414 0.133349
0.0816815 0.436942 0.1196
0.0844434 0.435111 0.103944
0.101305 0.440604 0.0960861
0.142962 0.454978 0.0998703
0.189761 0.46865 0.107088
0.272633 0.491508 0.119951
0.374823 0.522576 0.134966
0.454826 0.536019 0.135134
0.494911 0.541054 0.132601
0.524453 0.543404 0.139345
0.56379 0.542565 0.145464
0.603815 0.541924 0.152255
0.639078 0.540566 0.155322
0.670848 0.537285 0.158602
0.700557 0.532799 0.162448
0.727092 0.52668 0.166751
0.750027 0.518013 0.173327
0.767636 0.509239 0.182116
0.781979 0.503777 0.189441
0.793927 0.502052 0.197024
0.801465 0.50425 0.20174
0.806439 0.508385 0.205982
0.807904 0.512917 0.207614
0.805646 0.513664 0.207996
0.802274 0.51458 0.20853
0.099794 0.48574 0.242023
0.0965591 0.483436 0.234485
0.092546 0.481712 0.226902
0.0896468 0.479774 0.215091
0.0871901 0.478019 0.201068
0.0856794 0.477058 0.185489
0.0850233 0.475715 0.169726
0.0843977 0.472251 0.15462
0.0841077 0.469139 0.139086
0.0851606 0.466407 0.122408
0.0966506 0.468528 0.108614
0.130526 0.478676 0.105608
0.179858 0.491997 0.110994
0.23769 0.507591 0.118929
0.329778 0.537133 0.135744
0.42295 0.564294 0.147997
0.490745 0.575479 0.147814
0.527108 0.579965 0.147189
0.554925 0.581735 0.153735
0.591913 0.581476 0.159991
0.629664 0.581201 0.167559
0.664363 0.579736 0.17232
0.69659 0.57734 0.176745
0.726497 0.572854 0.180774
0.753338 0.567208 0.186145
0.774334 0.560967 0.193408
0.790311 0.554269 0.201495
0.80206 0.550317 0.208469
0.809964 0.550362 0.214282
0.814496 0.554284 0.218219
0.816373 0.558862 0.221042
0.814832 0.56022 0.221592
0.811704 0.560952 0.222248
0.108507 0.522148 0.272618
0.105058 0.519417 0.265766
0.101549 0.517311 0.258579
0.098024 0.515099 0.248341
0.0946517 0.512535 0.235142
0.0925612 0.510185 0.217792
0.0910658 0.507607 0.198169
0.0907759 0.504326 0.181308
0.0904402 0.500542 0.163592
0.090898 0.497108 0.145907
0.0942245 0.495003 0.127062
0.121218 0.502022 0.11722
0.168048 0.514473 0.117754
0.228199 0.529274 0.123613
0.292012 0.549279 0.134585
0.386038 0.582086 0.153536
0.468635 0.603723 0.163394
0.523735 0.612512 0.16286
0.556954 0.616526 0.163363
0.583535 0.618647 0.169665
0.618296 0.619364 0.175814
0.65478 0.619425 0.183932
0.689448 0.617792 0.190478
0.722515 0.615137 0.195987
0.752438 0.61146 0.20145
0.776623 0.606897 0.208438
0.796094 0.601953 0.216373
0.809735 0.597375 0.223514
0.81857 0.595102 0.231022
0.82269 0.597086 0.236469
0.824338 0.601175 0.239734
0.823468 0.603296 0.240986
0.820737 0.603479 0.241215
0.117891 0.55697 0.300679
0.114763 0.554437 0.294957
0.11165 0.552499 0.28925
0.108034 0.549706 0.280201
0.104143 0.546731 0.267918
0.100938 0.543496 0.251484
0.0988632 0.540459 0.231113
0.0978103 0.536431 0.21062
0.097612 0.531991 0.190845
0.0978561 0.527367 0.170962
0.100664 0.524804 0.152209
0.10782 0.523781 0.130312
0.155215 0.53695 0.127565
0.21828 0.550958 0.131594
0.279911 0.568231 0.140047
0.345037 0.592004 0.153735
0.436866 0.623377 0.172061
0.511772 0.641321 0.180087
0.555795 0.648768 0.179644
0.585916 0.652934 0.181628
0.611841 0.655314 0.187915
0.644358 0.656352 0.194034
0.680217 0.656519 0.201816
0.715953 0.655161 0.210407
0.748241 0.652689 0.217655
0.775036 0.649454 0.225238
0.797726 0.645731 0.233616
0.814923 0.64123 0.242695
0.825971 0.638483 0.251392
0.830167 0.638498 0.258198
0.832044 0.640345 0.262745
0.831266 0.642832 0.264546
0.828656 0.642832 0.264424
0.127962 0.590677 0.32723
0.125261 0.588403 0.322438
0.122347 0.586007 0.316884
0.119158 0.583581 0.309331
0.11545 0.580423 0.29865
0.112306 0.577173 0.283909
0.108995 0.573419 0.264958
0.10724 0.568933 0.243656
0.106203 0.563333 0.22153
0.106188 0.55758 0.198016
0.108049 0.553674 0.176669
0.114244 0.552407 0.155169
0.140581 0.558785 0.141466
0.210025 0.573404 0.142397
0.271504 0.588632 0.148867
0.327703 0.607996 0.159136
0.397589 0.634745 0.174105
0.485283 0.663355 0.19205
0.550759 0.677943 0.198047
0.58703 0.684764 0.198978
0.615198 0.689433 0.20177
0.639506 0.692119 0.208133
0.671489 0.694148 0.214221
0.707515 0.693324 0.222858
0.741756 0.691752 0.233173
0.772702 0.689693 0.242939
0.795819 0.687434 0.252232
0.815488 0.68455 0.262135
0.829786 0.680644 0.271977
0.83621 0.67863 0.280552
0.839109 0.679377 0.2869
0.838682 0.681102 0.29015
0.836667 0.681132 0.289952
0.139574 0.623758 0.352346
0.137255 0.621042 0.346731
0.134783 0.618921 0.341466
0.131502 0.615869 0.332616
0.128527 0.612497 0.321721
0.125505 0.609384 0.307286
0.122423 0.605509 0.289097
0.119722 0.600687 0.268437
0.117906 0.5944 0.246006
0.117586 0.587503 0.219684
0.119188 0.582391 0.19469
0.124163 0.580453 0.173327
0.143954 0.583627 0.154238
0.192096 0.594446 0.148425
0.272984 0.610559 0.153552
0.329381 0.629145 0.164004
0.382834 0.65037 0.176547
0.456794 0.678798 0.193179
0.53846 0.702327 0.207309
0.593591 0.713252 0.211292
0.625284 0.719356 0.212741
0.652308 0.723598 0.217762
0.675074 0.726009 0.224018
0.706294 0.72723 0.229938
0.741604 0.725414 0.239368
0.775204 0.723568 0.251148
0.801266 0.722423 0.265583
0.819715 0.720836 0.27744
0.834104 0.718975 0.290501
0.841154 0.71667 0.302235
0.843259 0.716518 0.311406
0.842557 0.717617 0.315099
0.841031 0.717144 0.314702
0.152834 0.655894 0.378103
0.150713 0.653452 0.373129
0.147951 0.650538 0.367102
0.144991 0.647791 0.35877
0.142092 0.644633 0.348821
0.138659 0.640818 0.335164
0.134905 0.636484 0.317952
0.131594 0.631693 0.298573
0.129229 0.625132 0.27686
0.127871 0.617838 0.251102
0.128649 0.611551 0.223056
0.13225 0.607782 0.197879
0.140475 0.606119 0.173495
0.182589 0.615915 0.163119
0.258381 0.628641 0.163821
0.323049 0.646082 0.173571
0.373495 0.664927 0.18497
0.425788 0.687007 0.197681
0.50164 0.71545 0.214878
0.57821 0.736004 0.22681
0.62565 0.745434 0.230259
0.655039 0.75053 0.233799
0.679606 0.754604 0.238682
0.702861 0.756863 0.245533
0.733776 0.757198 0.252384
0.768277 0.755276 0.263661
0.796643 0.753979 0.279149
0.817029 0.752819 0.29543
0.831189 0.752132 0.30985
0.838773 0.750866 0.323857
0.840253 0.750439 0.335546
0.839979 0.750408 0.341222
0.839857 0.749798 0.340398
0.16611 0.684321 0.403998
0.163928 0.681453 0.398184
0.16144 0.678828 0.392248
0.158297 0.675502 0.384344
0.155032 0.671748 0.3738
0.151125 0.66743 0.360372
0.147005 0.66276 0.343969
0.14342 0.657893 0.324666
0.140261 0.651179 0.305074
0.13756 0.643351 0.280354
0.136782 0.635645 0.251347
0.13962 0.630426 0.222049
0.147585 0.628946 0.196872
0.16907 0.631525 0.176074
0.245548 0.643153 0.172641
0.314656 0.65861 0.180941
0.3673 0.6766 0.19266
0.415991 0.69659 0.205402
0.467002 0.718914 0.218326
0.543725 0.745968 0.235676
0.615274 0.763867 0.245335
0.656092 0.771771 0.24799
0.683146 0.77673 0.252583
0.705043 0.780377 0.25864
0.729442 0.781964 0.267185
0.758923 0.781842 0.276097
0.789761 0.780056 0.291905
0.813046 0.779492 0.30927
0.828992 0.778714 0.326787
0.838056 0.778408 0.342153
0.840024 0.777844 0.354253
0.840116 0.777325 0.360967
0.840146 0.776867 0.362417
0.179171 0.708064 0.427176
0.17673 0.705058 0.421118
0.174044 0.702068 0.415152
0.171176 0.698726 0.40766
0.167285 0.694636 0.397223
0.163348 0.690105 0.38436
0.158541 0.684886 0.36788
0.153979 0.679088 0.348562
0.149905 0.672221 0.329046
0.146777 0.664485 0.306264
0.145098 0.656825 0.279332
0.145983 0.649912 0.248569
0.152453 0.646876 0.219989
0.166812 0.646647 0.194339
0.212848 0.654002 0.184054
0.305699 0.669139 0.187427
0.362509 0.686458 0.199176
0.408515 0.704234 0.21149
0.455573 0.724422 0.224369
0.503243 0.744686 0.237125
0.581521 0.770733 0.253544
0.648341 0.786191 0.261204
0.68394 0.792355 0.263584
0.709728 0.796338 0.269123
0.727916 0.798733 0.277317
0.753887 0.800046 0.28809
0.781796 0.799969 0.303029
0.807248 0.798703 0.322072
0.825391 0.797833 0.339574
0.836606 0.797665 0.356863
0.83978 0.797711 0.369848
0.840024 0.797223 0.378607
0.84007 0.796735 0.381094
0.191272 0.727825 0.448844
0.188251 0.724544 0.442374
0.185748 0.721447 0.436301
0.182055 0.717647 0.42797
0.178836 0.713558 0.418082
0.174334 0.70898 0.40557
0.16939 0.703014 0.389364
0.163821 0.696818 0.370886
0.159533 0.690059 0.351644
0.155886 0.68249 0.330495
0.153155 0.674434 0.305043
0.153094 0.667323 0.276753
0.156741 0.662364 0.245594
0.167544 0.659831 0.216327
0.198764 0.664363 0.19939
0.273915 0.673289 0.194324
0.351873 0.692241 0.204303
0.40238 0.710246 0.216785
0.446189 0.728527 0.229343
0.491691 0.748058 0.242679
0.538369 0.767117 0.255192
0.616159 0.791226 0.269993
0.674998 0.803433 0.274937
0.7093 0.808499 0.278859
0.730938 0.811582 0.286381
0.750668 0.813779 0.296773
0.775372 0.814878 0.312703
0.799161 0.814832 0.332723
0.820447 0.814084 0.352743
0.83331 0.813596 0.370306
0.837919 0.813779 0.384131
0.838788 0.813626 0.393713
0.838911 0.813199 0.398062
0.201968 0.743511 0.468513
0.199329 0.740673 0.462669
0.196536 0.737743 0.456718
0.193454 0.733791 0.44831
0.189181 0.729458 0.438132
0.18471 0.724269 0.424735
0.179294 0.718608 0.4094
0.173541 0.711803 0.391867
0.168582 0.704814 0.372976
0.164752 0.697414 0.353994
0.161242 0.689219 0.330739
0.159472 0.681331 0.303624
0.161135 0.674678 0.274006
0.170535 0.671702 0.243961
0.192676 0.672663 0.219944
