bundles/resolve-cinematic-luts/Phantom Luts/P4k & P6K Phntm Film LUTs - V6/P4K/Gen 4 Colour/White Balance Offset (+Magenta Boost)/P4k Eastman Gen4-Legacy WBO.cube
TITLE "Generated by Resolve"
LUT_3D_SIZE 5
0.0390021 0.0390021 0.0390021
0.138308 0.0390021 0.0487068
0.366537 0.0473182 0.0422065
0.532143 0.0916915 0.0613565
0.584512 0.131106 0.103044
0.0668193 0.13434 0.0803082
0.136599 0.154513 0.0701152
0.421515 0.132067 0.0723888
0.609735 0.182712 0.102144
0.674083 0.220935 0.129854
0.0965286 0.447593 0.213001
0.0816815 0.436942 0.1196
0.494911 0.541054 0.132601
0.750027 0.518013 0.173327
0.802274 0.51458 0.20853
0.179171 0.708064 0.427176
0.149905 0.672221 0.329046
0.362509 0.686458 0.199176
0.727916 0.798733 0.277317
0.84007 0.796735 0.381094
0.220813 0.76611 0.5149
0.189105 0.729503 0.422629
0.237003 0.692119 0.275486
0.640391 0.808927 0.333471
0.834592 0.839139 0.459693
0.0455482 0.0390021 0.0954147
0.14876 0.0419623 0.103593
0.37615 0.0390021 0.119081
0.536278 0.0565499 0.160464
0.572091 0.0874952 0.211017
0.059205 0.120974 0.105684
0.147066 0.131533 0.139437
0.444465 0.103212 0.104952
0.625437 0.136828 0.137865
0.635676 0.145174 0.155062
0.113909 0.452049 0.28957
0.0911879 0.433768 0.220295
0.490608 0.524422 0.145205
0.758114 0.451225 0.197757
0.800259 0.448615 0.235248
0.189853 0.711971 0.473869
0.168368 0.685634 0.411429
0.249546 0.654582 0.198962
0.715114 0.783597 0.26479
0.840726 0.77406 0.375189
0.238148 0.788205 0.566094
0.217731 0.763943 0.497414
0.186816 0.696803 0.320485
0.578592 0.788708 0.325154
0.833005 0.838407 0.454337
0.0504768 0.0476692 0.273167
0.202808 0.0390021 0.29131
0.376959 0.0484016 0.284977
0.578622 0.101274 0.356207
0.598611 0.120668 0.387976
0.0390021 0.0844434 0.23978
0.087129 0.0515145 0.315419
0.376898 0.051194 0.288502
0.583001 0.098085 0.333776
0.600214 0.114397 0.353765
0.0987106 0.450156 0.370352
0.0927749 0.442054 0.374746
0.5122 0.494911 0.507225
0.793927 0.399908 0.452583
0.818357 0.379583 0.44152
0.191073 0.709697 0.531395
0.185168 0.692882 0.515358
0.299123 0.682948 0.468406
0.706859 0.756664 0.462165
0.841459 0.71104 0.450431
0.255619 0.812512 0.636408
0.253513 0.805478 0.617151
0.231434 0.771695 0.519051
0.422095 0.735546 0.383719
0.835218 0.841291 0.473503
0.0995346 0.049012 0.400427
0.249928 0.0457923 0.425757
0.407004 0.0671397 0.420829
0.590036 0.134066 0.479301
0.616403 0.148806 0.518486
0.0390021 0.0559243 0.338369
0.143053 0.0476844 0.423819
0.398489 0.0675669 0.432059
0.589166 0.133288 0.477485
0.612573 0.145876 0.501595
0.0660716 0.406439 0.478401
0.059968 0.375235 0.483665
0.482521 0.373129 0.707042
0.817258 0.405829 0.705165
0.831189 0.380545 0.693126
0.183062 0.703471 0.595544
0.176013 0.686748 0.588083
0.365881 0.710918 0.65153
0.740276 0.725414 0.736889
0.857496 0.665537 0.700725
0.272938 0.826917 0.692073
0.273518 0.82298 0.683528
0.311345 0.826123 0.671733
0.581872 0.852125 0.728283
0.87361 0.892912 0.733181
0.203906 0.0602426 0.499138
0.307744 0.0696269 0.518837
0.47158 0.10341 0.534691
0.620783 0.158572 0.567544
0.62739 0.161837 0.570809
0.0551003 0.0638132 0.449027
0.234791 0.0624552 0.508324
0.453788 0.0988937 0.534112
0.616663 0.157153 0.566995
0.627527 0.162158 0.571099
0.059678 0.35375 0.549218
0.0688182 0.315358 0.552316
0.554253 0.306783 0.755703
0.796963 0.344793 0.750683
0.79118 0.320653 0.72958
0.179385 0.680293 0.676631
0.178866 0.659205 0.679377
0.369162 0.648386 0.756115
0.805051 0.658869 0.873335
0.893462 0.650935 0.851759
0.297292 0.831647 0.730129
0.293355 0.826596 0.725399
0.344244 0.834195 0.741985
0.640665 0.879484 0.828565
0.886748 0.900328 0.881529
