bundles/resolve-cinematic-luts/Phantom Luts/P4k & P6K Phntm Film LUTs - V6/P4K/Gen 4 Colour/White Balance Offset (+Magenta Boost)/P4k Eterna Gen4 WBO.cube
TITLE "Generated by Resolve"
LUT_3D_SIZE 33
0 0.028687 0.0284886
0 0.0285954 0.0279393
0.0153811 0.0287327 0.0301366
0.0404059 0.0298772 0.0351263
0.0636759 0.0312047 0.0391852
0.0846571 0.0326238 0.0430152
0.104067 0.0343023 0.0459449
0.124086 0.0365606 0.0497749
0.147539 0.0389868 0.0547951
0.174334 0.0420386 0.0616312
0.204807 0.0453498 0.0692149
0.238697 0.0490425 0.0786297
0.276066 0.0532998 0.0901656
0.315007 0.0571145 0.101091
0.356329 0.0617075 0.112596
0.396277 0.0673228 0.124453
0.435798 0.0747539 0.136233
0.468589 0.084947 0.148684
0.507469 0.0922103 0.160159
0.546883 0.0992905 0.171756
0.586725 0.106004 0.18378
0.624094 0.116228 0.19408
0.657282 0.12462 0.207309
0.685267 0.134051 0.21883
0.707317 0.142916 0.228946
0.725795 0.151583 0.238087
0.730419 0.154589 0.242298
0.733608 0.155459 0.245548
0.738277 0.155917 0.249973
0.744503 0.155978 0.254734
0.751507 0.155428 0.259693
0.758801 0.154772 0.265034
0.766445 0.15407 0.270405
0 0.028397 0.0272068
0 0.0285039 0.0275883
0.0062562 0.0285801 0.0280308
0.0307164 0.0292668 0.0296635
0.0562448 0.0307927 0.0325628
0.0790875 0.0324407 0.0360723
0.100816 0.0344396 0.040116
0.122118 0.0363012 0.0440375
0.145678 0.0385748 0.0486152
0.172473 0.0415351 0.0545663
0.203891 0.0458381 0.0623026
0.237736 0.0504768 0.0712596
0.27509 0.0557107 0.0810559
0.315114 0.0612497 0.0924086
0.35816 0.0673686 0.105516
0.403021 0.0744335 0.118883
0.442374 0.0825208 0.131777
0.47808 0.0913558 0.144625
0.519188 0.0985428 0.156741
0.559609 0.105104 0.168139
0.600259 0.111894 0.179889
0.636286 0.119799 0.190845
0.66746 0.128527 0.201968
0.694759 0.138674 0.213687
0.717922 0.149233 0.223911
0.734569 0.157641 0.232258
0.740826 0.16199 0.236744
0.744762 0.163912 0.240131
0.748394 0.164431 0.243778
0.752789 0.164401 0.247333
0.758511 0.163882 0.251591
0.764614 0.162905 0.255818
0.771527 0.162066 0.259968
0 0.0287327 0.0279698
0 0.0288701 0.0283818
0.000823987 0.0285649 0.0277562
0.0195926 0.0296178 0.0287022
0.044831 0.0312657 0.0308232
0.0699931 0.0333562 0.0345617
0.0928969 0.0356756 0.0389258
0.115999 0.0378729 0.043473
0.140963 0.0400092 0.0483711
0.169085 0.0428016 0.0535744
0.200565 0.0463722 0.0594186
0.234577 0.0501411 0.0657511
0.272602 0.055787 0.0736248
0.313039 0.061799 0.0835279
0.35642 0.0679332 0.0961013
0.401877 0.0745556 0.109361
0.44181 0.0831311 0.123598
0.479377 0.0916152 0.137148
0.521096 0.0981155 0.149126
0.563394 0.104829 0.161242
0.605051 0.111467 0.173495
0.641901 0.118822 0.185458
0.672801 0.127306 0.196918
0.698772 0.137011 0.208301
0.721889 0.147738 0.218708
0.737835 0.157046 0.226505
0.746181 0.163668 0.231601
0.751827 0.167544 0.23566
0.755566 0.169421 0.238956
0.760204 0.170565 0.242664
0.765774 0.171023 0.246738
0.771542 0.170718 0.251026
0.777584 0.16965 0.255024
0.0034638 0.0401923 0.0345617
0.00317388 0.0417792 0.0324254
0.00402838 0.0392004 0.0305028
0.0160525 0.0385748 0.0302739
0.0379644 0.0391241 0.0305333
0.0643931 0.0387427 0.0332036
0.0892958 0.0396429 0.0370794
0.114427 0.0411078 0.0416419
0.140093 0.0425269 0.0468299
0.168917 0.0450752 0.0531777
0.200793 0.0475776 0.0591135
0.235431 0.0509804 0.0640879
0.271412 0.0550546 0.0690929
0.309728 0.0598764 0.0755322
0.351614 0.0654002 0.084947
0.396567 0.0711681 0.0966201
0.435401 0.0797131 0.111528
0.475166 0.0878309 0.126314
0.518273 0.0944533 0.139788
0.559503 0.100038 0.151858
0.600122 0.106249 0.164019
0.636194 0.113146 0.175906
0.666209 0.121492 0.187655
0.691035 0.130556 0.198657
0.713039 0.140414 0.208728
0.726925 0.148638 0.215732
0.734524 0.154147 0.220386
0.740887 0.158938 0.22475
0.747066 0.163195 0.228626
0.754498 0.166812 0.233204
0.762112 0.1691 0.23743
0.770397 0.170947 0.242145
0.778317 0.17174 0.246555
0.0103609 0.0712596 0.0504616
0.00982681 0.0741283 0.0453956
0.00967422 0.0744335 0.0386053
0.0221103 0.0703441 0.0376287
0.0470436 0.0711986 0.0387121
0.0730297 0.070161 0.0417182
0.0987564 0.0651713 0.0444953
0.122988 0.0599527 0.0452277
0.148028 0.0574502 0.0469978
0.175784 0.0560311 0.0511025
0.20708 0.0550851 0.0560616
0.240986 0.0556954 0.0617075
0.276387 0.0567788 0.0662089
0.312245 0.0590829 0.0704356
0.350607 0.0627909 0.0771649
0.391959 0.0677043 0.085893
0.427253 0.0757305 0.0985122
0.46659 0.0826734 0.111482
0.508614 0.0885634 0.124346
0.55227 0.0955062 0.139605
0.593805 0.101549 0.152804
0.629313 0.108415 0.165057
0.658488 0.116381 0.177234
0.68249 0.124971 0.18819
0.704158 0.134264 0.198123
0.716655 0.141436 0.204486
0.723354 0.146166 0.208774
0.728298 0.149844 0.212039
0.734646 0.153811 0.215991
0.741665 0.15697 0.22002
0.750072 0.159579 0.224048
0.759793 0.161944 0.228901
0.7691 0.163531 0.233326
0.0174411 0.101732 0.0685588
0.0170596 0.105959 0.0614939
0.0168917 0.108614 0.0496376
0.0168154 0.106172 0.0439002
0.0414282 0.103288 0.0442969
0.0769665 0.104585 0.0460059
0.106859 0.103532 0.0501564
0.135546 0.0967269 0.0541238
0.164019 0.0881666 0.0568246
0.19202 0.0816968 0.0580758
0.223651 0.0786755 0.0605783
0.257374 0.075288 0.0630961
0.292088 0.0724193 0.066804
0.326894 0.0704967 0.0709697
0.363546 0.0704051 0.0769055
0.402441 0.071931 0.0836652
0.432044 0.0764782 0.0923323
0.464958 0.0796216 0.100023
0.500923 0.0835889 0.109224
0.53959 0.0885634 0.120134
0.580804 0.0952773 0.134615
0.617273 0.10251 0.148638
0.646784 0.110765 0.161181
0.672267 0.120317 0.174014
0.694286 0.129412 0.184741
0.710384 0.137438 0.19237
0.714336 0.140749 0.19527
0.719173 0.143816 0.198734
0.724239 0.147143 0.201938
0.730205 0.149447 0.205173
0.738628 0.151537 0.20911
0.748074 0.152712 0.213169
0.758358 0.15378 0.217411
0.0246586 0.130846 0.0845502
0.0237583 0.136187 0.0759899
0.0233463 0.141161 0.0641489
0.0237736 0.141268 0.0507362
0.0285191 0.137301 0.0490425
0.0671702 0.136522 0.0500496
0.10901 0.136431 0.0516365
0.141741 0.135958 0.0531014
0.178012 0.128359 0.0592355
0.209812 0.115892 0.0650492
0.242252 0.10631 0.0680552
0.275044 0.101625 0.0702373
0.308797 0.0992905 0.0737774
0.343206 0.097673 0.0775769
0.379187 0.0962387 0.0823987
0.416495 0.0952316 0.0876936
0.448615 0.0961166 0.0946822
0.482673 0.0964065 0.101305
0.517067 0.0975357 0.10837
0.548302 0.098024 0.114549
0.5776 0.0979171 0.121416
0.6056 0.101152 0.130343
0.628519 0.106371 0.138766
0.651209 0.114626 0.149157
0.674952 0.12491 0.160311
0.693172 0.132891 0.169055
0.699214 0.136782 0.173205
0.70428 0.139712 0.176883
0.710323 0.14287 0.180545
0.71574 0.145235 0.183978
0.722698 0.147539 0.187427
0.729641 0.148623 0.190723
0.737774 0.149462 0.194049
0.0361791 0.159014 0.0991226
0.0343633 0.166049 0.0917525
0.0323491 0.173175 0.0799573
0.0314794 0.177279 0.0650034
0.0313268 0.176516 0.0561379
0.0436866 0.172107 0.0551308
0.0930495 0.17229 0.0568093
0.139178 0.172045 0.0584878
0.178164 0.171679 0.0600137
0.223758 0.165072 0.0660716
0.264347 0.150942 0.0735943
0.301076 0.138582 0.0788281
0.335286 0.132204 0.0829938
0.370916 0.131685 0.0873732
0.407904 0.131624 0.0924849
0.44651 0.132036 0.0983444
0.484977 0.133043 0.104997
0.523476 0.134417 0.11162
0.560342 0.135042 0.117968
0.59559 0.135927 0.124559
0.62829 0.13724 0.132052
0.654978 0.140078 0.139895
0.676738 0.145037 0.148928
0.696071 0.151644 0.15761
0.714672 0.158724 0.16585
0.72636 0.163165 0.170672
0.728695 0.164446 0.171572
0.731975 0.167834 0.172213
0.733547 0.169253 0.172244
0.735317 0.169436 0.173434
0.737255 0.168475 0.174823
0.740505 0.166949 0.17644
0.745129 0.165927 0.178088
0.0429999 0.193072 0.117754
0.0406043 0.200793 0.110842
0.0379797 0.209247 0.0999161
0.0364996 0.215518 0.0850843
0.0364843 0.218219 0.0695201
0.0376593 0.21474 0.0605936
0.0573434 0.212833 0.0609445
0.117357 0.213565 0.0624704
0.172747 0.21413 0.0638437
0.219226 0.214282 0.0650187
0.274876 0.210101 0.0690318
0.326452 0.196185 0.077409
0.368246 0.180591 0.0885481
0.405493 0.174594 0.0948196
0.443671 0.172595 0.100816
0.484611 0.174716 0.106676
0.526574 0.177234 0.113451
0.5673 0.179263 0.11989
0.607294 0.18175 0.126574
0.645869 0.184909 0.134066
0.681086 0.188571 0.142306
0.710521 0.194049 0.152193
0.734585 0.201175 0.162249
0.756085 0.209415 0.171679
0.77615 0.217975 0.180072
0.788327 0.223468 0.185168
0.790417 0.22414 0.186053
0.789715 0.223499 0.185931
0.789181 0.223056 0.185824
0.787991 0.22179 0.185428
0.787533 0.220523 0.185183
0.787411 0.218982 0.185077
0.788312 0.217395 0.185183
0.0501259 0.232563 0.136263
0.0462043 0.240497 0.129702
0.0421912 0.249607 0.119905
0.040116 0.257908 0.105898
0.0395056 0.264027 0.0890516
0.0413367 0.26424 0.0709392
0.0445258 0.258991 0.0645151
0.0727703 0.26067 0.0652171
0.141711 0.26183 0.0657054
0.212406 0.262394 0.0658427
0.265888 0.263966 0.0657206
0.333577 0.26128 0.0655833
0.392554 0.250797 0.0747387
0.441825 0.237171 0.0877546
0.485237 0.228519 0.100099
0.52578 0.224964 0.109972
0.567163 0.22475 0.119036
0.609735 0.228305 0.125658
0.650935 0.232319 0.133318
0.689387 0.236973 0.141451
0.725124 0.242466 0.151278
0.75407 0.249317 0.16228
0.777752 0.257221 0.173312
0.798489 0.265187 0.183276
0.817166 0.273777 0.192325
0.828931 0.279545 0.197818
0.832166 0.281239 0.199207
0.83209 0.281056 0.199176
0.83183 0.280659 0.199069
0.831281 0.279835 0.19884
0.830701 0.278599 0.198596
0.83061 0.277394 0.198535
0.830961 0.276524 0.19855
0.0547494 0.279042 0.155367
0.0492561 0.287877 0.148882
0.0438849 0.29807 0.13991
0.040589 0.307027 0.127626
0.038468 0.315618 0.11223
0.0387884 0.3205 0.0946059
0.0404364 0.320058 0.0714427
0.0431525 0.313909 0.0654154
0.0850233 0.318669 0.0649882
0.166049 0.319524 0.063508
0.255283 0.319722 0.0617075
0.318364 0.321828 0.0599527
0.394827 0.32105 0.0582589
0.458564 0.31603 0.0604562
0.51519 0.306538 0.0738231
0.565332 0.298817 0.0940566
0.607462 0.296498 0.108888
0.646876 0.294667 0.12195
0.685618 0.293599 0.135332
0.722789 0.294316 0.148028
0.757382 0.299016 0.159258
0.78587 0.304768 0.171832
0.809064 0.312047 0.184009
0.828794 0.319615 0.194751
0.845975 0.327733 0.204791
0.857801 0.333928 0.211582
0.861784 0.3364 0.213916
0.861631 0.33611 0.213809
0.861219 0.335439 0.213519
0.860777 0.334646 0.213199
0.860441 0.333577 0.212955
0.860212 0.33228 0.212696
0.860441 0.331472 0.21265
0.0550088 0.332418 0.177264
0.0476387 0.342412 0.170672
0.0412604 0.352712 0.160861
0.0370489 0.362463 0.149187
0.0345464 0.371359 0.13547
0.0338293 0.378973 0.118502
0.0342107 0.383383 0.0984512
0.0362707 0.381659 0.0716564
0.0392767 0.376883 0.0620737
0.099733 0.381491 0.0598764
0.195438 0.381735 0.0562448
0.304173 0.381476 0.0528878
0.374151 0.384451 0.0510262
0.452201 0.384421 0.0503853
0.518456 0.383307 0.0513619
0.575235 0.378454 0.0639048
0.625925 0.372381 0.0877852
0.669108 0.369985 0.108232
0.706416 0.370474 0.125536
0.741772 0.371328 0.142016
0.776165 0.369604 0.159884
0.805371 0.370306 0.176669
0.829618 0.373922 0.191699
0.84979 0.376959 0.206104
0.866728 0.381521 0.217853
0.879881 0.38851 0.22623
0.884459 0.391043 0.229419
0.884352 0.390768 0.229343
0.883818 0.390005 0.228931
0.883314 0.388998 0.22858
0.882795 0.387564 0.228138
0.882475 0.386267 0.227741
0.882506 0.385428 0.227481
0.0501106 0.390845 0.202869
0.0418555 0.401617 0.196338
0.0350652 0.41239 0.187091
0.0307012 0.422004 0.17612
0.0274662 0.431586 0.163348
0.0275425 0.439811 0.147585
0.0288396 0.446738 0.127886
0.0313878 0.448737 0.105013
0.0352789 0.445212 0.0735332
0.0483253 0.441779 0.0572671
0.12401 0.447105 0.0532235
0.238025 0.446387 0.0486763
0.363561 0.44509 0.04654
0.428382 0.44828 0.0480812
0.504692 0.449088 0.0509804
0.569635 0.449729 0.0547189
0.623697 0.448005 0.0681468
0.672526 0.445335 0.0907759
0.715541 0.443214 0.116518
0.752239 0.443748 0.137697
0.784298 0.445396 0.156039
0.813565 0.446769 0.173709
0.839628 0.448341 0.190936
0.862226 0.450645 0.207385
0.881041 0.45449 0.221149
0.895994 0.459022 0.23212
0.900832 0.460609 0.235904
0.900725 0.460044 0.235874
0.900496 0.458717 0.235782
0.90042 0.457008 0.235935
0.900206 0.455146 0.235935
0.899504 0.45304 0.235401
0.899199 0.451118 0.235111
0.0453193 0.45301 0.235294
0.0391241 0.462898 0.229618
0.0332036 0.472297 0.221546
0.0281834 0.482063 0.211795
0.0244297 0.491173 0.199863
0.0226596 0.499611 0.185275
0.02327 0.508003 0.1664
0.0255894 0.513924 0.142275
0.0290074 0.513832 0.115328
0.0332952 0.509453 0.0755932
0.0684977 0.50782 0.0533913
0.159579 0.510842 0.0488594
0.295247 0.508217 0.0463874
0.422019 0.506432 0.0517739
0.483177 0.509804 0.0593423
0.553124 0.51165 0.0665599
0.615595 0.5131 0.0715953
0.667308 0.512245 0.0854505
0.713268 0.511681 0.104295
0.754543 0.509819 0.130098
0.790265 0.509667 0.153277
0.819333 0.511681 0.172656
0.843793 0.515312 0.189227
0.866239 0.51902 0.205173
0.886687 0.521874 0.220295
0.903517 0.525231 0.233539
0.909453 0.527092 0.238743
0.909667 0.526818 0.239109
0.909346 0.525154 0.238865
0.909209 0.523125 0.238819
0.909255 0.521385 0.238941
0.908766 0.519036 0.238483
0.908171 0.516793 0.237903
0.0403906 0.515923 0.277577
0.0353399 0.524605 0.272648
0.0301671 0.533181 0.265476
0.0260166 0.541909 0.256855
0.0225528 0.550118 0.246021
0.0214237 0.558419 0.233585
0.0222171 0.565911 0.216632
0.025391 0.573068 0.193774
0.0292973 0.576288 0.165927
0.0334478 0.574792 0.130831
0.0390478 0.56878 0.0799268
0.102235 0.568811 0.0556039
0.213107 0.570504 0.0515908
0.362036 0.567117 0.0615702
0.477821 0.565591 0.0676432
0.535348 0.568643 0.078706
0.598566 0.570596 0.0889296
0.656718 0.571313 0.0967422
0.706584 0.57023 0.111284
0.75079 0.569146 0.129885
0.789715 0.568292 0.151797
0.822324 0.568765 0.173266
0.84921 0.571054 0.193484
0.870359 0.574853 0.208515
0.888869 0.579293 0.221851
0.905486 0.582986 0.235111
0.913008 0.585397 0.242222
0.914168 0.585443 0.24358
0.914031 0.583856 0.243381
0.913756 0.581811 0.243046
0.913664 0.579217 0.242893
0.913619 0.576669 0.242771
0.913359 0.574426 0.24239
0.0436103 0.574563 0.325475
0.0408637 0.582055 0.321309
0.0365759 0.590173 0.316075
0.0319524 0.597986 0.30898
0.0285344 0.605829 0.300099
0.0272374 0.613077 0.28893
0.0284123 0.619745 0.27335
0.0316014 0.625925 0.252323
0.0365301 0.631601 0.225544
0.0416724 0.631861 0.193347
0.0472267 0.628107 0.14995
0.0649271 0.621729 0.0908522
0.167681 0.624002 0.0644541
0.280324 0.625956 0.0706798
0.431998 0.622248 0.0819409
0.533776 0.620508 0.0894789
0.585367 0.622538 0.102174
0.642298 0.623758 0.115084
0.696559 0.623636 0.126345
0.744305 0.621897 0.141451
0.786465 0.620172 0.160113
0.822873 0.619989 0.17998
0.852506 0.620676 0.199588
0.87657 0.623102 0.218051
0.895338 0.627131 0.232486
0.909972 0.631998 0.24419
0.917037 0.635737 0.251087
0.918791 0.636622 0.252934
0.918563 0.634958 0.252476
0.918364 0.632563 0.252064
0.918151 0.630076 0.251606
0.918212 0.627512 0.251331
0.917952 0.624994 0.250721
0.0535134 0.628977 0.374182
0.0515297 0.636042 0.371618
0.0475929 0.643168 0.367193
0.0433967 0.650767 0.362387
0.0398566 0.657725 0.355291
0.0388037 0.664454 0.346242
0.0392309 0.670237 0.332372
0.041825 0.675944 0.314153
0.0460517 0.681666 0.290028
0.0517281 0.684779 0.258732
0.0582589 0.681926 0.220233
0.0675669 0.674495 0.166659
0.11313 0.669535 0.102373
0.239475 0.675639 0.0864881
0.353902 0.678416 0.0946212
0.497765 0.673335 0.105272
0.583032 0.672038 0.11339
0.629267 0.673304 0.127214
0.680476 0.673304 0.141833
0.73257 0.671992 0.155993
0.778881 0.669764 0.172412
0.818692 0.667735 0.191363
0.85211 0.666682 0.210346
0.880888 0.667155 0.229984
0.901686 0.670283 0.247135
0.916396 0.674937 0.259968
0.923384 0.680797 0.267811
0.924559 0.68191 0.268833
0.924193 0.680415 0.267781
0.923644 0.678157 0.266529
0.923369 0.675547 0.265583
0.923186 0.672908 0.264836
0.922866 0.670771 0.263874
0.0713664 0.678981 0.42211
0.0689403 0.685405 0.420233
0.0653086 0.692164 0.416983
0.0614328 0.698924 0.413138
0.0585336 0.70547 0.407706
0.0573434 0.711391 0.399985
0.0579995 0.716304 0.389029
0.0598459 0.721035 0.373739
0.0633402 0.726009 0.352834
0.068513 0.730449 0.3252
0.074464 0.730098 0.289647
0.0815442 0.724636 0.243091
0.0943313 0.714458 0.179171
0.184253 0.716213 0.118044
0.315435 0.723568 0.113817
0.425116 0.724987 0.120729
0.557351 0.719509 0.131029
0.628016 0.718624 0.139971
0.668254 0.719585 0.15346
0.715465 0.719829 0.169543
0.765911 0.717601 0.185794
0.810513 0.714504 0.203677
0.848035 0.712245 0.22295
0.880323 0.711131 0.24419
0.906188 0.711406 0.265538
0.922972 0.714519 0.281315
0.929793 0.719234 0.290181
0.931289 0.72134 0.292409
0.93077 0.720058 0.290715
0.930236 0.717891 0.289113
0.929808 0.715373 0.287358
0.929564 0.713146 0.286076
0.929137 0.711162 0.28452
0.100496 0.726009 0.467338
0.0992142 0.731945 0.465705
0.0959029 0.738476 0.4636
0.0913558 0.744595 0.460533
0.0876783 0.750301 0.455924
0.0863355 0.755276 0.450004
0.0850996 0.759228 0.440574
0.0863355 0.762631 0.428199
0.0889448 0.7664 0.41091
0.0922713 0.770184 0.387518
0.0970626 0.771923 0.355505
0.101457 0.768643 0.314931
0.108797 0.761059 0.258839
0.139651 0.754421 0.185397
0.276829 0.762707 0.142519
0.388479 0.767605 0.142657
0.491356 0.767773 0.149905
0.612039 0.7617 0.16083
0.672755 0.761425 0.170962
0.708247 0.762966 0.184329
0.751293 0.763287 0.200229
0.798596 0.761303 0.217029
0.839857 0.758282 0.235904
0.875074 0.75642 0.258106
0.905394 0.755291 0.282597
0.926284 0.755123 0.304479
0.935195 0.757565 0.316808
0.936767 0.759945 0.320455
0.936309 0.758679 0.318608
0.935882 0.756359 0.315938
0.935561 0.753964 0.313817
0.935225 0.75172 0.312032
0.93489 0.749279 0.31014
0.133272 0.769039 0.508934
0.132158 0.773816 0.507256
0.129122 0.779385 0.505486
0.124804 0.784817 0.502815
0.120989 0.790051 0.49926
0.118624 0.794491 0.494026
0.117082 0.798032 0.485908
0.116503 0.800717 0.474968
0.116472 0.803357 0.460868
0.11696 0.806012 0.441459
0.119005 0.808331 0.414084
0.121309 0.807126 0.3785
0.125292 0.80238 0.330129
0.137575 0.795102 0.264149
0.210651 0.795102 0.190478
0.36199 0.803616 0.168582
0.450965 0.806592 0.171252
0.5505 0.805539 0.17911
0.660945 0.800534 0.191867
0.714076 0.800977 0.203311
0.746639 0.802899 0.216861
0.786633 0.803479 0.232868
0.830381 0.801511 0.250416
0.867613 0.799878 0.271885
0.899428 0.799283 0.298314
0.923369 0.797742 0.323552
0.936889 0.797116 0.344213
0.939223 0.798596 0.352697
0.939132 0.797299 0.350469
0.938933 0.795132 0.347311
0.938766 0.792706 0.343999
0.938552 0.790356 0.341299
0.938293 0.787869 0.338598
0.157809 0.808331 0.547295
0.157885 0.811948 0.545724
0.155566 0.815991 0.543389
0.152316 0.820218 0.541131
0.148638 0.824628 0.537697
0.146227 0.82826 0.532616
0.144472 0.831266 0.525673
0.143511 0.833494 0.515816
0.143038 0.835569 0.503288
0.142748 0.837629 0.48687
0.142107 0.839353 0.463706
0.14226 0.839719 0.433555
0.144396 0.83711 0.393317
0.150042 0.832166 0.336446
0.173953 0.82681 0.259678
0.293889 0.831846 0.200076
0.429267 0.837736 0.193515
0.506004 0.840177 0.198352
0.60528 0.838621 0.208713
0.705226 0.834897 0.223072
0.752209 0.836606 0.236088
0.783581 0.838865 0.250446
0.821042 0.8392 0.267414
0.860319 0.837247 0.287663
0.893996 0.836789 0.317952
0.918975 0.836149 0.346792
0.93579 0.83534 0.373846
0.940108 0.834928 0.39057
0.940078 0.833951 0.390448
0.939986 0.831983 0.386053
0.940032 0.829511 0.381979
0.940169 0.826886 0.378698
0.940414 0.824445 0.376074
0.1832 0.839704 0.581353
0.185702 0.841657 0.579248
0.18645 0.844038 0.576608
0.185962 0.846799 0.57409
0.184344 0.849531 0.570535
0.182162 0.85211 0.565499
0.180514 0.854582 0.558938
0.17969 0.85655 0.550607
0.179065 0.858427 0.539666
0.17818 0.859983 0.525231
0.176944 0.86128 0.50547
0.175952 0.862287 0.478935
0.176974 0.861082 0.445808
0.17966 0.857877 0.40061
0.189502 0.852903 0.334783
0.236301 0.851011 0.256733
0.394385 0.859678 0.221607
0.494881 0.863416 0.222797
0.566491 0.86566 0.230243
0.664408 0.864424 0.244038
0.753628 0.862623 0.260563
0.794186 0.865415 0.275471
0.824643 0.867826 0.291142
0.857466 0.867231 0.310491
0.893034 0.866545 0.343114
0.91899 0.866377 0.379171
0.936431 0.866224 0.411292
0.943053 0.865782 0.435737
0.94287 0.864652 0.439292
0.942031 0.863203 0.433783
0.941619 0.861463 0.428656
0.941527 0.859388 0.424247
0.941695 0.856962 0.42118
0.204166 0.865873 0.611811
0.206302 0.867628 0.609812
0.207019 0.869505 0.607309
0.206577 0.871763 0.604822
0.205127 0.87393 0.601251
0.203265 0.875746 0.596307
0.201678 0.877562 0.590311
0.200626 0.879149 0.582544
0.199878 0.88072 0.572595
0.198734 0.881987 0.559503
0.196857 0.883192 0.542245
0.194949 0.884581 0.519005
0.194491 0.884413 0.490059
0.196216 0.882536 0.452796
0.200519 0.879133 0.400885
0.219928 0.875608 0.328847
0.302052 0.87892 0.259846
0.465599 0.887068 0.242496
0.543709 0.890166 0.247471
0.614618 0.892149 0.257679
0.711818 0.891249 0.274647
0.792111 0.890669 0.293462
0.828 0.893431 0.30959
0.855756 0.894804 0.328527
0.886793 0.894926 0.36286
0.915877 0.894713 0.40708
0.9346 0.894743 0.445762
0.943847 0.893889 0.474861
0.94493 0.89247 0.486198
0.944259 0.890806 0.482216
0.943801 0.889128 0.47628
0.943587 0.887022 0.471077
0.943755 0.884779 0.467597
0.22298 0.886854 0.639338
0.224826 0.887831 0.637186
0.225544 0.889479 0.635172
0.22443 0.891463 0.63267
0.222263 0.893339 0.629313
0.220218 0.894972 0.624506
0.218814 0.896101 0.618601
0.217975 0.896925 0.611399
0.217441 0.897841 0.602335
0.21622 0.898741 0.59057
0.214298 0.899825 0.574792
0.212039 0.901137 0.554253
0.211109 0.90193 0.529809
0.212055 0.900938 0.499367
0.215015 0.898726 0.458167
0.223224 0.895705 0.400626
0.259174 0.896223 0.328038
0.377935 0.905882 0.283604
0.517922 0.910063 0.269596
0.588281 0.912566 0.276036
0.660639 0.913924 0.288426
0.75172 0.913146 0.30573
0.824842 0.913573 0.327184
0.857023 0.915526 0.346731
0.884123 0.916686 0.380072
0.91191 0.916655 0.431449
0.933043 0.916457 0.478981
0.945037 0.916106 0.513924
0.947738 0.914534 0.533043
0.94699 0.913237 0.531533
0.946136 0.911757 0.52488
0.945846 0.91017 0.519509
0.945953 0.908461 0.515755
0.237858 0.902174 0.664759
0.239536 0.902556 0.662745
0.239445 0.903151 0.660105
0.237552 0.904219 0.657359
0.234928 0.905501 0.654459
0.231632 0.906676 0.649958
0.229099 0.907469 0.644327
0.227375 0.907927 0.637293
0.229099 0.90663 0.627817
0.226749 0.906462 0.616251
0.22359 0.906203 0.601465
0.221698 0.906523 0.584802
0.221393 0.907225 0.565377
0.222629 0.908217 0.539864
0.225696 0.909026 0.506523
0.231479 0.908797 0.461036
0.247257 0.908324 0.400961
0.321569 0.916533 0.34519
0.438956 0.92488 0.31606
0.562875 0.925704 0.306065
0.631479 0.927169 0.313634
0.702235 0.928054 0.326314
0.784085 0.928466 0.343832
0.852049 0.930007 0.368139
0.882597 0.932143 0.398444
0.908431 0.933104 0.45034
0.930404 0.932631 0.508232
0.945403 0.932204 0.551827
0.950317 0.931105 0.579568
0.949691 0.929946 0.582132
0.949111 0.929061 0.575738
0.948638 0.927901 0.570169
0.948516 0.926558 0.565698
0.242115 0.90605 0.678859
0.243061 0.905516 0.675746
0.242893 0.905333 0.672465
0.241123 0.905653 0.669459
0.237797 0.906477 0.665583
0.234241 0.907271 0.661006
0.231144 0.907973 0.655497
0.229007 0.908125 0.648264
0.227787 0.908003 0.639567
0.226673 0.907591 0.628885
0.224842 0.907057 0.615122
0.223926 0.907149 0.599619
0.224414 0.907942 0.58294
0.226337 0.9093 0.563775
0.229969 0.911162 0.540032
0.23595 0.912932 0.508568
0.24596 0.914397 0.461952
0.291188 0.921065 0.412116
0.38407 0.931243 0.373922
0.489128 0.933394 0.359701
0.603586 0.932372 0.358144
0.671901 0.932326 0.364858
0.738079 0.932174 0.373907
0.810224 0.933562 0.391302
0.872663 0.936614 0.42385
0.901686 0.938918 0.464149
0.924361 0.940932 0.520684
0.94226 0.94255 0.578027
0.9505 0.943313 0.620233
0.950713 0.942946 0.632364
0.95021 0.942245 0.626627
0.950027 0.941512 0.621195
0.949935 0.940581 0.616251
0.237446 0.908522 0.687434
0.237476 0.908293 0.684016
0.237613 0.907988 0.680476
0.237324 0.90779 0.676982
0.236362 0.90782 0.672679
0.234455 0.90808 0.667964
0.232151 0.908446 0.662516
0.230015 0.908705 0.65568
0.228275 0.908675 0.647318
0.22652 0.908598 0.637049
0.224506 0.908339 0.623941
0.222446 0.907988 0.608209
0.223087 0.908476 0.591959
0.22501 0.909407 0.573861
0.229068 0.911147 0.553506
0.234882 0.913146 0.528695
0.243259 0.91548 0.49604
0.27155 0.920943 0.455436
0.344457 0.932128 0.422217
0.43949 0.936858 0.406241
0.534844 0.936461 0.407889
0.639475 0.934966 0.415244
0.712795 0.934401 0.428428
