bundles/resolve-cinematic-luts/Phantom Luts/P4k & P6K Phntm Film LUTs - V6/P4K/Gen 4 Colour/White Balance Offset (+Magenta Boost)/P4k Bleach Gen4 WBO.cube
TITLE "Generated by Resolve"
LUT_3D_SIZE 33
0.0153353 0.0269474 0.0176242
0.0153353 0.0269474 0.0176242
0.0153353 0.0269474 0.0176242
0.0170596 0.0268711 0.0178225
0.0226902 0.0277562 0.0195773
0.0342718 0.0294194 0.0212406
0.0485389 0.0300145 0.0229801
0.0638895 0.030869 0.0249943
0.0803998 0.0319371 0.0271305
0.0987869 0.0327764 0.0284733
0.1205 0.0340581 0.0305791
0.145388 0.0352331 0.0327001
0.174517 0.0368963 0.0353552
0.207767 0.0389868 0.0388647
0.242451 0.0413977 0.0427253
0.278401 0.043946 0.046128
0.31519 0.046128 0.0500801
0.354452 0.0482948 0.0545357
0.398642 0.0498054 0.0583505
0.448035 0.0511635 0.0616007
0.495155 0.0535134 0.0659953
0.530495 0.0572824 0.0706951
0.555825 0.0625772 0.0775158
0.586404 0.066865 0.0830091
0.616342 0.0714122 0.0896925
0.644144 0.0764477 0.0963912
0.671412 0.0810559 0.103075
0.696162 0.0855268 0.109819
0.719554 0.0902876 0.115953
0.74165 0.0954757 0.123156
0.761913 0.10103 0.129686
0.780667 0.107073 0.136721
0.797864 0.113436 0.143481
0.0153353 0.0269474 0.0176242
0.0153353 0.0269474 0.0176242
0.0153353 0.0269474 0.0176242
0.016907 0.0268559 0.0177768
0.0237583 0.027985 0.0200198
0.0382391 0.0298009 0.021912
0.0540017 0.0305028 0.0235599
0.0713817 0.0314488 0.0261234
0.0904707 0.0323644 0.0278019
0.113405 0.0337835 0.0298466
0.139452 0.0350195 0.0321813
0.168933 0.0366217 0.0346685
0.203174 0.0387579 0.0382391
0.238483 0.0412146 0.0420081
0.2748 0.0437324 0.045243
0.312291 0.0459297 0.0496071
0.352285 0.0482338 0.0537575
0.397269 0.0498817 0.0573892
0.44773 0.051194 0.0605478
0.494453 0.0532235 0.0646983
0.52932 0.0571603 0.0693828
0.554772 0.0622568 0.0760052
0.585382 0.0661936 0.0813001
0.614939 0.0707103 0.0879683
0.642084 0.0753338 0.0941024
0.668452 0.0796063 0.100237
0.693446 0.0836957 0.106828
0.715953 0.0881971 0.112444
0.737148 0.0925765 0.118685
0.756497 0.0971237 0.124117
0.774151 0.102342 0.130007
0.790646 0.10753 0.135531
0.805325 0.113298 0.141238
0.0153353 0.0269474 0.0176242
0.0153353 0.0269474 0.0176242
0.0153353 0.0269474 0.0176242
0.0156558 0.0268406 0.0175631
0.0236515 0.0280308 0.0199741
0.038941 0.0299535 0.0218509
0.0566873 0.0310216 0.0237888
0.0759442 0.0322118 0.0267643
0.0966506 0.0333715 0.0288243
0.121096 0.0347601 0.0303807
0.149081 0.0363775 0.0328374
0.182055 0.0382849 0.0354314
0.217609 0.040238 0.0381323
0.253758 0.0425574 0.0409094
0.290455 0.0449073 0.04448
0.330007 0.0475166 0.0473335
0.372183 0.0493477 0.051194
0.421668 0.0508278 0.0544289
0.471412 0.0518807 0.0576333
0.512749 0.0541238 0.0617075
0.538674 0.0589761 0.0675669
0.568307 0.0627604 0.0734417
0.598032 0.0666667 0.079057
0.625528 0.0704509 0.0843824
0.651896 0.0742504 0.090425
0.676478 0.077821 0.0959945
0.699199 0.0815747 0.101411
0.72079 0.0849928 0.106737
0.739406 0.0887007 0.111315
0.75729 0.092546 0.116365
0.773663 0.0965744 0.120989
0.787549 0.100725 0.124743
0.801785 0.105287 0.129564
0.0154269 0.0280613 0.0178836
0.0153964 0.0279393 0.0178225
0.0153048 0.027512 0.0175784
0.0154116 0.0270542 0.0175937
0.0213931 0.0283207 0.0188907
0.0340276 0.0307927 0.0207675
0.0522927 0.0319524 0.0230564
0.0738994 0.0339818 0.0261845
0.0969253 0.0352331 0.0284733
0.122072 0.0361181 0.029984
0.151385 0.0379492 0.031754
0.182879 0.039765 0.0338293
0.217121 0.0413367 0.0362097
0.253498 0.0430762 0.0379797
0.29102 0.0454566 0.0407416
0.330388 0.0475319 0.0429236
0.371405 0.0488746 0.0443885
0.417929 0.049424 0.046479
0.464866 0.0498054 0.0476387
0.504387 0.0522011 0.051606
0.532204 0.0564279 0.0577249
0.564675 0.0599832 0.063508
0.594736 0.0634318 0.0692912
0.622248 0.0670939 0.0751202
0.64802 0.0705272 0.0805982
0.672541 0.0735943 0.0859541
0.694942 0.0768292 0.0910048
0.71574 0.080354 0.0956588
0.735042 0.0833753 0.100404
0.751217 0.0864729 0.103853
0.767803 0.0899062 0.10779
0.781369 0.093431 0.111376
0.794278 0.0972 0.114137
0.0184329 0.0392767 0.0222477
0.0197299 0.0435798 0.0235599
0.020264 0.046128 0.0234379
0.0211948 0.0463417 0.0220645
0.0318151 0.0478218 0.0233005
0.0446326 0.0519265 0.0255131
0.065156 0.0509804 0.0245823
0.0863966 0.0501869 0.0266728
0.109972 0.0478065 0.0287022
0.137362 0.0471656 0.0307622
0.166674 0.0467689 0.0331426
0.198825 0.0476387 0.0349432
0.23122 0.0478981 0.0355383
0.26334 0.0476081 0.0352331
0.296788 0.0483711 0.0357824
0.332311 0.0491646 0.0365911
0.37052 0.0495918 0.038407
0.415854 0.0502937 0.0398566
0.460517 0.0497597 0.0398108
0.495354 0.0511482 0.0422522
0.525093 0.0546426 0.0475319
0.554574 0.0562905 0.0510414
0.584512 0.0595712 0.0563058
0.610086 0.0616922 0.0596323
0.636728 0.0649424 0.0643473
0.659556 0.0672465 0.0683909
0.682399 0.0703288 0.0725261
0.704219 0.0737469 0.0780346
0.723262 0.0766918 0.082475
0.740322 0.0798047 0.0859388
0.756985 0.0831617 0.0898451
0.772015 0.0880903 0.0937667
0.785824 0.0928359 0.0970474
0.0235599 0.0660716 0.03299
0.0245365 0.0711681 0.0346838
0.0251469 0.0743267 0.0314031
0.0261387 0.0746014 0.0263828
0.0343938 0.0745708 0.0264591
0.0562448 0.0782635 0.0291295
0.0741588 0.0818494 0.0276341
0.0984207 0.0806897 0.0285344
0.128008 0.0770123 0.0309148
0.158862 0.0718853 0.0345312
0.190127 0.0680705 0.0364691
0.223377 0.0668345 0.0391852
0.257771 0.0653391 0.041474
0.2925 0.0642405 0.0429847
0.325292 0.0636149 0.0432288
0.361105 0.0633555 0.043595
0.400687 0.0623941 0.043122
0.442771 0.0613107 0.0423743
0.48275 0.0608682 0.0424964
0.514122 0.06215 0.0438544
0.5402 0.0643168 0.0463264
0.567895 0.0657969 0.0496681
0.593057 0.0670481 0.0513313
0.616922 0.0684367 0.0533608
0.640284 0.0712291 0.0570687
0.663691 0.074876 0.061265
0.686152 0.0788128 0.0657054
0.705806 0.082536 0.0692149
0.727672 0.0889906 0.0747997
0.743389 0.0920577 0.0775311
0.758602 0.0955367 0.0806744
0.77406 0.101122 0.0841077
0.790082 0.108705 0.0896468
0.0271 0.094789 0.0423743
0.0277409 0.0997482 0.0428016
0.028397 0.103304 0.0383307
0.0287633 0.104036 0.0311742
0.0331426 0.104265 0.0284581
0.0519417 0.107195 0.0301366
0.0821088 0.11046 0.0327153
0.1028 0.113878 0.0292363
0.131579 0.115114 0.0273289
0.174304 0.109377 0.0304265
0.213275 0.100023 0.0373999
0.248203 0.0903487 0.0418097
0.284825 0.087602 0.0448768
0.320485 0.0857404 0.047425
0.357687 0.0846265 0.0495003
0.39855 0.0835431 0.0508736
0.44271 0.0826886 0.0515908
0.48278 0.0825208 0.0529946
0.518517 0.0836194 0.0547951
0.548577 0.0859083 0.0572366
0.576013 0.0884565 0.0603647
0.601526 0.0916152 0.0629892
0.625528 0.094377 0.0656748
0.648325 0.0974594 0.0681163
0.671153 0.101839 0.0719921
0.692882 0.106752 0.0758526
0.714275 0.111925 0.0804761
0.734478 0.118486 0.0851759
0.753918 0.125444 0.0909285
0.772763 0.133974 0.0972763
0.790768 0.142672 0.103899
0.807431 0.151919 0.110719
0.823194 0.161929 0.118242
0.0294499 0.123201 0.0510872
0.0297856 0.128481 0.0513771
0.0304723 0.133196 0.0463722
0.0310826 0.134524 0.0356909
0.0324407 0.133898 0.0292821
0.0431983 0.136431 0.0301061
0.0728618 0.14049 0.0324712
0.107652 0.144656 0.0339513
0.132891 0.148226 0.0304417
0.170291 0.150332 0.0260319
0.223117 0.145174 0.0294041
0.267765 0.138094 0.0370947
0.311711 0.125521 0.0441444
0.352026 0.118257 0.0489967
0.393668 0.113512 0.052491
0.439673 0.111849 0.0538949
0.482628 0.111757 0.056611
0.520241 0.112642 0.0603952
0.552804 0.114809 0.0650645
0.582467 0.118273 0.0695659
0.60914 0.122377 0.074052
0.634745 0.126375 0.0789349
0.659083 0.131395 0.0839704
0.682246 0.136538 0.0889906
0.705135 0.143359 0.0946365
0.727321 0.150103 0.100618
0.748455 0.157458 0.106844
0.76907 0.166018 0.113985
0.788693 0.176593 0.121599
0.807446 0.187366 0.129397
0.824857 0.199115 0.13756
0.842405 0.210712 0.146212
0.858473 0.22388 0.15555
0.0302434 0.153872 0.0602121
0.030808 0.16051 0.0607919
0.0312505 0.165148 0.0540017
0.0319677 0.167452 0.0412451
0.0324407 0.166567 0.0315709
0.037171 0.168322 0.0295415
0.0592203 0.173266 0.0310216
0.0970169 0.177676 0.0338445
0.136202 0.183505 0.0355383
0.167971 0.188586 0.0308385
0.213489 0.191318 0.0263676
0.272465 0.186954 0.0289158
0.324254 0.182269 0.0340276
0.37789 0.169711 0.0430152
0.431861 0.157519 0.0491798
0.479194 0.148989 0.0551919
0.516167 0.148898 0.0584421
0.549722 0.149371 0.0646067
0.580972 0.153155 0.0707561
0.609445 0.1579 0.077348
0.636362 0.163378 0.0840772
0.661936 0.170184 0.0908064
0.686183 0.176761 0.0977798
0.710506 0.184848 0.105989
0.733883 0.193378 0.114199
0.756558 0.202686 0.122545
0.778332 0.213611 0.131304
0.800366 0.225605 0.141497
0.820066 0.237858 0.151186
0.839475 0.250996 0.16173
0.857618 0.264225 0.17229
0.876997 0.279438 0.184802
0.893828 0.295949 0.198047
0.0301976 0.187472 0.0686503
0.0302892 0.194583 0.0688487
0.030518 0.19971 0.0623026
0.0313878 0.202304 0.0484016
0.0323339 0.20145 0.0335851
0.0325322 0.201373 0.0277714
0.0440528 0.206302 0.0281987
0.076524 0.212345 0.0307469
0.120394 0.2177 0.0341039
0.167895 0.225666 0.0353399
0.20621 0.231693 0.0309606
0.257588 0.235859 0.0263371
0.323613 0.233829 0.0274357
0.385702 0.230198 0.030045
0.451164 0.219013 0.0379034
0.503517 0.211032 0.0463874
0.545617 0.205997 0.057023
0.576989 0.204608 0.0655222
0.606592 0.207965 0.0750134
0.63418 0.21355 0.0838788
0.660426 0.22034 0.0924849
0.685679 0.224521 0.103487
0.710948 0.232792 0.113619
0.735241 0.242924 0.123674
0.759838 0.253376 0.134142
0.785199 0.265995 0.14641
0.807324 0.277958 0.157809
0.830045 0.291981 0.170565
0.851911 0.307149 0.184741
0.87277 0.322118 0.19823
0.890776 0.337636 0.211475
0.905928 0.353124 0.223255
0.918257 0.367208 0.23415
0.0288548 0.221912 0.0754253
0.0283665 0.22887 0.0752575
0.0284428 0.233906 0.0688029
0.0289616 0.236637 0.0548409
0.0298161 0.236713 0.0387884
0.0307012 0.234943 0.0253605
0.0314641 0.237644 0.0251774
0.0547189 0.245197 0.0258488
0.0938888 0.251682 0.0285344
0.147433 0.259037 0.0336156
0.20325 0.269642 0.0348058
0.246128 0.277714 0.0306706
0.303517 0.283543 0.0263218
0.375845 0.284092 0.0263066
0.451072 0.280842 0.0271305
0.5131 0.27657 0.0352789
0.559014 0.275563 0.0456092
0.597223 0.274968 0.0601816
0.628962 0.278828 0.0744335
0.658198 0.284977 0.0878157
0.684184 0.291341 0.0999008
0.709575 0.299046 0.113222
0.735531 0.30515 0.127993
0.762325 0.316823 0.14342
0.789334 0.326574 0.160235
0.814801 0.336767 0.176761
0.838453 0.352285 0.190417
0.860304 0.364889 0.204379
0.879576 0.380133 0.216968
0.895277 0.392493 0.228382
0.908782 0.405341 0.238117
0.919387 0.417456 0.246052
0.928679 0.429953 0.25359
0.0259556 0.256229 0.0809491
0.0255131 0.263066 0.0807202
0.0251621 0.267369 0.0741436
0.0254978 0.270222 0.0605783
0.0261387 0.270924 0.0444038
0.027039 0.269612 0.0304265
0.0284123 0.269734 0.0214542
0.0378576 0.274891 0.0218357
0.0669413 0.283101 0.0227054
0.115877 0.291203 0.026627
0.179492 0.301427 0.0327306
0.242054 0.315404 0.0339208
0.288411 0.325856 0.0300145
0.350042 0.333822 0.0262303
0.431342 0.335622 0.02533
0.504356 0.337453 0.0280308
0.559472 0.341527 0.0358434
0.604639 0.348638 0.0479591
0.644038 0.354589 0.0689097
0.67805 0.362615 0.0887617
0.708141 0.372412 0.107301
0.735119 0.383551 0.123751
0.7617 0.396506 0.141634
0.787533 0.406394 0.158968
0.812055 0.416541 0.176516
0.834607 0.42501 0.191516
0.85597 0.434318 0.205341
0.872999 0.443503 0.216114
0.888029 0.452674 0.225544
0.899062 0.463752 0.231983
0.909041 0.475013 0.237629
0.917403 0.485252 0.243778
0.923903 0.496239 0.246952
0.0216678 0.289067 0.0856641
0.0211795 0.295689 0.0860304
0.0211643 0.299809 0.0801862
0.0215152 0.302052 0.066804
0.0222782 0.303624 0.0506142
0.0231937 0.303243 0.0348821
0.0242466 0.302144 0.0222019
0.0273594 0.304463 0.0176394
0.0485695 0.311681 0.0178531
0.0818952 0.320348 0.0193637
0.141222 0.331548 0.0242924
0.21767 0.34699 0.0316167
0.286 0.365499 0.0320745
0.333196 0.377432 0.0291752
0.399542 0.387381 0.0255894
0.481651 0.395666 0.0256962
0.546822 0.406821 0.0319219
0.601862 0.419287 0.0440528
0.643595 0.432563 0.0554665
0.682445 0.440925 0.0788434
0.716274 0.450965 0.100999
0.743709 0.460395 0.119341
0.769024 0.470451 0.13724
0.791043 0.48011 0.151888
0.813046 0.489677 0.166705
0.831861 0.498512 0.178546
0.850462 0.506767 0.190036
0.867247 0.515587 0.201236
0.881498 0.52343 0.210773
0.893324 0.531075 0.218814
0.903609 0.538994 0.226123
0.91249 0.546853 0.232731
0.919738 0.555184 0.238254
0.0173037 0.321263 0.0932784
0.0162356 0.327337 0.0931411
0.0160067 0.331456 0.0867018
0.0166781 0.333654 0.073228
0.0175479 0.335653 0.0563058
0.0184024 0.33611 0.0408026
0.0198367 0.3346 0.0257115
0.020676 0.33518 0.0159915
0.0289464 0.33959 0.0132143
0.0630045 0.349447 0.0138705
0.101381 0.360037 0.0162203
0.175921 0.375509 0.0231785
0.259297 0.398856 0.0304723
0.329442 0.421927 0.0301213
0.383276 0.437476 0.0299382
0.457008 0.452094 0.030518
0.530404 0.467704 0.0352331
0.58706 0.48159 0.0434577
0.635645 0.495048 0.0551156
0.674861 0.505776 0.0672007
0.710872 0.514092 0.0862745
0.742428 0.522194 0.103883
0.768704 0.529549 0.122698
0.793805 0.536538 0.142321
0.814588 0.544472 0.156847
0.83357 0.552026 0.171038
0.851316 0.559655 0.182605
0.866316 0.567803 0.192615
0.880293 0.574609 0.202335
0.892134 0.581659 0.211215
0.902739 0.588846 0.21976
0.912444 0.595239 0.228016
0.919142 0.602167 0.235096
0.0116426 0.353292 0.101839
0.0106355 0.359762 0.102098
0.010544 0.364248 0.0957961
0.0109102 0.366522 0.0813764
0.0118715 0.368353 0.0638895
0.0131075 0.369787 0.0469062
0.0148165 0.3691 0.0328527
0.0165866 0.369207 0.0179599
0.016968 0.371862 0.0113375
0.0392462 0.37879 0.00885023
0.0801099 0.390311 0.0100252
0.12665 0.404364 0.0132906
0.217868 0.428443 0.0237888
0.31043 0.460395 0.0352636
0.390661 0.486046 0.0380407
0.450462 0.50132 0.0421149
0.515541 0.517052 0.0459754
0.577493 0.531609 0.0518349
0.624704 0.543862 0.059144
0.666926 0.554269 0.0687572
0.704692 0.562814 0.0817731
0.737377 0.570031 0.0958572
0.767895 0.576715 0.111452
0.794339 0.582238 0.130129
0.81825 0.588663 0.150103
0.83856 0.595087 0.16614
0.854948 0.601511 0.178775
0.870146 0.608042 0.190814
0.882612 0.615091 0.200061
0.89427 0.621851 0.208652
0.904097 0.628168 0.217868
0.913191 0.634195 0.226871
0.920104 0.640711 0.234592
0.00604257 0.386831 0.112581
0.00463874 0.394156 0.112169
0.00437934 0.398505 0.10576
0.00479133 0.400717 0.0904097
0.00595102 0.402869 0.0725719
0.007187 0.405158 0.0547646
0.00862135 0.406043 0.0391546
0.010193 0.406546 0.0249485
0.0123445 0.408423 0.00967422
0.0251774 0.413214 0.00604257
0.0594644 0.422553 0.00529488
0.104219 0.436484 0.00849927
0.166354 0.456504 0.0160983
0.277974 0.491142 0.0373846
0.38265 0.525002 0.0518349
0.463981 0.544915 0.0538491
0.514244 0.557549 0.059144
0.565744 0.570825 0.064332
0.616175 0.583246 0.0698405
0.658061 0.593912 0.0766155
0.696559 0.602472 0.0847334
0.730938 0.609277 0.0972305
0.763241 0.615045 0.110719
0.793423 0.621225 0.125963
0.819013 0.626108 0.143069
0.840696 0.631403 0.161563
0.859251 0.637522 0.176226
0.874403 0.643183 0.190295
0.887175 0.648951 0.203052
0.897597 0.655253 0.21181
0.906432 0.661799 0.220539
0.914641 0.667628 0.228977
0.922103 0.673182 0.238193
0.000396735 0.423087 0.123415
0 0.429892 0.123796
0 0.434119 0.117739
0.000259403 0.436194 0.103304
0.00132753 0.438758 0.0860609
0.00234989 0.442115 0.0664988
0.00387579 0.443458 0.0491798
0.00587472 0.443809 0.0338598
0.00787366 0.445655 0.0184024
0.0123293 0.449485 0.00447089
0.0420386 0.457053 0.0031281
0.0890211 0.469795 0.00677501
0.147402 0.488212 0.0155184
0.233524 0.517235 0.0338903
0.358373 0.555917 0.0618448
0.46334 0.578195 0.0691691
0.525399 0.59353 0.0705882
0.566552 0.604883 0.0777905
0.606882 0.615839 0.0836194
0.650263 0.626352 0.0890516
0.688853 0.635493 0.0953689
0.723888 0.643229 0.10251
0.756512 0.649058 0.114214
0.787259 0.654368 0.127672
0.815549 0.658885 0.144686
0.840452 0.66363 0.161593
0.859709 0.668742 0.177111
0.876722 0.673762 0.192889
0.890028 0.679591 0.207904
0.900801 0.684947 0.219654
0.910338 0.690272 0.229053
0.917372 0.696239 0.237415
0.924224 0.702419 0.245655
0 0.459464 0.140352
0 0.466041 0.142824
0 0.47042 0.136675
0 0.47245 0.122393
0 0.474784 0.104448
0.00109865 0.477745 0.0847791
0.00294499 0.480339 0.0665599
0.00492866 0.48098 0.0496681
0.00706493 0.482429 0.0331273
0.0100862 0.485283 0.0153048
0.0236973 0.490227 0.0039826
0.0789502 0.505058 0.00863661
0.138094 0.52311 0.0193942
0.219547 0.549325 0.037583
0.316136 0.579965 0.0623026
0.443565 0.606348 0.082475
0.529534 0.622553 0.0865949
0.575418 0.635172 0.0889754
0.607446 0.644556 0.0962997
0.641779 0.653971 0.102907
0.680751 0.6636 0.10779
0.715862 0.671824 0.113405
0.749462 0.678859 0.121691
0.780041 0.684031 0.133211
0.809079 0.688411 0.147112
0.834821 0.692866 0.164492
0.858198 0.697505 0.183444
0.875456 0.701915 0.201068
0.890837 0.706584 0.217502
0.9028 0.711467 0.232853
0.912169 0.717083 0.243565
0.920256 0.722042 0.254704
0.927108 0.727459 0.265461
0 0.495964 0.165667
0 0.503273 0.169268
0 0.507347 0.16405
0 0.509361 0.149416
0.000946059 0.51136 0.130755
0.00294499 0.514946 0.110765
0.00466926 0.51783 0.0903639
0.00660716 0.518364 0.0719768
0.00872816 0.518929 0.0528267
0.0119631 0.521324 0.035172
0.0225528 0.52578 0.0171054
0.0614023 0.537179 0.0124361
0.140642 0.560586 0.0281529
0.214771 0.583429 0.0457618
0.301213 0.607843 0.0675212
0.405844 0.629633 0.0902571
0.521614 0.646937 0.100481
0.581979 0.660883 0.104097
0.615793 0.671244 0.106493
0.644572 0.679927 0.114687
0.674006 0.688075 0.121981
0.709087 0.696742 0.127077
0.741802 0.704036 0.133074
0.772625 0.710002 0.14139
0.802625 0.715297 0.15346
0.828122 0.71957 0.16846
0.851759 0.723918 0.185718
0.872358 0.728328 0.207584
0.889403 0.732494 0.227131
0.901473 0.736873 0.243565
0.912779 0.741482 0.260716
0.920943 0.74667 0.27361
0.9281 0.751614 0.286061
0.00102235 0.534813 0.199084
0.00199893 0.542336 0.203494
0.00318914 0.546258 0.199298
0.00376898 0.548089 0.184741
0.00492866 0.549767 0.165789
0.00648508 0.552361 0.144762
0.00915541 0.55584 0.122072
0.0111543 0.556756 0.101472
0.0131533 0.556359 0.0800183
0.0159152 0.557107 0.0590829
0.019791 0.55996 0.0380713
0.055375 0.572229 0.0264286
0.131106 0.593851 0.0366217
0.21976 0.616373 0.0569924
0.291279 0.635035 0.0746319
0.383215 0.652979 0.0953384
0.495415 0.666682 0.111177
0.579507 0.682643 0.117906
0.623331 0.694911 0.121248
0.65069 0.703777 0.124254
0.675547 0.710887 0.13286
0.701595 0.718151 0.140352
0.73489 0.726574 0.14548
0.765484 0.733715 0.152422
0.794903 0.739513 0.16199
0.821805 0.74461 0.175433
0.845151 0.749218 0.193057
0.866209 0.753536 0.213046
0.884001 0.757992 0.234119
0.89929 0.762417 0.25449
0.911025 0.766476 0.272145
0.920317 0.771054 0.289311
0.927031 0.775204 0.304814
0.00805676 0.576761 0.239414
0.0102846 0.584573 0.244617
0.0114137 0.587961 0.240162
0.01178 0.589029 0.226169
0.012314 0.590326 0.208042
0.0139162 0.593393 0.186633
0.0164187 0.59649 0.163592
0.0184787 0.59762 0.139879
0.0206149 0.596597 0.115099
0.023682 0.596506 0.0906691
0.0273594 0.598459 0.0672618
0.0452888 0.604486 0.045304
0.12697 0.626047 0.0492714
0.216327 0.645624 0.0662242
0.295201 0.662196 0.0852979
0.359579 0.675441 0.100313
0.467353 0.686793 0.117098
0.560952 0.700542 0.130571
0.623636 0.714763 0.134874
0.657511 0.724895 0.138064
0.681376 0.733227 0.142138
0.704051 0.73991 0.150896
0.728466 0.747189 0.159426
0.759136 0.755261 0.165179
0.788052 0.761975 0.173129
0.814755 0.767178 0.184558
0.838315 0.772351 0.201984
0.859449 0.777111 0.221363
0.877867 0.781872 0.242557
0.893431 0.786236 0.262654
0.906447 0.790143 0.283146
0.917357 0.794049 0.302739
0.924407 0.797864 0.319905
0.0201114 0.618021 0.28127
0.0218509 0.624567 0.285039
0.0224155 0.62739 0.280049
0.0216831 0.628534 0.26659
0.0213779 0.629953 0.249653
0.0225681 0.632044 0.229938
0.0249027 0.63505 0.207004
0.0268711 0.636301 0.181399
0.0291447 0.634989 0.154635
0.0315862 0.633646 0.126101
0.0365911 0.635096 0.100404
0.0485084 0.638788 0.072282
0.100984 0.651713 0.0599527
0.217456 0.672206 0.0766766
0.295552 0.685863 0.0945144
0.361547 0.697627 0.109148
0.429908 0.705745 0.120348
0.536355 0.715496 0.136446
0.609476 0.730282 0.148074
0.661234 0.743893 0.151354
0.68893 0.752773 0.155428
0.70956 0.760494 0.161318
0.731243 0.767269 0.170916
0.75346 0.773892 0.179583
0.781872 0.781506 0.186725
0.80882 0.788052 0.195483
0.831296 0.793088 0.213413
0.854063 0.798413 0.232578
0.871702 0.802869 0.252811
0.887892 0.807187 0.273426
0.900572 0.811383 0.294652
0.912764 0.814969 0.315511
0.922026 0.81857 0.337224
0.0328832 0.65597 0.319738
0.0346838 0.661753 0.323125
0.0345464 0.663935 0.316304
0.034165 0.664683 0.303471
0.0335851 0.665461 0.286946
0.0325628 0.667247 0.268132
0.0327611 0.669184 0.245975
0.0348516 0.670649 0.221576
0.0369726 0.669535 0.194949
0.0398413 0.667964 0.163699
0.0460212 0.667903 0.133471
0.0579995 0.670466 0.104982
0.0887007 0.677287 0.0761883
0.180468 0.691508 0.0821241
0.293919 0.707424 0.103471
0.363622 0.717403 0.118013
0.427726 0.723674 0.127825
0.502083 0.729717 0.137636
0.588205 0.742672 0.155322
0.648569 0.757748 0.165225
0.69308 0.770291 0.168765
0.716152 0.778408 0.174166
0.735317 0.785458 0.180682
0.756069 0.791882 0.19028
0.776608 0.798077 0.20032
0.80322 0.805127 0.209628
0.826749 0.810819 0.222416
0.847852 0.815946 0.241566
0.867216 0.820768 0.26537
0.88246 0.825254 0.286412
0.895445 0.82948 0.307622
0.907027 0.833448 0.3299
0.916945 0.836637 0.351522
0.0447242 0.686824 0.353765
0.0462043 0.690806 0.354864
0.0460365 0.69247 0.347463
0.0453193 0.693019 0.334661
0.0441138 0.69366 0.318334
0.043183 0.694804 0.299397
0.0425116 0.69659 0.278141
0.0433204 0.697414 0.25452
0.0444038 0.696208 0.228656
0.0475929 0.694347 0.199161
0.0539559 0.694224 0.167025
0.0655833 0.69546 0.134096
0.0895857 0.699489 0.103166
0.160739 0.710979 0.0915847
0.271015 0.723507 0.10811
0.362539 0.733623 0.125109
0.429526 0.739773 0.135637
0.492958 0.744045 0.142901
0.559472 0.752865 0.156512
0.633539 0.768612 0.174792
0.683726 0.782727 0.18349
0.721431 0.794308 0.187289
0.742046 0.801633 0.193835
0.760113 0.808392 0.201053
0.78027 0.814618 0.210712
0.798398 0.820203 0.221332
0.821942 0.826154 0.233616
0.843473 0.83122 0.253895
0.863554 0.836225 0.278294
0.878798 0.840681 0.300877
0.892576 0.844999 0.325246
0.903502 0.848737 0.346212
0.91284 0.851865 0.368627
0.0551156 0.711406 0.38378
0.056611 0.71458 0.384207
0.0561532 0.715511 0.374853
0.0550698 0.715633 0.360906
0.0537575 0.716258 0.34464
0.0527199 0.717281 0.326085
0.051545 0.71873 0.305211
0.0511025 0.719631 0.282124
0.0529183 0.718746 0.257618
0.0559548 0.716884 0.228931
0.0615702 0.715541 0.196994
0.0721904 0.716701 0.164874
0.0912947 0.719402 0.127718
0.14522 0.726558 0.107042
0.252995 0.738354 0.113695
0.35523 0.74786 0.132311
0.429816 0.752956 0.143069
0.494972 0.757504 0.150759
0.548379 0.764187 0.1617
0.609903 0.775845 0.178653
0.675258 0.793393 0.194736
0.716243 0.805768 0.201877
0.747189 0.815778 0.205814
0.766247 0.823011 0.213169
0.784405 0.829587 0.220447
0.801801 0.834913 0.231968
0.819104 0.839689 0.243763
0.839307 0.844678 0.266987
0.859937 0.849744 0.291554
0.875242 0.853681 0.316106
0.889113 0.857481 0.340581
0.900435 0.860777 0.364904
0.909865 0.863691 0.387228
0.0643626 0.731868 0.412314
0.0649729 0.733974 0.409949
0.0644999 0.734722 0.399695
0.0633707 0.734798 0.38526
0.0624704 0.735088 0.368307
0.0614786 0.735958 0.3505
0.0602884 0.737209 0.329305
0.0595712 0.737652 0.305898
0.0609751 0.73669 0.28159
0.0634928 0.735622 0.254948
0.0681468 0.734035 0.223453
0.078294 0.734569 0.191119
0.0966049 0.7364 0.154192
0.13164 0.741146 0.121019
0.235004 0.750591 0.123339
0.342077 0.760296 0.138415
0.433005 0.765438 0.151095
0.496651 0.768917 0.158801
0.547784 0.775082 0.168826
0.595468 0.784253 0.183246
0.654627 0.79881 0.200778
0.714061 0.815976 0.212909
0.747616 0.827024 0.218585
0.772366 0.835447 0.224979
0.789441 0.841672 0.232288
0.804761 0.846799 0.241749
0.82179 0.851575 0.25716
0.837873 0.855756 0.279728
0.856153 0.860288 0.304494
0.872435 0.864271 0.330831
0.886931 0.86804 0.358038
0.897246 0.870939 0.381735
0.907713 0.873396 0.408789
0.0716564 0.748058 0.439338
0.0720836 0.749691 0.436072
0.0715648 0.74992 0.423575
0.0709544 0.750347 0.407706
0.0698253 0.750729 0.390692
0.0687572 0.751263 0.371054
0.0672465 0.752316 0.349813
