bundles/resolve-cinematic-luts/Phantom Luts/P4k & P6K Phntm Film LUTs - V6/P4K/Gen 4 Colour/White Balance Offset (+Magenta Boost)/P4k Bleach Gen4 WBO.cube
TITLE "Generated by Resolve"
LUT_3D_SIZE 9
0.0153353 0.0269474 0.0176242
0.0226902 0.0277562 0.0195773
0.0803998 0.0319371 0.0271305
0.174517 0.0368963 0.0353552
0.31519 0.046128 0.0500801
0.495155 0.0535134 0.0659953
0.616342 0.0714122 0.0896925
0.719554 0.0902876 0.115953
0.797864 0.113436 0.143481
0.0184329 0.0392767 0.0222477
0.0318151 0.0478218 0.0233005
0.109972 0.0478065 0.0287022
0.23122 0.0478981 0.0355383
0.37052 0.0495918 0.038407
0.525093 0.0546426 0.0475319
0.636728 0.0649424 0.0643473
0.723262 0.0766918 0.082475
0.785824 0.0928359 0.0970474
0.0302434 0.153872 0.0602121
0.0324407 0.166567 0.0315709
0.136202 0.183505 0.0355383
0.324254 0.182269 0.0340276
0.516167 0.148898 0.0584421
0.636362 0.163378 0.0840772
0.733883 0.193378 0.114199
0.820066 0.237858 0.151186
0.893828 0.295949 0.198047
0.0216678 0.289067 0.0856641
0.0222782 0.303624 0.0506142
0.0485695 0.311681 0.0178531
0.286 0.365499 0.0320745
0.546822 0.406821 0.0319219
0.716274 0.450965 0.100999
0.813046 0.489677 0.166705
0.881498 0.52343 0.210773
0.919738 0.555184 0.238254
0.000396735 0.423087 0.123415
0.00132753 0.438758 0.0860609
0.00787366 0.445655 0.0184024
0.147402 0.488212 0.0155184
0.525399 0.59353 0.0705882
0.688853 0.635493 0.0953689
0.815549 0.658885 0.144686
0.890028 0.679591 0.207904
0.924224 0.702419 0.245655
0.00805676 0.576761 0.239414
0.012314 0.590326 0.208042
0.0206149 0.596597 0.115099
0.12697 0.626047 0.0492714
0.467353 0.686793 0.117098
0.681376 0.733227 0.142138
0.788052 0.761975 0.173129
0.877867 0.781872 0.242557
0.924407 0.797864 0.319905
0.0551156 0.711406 0.38378
0.0537575 0.716258 0.34464
0.0529183 0.718746 0.257618
0.0912947 0.719402 0.127718
0.429816 0.752956 0.143069
0.675258 0.793393 0.194736
0.784405 0.829587 0.220447
0.859937 0.849744 0.291554
0.909865 0.863691 0.387228
0.082887 0.770657 0.486686
0.0802167 0.771206 0.430137
0.0796521 0.772427 0.340307
0.110018 0.769955 0.229877
0.400229 0.789105 0.191821
0.634897 0.812589 0.232761
0.795941 0.862821 0.278965
0.855772 0.880018 0.346303
0.903151 0.89163 0.470603
0.0896162 0.778836 0.528664
0.0852979 0.777691 0.468544
0.0918135 0.777951 0.384573
0.126757 0.777798 0.29247
0.361288 0.787747 0.27068
0.634485 0.810056 0.308858
0.762005 0.851972 0.360204
0.858076 0.881926 0.413535
0.903212 0.894286 0.506828
0.0159152 0.0271458 0.021561
0.0228275 0.0279698 0.02327
0.0876936 0.032639 0.042771
0.196429 0.0373083 0.0595712
0.339422 0.0435492 0.07776
0.512352 0.0457313 0.0931106
0.626261 0.0602731 0.119402
0.728603 0.0793774 0.155764
0.801846 0.0993057 0.1935
0.0175784 0.035111 0.0237888
0.0295109 0.0406806 0.0311437
0.125551 0.0442206 0.0397498
0.258091 0.0466011 0.0487373
0.413275 0.0519112 0.0620432
0.560143 0.0631266 0.0798047
0.670832 0.0816052 0.105531
0.757641 0.103685 0.132326
0.816556 0.128099 0.157198
0.0277562 0.145449 0.0846418
0.0305638 0.161074 0.064271
0.141833 0.181857 0.040177
0.355779 0.158755 0.0625315
0.533135 0.133089 0.0726024
0.64683 0.144549 0.0953536
0.739254 0.166751 0.118746
0.818647 0.200916 0.147662
0.881102 0.245991 0.186862
0.0204318 0.283055 0.121798
0.0206302 0.297841 0.090013
0.0288853 0.309285 0.0173648
0.291478 0.365423 0.0332189
0.578225 0.398016 0.0535744
0.7346 0.434791 0.130663
0.832532 0.467216 0.196994
0.898878 0.494774 0.24271
0.928786 0.528161 0.26685
0 0.418006 0.162509
0 0.431373 0.128161
0.00515755 0.443656 0.0392615
0.126757 0.48304 0.0150912
0.526848 0.592294 0.0724956
0.701946 0.632227 0.104234
0.82855 0.653895 0.168276
0.896941 0.67332 0.234653
0.927932 0.694438 0.271
0.00872816 0.570397 0.272404
0.0103151 0.582422 0.246571
0.0170596 0.594278 0.148638
0.0687572 0.61355 0.0530861
0.438636 0.683284 0.116609
0.680583 0.730877 0.143923
0.794522 0.758877 0.177554
0.885435 0.777066 0.259388
0.92784 0.792004 0.340291
0.0558633 0.704051 0.419303
0.0550546 0.708705 0.381842
0.0506294 0.713848 0.294621
0.0760967 0.715969 0.167056
0.397192 0.750225 0.145068
0.660945 0.787594 0.195178
0.781125 0.826322 0.220462
0.861051 0.846952 0.292882
0.912383 0.860227 0.392935
0.0840314 0.765026 0.52221
0.081529 0.765774 0.476539
0.0771344 0.768353 0.380575
0.0954147 0.768322 0.265644
0.332616 0.784634 0.192355
0.61706 0.807431 0.224994
0.789136 0.859922 0.271702
0.851835 0.878416 0.335805
0.901793 0.889494 0.461311
0.0948348 0.780499 0.569329
0.0902419 0.77879 0.526192
0.0856947 0.777707 0.430182
0.107698 0.778012 0.328695
0.307134 0.784848 0.271839
0.603418 0.803006 0.298711
0.744656 0.845747 0.354055
0.850401 0.879973 0.403647
0.897932 0.892576 0.495613
0.0260319 0.0313573 0.0740063
0.0498512 0.0315404 0.0692454
0.0986496 0.0331273 0.0781262
0.222293 0.0379187 0.119005
0.376989 0.043061 0.140917
0.542977 0.045304 0.169497
0.649897 0.0540932 0.208682
0.742641 0.0659648 0.252293
0.810361 0.0837262 0.301122
0.0145266 0.0339666 0.0665751
0.0340429 0.0323339 0.0951247
0.133486 0.0345312 0.102403
0.284504 0.0406043 0.130892
0.45893 0.043061 0.143954
0.587808 0.0488136 0.168887
0.690654 0.0624247 0.201816
0.773144 0.0818036 0.238895
0.82295 0.099382 0.273182
0.0250553 0.13814 0.118425
0.0248417 0.146349 0.128969
0.164767 0.163836 0.160616
0.373465 0.15671 0.15259
0.562615 0.141604 0.14522
0.673472 0.144213 0.159609
0.766094 0.155474 0.18262
0.835798 0.18201 0.211765
0.865278 0.21323 0.242206
0.0182498 0.273579 0.177752
0.0172122 0.283528 0.171466
0.0487678 0.312367 0.137346
0.331853 0.372946 0.137377
0.621851 0.381033 0.177172
0.761685 0.394232 0.230198
0.868452 0.415152 0.275578
0.924941 0.453376 0.312352
0.937118 0.489448 0.332418
0 0.407126 0.224506
0 0.417151 0.211994
0 0.424949 0.132662
0.0813153 0.469154 0.0487678
0.530571 0.585321 0.113451
0.73666 0.619684 0.182956
0.850782 0.638666 0.249027
0.909743 0.656382 0.296849
0.93312 0.675242 0.340246
0.00909438 0.557061 0.320012
0.0111849 0.566812 0.308568
0.0087129 0.57055 0.240085
0.0246586 0.595712 0.105821
0.369146 0.66952 0.129702
0.675776 0.721965 0.160739
0.811246 0.749203 0.224201
0.902831 0.76437 0.309606
0.934188 0.780148 0.386114
0.0566567 0.691875 0.471382
0.0562905 0.694591 0.446754
0.0528573 0.697124 0.371588
0.0581826 0.709667 0.25005
0.291722 0.735698 0.166827
0.620111 0.771969 0.201999
0.774884 0.81828 0.227573
0.865507 0.839979 0.301488
0.918715 0.85214 0.413382
0.0873884 0.757244 0.56173
0.0842145 0.756512 0.53463
0.0800488 0.757275 0.4636
0.0814984 0.765255 0.336919
0.225177 0.773846 0.221851
0.575387 0.79588 0.231678
0.769604 0.851835 0.263798
0.845701 0.874449 0.317723
0.900984 0.885145 0.449744
0.103304 0.783322 0.611399
0.0991989 0.781262 0.58471
0.092668 0.778775 0.523156
0.0921187 0.777951 0.393439
0.210498 0.780133 0.286656
0.526223 0.791791 0.284504
0.713939 0.834531 0.341558
0.834974 0.875853 0.386038
0.889998 0.890288 0.475563
0.0388495 0.0341344 0.150042
0.0732128 0.0343938 0.147555
0.131594 0.0349279 0.15108
0.24593 0.0399481 0.18323
0.405829 0.04477 0.238087
0.565515 0.049012 0.287037
0.680461 0.0600443 0.335485
0.768566 0.0719768 0.394171
0.819486 0.0804303 0.465187
0.0112459 0.0342412 0.147326
0.0543374 0.0363165 0.199863
0.164782 0.0380407 0.216342
0.311482 0.0434577 0.235172
0.486015 0.0457465 0.277684
0.61941 0.0541238 0.320958
0.720745 0.0652323 0.359747
0.791257 0.0755474 0.414511
0.822263 0.0819867 0.455344
0.0208286 0.118273 0.202914
0.0189975 0.116182 0.228336
0.168887 0.113359 0.316945
0.395865 0.112993 0.308629
0.569802 0.0988174 0.322988
0.67985 0.103136 0.333822
0.766094 0.102754 0.359777
0.830716 0.114504 0.387289
0.855924 0.133654 0.428412
0.016907 0.265675 0.242649
0.0158999 0.274342 0.253559
0.0678721 0.301335 0.291356
0.395956 0.349859 0.362325
0.632486 0.356847 0.366979
0.776974 0.385412 0.400076
0.888869 0.408972 0.430762
0.930831 0.425986 0.455955
0.934127 0.434867 0.472816
0 0.402152 0.282475
0 0.410224 0.281514
0.00276188 0.413077 0.26479
0.213794 0.525246 0.327413
0.585855 0.594537 0.357885
0.753933 0.608759 0.420218
0.860349 0.626657 0.452567
0.922576 0.637568 0.482399
0.935515 0.64773 0.493156
0.0109712 0.549981 0.379339
0.0132753 0.557671 0.375265
0.0120851 0.553414 0.33669
0.0617533 0.584436 0.288792
0.391943 0.671992 0.310048
0.689158 0.71516 0.354696
0.845548 0.734813 0.437934
0.914824 0.74995 0.487465
0.939544 0.764233 0.502785
0.0596017 0.682765 0.520012
0.0596933 0.683268 0.508522
0.0572366 0.680156 0.468269
0.0605325 0.691859 0.378027
0.244205 0.71603 0.291188
0.582818 0.753124 0.31632
0.774258 0.806348 0.369512
0.882795 0.829938 0.438102
0.930571 0.842252 0.504082
0.0929732 0.751003 0.598077
0.0903334 0.748547 0.582177
0.0866102 0.745846 0.546654
0.0859388 0.751431 0.464988
0.198184 0.76289 0.336461
0.507973 0.780667 0.316564
0.723552 0.828565 0.375998
0.842252 0.866728 0.415259
0.905989 0.881544 0.491875
0.114199 0.785473 0.649882
0.110414 0.782605 0.631739
0.104662 0.779507 0.597848
0.0995804 0.777707 0.526619
0.163088 0.779629 0.388525
0.417319 0.789868 0.339773
0.685512 0.82501 0.382528
0.820142 0.870863 0.409949
0.887755 0.889723 0.483253
0.0608377 0.0380865 0.253239
0.0981918 0.0383001 0.257267
0.181445 0.0399481 0.273884
0.287404 0.0429999 0.28603
0.441428 0.0463264 0.320836
0.589792 0.0526284 0.385565
0.694057 0.0631571 0.48249
0.783185 0.0749676 0.536461
0.827665 0.0838026 0.573312
0.0204318 0.038056 0.262577
0.0825055 0.04065 0.319875
0.214359 0.0430915 0.349828
0.347585 0.0459754 0.35259
0.517617 0.0483558 0.381109
0.638498 0.0577554 0.449271
0.734096 0.0687114 0.52134
0.805432 0.0790112 0.555566
0.829206 0.0851148 0.576242
0.0145571 0.0879683 0.290318
0.0133516 0.0805219 0.312901
0.151919 0.0518807 0.412924
0.365011 0.0592508 0.415869
0.543633 0.0577401 0.4159
0.649943 0.0617838 0.454932
0.743053 0.0719615 0.507225
0.808148 0.0799115 0.531456
0.832273 0.0900893 0.558663
0.0167697 0.240925 0.350774
0.0162814 0.244617 0.372808
0.0636759 0.249454 0.455406
0.426169 0.273274 0.569085
0.654383 0.294942 0.580865
0.791562 0.310613 0.618692
0.89688 0.325597 0.63595
0.940246 0.331807 0.657221
0.94435 0.33994 0.674708
0.000396735 0.39704 0.357244
0 0.405066 0.366293
0.00015259 0.403189 0.372549
0.250751 0.52256 0.514397
0.612284 0.569253 0.574716
0.754192 0.580377 0.583215
0.861875 0.595514 0.597177
0.920256 0.60766 0.609689
0.930098 0.615152 0.620859
0.0124208 0.548226 0.442847
0.014725 0.554528 0.446769
0.0157321 0.549996 0.430503
0.141436 0.600031 0.479332
0.525383 0.683467 0.579492
0.726177 0.711101 0.58436
0.847364 0.721614 0.616953
0.917815 0.73579 0.634623
0.9458 0.746242 0.65037
0.0621653 0.676875 0.563394
0.0626535 0.676417 0.558267
0.0612345 0.670283 0.536202
0.0905776 0.675837 0.510399
0.363485 0.729305 0.544198
0.62565 0.764645 0.549752
0.800458 0.806271 0.588632
0.907744 0.820691 0.634272
0.943786 0.834134 0.654063
0.0981918 0.745754 0.629648
0.0963912 0.742428 0.618128
0.0934462 0.737514 0.597269
0.0957656 0.737484 0.566674
0.287129 0.756298 0.536706
0.541466 0.786526 0.529534
0.735683 0.831067 0.579797
0.859815 0.867353 0.605646
0.925872 0.881529 0.639765
0.123613 0.782986 0.673716
0.120394 0.779492 0.661845
0.115541 0.774639 0.640787
0.113466 0.772961 0.60882
0.244984 0.776486 0.558389
0.488685 0.801587 0.541573
0.688792 0.839277 0.573343
0.827405 0.880156 0.609903
0.900557 0.900984 0.629206
0.0876173 0.0415198 0.354208
0.133776 0.0422522 0.370809
0.230625 0.0443122 0.399924
0.342626 0.0495613 0.41799
0.482689 0.0466773 0.436515
0.609583 0.0552529 0.4925
0.716915 0.0681163 0.553445
0.797543 0.0802167 0.614527
0.837995 0.0887007 0.652857
0.0552224 0.0422675 0.388113
0.120684 0.0438697 0.452796
0.263981 0.0466926 0.491981
0.407752 0.0503853 0.494469
0.54461 0.0495613 0.504936
0.656107 0.0610513 0.544167
0.753429 0.0740826 0.588113
0.818006 0.0844282 0.636301
0.839612 0.090135 0.65948
0.00994888 0.0510719 0.359747
0.00975052 0.0424811 0.374762
0.173953 0.045716 0.509544
0.379675 0.0504311 0.522942
0.54313 0.0499275 0.519341
0.661768 0.0622721 0.550286
0.756298 0.0749676 0.586404
0.818586 0.0847486 0.631251
0.838483 0.0900587 0.648508
0.0149233 0.209888 0.466575
0.0146487 0.210681 0.490043
0.060029 0.198962 0.559503
0.436866 0.193545 0.658045
0.657816 0.216266 0.665522
0.781979 0.232441 0.683177
0.875471 0.238132 0.703029
0.917021 0.237827 0.722271
0.927138 0.25449 0.738689
0.00341802 0.38613 0.480003
0.00308232 0.391592 0.494179
0.00906386 0.379553 0.523949
0.249485 0.478035 0.626734
0.648692 0.535012 0.706447
0.782986 0.555856 0.715084
0.887327 0.563027 0.727733
0.93695 0.572229 0.731609
0.94519 0.579522 0.74377
0.0141299 0.547189 0.510552
0.0171511 0.553826 0.519417
0.0167697 0.548211 0.517113
0.122438 0.587442 0.567163
0.552392 0.677989 0.673213
0.735943 0.693401 0.694148
0.847089 0.700404 0.699382
0.916091 0.711223 0.71017
0.941741 0.72018 0.720958
0.0641642 0.675303 0.598123
0.064744 0.674693 0.595697
0.0648356 0.66865 0.584772
0.112551 0.673411 0.58265
0.479591 0.736263 0.658366
0.698619 0.782315 0.707286
0.834165 0.801251 0.709285
0.909758 0.811017 0.728496
0.946365 0.821988 0.73994
0.101839 0.743023 0.655512
0.100999 0.739651 0.648386
0.103685 0.734539 0.637354
0.136446 0.733623 0.624018
0.398199 0.769528 0.655421
0.636683 0.812238 0.689052
0.76733 0.847074 0.700328
0.887098 0.872038 0.715877
0.939452 0.878981 0.743557
0.132494 0.780301 0.693843
0.130419 0.776501 0.684962
0.129992 0.771832 0.671336
0.144381 0.769741 0.654063
0.341924 0.786542 0.659495
0.589822 0.823957 0.683482
0.722789 0.861906 0.695674
0.849302 0.89247 0.721325
0.919249 0.90808 0.730571
0.123934 0.0440833 0.472007
0.179217 0.0454108 0.497658
0.282185 0.0479591 0.524147
0.40647 0.0507973 0.535134
0.530648 0.0509804 0.543862
0.632685 0.0586862 0.574243
0.734432 0.0727092 0.618997
0.817014 0.0862593 0.662272
0.847715 0.0935683 0.694957
0.0986343 0.0450294 0.517021
0.172091 0.0474861 0.559152
0.315801 0.0506752 0.585031
0.469703 0.0516976 0.584756
0.57818 0.0527047 0.588861
0.675181 0.0649271 0.615274
0.769009 0.0789654 0.650385
0.835065 0.0904707 0.681239
0.849928 0.0949264 0.702617
0.00886549 0.042237 0.449424
0.0338293 0.0441138 0.501198
0.234211 0.050248 0.597452
0.43888 0.0517128 0.606256
0.574594 0.0529946 0.601984
0.677928 0.0655222 0.624048
0.772366 0.0798962 0.653422
0.834607 0.0906691 0.678721
0.849027 0.0948806 0.697826
0.0142061 0.178088 0.544015
0.0142214 0.175845 0.560525
0.0693828 0.150591 0.625025
0.440146 0.126177 0.704463
0.645212 0.138842 0.706279
0.754971 0.149813 0.716091
0.844327 0.159503 0.725658
0.89546 0.177096 0.741268
0.899321 0.170275 0.755093
0.00874342 0.371054 0.568948
0.00883497 0.375662 0.580667
0.0175021 0.361547 0.606607
0.253162 0.438575 0.707637
0.681331 0.502083 0.804211
0.819242 0.534157 0.806714
0.907195 0.545953 0.813275
0.94789 0.550637 0.821515
0.954971 0.555291 0.830839
0.0108949 0.545281 0.575006
0.0128176 0.550057 0.584604
0.0199893 0.541604 0.596002
0.157 0.581003 0.664515
0.551461 0.656992 0.746319
0.766186 0.674983 0.787305
0.865965 0.686244 0.794553
0.928389 0.69279 0.801038
0.950729 0.700679 0.808667
0.0670634 0.674311 0.639017
0.0678416 0.673289 0.639506
0.066804 0.666728 0.635462
0.1066 0.67277 0.646799
0.459312 0.728588 0.713375
0.71664 0.778714 0.774334
0.835584 0.787259 0.784756
0.908003 0.793469 0.789197
0.944045 0.801343 0.796658
0.104356 0.741848 0.680476
0.103746 0.73875 0.67512
0.106371 0.733852 0.667964
0.142229 0.733211 0.662943
0.428641 0.770413 0.703075
0.690227 0.826398 0.767163
0.820615 0.858198 0.803662
0.902205 0.866178 0.80061
0.939956 0.8719 0.810239
0.142046 0.77969 0.709712
0.140276 0.77586 0.702525
0.148669 0.771008 0.693614
0.182773 0.768399 0.685069
0.405615 0.79321 0.708598
0.658152 0.844129 0.761166
0.78735 0.883619 0.799374
0.869596 0.900267 0.804364
0.932952 0.909163 0.807431
0.168688 0.047425 0.559197
0.232486 0.0495918 0.582589
0.334401 0.0517586 0.601419
0.468071 0.0521553 0.60679
0.574609 0.0566873 0.616464
0.659983 0.0618906 0.638041
0.753872 0.0775006 0.672801
0.832715 0.0916915 0.710948
0.857679 0.0977493 0.734539
0.151125 0.0492561 0.599573
0.230091 0.0520027 0.628733
0.366995 0.0541543 0.646265
0.515801 0.054078 0.646723
0.613169 0.0595865 0.652293
0.697658 0.0679484 0.672618
0.783398 0.0835279 0.699031
0.847654 0.0954147 0.725673
0.859297 0.0988479 0.740536
0.0200656 0.0449836 0.53611
0.0852522 0.048127 0.593469
0.291234 0.0544747 0.658351
0.488258 0.0536965 0.663233
0.606531 0.0578012 0.662211
0.697353 0.0685893 0.679362
0.785626 0.0843671 0.703426
0.846479 0.0955825 0.72517
0.858869 0.0991379 0.736751
0.0139315 0.148333 0.591302
0.013962 0.143679 0.604181
0.0877699 0.110613 0.665293
0.436606 0.0820935 0.719356
0.629877 0.0923323 0.722179
0.732341 0.105806 0.729946
0.817487 0.116655 0.740642
0.876982 0.129656 0.75613
0.883818 0.134401 0.762325
0.0125277 0.362387 0.625925
0.0127718 0.365408 0.636332
0.0279088 0.351171 0.663371
0.297261 0.415671 0.780682
0.713954 0.47097 0.862974
0.851545 0.507576 0.865156
0.922972 0.523644 0.862516
0.956039 0.531365 0.864012
0.960189 0.536141 0.864729
0.0151217 0.542626 0.630503
0.016846 0.544671 0.638727
0.0305943 0.536233 0.653269
0.192706 0.581445 0.725505
0.560204 0.642756 0.802213
0.791806 0.664912 0.849165
0.890593 0.68069 0.849149
0.938918 0.689235 0.856748
0.958053 0.69424 0.862989
0.064622 0.674784 0.677089
0.0669871 0.672633 0.679484
0.0708171 0.664347 0.681926
0.145632 0.670466 0.707469
0.494667 0.719036 0.76939
0.714687 0.764645 0.820142
0.858503 0.773693 0.839628
0.915999 0.780789 0.844587
0.949798 0.786603 0.845533
0.106645 0.741222 0.703609
0.105821 0.737682 0.700877
0.108141 0.733288 0.698558
0.146227 0.733196 0.702022
0.416327 0.765408 0.740078
0.681849 0.820386 0.80119
0.831724 0.854765 0.839033
0.901839 0.857099 0.843198
0.938918 0.861006 0.845777
0.14699 0.778943 0.724392
0.14699 0.775647 0.719875
0.154559 0.770779 0.713512
0.187137 0.768124 0.708217
0.413962 0.792813 0.733806
0.671733 0.847684 0.791745
0.821103 0.889998 0.839963
0.893507 0.901183 0.854261
0.936522 0.905104 0.851957
0.223835 0.0518349 0.625574
0.287434 0.053666 0.644617
0.389929 0.0545357 0.657542
0.51667 0.05449 0.662882
0.611231 0.0607156 0.672312
0.689876 0.0661326 0.689509
0.776196 0.082536 0.718624
0.844221 0.0962997 0.746487
0.864958 0.102251 0.76701
0.212436 0.0539406 0.661143
0.286671 0.0561532 0.6813
0.422751 0.0556344 0.691142
0.55288 0.057145 0.69456
0.643519 0.0635386 0.699458
0.721508 0.0714885 0.714473
0.80058 0.0877546 0.738033
0.856657 0.0993057 0.75758
0.865858 0.102983 0.771084
0.0627604 0.0490425 0.613626
0.144152 0.0528725 0.656687
0.344198 0.0575418 0.701946
0.528283 0.0565194 0.705104
0.636866 0.0641794 0.708766
0.719661 0.0720073 0.719265
0.799664 0.0880446 0.740749
0.855497 0.0995193 0.758083
0.865629 0.10312 0.768093
0.0145571 0.121981 0.625498
0.0174105 0.114412 0.636454
0.116732 0.0788281 0.687831
0.45185 0.0626841 0.73048
0.622065 0.0668956 0.730175
0.729809 0.0884871 0.744884
0.813794 0.106477 0.762325
0.863432 0.108248 0.768002
0.88307 0.127764 0.786679
0.0150149 0.356619 0.667735
0.0154574 0.357168 0.67718
0.0469673 0.34519 0.709178
0.376272 0.403479 0.836362
0.748089 0.445823 0.896117
0.878416 0.480797 0.89749
0.93608 0.500587 0.891402
0.961334 0.512093 0.889555
0.963668 0.515496 0.890471
0.0250248 0.544335 0.6701
0.0277409 0.544717 0.677287
0.0460365 0.537926 0.693126
0.238849 0.587366 0.771572
0.594751 0.634363 0.843641
0.818357 0.658091 0.884489
0.912062 0.674586 0.88394
0.948638 0.685771 0.886229
0.961913 0.69041 0.889555
0.0693828 0.673533 0.708385
0.0703899 0.670146 0.710704
0.0865797 0.662776 0.719142
0.202625 0.670863 0.748394
0.52137 0.714794 0.80473
0.723598 0.755886 0.853529
0.881041 0.767422 0.875532
0.928298 0.776638 0.878477
0.954711 0.781933 0.881559
0.108248 0.741726 0.726284
0.108461 0.737636 0.725399
0.116976 0.732601 0.726467
0.185428 0.731914 0.737819
0.460044 0.762768 0.780346
0.700282 0.816556 0.836164
0.832578 0.846189 0.863951
0.910201 0.846967 0.870634
0.940581 0.851667 0.868544
0.153689 0.77882 0.739467
0.153964 0.775097 0.73579
0.16257 0.770794 0.733028
0.198245 0.768399 0.73286
0.416022 0.790753 0.759091
0.666056 0.843046 0.813428
0.817746 0.88806 0.859403
0.899214 0.898329 0.872724
0.936309 0.900175 0.874983
