bundles/resolve-cinematic-luts/Phantom Luts/P4k & P6K Phntm Film LUTs - V6/P4K/Gen 4 Colour/White Balance Offset (+Magenta Boost)/P4k Eterna Gen4-Legacy WBO.cube
TITLE "Generated by Resolve"
LUT_3D_SIZE 33
0.016846 0.0444648 0.044358
0.0171054 0.0443427 0.043946
0.0321355 0.0458991 0.048127
0.046128 0.0477607 0.0520027
0.0636454 0.0496223 0.0537423
0.0812543 0.0511635 0.0555123
0.0969253 0.0526894 0.0570382
0.112367 0.0545357 0.0586862
0.130602 0.0572519 0.061738
0.152728 0.0607919 0.0666667
0.178058 0.0642405 0.0726787
0.206668 0.0683909 0.0796521
0.239796 0.0731212 0.0890364
0.273793 0.0780041 0.0984665
0.310002 0.0820478 0.107134
0.347097 0.0855573 0.116014
0.385 0.090013 0.126055
0.42298 0.0946517 0.135424
0.461524 0.0994583 0.145251
0.495613 0.105867 0.156268
0.539574 0.110063 0.166995
0.587976 0.117769 0.178347
0.629404 0.120027 0.189303
0.663752 0.127337 0.200397
0.685222 0.13373 0.209049
0.700008 0.140764 0.216556
0.705089 0.144503 0.220111
0.70837 0.1458 0.222873
0.713115 0.146395 0.22649
0.719463 0.146426 0.230304
0.72607 0.145357 0.233967
0.733867 0.144549 0.238224
0.741588 0.14374 0.242695
0.0178225 0.0439918 0.0427863
0.0173037 0.0442359 0.0436103
0.024567 0.0450599 0.0442359
0.0403296 0.0478218 0.0467536
0.0582132 0.0507515 0.0497139
0.0771496 0.0534218 0.0525216
0.0951553 0.0557717 0.0546426
0.111696 0.0579232 0.0565347
0.130556 0.0606699 0.0593423
0.152804 0.0641184 0.0636149
0.178347 0.0677653 0.0690929
0.206104 0.0711376 0.0757153
0.237903 0.0752117 0.0829786
0.27248 0.0785992 0.09131
0.309789 0.0827344 0.100969
0.348348 0.0866865 0.110765
0.387457 0.0909133 0.120592
0.426078 0.094316 0.129564
0.461997 0.0990921 0.139528
0.49543 0.104631 0.149538
0.539223 0.108858 0.160327
0.586496 0.113146 0.17145
0.629831 0.118227 0.182925
0.66186 0.124895 0.193759
0.683925 0.132998 0.203174
0.698131 0.140688 0.210101
0.704555 0.145571 0.214084
0.710445 0.149157 0.217304
0.715709 0.150469 0.220386
0.722148 0.151171 0.223926
0.729595 0.150942 0.227726
0.737667 0.1505 0.231693
0.745235 0.149798 0.235401
0.0183413 0.0457465 0.044007
0.017792 0.0461585 0.0445869
0.0193179 0.0453193 0.0443885
0.0337377 0.0504616 0.0469368
0.0502937 0.0547189 0.0498054
0.069688 0.0578927 0.0526131
0.089128 0.0598459 0.0547189
0.107347 0.0612192 0.056611
0.125994 0.0625315 0.0590982
0.147951 0.0644999 0.0620279
0.172732 0.066865 0.06598
0.200565 0.0694133 0.0709544
0.232593 0.0728771 0.0769818
0.268009 0.0766461 0.0848554
0.305241 0.0798962 0.0936294
0.345357 0.0837568 0.103655
0.386282 0.0873884 0.113405
0.427237 0.0914931 0.123888
0.462669 0.0961471 0.133715
0.498711 0.10164 0.144518
0.541909 0.105303 0.154818
0.587655 0.108812 0.165682
0.630335 0.113573 0.177905
0.659586 0.120302 0.188357
0.679759 0.128023 0.197269
0.6916 0.134737 0.203128
0.697627 0.13904 0.206958
0.703456 0.142046 0.210025
0.710323 0.144808 0.213931
0.718776 0.147158 0.217975
0.72755 0.148714 0.221927
0.736568 0.150027 0.226261
0.745449 0.150652 0.230274
0.0217899 0.0561837 0.051133
0.0209201 0.0566567 0.0504463
0.023682 0.0541848 0.0479744
0.0321508 0.0564431 0.0488746
0.0449531 0.0601816 0.0510719
0.0635538 0.0621042 0.0535134
0.0835889 0.0632486 0.0555581
0.103136 0.0642863 0.057496
0.123125 0.0651713 0.0598001
0.145434 0.0655985 0.0618906
0.170779 0.067277 0.0658885
0.198642 0.069337 0.0697032
0.229007 0.0717784 0.0740215
0.262287 0.0747387 0.0795911
0.298604 0.0775616 0.0865949
0.337606 0.0802625 0.0946517
0.38056 0.0836805 0.10486
0.422827 0.0869917 0.11516
0.460639 0.0925307 0.127321
0.498466 0.0971389 0.138018
0.543877 0.100313 0.149111
0.591424 0.104158 0.161059
0.633219 0.108537 0.172992
0.662684 0.11519 0.18407
0.681987 0.123049 0.193179
0.690715 0.12842 0.197574
0.695537 0.132143 0.200656
0.699641 0.134813 0.203296
0.70518 0.137743 0.206821
0.712184 0.139864 0.210147
0.720455 0.141512 0.214038
0.729671 0.142763 0.218173
0.738659 0.143557 0.222065
0.0274205 0.0748608 0.0639963
0.026276 0.0768444 0.0621195
0.0274662 0.0774395 0.0579538
0.038407 0.0751202 0.0540475
0.0511177 0.0755169 0.0555886
0.0683909 0.0762188 0.0582437
0.0881819 0.0758679 0.0602731
0.106569 0.0749371 0.0608835
0.125978 0.0744182 0.0623178
0.148013 0.0735637 0.0642252
0.173159 0.0734875 0.0673838
0.200153 0.0732738 0.0699016
0.229328 0.0737316 0.0732433
0.260655 0.0747082 0.0764019
0.29427 0.0767224 0.0819867
0.331777 0.0793317 0.0884565
0.372641 0.0817731 0.0962997
0.415412 0.0844282 0.10544
0.451255 0.0888991 0.116014
0.493294 0.0939803 0.129168
0.540749 0.097261 0.141268
0.588922 0.100557 0.153826
0.631327 0.105257 0.166506
0.660471 0.111666 0.178073
0.680888 0.119387 0.187366
0.688212 0.124331 0.191455
0.692073 0.12723 0.19382
0.695552 0.129549 0.196429
0.699519 0.131792 0.19881
0.704692 0.133303 0.20119
0.712612 0.1346 0.204852
0.722087 0.135668 0.208896
0.731579 0.136049 0.212604
0.0301976 0.0962081 0.07393
0.0282292 0.0991989 0.0706493
0.027512 0.101274 0.0654612
0.0339055 0.099794 0.0590677
0.0496071 0.0974136 0.0577401
0.0714275 0.0979629 0.0592508
0.0930648 0.0976272 0.0629892
0.114305 0.0957961 0.066865
0.135561 0.0924849 0.0687877
0.157794 0.0892805 0.0697642
0.183108 0.0881208 0.0717327
0.210452 0.0865644 0.07393
0.239857 0.0850385 0.0765087
0.270222 0.0830701 0.0788128
0.301823 0.0823987 0.0826886
0.336049 0.0826734 0.0869917
0.372259 0.0831922 0.091783
0.410269 0.0840009 0.0981003
0.441947 0.0875563 0.106462
0.481819 0.0901808 0.115633
0.529702 0.0938277 0.128405
0.579843 0.0974136 0.141955
0.622583 0.101854 0.155215
0.653407 0.108827 0.168429
0.673381 0.115511 0.177859
0.683818 0.121584 0.183291
0.687327 0.124239 0.185931
0.690562 0.12665 0.188205
0.694163 0.128237 0.190341
0.699458 0.129763 0.192996
0.706859 0.130571 0.195865
0.715785 0.130495 0.1991
0.72575 0.130297 0.202457
0.0324407 0.117754 0.0839399
0.0295567 0.121584 0.0787823
0.0271763 0.124804 0.0731518
0.0284428 0.125124 0.065919
0.0419928 0.122591 0.0572976
0.0648966 0.121355 0.0590372
0.0946059 0.120684 0.0601663
0.118135 0.119951 0.0622416
0.144579 0.116335 0.0681926
0.169818 0.110597 0.0722515
0.195911 0.105943 0.075349
0.222278 0.103288 0.0772259
0.252369 0.102235 0.0805371
0.283726 0.10071 0.0835279
0.316045 0.0990311 0.0867628
0.349279 0.0973831 0.0902266
0.384176 0.0961318 0.0940261
0.420356 0.0952926 0.0986648
0.449409 0.0965133 0.105196
0.48394 0.0952621 0.11017
0.522393 0.0950942 0.118151
0.564736 0.0960861 0.127749
0.604273 0.0989853 0.138628
0.634806 0.104829 0.150011
0.656519 0.11133 0.159777
0.67071 0.117006 0.166537
0.674479 0.119783 0.169604
0.678294 0.121859 0.171939
0.681788 0.123598 0.174441
0.686793 0.12546 0.177264
0.693111 0.126802 0.179995
0.699809 0.127123 0.182635
0.707988 0.127428 0.185885
0.0383307 0.137331 0.092134
0.0339055 0.142168 0.0876936
0.0294957 0.14725 0.08159
0.0285344 0.150317 0.074403
0.0296635 0.15021 0.0640879
0.0513924 0.14728 0.0571908
0.0820325 0.146029 0.0610513
0.116579 0.145525 0.0630503
0.143618 0.14464 0.0646525
0.177798 0.141131 0.0706951
0.209461 0.133928 0.0783703
0.239612 0.126711 0.0832227
0.27071 0.123445 0.0874037
0.302831 0.122683 0.0908064
0.337224 0.121965 0.0944686
0.373449 0.121386 0.0986648
0.410727 0.12108 0.103334
0.44918 0.120821 0.108064
0.483879 0.120806 0.113146
0.519478 0.119875 0.11812
0.556481 0.118822 0.123827
0.593027 0.117189 0.130343
0.625071 0.11725 0.138125
0.648814 0.120302 0.146609
0.667369 0.124804 0.154284
0.678233 0.12784 0.158495
0.680446 0.128832 0.159564
0.682368 0.130068 0.159686
0.684031 0.130556 0.159991
0.687114 0.130617 0.161379
0.691341 0.129976 0.16321
0.696483 0.128786 0.164828
0.703365 0.127871 0.166812
0.0393225 0.160906 0.105348
0.0361791 0.166964 0.100969
0.0325322 0.172961 0.0943618
0.0310063 0.177996 0.0862287
0.0308232 0.180529 0.0767987
0.0361791 0.178515 0.0635233
0.0602579 0.176547 0.0581674
0.100038 0.175784 0.0636912
0.140246 0.175799 0.0673075
0.173739 0.175814 0.0682231
0.215839 0.173404 0.0740978
0.256886 0.164874 0.0854353
0.294469 0.155505 0.0941634
0.329168 0.152346 0.099443
0.365332 0.152468 0.103517
0.404334 0.153918 0.108125
0.444633 0.155367 0.113115
0.48571 0.156603 0.118303
0.526482 0.15729 0.123507
0.567102 0.15761 0.128954
0.607599 0.15787 0.135027
0.647807 0.158556 0.142657
0.6804 0.161288 0.151995
0.704433 0.166735 0.161501
0.723857 0.173083 0.1691
0.735424 0.177981 0.17351
0.736507 0.178347 0.173877
0.735775 0.177813 0.173861
0.735424 0.177172 0.1738
0.735164 0.175753 0.173693
0.736095 0.174166 0.173693
0.738308 0.17232 0.173877
0.741985 0.170626 0.174212
0.0432288 0.189502 0.119631
0.0404059 0.195865 0.116075
0.037171 0.203021 0.109743
0.0357214 0.209491 0.100999
0.0347601 0.214359 0.0901503
0.0352941 0.214954 0.0795911
0.0396277 0.211505 0.0637522
0.0715953 0.211826 0.0612802
0.119966 0.212268 0.0670481
0.170504 0.213123 0.0717937
0.21091 0.214878 0.0723735
0.263386 0.214542 0.0770428
0.315022 0.208011 0.0912032
0.359823 0.198184 0.103487
0.400381 0.192828 0.111147
0.439353 0.191592 0.116854
0.480079 0.193576 0.120897
0.522972 0.195605 0.125933
0.566522 0.197589 0.131044
0.610407 0.199344 0.136538
0.654902 0.201358 0.143755
0.697902 0.204105 0.152544
0.731929 0.208942 0.163638
0.756832 0.215518 0.173922
0.777493 0.223026 0.182803
0.788983 0.228244 0.187366
0.791836 0.229801 0.18854
0.791409 0.229572 0.188373
0.791089 0.229313 0.188281
0.790555 0.228489 0.188113
0.790219 0.227298 0.187915
0.790722 0.226093 0.1879
0.792035 0.225101 0.188052
0.0501259 0.224125 0.135225
0.0455787 0.230793 0.132082
0.041474 0.238376 0.126604
0.0392615 0.245563 0.118563
0.0377813 0.252262 0.10753
0.0381018 0.255909 0.0960403
0.0392309 0.255894 0.0826276
0.0440528 0.251041 0.0641489
0.0844282 0.254658 0.0647288
0.143053 0.257191 0.0702983
0.208835 0.259754 0.0763561
0.257237 0.263539 0.0768597
0.321386 0.265156 0.0780804
0.378622 0.261219 0.0891737
0.430762 0.252415 0.103075
0.477928 0.244541 0.114641
0.519631 0.241474 0.123537
0.560708 0.241459 0.130175
0.60383 0.242344 0.136522
0.649195 0.245457 0.142885
0.694667 0.248707 0.150622
0.737224 0.252781 0.1608
0.771176 0.258625 0.173159
0.796033 0.26569 0.184894
0.815808 0.273182 0.194247
0.827054 0.278965 0.199878
0.830579 0.281422 0.201328
0.830472 0.281239 0.201282
0.830182 0.280797 0.20119
0.829709 0.280018 0.200977
0.829313 0.279072 0.200824
0.829297 0.277974 0.200778
0.829908 0.277256 0.200885
0.0545052 0.267323 0.154238
0.0490425 0.2757 0.150195
0.0438544 0.284535 0.145006
0.0406958 0.292378 0.137255
0.0389105 0.30042 0.128267
0.0385748 0.307164 0.116426
0.0386969 0.311315 0.102678
0.0399634 0.30985 0.0848554
0.0509957 0.305394 0.0668345
0.09897 0.311498 0.0652476
0.169436 0.314366 0.0723125
0.251499 0.316518 0.0767681
0.310231 0.320668 0.0754253
0.379858 0.322606 0.072694
0.441657 0.322072 0.0768139
0.498573 0.316533 0.0903487
0.551003 0.309331 0.106935
0.596551 0.305577 0.120562
0.638682 0.30399 0.13286
0.680385 0.301732 0.145022
0.723842 0.301701 0.156207
0.765499 0.303059 0.1691
0.799725 0.308339 0.182605
0.82446 0.315267 0.195636
0.842954 0.322454 0.206073
0.854322 0.328984 0.21268
0.857206 0.331121 0.214282
0.857145 0.330953 0.214206
0.85687 0.330236 0.213962
0.85655 0.329229 0.213733
0.856291 0.328283 0.213596
0.85597 0.327245 0.213321
0.856245 0.326345 0.213336
0.0556039 0.320974 0.176272
0.0482948 0.330571 0.172656
0.0421302 0.33991 0.167071
0.0384375 0.348669 0.15964
0.0352331 0.357122 0.15108
0.03505 0.364767 0.139925
0.035523 0.371176 0.126055
0.0371557 0.373281 0.109468
0.040238 0.369772 0.0854963
0.0605783 0.367132 0.0640269
0.118364 0.37348 0.0629129
0.202533 0.375036 0.0706645
0.300954 0.376028 0.0711376
0.363546 0.380667 0.0705882
0.435355 0.382803 0.0690623
0.499901 0.383825 0.0694133
0.556573 0.381842 0.0805219
0.610086 0.376089 0.101045
0.659113 0.371817 0.121569
0.702693 0.369314 0.138888
0.743328 0.367422 0.15465
0.782895 0.364523 0.17171
0.817655 0.36379 0.189837
0.843534 0.364828 0.206241
0.862211 0.371817 0.217472
0.87425 0.378683 0.225406
0.878218 0.381308 0.228107
0.878096 0.381186 0.227939
0.877699 0.38027 0.227604
0.87718 0.378897 0.227237
0.876707 0.377523 0.226886
0.876326 0.375967 0.226596
0.87631 0.374807 0.22649
0.0527657 0.379568 0.203937
0.0463722 0.389059 0.199313
0.04094 0.398245 0.193347
0.0357366 0.407401 0.185916
0.031754 0.416449 0.177935
0.0291295 0.424842 0.166293
0.0283055 0.433234 0.152773
0.0293889 0.439414 0.135012
0.0319982 0.438849 0.114656
0.0357366 0.434577 0.0832074
0.0704814 0.433433 0.0571908
0.14226 0.438834 0.060502
0.24622 0.438529 0.0682231
0.35639 0.438483 0.0683299
0.417594 0.442786 0.0704814
0.486275 0.445411 0.0731975
0.550927 0.447074 0.0741741
0.606287 0.446372 0.0843671
0.658427 0.442939 0.10396
0.708354 0.437781 0.12842
0.754314 0.433845 0.151537
0.794934 0.431724 0.172137
0.829023 0.431449 0.19057
0.856199 0.432486 0.207965
0.876417 0.434379 0.222416
0.890471 0.438315 0.232761
0.895048 0.44036 0.236347
0.895079 0.440192 0.236515
0.894728 0.438422 0.236378
0.894423 0.436698 0.236347
0.894041 0.434562 0.236271
0.893507 0.431846 0.236057
0.89276 0.429297 0.235554
0.0472114 0.443153 0.23447
0.0399023 0.452873 0.23061
0.033753 0.461601 0.225147
0.028809 0.470466 0.218936
0.0249027 0.478584 0.210636
0.0224002 0.486793 0.199954
0.0218662 0.494865 0.187289
0.0226902 0.50222 0.168383
0.024979 0.505547 0.147326
0.0280308 0.503868 0.120943
0.0327611 0.497963 0.0787518
0.0939498 0.499229 0.0554055
0.179629 0.502983 0.0621347
0.30193 0.500771 0.0712902
0.411826 0.499702 0.0736095
0.470359 0.503349 0.0798199
0.533623 0.505913 0.0863355
0.595987 0.507057 0.0897231
0.651286 0.505394 0.0996872
0.703426 0.503548 0.115709
0.754101 0.499062 0.141268
0.800336 0.494453 0.1691
0.83743 0.493233 0.191745
0.864363 0.494972 0.209049
0.884062 0.498283 0.222644
0.898909 0.502007 0.233799
0.904982 0.504326 0.239002
0.905715 0.504555 0.240146
0.905516 0.502846 0.24004
0.905074 0.500725 0.239689
0.905028 0.498116 0.239734
0.904616 0.495216 0.239399
0.903868 0.492668 0.238605
0.0482948 0.506004 0.271229
0.0417945 0.515023 0.268254
0.0340734 0.523857 0.263615
0.0272068 0.532448 0.257694
0.0225834 0.540322 0.249744
0.020676 0.548135 0.240986
0.020325 0.554864 0.229175
0.0218357 0.561715 0.211887
0.0243992 0.567605 0.1906
0.0274662 0.56791 0.164019
0.0312352 0.563836 0.129702
0.0470436 0.558663 0.0797894
0.138933 0.560327 0.0630503
0.233631 0.562402 0.0729229
0.365927 0.558816 0.0836805
0.467094 0.557321 0.0877089
0.522194 0.559716 0.0953078
0.579904 0.561242 0.103975
0.63946 0.561242 0.109972
0.694911 0.559045 0.121187
0.747097 0.556848 0.137987
0.796445 0.553491 0.162829
0.839582 0.549645 0.19086
0.870329 0.54931 0.212528
0.890455 0.552819 0.226993
0.904326 0.557794 0.23714
0.910689 0.562081 0.242817
0.912001 0.563058 0.244312
0.911772 0.561181 0.244022
0.91133 0.558587 0.243534
0.911101 0.555581 0.24329
0.911086 0.552804 0.243244
0.910475 0.550103 0.242557
0.0530556 0.567391 0.31429
0.0490578 0.575174 0.311604
0.0429236 0.582956 0.306813
0.0367895 0.591058 0.30222
0.0314946 0.598413 0.296025
0.0282292 0.6056 0.288243
0.0271305 0.611719 0.275746
0.0284733 0.617777 0.260243
0.030869 0.623911 0.240665
0.0346685 0.627115 0.215061
0.0387579 0.62417 0.182971
0.0437781 0.617212 0.139025
0.0858778 0.613901 0.0858473
0.19649 0.617212 0.0799268
0.294728 0.619394 0.090013
0.426398 0.614191 0.099443
0.517418 0.612238 0.103838
0.568536 0.613611 0.112581
0.622187 0.613855 0.123598
0.680125 0.612787 0.133074
0.736339 0.609857 0.146853
0.788403 0.607034 0.1664
0.834699 0.604639 0.190723
0.871885 0.602579 0.215259
0.896178 0.603571 0.234272
0.910246 0.607614 0.245716
0.915877 0.614038 0.251637
0.917037 0.615625 0.252598
0.916548 0.613642 0.25182
0.916182 0.610956 0.250996
0.916106 0.608255 0.250614
0.915694 0.605234 0.249928
0.915389 0.602335 0.249378
0.0655985 0.625055 0.356909
0.0629282 0.63238 0.354665
0.0583352 0.639735 0.351431
0.0528725 0.647486 0.347692
0.0481727 0.654459 0.342382
0.0453803 0.661036 0.335119
0.0439918 0.666896 0.324514
0.0433356 0.671733 0.311055
0.0444495 0.677134 0.292546
0.0476997 0.68217 0.269169
0.0517739 0.681163 0.239216
0.0568246 0.67512 0.20174
0.0695659 0.666346 0.148211
0.148013 0.667536 0.0991531
0.259419 0.672496 0.101579
0.358984 0.67332 0.10985
0.483543 0.666926 0.118715
0.563439 0.664805 0.123079
0.611505 0.665202 0.132128
0.662501 0.665019 0.145144
0.720623 0.663066 0.158953
0.776745 0.658946 0.176165
0.827787 0.655711 0.198413
0.86923 0.653834 0.222477
0.898619 0.653529 0.243061
0.915282 0.655818 0.257832
0.921492 0.661143 0.265431
0.922423 0.663417 0.266697
0.922042 0.661845 0.26569
0.921828 0.659541 0.264759
0.921386 0.656565 0.263539
0.920913 0.653849 0.26247
0.920668 0.651148 0.261631
0.0843671 0.680507 0.399466
0.0825513 0.68748 0.397635
0.0787976 0.695018 0.395102
0.0743114 0.702174 0.391394
0.0703899 0.70901 0.386847
0.0686198 0.714977 0.380728
0.0677195 0.72015 0.371817
0.0684367 0.724559 0.360281
0.0696117 0.72845 0.344396
0.0725414 0.732754 0.324559
0.0764477 0.733989 0.297337
0.0806897 0.729122 0.264408
0.0885023 0.720317 0.218235
0.118273 0.713802 0.158495
0.229053 0.720546 0.12401
0.325063 0.724422 0.126711
0.421424 0.72401 0.133486
0.536965 0.716747 0.141253
0.608865 0.715175 0.146624
0.654505 0.715633 0.156786
0.703197 0.715053 0.171572
0.760571 0.71223 0.188922
0.817395 0.707668 0.209949
0.864607 0.704402 0.234134
0.899245 0.703212 0.258183
0.920211 0.702815 0.276448
0.927794 0.705516 0.286275
0.928985 0.708263 0.288808
0.92845 0.70692 0.286992
0.927901 0.704433 0.284993
0.927474 0.702037 0.283314
0.927092 0.699214 0.281971
0.926574 0.696422 0.280339
0.111788 0.734234 0.441169
0.11136 0.740551 0.439506
0.108934 0.747539 0.437659
0.105623 0.754253 0.43505
0.10251 0.76083 0.431525
0.100587 0.766384 0.426032
0.100206 0.770947 0.418479
0.10071 0.775021 0.408118
0.102068 0.778408 0.39501
0.104433 0.781964 0.377478
0.107576 0.784329 0.353506
0.110658 0.781613 0.323659
0.115602 0.774685 0.28365
0.127337 0.765179 0.230259
0.185016 0.764553 0.17319
0.306233 0.772503 0.15285
0.387717 0.77615 0.154955
0.479774 0.774258 0.160281
0.587137 0.767132 0.168673
0.654215 0.765866 0.176211
0.698573 0.766812 0.18735
0.745007 0.766308 0.203632
0.801968 0.762234 0.223957
0.85565 0.75787 0.248096
0.895399 0.755413 0.274403
0.920836 0.752972 0.295995
0.932647 0.752514 0.310887
0.934371 0.754131 0.316457
0.933944 0.752667 0.314397
0.933486 0.750439 0.311955
0.933059 0.747326 0.309239
0.932586 0.744228 0.306645
0.932265 0.74139 0.304799
0.145159 0.78677 0.482582
0.144671 0.791867 0.481086
0.142473 0.797604 0.4795
0.139467 0.803311 0.477668
0.135988 0.80885 0.474144
0.134081 0.813611 0.4692
0.133516 0.817472 0.462486
0.133562 0.820645 0.45304
0.134203 0.823392 0.44126
0.135821 0.826215 0.426123
0.137682 0.828779 0.405341
0.139849 0.828443 0.377554
0.142931 0.824063 0.343328
0.148699 0.816236 0.297047
0.168719 0.809522 0.237812
0.262898 0.814023 0.191424
0.374334 0.82002 0.183505
0.444984 0.82269 0.185611
0.534066 0.820279 0.190692
0.635645 0.814603 0.200656
0.700267 0.814145 0.210864
0.743206 0.815671 0.223178
0.788922 0.815503 0.240803
0.842206 0.811002 0.263615
0.887053 0.807782 0.291218
0.916915 0.805249 0.315175
0.933165 0.802655 0.335439
0.937301 0.801816 0.347356
0.937346 0.800275 0.347311
0.937194 0.797055 0.343847
0.937255 0.793698 0.341161
0.937331 0.790494 0.338628
0.937346 0.787213 0.336553
0.183658 0.82829 0.520745
0.183917 0.831876 0.518975
0.182193 0.835828 0.517143
0.179797 0.840146 0.514809
0.177234 0.844221 0.511559
0.175067 0.847547 0.506752
0.173983 0.850233 0.50042
0.173831 0.852644 0.492287
0.174212 0.854932 0.481392
0.174456 0.856794 0.46772
0.175051 0.858442 0.449577
0.176303 0.859709 0.425177
0.178744 0.857221 0.395544
0.182345 0.85211 0.355795
0.192172 0.845243 0.303822
0.229297 0.84268 0.244892
0.353811 0.850034 0.216739
0.441947 0.854047 0.215167
0.507027 0.856779 0.218982
0.593286 0.855314 0.226307
0.691859 0.851896 0.240055
0.752926 0.852857 0.252644
0.793286 0.8551 0.266987
0.836408 0.853925 0.286915
0.881575 0.851499 0.315404
0.91429 0.849836 0.342657
0.932555 0.848341 0.365576
0.938323 0.846677 0.383169
0.938338 0.844816 0.385748
0.937896 0.842741 0.381064
0.937362 0.840116 0.37612
0.937346 0.837232 0.372641
0.937697 0.834226 0.370123
0.200824 0.863981 0.55555
0.203082 0.866407 0.554009
0.202808 0.868605 0.551293
0.201785 0.871366 0.548898
0.199924 0.873854 0.545251
0.198016 0.876097 0.540429
0.196872 0.878065 0.534279
0.196384 0.879713 0.52636
0.196384 0.881315 0.516823
0.196124 0.882658 0.504112
0.195422 0.883833 0.48716
0.194995 0.884855 0.464897
0.19646 0.884092 0.438285
0.199878 0.8813 0.405097
0.205707 0.876081 0.359701
0.222141 0.871336 0.304692
0.287022 0.873579 0.252857
0.420172 0.880919 0.23801
0.492012 0.884398 0.239872
0.553918 0.887007 0.245457
0.643427 0.886427 0.256657
0.740108 0.884321 0.27335
0.796475 0.885969 0.287968
0.833799 0.88751 0.305211
0.873243 0.887297 0.334005
0.909545 0.886213 0.367926
0.930312 0.885313 0.397559
0.937987 0.884062 0.420569
0.938491 0.882292 0.429465
0.937591 0.880125 0.425025
0.937102 0.87747 0.419303
0.937118 0.874968 0.414557
0.937148 0.872282 0.411017
0.215442 0.888563 0.58526
0.21799 0.889632 0.583444
0.219165 0.891234 0.581231
0.218799 0.893095 0.5785
0.217029 0.894728 0.574807
0.21503 0.896132 0.569909
0.213764 0.897139 0.563958
0.213123 0.897932 0.556527
0.212802 0.898772 0.547341
0.212177 0.899504 0.535149
0.210742 0.900191 0.519478
0.209171 0.900908 0.499672
0.209628 0.901122 0.476066
0.2121 0.899413 0.447761
0.216419 0.896529 0.411185
0.226108 0.892332 0.362112
0.25536 0.891249 0.306645
0.349111 0.899214 0.274281
0.469123 0.904463 0.260655
0.534432 0.90721 0.263584
0.596826 0.909133 0.270573
0.687907 0.908522 0.284352
0.783627 0.907454 0.304082
0.833692 0.909209 0.321736
0.868589 0.911147 0.348547
0.903655 0.911681 0.389334
0.928191 0.911147 0.428489
0.938521 0.910262 0.456565
0.939879 0.908354 0.47216
0.939025 0.906554 0.470192
0.938369 0.904799 0.463874
0.938231 0.903212 0.459358
0.938262 0.901274 0.455604
0.227619 0.901442 0.611368
0.229114 0.901808 0.60911
0.229465 0.902205 0.606516
0.228412 0.902922 0.603479
0.22594 0.904051 0.59971
0.223255 0.905058 0.595132
0.221317 0.905684 0.58938
0.219913 0.905943 0.581949
0.221256 0.905013 0.572366
0.21976 0.905058 0.560693
0.217197 0.904784 0.545434
0.215885 0.904875 0.528572
0.216068 0.905241 0.509743
0.217929 0.905486 0.485313
0.222248 0.905486 0.454276
0.229511 0.904463 0.413458
0.244602 0.902831 0.363073
0.304662 0.908461 0.321889
0.400366 0.916594 0.299107
0.508492 0.919341 0.285161
0.571069 0.92105 0.288609
0.633936 0.921981 0.2963
0.726482 0.921447 0.311666
0.81886 0.92163 0.334234
0.864759 0.924086 0.359579
0.898116 0.925658 0.401328
0.924865 0.925765 0.451148
0.938552 0.925368 0.487999
0.941299 0.924636 0.511833
0.940444 0.923644 0.514244
0.939742 0.922667 0.508278
0.939391 0.92166 0.503304
0.939315 0.92047 0.499474
0.2309 0.904723 0.62594
0.231525 0.904311 0.623011
0.231617 0.904082 0.619501
0.230381 0.904311 0.615778
0.228077 0.904845 0.611673
0.225177 0.905516 0.60676
0.222629 0.906065 0.600641
0.221164 0.906218 0.593362
0.220447 0.905989 0.58436
0.219883 0.905531 0.573236
0.218769 0.905379 0.559289
0.217884 0.905379 0.543679
0.218219 0.905852 0.526909
0.220005 0.906661 0.508385
0.224048 0.907698 0.485435
0.230289 0.908446 0.456062
0.241108 0.908537 0.414328
0.27924 0.912703 0.374136
0.35375 0.921462 0.345556
0.439582 0.926421 0.325994
0.543328 0.92639 0.318151
0.6056 0.926497 0.321508
0.670237 0.925887 0.328344
0.757946 0.925246 0.34258
0.848173 0.926711 0.371054
0.887861 0.928573 0.406882
0.917159 0.930007 0.456245
0.936706 0.930953 0.505058
0.942046 0.931579 0.541054
0.941466 0.931701 0.552682
0.940841 0.931533 0.547967
0.940505 0.931243 0.543359
0.940352 0.930846 0.539864
0.231525 0.905211 0.634058
0.231189 0.905119 0.630732
0.230701 0.905074 0.62707
0.229633 0.90518 0.623377
0.228061 0.905516 0.618997
0.225666 0.906035 0.614084
0.223209 0.906538 0.607996
0.221286 0.906798 0.600793
0.220066 0.906813 0.592065
0.219211 0.906523 0.581476
0.218235 0.906172 0.568185
0.217273 0.905928 0.552331
0.217807 0.906111 0.535958
0.219318 0.906661 0.518059
0.223056 0.907851 0.498573
0.228809 0.909026 0.474754
0.236988 0.910018 0.445396
0.262272 0.913359 0.410468
0.32137 0.922515 0.384604
0.394934 0.929397 0.364813
0.476112 0.931228 0.357885
