bundles/resolve-cinematic-luts/Phantom Luts/P4k & P6K Phntm Film LUTs - V6/P4K/Gen 4 Colour/White Balance Offset (+Magenta Boost)/P4k Eterna Gen4 WBO.cube
TITLE "Generated by Resolve"
LUT_3D_SIZE 9
0 0.028687 0.0284886
0.0636759 0.0312047 0.0391852
0.147539 0.0389868 0.0547951
0.276066 0.0532998 0.0901656
0.435798 0.0747539 0.136233
0.586725 0.106004 0.18378
0.707317 0.142916 0.228946
0.738277 0.155917 0.249973
0.766445 0.15407 0.270405
0.0103609 0.0712596 0.0504616
0.0470436 0.0711986 0.0387121
0.148028 0.0574502 0.0469978
0.276387 0.0567788 0.0662089
0.427253 0.0757305 0.0985122
0.593805 0.101549 0.152804
0.704158 0.134264 0.198123
0.734646 0.153811 0.215991
0.7691 0.163531 0.233326
0.0429999 0.193072 0.117754
0.0364843 0.218219 0.0695201
0.172747 0.21413 0.0638437
0.368246 0.180591 0.0885481
0.526574 0.177234 0.113451
0.681086 0.188571 0.142306
0.77615 0.217975 0.180072
0.789181 0.223056 0.185824
0.788312 0.217395 0.185183
0.0501106 0.390845 0.202869
0.0274662 0.431586 0.163348
0.0352789 0.445212 0.0735332
0.363561 0.44509 0.04654
0.623697 0.448005 0.0681468
0.784298 0.445396 0.156039
0.881041 0.45449 0.221149
0.900496 0.458717 0.235782
0.899199 0.451118 0.235111
0.0535134 0.628977 0.374182
0.0398566 0.657725 0.355291
0.0460517 0.681666 0.290028
0.11313 0.669535 0.102373
0.583032 0.672038 0.11339
0.778881 0.669764 0.172412
0.901686 0.670283 0.247135
0.924193 0.680415 0.267781
0.922866 0.670771 0.263874
0.157809 0.808331 0.547295
0.148638 0.824628 0.537697
0.143038 0.835569 0.503288
0.144396 0.83711 0.393317
0.429267 0.837736 0.193515
0.752209 0.836606 0.236088
0.893996 0.836789 0.317952
0.940078 0.833951 0.390448
0.940414 0.824445 0.376074
0.237858 0.902174 0.664759
0.234928 0.905501 0.654459
0.229099 0.90663 0.627817
0.221393 0.907225 0.565377
0.247257 0.908324 0.400961
0.631479 0.927169 0.313634
0.882597 0.932143 0.398444
0.950317 0.931105 0.579568
0.948516 0.926558 0.565698
0.23827 0.909834 0.69778
0.246296 0.906233 0.682521
0.250126 0.903059 0.657404
0.23978 0.9028 0.606302
0.250309 0.909651 0.522042
0.469078 0.933959 0.41352
0.798306 0.932479 0.458366
0.947906 0.943618 0.618357
0.95111 0.94786 0.681193
0.238163 0.911971 0.713451
0.238468 0.910918 0.699825
0.244236 0.907652 0.677699
0.236942 0.906783 0.633295
0.244373 0.907454 0.553262
0.350408 0.92871 0.4318
0.712749 0.93257 0.437781
0.92697 0.941192 0.552193
0.949813 0.948562 0.682383
0.00843824 0.0293889 0.0683604
0.0741131 0.0329442 0.0678569
0.156466 0.0401312 0.0877241
0.28249 0.0513161 0.123568
0.438712 0.0652628 0.166354
0.589197 0.0869306 0.215518
0.717021 0.121996 0.265614
0.75021 0.13727 0.291859
0.773724 0.136522 0.31545
0.00724804 0.0559091 0.053254
0.0399939 0.0475929 0.0560922
0.163195 0.0457923 0.0726024
0.298451 0.0532845 0.101335
0.45478 0.0733043 0.145388
0.626108 0.102724 0.198398
0.745129 0.141146 0.246571
0.761776 0.149981 0.266789
0.779538 0.149691 0.286549
0.0379797 0.175952 0.133867
0.0323949 0.190509 0.115999
0.173968 0.203754 0.0632792
0.369604 0.156359 0.0978103
0.51928 0.152026 0.121752
0.671427 0.157275 0.153246
0.761868 0.179004 0.194858
0.770138 0.180407 0.203967
0.772091 0.173205 0.209033
0.044892 0.367254 0.229847
0.0300603 0.399237 0.208728
0.0343938 0.435843 0.11249
0.360647 0.436667 0.047013
0.62826 0.427832 0.0780804
0.785061 0.424506 0.165835
0.883925 0.431434 0.230762
0.900343 0.43357 0.244434
0.898283 0.422538 0.244038
0.0454719 0.606897 0.394888
0.0321355 0.628702 0.380865
0.036759 0.654765 0.312535
0.0719463 0.66157 0.124926
0.573831 0.66215 0.110567
0.778042 0.659571 0.169924
0.901473 0.662333 0.24918
0.924926 0.670527 0.270634
0.923873 0.659098 0.266987
0.151293 0.789761 0.560708
0.139162 0.805463 0.552972
0.132326 0.816693 0.513207
0.132708 0.824399 0.397162
0.403891 0.832029 0.192981
0.745281 0.830701 0.230594
0.893645 0.830304 0.317281
0.940139 0.827268 0.393317
0.940719 0.817426 0.381262
0.231281 0.89398 0.678584
0.232395 0.898451 0.66833
0.228901 0.902953 0.640162
0.217777 0.904036 0.566049
0.24242 0.907042 0.41384
0.617578 0.925612 0.308415
0.880049 0.929671 0.3906
0.950072 0.928557 0.574075
0.947906 0.923934 0.561868
0.243 0.910475 0.721401
0.254734 0.905608 0.706172
0.255497 0.903441 0.679866
0.243503 0.903151 0.622477
0.248981 0.909026 0.530327
0.447349 0.933242 0.420005
0.788296 0.931975 0.458381
0.947051 0.943572 0.615305
0.950973 0.947951 0.682139
0.246403 0.911955 0.735912
0.250568 0.909468 0.723308
0.25034 0.907637 0.701015
0.245411 0.905776 0.652399
0.243961 0.906508 0.56144
0.337758 0.927398 0.441123
0.69604 0.932692 0.43769
0.924788 0.941024 0.548653
0.949935 0.948547 0.683864
0.037644 0.0330663 0.142718
0.0957809 0.0369421 0.145022
0.179583 0.0431373 0.127642
0.297383 0.0536507 0.152987
0.439994 0.066804 0.200702
0.581445 0.0798047 0.252094
0.703426 0.105425 0.303624
0.742473 0.122408 0.33933
0.764736 0.11957 0.36997
0.00770581 0.0558328 0.103609
0.0193637 0.0327001 0.145922
0.177478 0.0423743 0.132937
0.306523 0.0536355 0.149523
0.45333 0.0655528 0.197986
0.605737 0.0817578 0.252171
0.732708 0.116411 0.312078
0.754879 0.127703 0.343786
0.771984 0.125948 0.371511
0.0367895 0.168475 0.151293
0.0302434 0.173205 0.161364
0.186496 0.179614 0.186191
0.397589 0.159533 0.193194
0.56141 0.143679 0.213825
0.690639 0.142596 0.243732
0.768063 0.163012 0.281712
0.770169 0.160739 0.297124
0.779034 0.152438 0.315755
0.0463569 0.346899 0.259617
0.0327764 0.368322 0.263783
0.0324254 0.390173 0.216693
0.360876 0.424949 0.0877852
0.64184 0.389822 0.16405
0.799893 0.370809 0.213794
0.893523 0.390005 0.262165
0.90071 0.390341 0.27129
0.897734 0.376974 0.272099
0.0460212 0.57908 0.422522
0.0296025 0.595346 0.425162
0.0265507 0.613001 0.386511
0.0489204 0.652003 0.196658
0.563912 0.645731 0.115785
0.785138 0.632242 0.192676
0.906142 0.636194 0.270634
0.931319 0.640299 0.295491
0.930465 0.625299 0.292378
0.141329 0.763851 0.582864
0.128084 0.774411 0.58056
0.117433 0.779736 0.548257
0.113481 0.794705 0.433982
0.308492 0.821591 0.214588
0.729946 0.815213 0.220691
0.894591 0.811505 0.320058
0.942336 0.809125 0.403571
0.941909 0.798596 0.39292
0.223514 0.878431 0.699031
0.224826 0.881025 0.692393
0.222416 0.882963 0.668376
0.212085 0.889036 0.596078
0.226871 0.900908 0.443778
0.587854 0.920668 0.300557
0.873304 0.923491 0.373754
0.948943 0.921935 0.561013
0.946609 0.916991 0.55407
0.255711 0.910246 0.755764
0.256641 0.909697 0.746349
0.267048 0.90396 0.722042
0.254719 0.903578 0.668727
0.247013 0.905333 0.560113
0.40087 0.931609 0.436835
0.765393 0.931701 0.457771
0.943542 0.943038 0.603464
0.950988 0.948028 0.684642
0.256947 0.911269 0.769116
0.254704 0.91194 0.76112
0.263554 0.908186 0.741176
0.262028 0.904402 0.69691
0.242985 0.904555 0.596857
0.303777 0.922683 0.468513
0.657572 0.933227 0.440467
0.919112 0.940383 0.53875
0.950652 0.948287 0.687007
0.071458 0.0382086 0.253147
0.123125 0.041886 0.275029
0.206683 0.0467384 0.237156
0.32752 0.0586252 0.22182
0.463508 0.071397 0.260471
0.606607 0.0859846 0.309148
0.710185 0.104463 0.360372
0.732525 0.112337 0.39617
0.752819 0.10753 0.43798
0.00503548 0.0395514 0.198703
0.0277562 0.0353094 0.253437
0.195926 0.0469215 0.280522
0.333043 0.0571908 0.233845
0.463554 0.0699321 0.264988
0.612039 0.0863355 0.318746
0.7196 0.107088 0.37911
0.736233 0.112505 0.418555
0.755718 0.107851 0.460853
0.0365911 0.157641 0.203906
0.0277256 0.147829 0.246509
0.110292 0.110475 0.332677
0.382284 0.100801 0.2934
0.504601 0.101549 0.29366
0.621393 0.0943923 0.323857
0.718517 0.110002 0.371862
0.732845 0.116533 0.40621
0.747494 0.112169 0.43946
0.0475471 0.332708 0.290196
0.0345617 0.348516 0.311513
0.0334173 0.357977 0.328328
0.391257 0.374365 0.377264
0.65301 0.346502 0.3841
0.837644 0.334661 0.410178
0.911696 0.323369 0.431373
0.906508 0.301457 0.44004
0.901534 0.282902 0.448798
0.0453498 0.553582 0.451453
0.0272984 0.569345 0.469017
0.0310979 0.576501 0.462928
0.10193 0.603189 0.414832
0.554421 0.615763 0.286549
0.792966 0.590036 0.366049
0.921721 0.590036 0.389532
0.938979 0.583734 0.389822
0.937682 0.563119 0.383825
0.135134 0.738613 0.606027
0.120714 0.744701 0.610483
0.111498 0.743099 0.593927
0.103838 0.749249 0.537011
0.22948 0.809674 0.359899
0.717586 0.791592 0.289143
0.90576 0.774151 0.390005
0.942214 0.777142 0.436713
0.941604 0.764218 0.432334
0.22884 0.85864 0.719402
0.215839 0.864027 0.720684
0.214755 0.860792 0.703624
0.207858 0.858488 0.654093
0.217762 0.884138 0.540352
0.494041 0.917189 0.362387
0.857038 0.912779 0.370184
0.947417 0.908354 0.553933
0.945602 0.902602 0.554284
0.277592 0.907057 0.790692
0.267216 0.910399 0.78912
0.278111 0.906462 0.772305
0.27779 0.904738 0.73434
0.258289 0.904112 0.643427
0.308919 0.921874 0.490105
0.712276 0.931624 0.461082
0.939879 0.940352 0.584955
0.955154 0.94612 0.690471
0.270375 0.911299 0.80441
0.268223 0.911925 0.800534
0.266865 0.911772 0.788968
0.281346 0.906081 0.753597
0.262577 0.905715 0.682353
0.261418 0.91191 0.539498
0.567498 0.934386 0.453132
0.898543 0.938979 0.518257
0.95137 0.948135 0.692775
0.129854 0.0454871 0.391684
0.17145 0.0486 0.417548
0.274556 0.0543832 0.41532
0.368063 0.0603647 0.359594
0.502235 0.0771191 0.354696
0.635294 0.0905318 0.398108
0.72018 0.110384 0.42092
0.732509 0.113283 0.455421
0.752819 0.109071 0.497597
0.0120394 0.036408 0.329931
0.0695201 0.0412451 0.374487
0.213947 0.0508125 0.416464
0.35787 0.058732 0.38291
0.493523 0.0757153 0.360906
0.634699 0.0897993 0.40972
0.72694 0.110216 0.444923
0.73637 0.113863 0.483619
0.752071 0.110018 0.530602
0.0308385 0.115923 0.297795
0.0213169 0.0995804 0.336934
0.0401923 0.0396887 0.388678
0.342565 0.0619821 0.425299
0.499153 0.0763867 0.378042
0.624903 0.0919051 0.408392
0.715724 0.112612 0.445975
0.72752 0.118074 0.481956
0.744121 0.113939 0.526421
0.0492256 0.316381 0.360067
0.0372015 0.325216 0.398077
0.0383001 0.315938 0.444251
0.286763 0.298222 0.56553
0.651682 0.262211 0.53846
0.805066 0.25893 0.532662
0.868116 0.234424 0.543847
0.843397 0.208118 0.549859
0.833463 0.190051 0.561959
0.0449683 0.537209 0.481468
0.0275731 0.548775 0.502525
0.02916 0.554772 0.514916
0.136309 0.571008 0.540276
0.567239 0.555535 0.558541
0.791409 0.53698 0.562615
0.922332 0.53611 0.583841
0.939818 0.525277 0.595178
0.938964 0.499947 0.595056
0.137987 0.713039 0.622934
0.114885 0.720562 0.633509
0.107622 0.71725 0.629191
0.125444 0.719921 0.615534
0.404776 0.744762 0.599557
0.699153 0.746517 0.516381
0.890166 0.729442 0.572824
0.944137 0.732845 0.585397
0.943618 0.720775 0.578515
0.229236 0.840253 0.735592
0.2121 0.845457 0.740887
0.202152 0.842069 0.730373
0.201709 0.83209 0.696178
0.293187 0.864622 0.664149
0.51838 0.894804 0.580545
0.84921 0.885359 0.566705
0.951492 0.880339 0.635752
0.949371 0.878111 0.627665
0.29041 0.906462 0.815656
0.279332 0.910109 0.817685
0.269825 0.912123 0.8121
0.279347 0.906844 0.784939
0.287831 0.905715 0.734798
0.429862 0.931136 0.666743
0.665034 0.934874 0.594278
0.937774 0.940658 0.627832
0.955886 0.947005 0.724834
0.295644 0.908736 0.827131
0.286107 0.911986 0.828855
0.27686 0.914412 0.824781
0.282048 0.911574 0.803845
0.290898 0.907729 0.758419
0.326024 0.923125 0.683696
0.575067 0.938796 0.613474
0.864256 0.93724 0.566186
0.955413 0.947112 0.720577
0.2009 0.0536202 0.509728
0.230747 0.0555734 0.537392
0.319799 0.0604868 0.552499
0.429725 0.0687266 0.526268
0.53904 0.0776989 0.491646
0.66363 0.0973373 0.488701
0.724971 0.114382 0.512932
0.726024 0.117449 0.520714
0.743816 0.112688 0.559396
0.098909 0.0461433 0.461234
0.132372 0.0487373 0.496574
0.251789 0.0565347 0.534783
0.40502 0.0662547 0.540185
0.53402 0.0760967 0.511193
0.66212 0.097322 0.498466
0.724743 0.114992 0.52845
0.729473 0.117464 0.549554
0.745907 0.113481 0.596262
0.0202182 0.0594339 0.384649
0.0126955 0.0469368 0.428733
0.0719921 0.0443732 0.474678
0.342061 0.0613413 0.543114
0.5243 0.0734875 0.534493
0.649439 0.0983444 0.49749
0.71458 0.117281 0.522148
0.722805 0.120867 0.547204
0.737819 0.117372 0.594583
0.0527962 0.283085 0.460639
0.0420081 0.28249 0.496162
0.0431067 0.269871 0.528481
0.185931 0.225132 0.625315
0.567666 0.155428 0.654383
0.748913 0.173526 0.593317
0.806409 0.184497 0.582513
0.776287 0.159609 0.572106
0.756619 0.134585 0.57937
0.0495308 0.526589 0.542306
0.0311589 0.534478 0.567468
0.031693 0.534966 0.591134
0.066743 0.524102 0.64123
0.498283 0.510002 0.726528
0.794324 0.480049 0.688441
0.915755 0.478096 0.680034
0.93753 0.454109 0.695064
0.935363 0.422004 0.710216
0.136431 0.699001 0.645808
0.111696 0.702815 0.656657
0.104524 0.698024 0.657862
0.10811 0.693721 0.656382
0.428717 0.712978 0.689723
0.707851 0.693767 0.696651
0.891661 0.681834 0.700633
0.944717 0.68188 0.716991
0.943954 0.672312 0.718761
0.236362 0.82237 0.745861
0.206836 0.829099 0.753887
0.196277 0.82446 0.748608
0.196475 0.817441 0.733303
0.400519 0.840467 0.744289
0.612238 0.848692 0.736629
0.83769 0.853468 0.687572
0.94583 0.849805 0.735637
0.946578 0.847227 0.742321
0.313771 0.89575 0.82388
0.284794 0.904418 0.832364
0.273854 0.905592 0.829953
0.269581 0.902144 0.812253
0.318914 0.910124 0.798001
0.563134 0.925917 0.798245
0.713985 0.936294 0.754543
0.945846 0.938293 0.763897
0.963088 0.938949 0.814984
0.307774 0.910521 0.849042
0.299809 0.913924 0.853025
0.292622 0.916869 0.85243
0.29131 0.917861 0.84181
0.309224 0.916381 0.819043
0.511681 0.93193 0.816571
0.685573 0.937453 0.794369
0.861936 0.939712 0.754284
0.958709 0.94902 0.812116
0.273991 0.0618753 0.608392
0.293568 0.063386 0.6336
0.361105 0.0675669 0.652476
0.467445 0.0732738 0.652827
0.578454 0.0779431 0.631357
0.68159 0.10338 0.603296
0.727642 0.119173 0.593759
0.726467 0.120638 0.603586
0.740032 0.116808 0.626368
0.183276 0.0553292 0.566934
0.204654 0.0570077 0.598856
0.302876 0.0637522 0.634287
0.430106 0.071046 0.656596
0.566323 0.0775311 0.64445
0.680613 0.104112 0.619944
0.72845 0.119966 0.604425
0.731853 0.120516 0.619013
0.743648 0.117876 0.642206
0.0167086 0.0419471 0.491508
0.0233616 0.0432136 0.522393
0.140108 0.0526131 0.575326
0.351919 0.0660105 0.638178
0.536782 0.0758679 0.650355
0.674037 0.1019 0.635142
0.722713 0.122621 0.598321
0.724819 0.123934 0.61091
0.738537 0.120836 0.637552
0.0524758 0.250813 0.548196
0.0453498 0.242161 0.575738
0.0449378 0.215167 0.589303
0.112642 0.155413 0.634501
0.475059 0.0901198 0.673884
0.650568 0.0989548 0.648081
0.720958 0.127077 0.581292
0.722835 0.127687 0.592218
0.738003 0.123018 0.623758
0.0561685 0.514138 0.630411
0.0426795 0.51339 0.655726
0.0442206 0.503899 0.673991
0.0553445 0.478676 0.705013
0.423362 0.464805 0.8309
0.766644 0.402274 0.845685
0.915053 0.406149 0.770291
0.931838 0.404959 0.764019
0.926452 0.364446 0.784695
0.137148 0.690562 0.68864
0.112001 0.691844 0.702724
0.107607 0.682338 0.705287
0.108507 0.669413 0.715068
0.333837 0.681758 0.791226
0.656062 0.659541 0.833478
0.8878 0.638025 0.802182
0.945037 0.634913 0.796109
0.943252 0.616754 0.805402
0.234211 0.813275 0.765301
0.204211 0.817548 0.77377
0.19379 0.809979 0.769284
0.187579 0.799161 0.759915
0.325856 0.822217 0.784817
0.622995 0.824704 0.80502
0.835279 0.815259 0.816266
0.947234 0.809293 0.822751
0.948608 0.808728 0.830152
0.31252 0.889082 0.834363
0.284535 0.897063 0.843107
0.27425 0.896468 0.840833
0.274891 0.893065 0.83154
0.344839 0.908309 0.838346
0.625696 0.915862 0.856001
0.774029 0.921553 0.857633
0.937285 0.927794 0.837491
0.960861 0.926894 0.867979
0.346212 0.909331 0.86363
0.322774 0.919524 0.876005
0.318425 0.923568 0.879347
0.326055 0.926131 0.875578
0.35642 0.931365 0.870512
0.596689 0.937545 0.884169
0.752972 0.940703 0.89041
0.863554 0.94548 0.868772
0.966705 0.949142 0.890959
0.342123 0.0704967 0.679118
0.356054 0.071931 0.69601
0.407355 0.0758984 0.709087
0.487572 0.0821088 0.716411
0.598032 0.0905013 0.704784
0.695064 0.109865 0.701473
0.741131 0.120745 0.695232
0.741146 0.121279 0.692378
0.740856 0.121813 0.688136
0.271763 0.0644694 0.657572
0.283772 0.066331 0.672114
0.361654 0.072343 0.697963
0.452842 0.0791943 0.714122
0.581659 0.0898451 0.712001
0.693812 0.110658 0.71284
0.742138 0.122515 0.710048
0.742519 0.123018 0.70898
0.744564 0.122866 0.711055
0.0758221 0.0500038 0.585824
0.0993668 0.0525978 0.606958
0.219333 0.0617533 0.653284
0.376638 0.0729839 0.699062
0.544091 0.0874495 0.71548
0.68072 0.108553 0.717403
0.741085 0.124041 0.712367
0.739864 0.124987 0.705272
0.744823 0.123583 0.712413
0.0485695 0.209384 0.619821
0.0478676 0.199802 0.633219
0.0500343 0.165408 0.637675
0.076173 0.0964828 0.630137
0.436728 0.0762341 0.703441
0.62768 0.0972152 0.707881
0.737377 0.12134 0.702281
0.738415 0.124193 0.680674
0.745235 0.122194 0.685756
0.0620584 0.497932 0.715221
0.0628367 0.494499 0.730449
0.0667582 0.478218 0.743618
0.0706798 0.447303 0.756558
0.360876 0.409659 0.896452
0.727626 0.334798 0.916228
0.881193 0.312398 0.874388
0.895735 0.299748 0.821454
0.898131 0.294957 0.821485
0.133562 0.682567 0.748348
0.122148 0.679362 0.760952
0.118349 0.665141 0.765972
0.118379 0.64329 0.775952
0.262501 0.641825 0.861692
0.615656 0.623835 0.911467
0.870085 0.584146 0.916854
0.942214 0.580896 0.864683
0.94081 0.583719 0.865629
0.22742 0.808362 0.798611
0.204868 0.809125 0.80708
0.198154 0.799619 0.80528
0.190311 0.783841 0.801617
0.235142 0.787228 0.833234
0.562127 0.79762 0.880796
0.790143 0.785977 0.908644
0.938827 0.771649 0.887831
0.944823 0.769421 0.884688
0.321187 0.881651 0.843244
0.279362 0.892088 0.856809
0.272435 0.887785 0.853635
0.267506 0.879988 0.845014
0.295338 0.884535 0.848508
0.57496 0.905501 0.880629
0.773968 0.91194 0.899931
0.922881 0.911833 0.909819
0.961975 0.906737 0.907988
0.365255 0.918105 0.885832
0.345953 0.926085 0.89659
0.346792 0.929122 0.899596
0.356832 0.930922 0.898131
0.380728 0.933669 0.896254
0.606485 0.941375 0.915251
0.790433 0.945708 0.928786
0.896147 0.949462 0.934112
0.967956 0.950927 0.929198
0.405661 0.0776226 0.718349
0.41265 0.0781567 0.719554
0.43682 0.0799268 0.722179
0.494377 0.0848096 0.726879
0.601678 0.0952621 0.725292
0.703227 0.113924 0.7346
0.744961 0.126741 0.744961
0.745434 0.127169 0.745403
0.745541 0.127169 0.743526
0.353475 0.0737163 0.707973
0.370962 0.0753033 0.713252
0.404211 0.0775006 0.718379
0.463478 0.0820935 0.724788
0.577081 0.0923323 0.72578
0.697093 0.112642 0.733669
0.745266 0.127001 0.745266
0.746334 0.127825 0.746334
0.746593 0.128023 0.746593
0.179385 0.0609293 0.656992
0.218128 0.0644541 0.674037
0.298497 0.0701457 0.697032
0.399649 0.0771801 0.717754
0.536477 0.0892195 0.727733
0.676982 0.108461 0.730983
0.74522 0.126955 0.74522
0.746731 0.12813 0.746731
0.747097 0.128481 0.747082
0.072755 0.16614 0.665629
0.0877089 0.161059 0.677577
0.109773 0.125063 0.675273
0.136233 0.0618143 0.652628
0.431708 0.0795453 0.721614
0.616068 0.097612 0.726299
0.738064 0.124498 0.743313
0.746899 0.128283 0.746899
0.747021 0.127855 0.744167
0.0823529 0.482322 0.775311
0.0901656 0.479713 0.787045
0.104387 0.465324 0.803296
0.128603 0.432395 0.82208
0.337514 0.359915 0.901671
0.676555 0.268727 0.901732
0.813626 0.234424 0.848661
0.822965 0.210727 0.822965
0.821591 0.207324 0.81471
0.14342 0.67303 0.811124
0.145892 0.666896 0.818021
0.147143 0.654276 0.824842
0.147158 0.631037 0.831693
0.2262 0.605005 0.888487
0.591577 0.583505 0.941283
0.843687 0.542336 0.939895
0.936751 0.520394 0.936751
0.936446 0.509438 0.93228
0.210575 0.806424 0.841733
0.208865 0.800336 0.844907
0.204318 0.789853 0.846204
0.200122 0.771359 0.848707
0.239826 0.754223 0.878416
0.52079 0.764904 0.930449
0.766262 0.751781 0.938338
0.928328 0.727962 0.937636
0.937606 0.725002 0.93489
0.282811 0.889906 0.878431
0.280278 0.886198 0.878386
0.27602 0.880491 0.876585
0.2701 0.870832 0.873442
0.278187 0.862119 0.876448
0.493996 0.886275 0.918853
0.731029 0.892515 0.933089
0.896498 0.894743 0.941207
0.942596 0.890318 0.940703
0.3608 0.930465 0.913756
0.365927 0.931228 0.915343
0.371466 0.93196 0.915984
0.379171 0.932799 0.914885
0.387533 0.932555 0.910918
0.541482 0.940047 0.924529
0.765545 0.944625 0.937743
0.904158 0.95024 0.948104
0.955642 0.955642 0.955337
