bundles/resolve-cinematic-luts/Phantom Luts/P4k & P6K Phntm Film LUTs - V6/P4K/Gen 4 Colour/White Balance Offset (+Magenta Boost)/P4k Eterna Gen4 WBO.cube
TITLE "Generated by Resolve"
LUT_3D_SIZE 5
0 0.028687 0.0284886
0.147539 0.0389868 0.0547951
0.435798 0.0747539 0.136233
0.707317 0.142916 0.228946
0.766445 0.15407 0.270405
0.0429999 0.193072 0.117754
0.172747 0.21413 0.0638437
0.526574 0.177234 0.113451
0.77615 0.217975 0.180072
0.788312 0.217395 0.185183
0.0535134 0.628977 0.374182
0.0460517 0.681666 0.290028
0.583032 0.672038 0.11339
0.901686 0.670283 0.247135
0.922866 0.670771 0.263874
0.237858 0.902174 0.664759
0.229099 0.90663 0.627817
0.247257 0.908324 0.400961
0.882597 0.932143 0.398444
0.948516 0.926558 0.565698
0.238163 0.911971 0.713451
0.244236 0.907652 0.677699
0.244373 0.907454 0.553262
0.712749 0.93257 0.437781
0.949813 0.948562 0.682383
0.037644 0.0330663 0.142718
0.179583 0.0431373 0.127642
0.439994 0.066804 0.200702
0.703426 0.105425 0.303624
0.764736 0.11957 0.36997
0.0367895 0.168475 0.151293
0.186496 0.179614 0.186191
0.56141 0.143679 0.213825
0.768063 0.163012 0.281712
0.779034 0.152438 0.315755
0.0460212 0.57908 0.422522
0.0265507 0.613001 0.386511
0.563912 0.645731 0.115785
0.906142 0.636194 0.270634
0.930465 0.625299 0.292378
0.223514 0.878431 0.699031
0.222416 0.882963 0.668376
0.226871 0.900908 0.443778
0.873304 0.923491 0.373754
0.946609 0.916991 0.55407
0.256947 0.911269 0.769116
0.263554 0.908186 0.741176
0.242985 0.904555 0.596857
0.657572 0.933227 0.440467
0.950652 0.948287 0.687007
0.129854 0.0454871 0.391684
0.274556 0.0543832 0.41532
0.502235 0.0771191 0.354696
0.72018 0.110384 0.42092
0.752819 0.109071 0.497597
0.0308385 0.115923 0.297795
0.0401923 0.0396887 0.388678
0.499153 0.0763867 0.378042
0.715724 0.112612 0.445975
0.744121 0.113939 0.526421
0.0449683 0.537209 0.481468
0.02916 0.554772 0.514916
0.567239 0.555535 0.558541
0.922332 0.53611 0.583841
0.938964 0.499947 0.595056
0.229236 0.840253 0.735592
0.202152 0.842069 0.730373
0.293187 0.864622 0.664149
0.84921 0.885359 0.566705
0.949371 0.878111 0.627665
0.295644 0.908736 0.827131
0.27686 0.914412 0.824781
0.290898 0.907729 0.758419
0.575067 0.938796 0.613474
0.955413 0.947112 0.720577
0.273991 0.0618753 0.608392
0.361105 0.0675669 0.652476
0.578454 0.0779431 0.631357
0.727642 0.119173 0.593759
0.740032 0.116808 0.626368
0.0167086 0.0419471 0.491508
0.140108 0.0526131 0.575326
0.536782 0.0758679 0.650355
0.722713 0.122621 0.598321
0.738537 0.120836 0.637552
0.0561685 0.514138 0.630411
0.0442206 0.503899 0.673991
0.423362 0.464805 0.8309
0.915053 0.406149 0.770291
0.926452 0.364446 0.784695
0.234211 0.813275 0.765301
0.19379 0.809979 0.769284
0.325856 0.822217 0.784817
0.835279 0.815259 0.816266
0.948608 0.808728 0.830152
0.346212 0.909331 0.86363
0.318425 0.923568 0.879347
0.35642 0.931365 0.870512
0.752972 0.940703 0.89041
0.966705 0.949142 0.890959
0.405661 0.0776226 0.718349
0.43682 0.0799268 0.722179
0.601678 0.0952621 0.725292
0.744961 0.126741 0.744961
0.745541 0.127169 0.743526
0.179385 0.0609293 0.656992
0.298497 0.0701457 0.697032
0.536477 0.0892195 0.727733
0.74522 0.126955 0.74522
0.747097 0.128481 0.747082
0.0823529 0.482322 0.775311
0.104387 0.465324 0.803296
0.337514 0.359915 0.901671
0.813626 0.234424 0.848661
0.821591 0.207324 0.81471
0.210575 0.806424 0.841733
0.204318 0.789853 0.846204
0.239826 0.754223 0.878416
0.766262 0.751781 0.938338
0.937606 0.725002 0.93489
0.3608 0.930465 0.913756
0.371466 0.93196 0.915984
0.387533 0.932555 0.910918
0.765545 0.944625 0.937743
0.955642 0.955642 0.955337
