bundles/resolve-cinematic-luts/Gamut/_Conversion/Fujifilm/Fujifilm X-T5 BaseLUTs/Monitor LUTs/BaseLUT - Fujifilm X-T5 - F-Log2 to Rec709 (Bold) ML.cube
TITLE "BaseLUT - Fujifilm X-T5 - F-Log2 to Rec709 (Bold) ML"
# Monitoring LUT. Developed for converting Fujifilm F-Log2 / BT.2020 to Rec.709. Version 1.0 - 05/01/2025 - Copyright 2025 Gamut, LLC.
LUT_3D_SIZE 17
0.0000000000 0.0000000000 0.0000000000
0.0000000000 0.0000000000 0.0000000000
0.0000000000 0.0000000000 0.0000000000
0.0395462779 0.0000000000 0.0000000000
0.1194871571 0.0000000000 0.0000000000
0.2255722426 0.0021204230 0.0021204230
0.3461965452 0.0036493794 0.0036493794
0.4667693143 0.0059656492 0.0055243587
0.5900591015 0.0090232370 0.0074760511
0.7110941468 0.0139551373 0.0097484497
0.8178313323 0.0233333306 0.0112478686
0.9027745224 0.0478791145 0.0140036402
0.9720374245 0.1109344583 0.0277641620
1.0000000000 0.2111017025 0.0533863477
1.0000000000 0.3244301545 0.0977505174
1.0000000000 0.4374614911 0.1655672356
1.0000000000 0.5345232711 0.2326726072
0.0000000000 0.0000000000 0.0000000000
0.0000000000 0.0000000000 0.0000000000
0.0000000000 0.0000000000 0.0000000000
0.0395462779 0.0000000000 0.0000000000
0.1194871571 0.0000000000 0.0000000000
0.2255722426 0.0021204230 0.0021204230
0.3465088262 0.0036493794 0.0036493794
0.4667693143 0.0059656492 0.0055243587
0.5900591015 0.0090232370 0.0074760511
0.7110941468 0.0139551373 0.0097484497
0.8178313323 0.0233333306 0.0112478686
0.9027745224 0.0478791145 0.0140036402
0.9720374245 0.1109344583 0.0277641620
1.0000000000 0.2111017025 0.0533863477
1.0000000000 0.3244301545 0.0977505174
1.0000000000 0.4374614911 0.1655672356
1.0000000000 0.5345232711 0.2326726072
0.0000000000 0.0209697543 0.0000000000
0.0000000000 0.0209697543 0.0000000000
0.0214928126 0.0238257007 0.0000000000
0.0871430405 0.0156477092 0.0028112181
0.1699361892 0.0022682897 0.0007886222
0.2649032996 0.0029097333 0.0023668675
0.3707187144 0.0044386271 0.0039451127
0.4814086004 0.0061872569 0.0059656492
0.5982164312 0.0090232370 0.0074760511
0.7151946447 0.0139551373 0.0097484497
0.8197351709 0.0241205234 0.0112478686
0.9033858429 0.0491481603 0.0140036402
0.9723651400 0.1119461236 0.0277641620
1.0000000000 0.2118111592 0.0533863477
1.0000000000 0.3247647531 0.0974493673
1.0000000000 0.4377582380 0.1658071669
1.0000000000 0.5345832767 0.2326933688
0.0000000000 0.0813497173 0.0000000000
0.0000000000 0.0812827377 0.0000000000
0.0000000000 0.0937882051 0.0000000000
0.0698661779 0.0765809292 0.0000000000
0.1721563886 0.0616029478 0.0123112523
0.2864174343 0.0163735351 0.0032057168
0.3906111188 0.0060144683 0.0044386271
0.4972716917 0.0073792293 0.0059656492
0.6088779605 0.0097968299 0.0078626023
0.7203254456 0.0147292208 0.0097484497
0.8222315289 0.0249087151 0.0112478686
0.9044798112 0.0500934498 0.0140036402
0.9728702014 0.1130474711 0.0279609602
1.0000000000 0.2128899230 0.0539073269
1.0000000000 0.3254742549 0.0980560701
1.0000000000 0.4380644362 0.1660017939
1.0000000000 0.5347652936 0.2328387003
0.0000000000 0.1631652797 0.0000000000
0.0000000000 0.1631652797 0.0000000000
0.0000000000 0.1794152328 0.0000000000
0.0175078777 0.1767178887 0.0000000000
0.1405886009 0.1509458505 0.0000000000
0.2784989328 0.1258732940 0.0143903754
0.4042522599 0.0630345571 0.0130849679
0.5161329983 0.0162767747 0.0061037342
0.6239410272 0.0125048958 0.0082496440
0.7302225895 0.0168569694 0.0097484497
0.8265990528 0.0264840997 0.0112478686
0.9063127312 0.0527422082 0.0147777237
0.9736662602 0.1157553251 0.0285521041
1.0000000000 0.2149617888 0.0543030604
1.0000000000 0.3265410463 0.0985115030
1.0000000000 0.4387642732 0.1664387961
1.0000000000 0.5350370689 0.2329625197
0.0000000000 0.2670789130 0.0000000000
0.0000000000 0.2670789130 0.0000000000
0.0000000000 0.2823202281 0.0000000000
0.0000000000 0.2894729895 0.0000000000
0.0626092176 0.2808359631 0.0000000000
0.2343003947 0.2488031580 0.0000000000
0.3894292341 0.2117555290 0.0079593014
0.5240765192 0.1462554588 0.0305704094
0.6402711925 0.0519556697 0.0122631787
0.7433193485 0.0266315734 0.0097484497
0.8350031853 0.0330815219 0.0112478686
0.9098058806 0.0591212409 0.0160830085
0.9748770839 0.1211074581 0.0298811787
1.0000000000 0.2186214566 0.0548864117
1.0000000000 0.3284057218 0.0991515263
1.0000000000 0.4399072588 0.1669895291
1.0000000000 0.5354706091 0.2330037929
0.0000000000 0.3782297453 0.0000000000
0.0000000000 0.3782297453 0.0000000000
0.0000000000 0.3872445102 0.0006902946
0.0000000000 0.3952392634 0.0000000000
0.0000000000 0.4017754812 0.0000000000
0.1359292672 0.3898390657 0.0000000000
0.3416712288 0.3577729488 0.0000000000
0.5043134076 0.3147720536 0.0032549432
0.6410389360 0.2505297914 0.0413547988
0.7536329267 0.1330927985 0.0296351809
0.8444492558 0.0683798550 0.0169533006
0.9157394700 0.0805448837 0.0198868023
0.9774015775 0.1336470484 0.0321954930
1.0000000000 0.2258882213 0.0570444228
1.0000000000 0.3322561749 0.1005155144
1.0000000000 0.4419186406 0.1680598522
1.0000000000 0.5364615761 0.2332714430
0.0000000000 0.4934030090 0.0263855133
0.0000000000 0.4934288266 0.0263855133
0.0000000000 0.4986149251 0.0266318232
0.0000000000 0.5054360682 0.0271737050
0.0000000000 0.5125432612 0.0178572237
0.0041429563 0.5189032363 0.0007890601
0.2294905115 0.5038392957 0.0000000000
0.4515225648 0.4700042393 0.0000000000
0.6191909771 0.4234498557 0.0010354420
0.7496283315 0.3553308017 0.0355354586
0.8457341858 0.2483247069 0.0525040492
0.9202677873 0.1590033825 0.0362847257
0.9808251929 0.1727020064 0.0407021637
1.0000000000 0.2429588222 0.0611799108
1.0000000000 0.3397352845 0.1034372163
1.0000000000 0.4457237210 0.1699018533
1.0000000000 0.5381735476 0.2338272546
0.0000000000 0.6075869971 0.0671339941
0.0000000000 0.6076832052 0.0671339941
0.0000000000 0.6105656852 0.0676730602
0.0000000000 0.6144547127 0.0682149869
0.0000000000 0.6209366680 0.0680711391
0.0000000000 0.6272221008 0.0487135832
0.0280099797 0.6314893190 0.0082496440
0.3334232027 0.6167980400 0.0000000000
0.5657015497 0.5847079528 0.0000000000
0.7279326488 0.5370199405 0.0000000000
0.8401379407 0.4600506049 0.0218558457
0.9170463333 0.3634249580 0.0635520555
0.9815284615 0.2788803718 0.0647021465
1.0000000000 0.2900739155 0.0729427361
1.0000000000 0.3571609719 0.1096164486
1.0000000000 0.4529000782 0.1728911886
1.0000000000 0.5412428951 0.2344836227
0.0124230859 0.7109930127 0.1111194883
0.0124230859 0.7110110542 0.1111194883
0.0127829961 0.7124350765 0.1111194883
0.0136051920 0.7142922836 0.1106248060
0.0154037007 0.7175801137 0.1104071059
0.0193148155 0.7228731919 0.1082689624
0.0237702491 0.7275673841 0.0803299221
0.1103199404 0.7316176943 0.0330659754
0.4456842042 0.7228654598 0.0254502848
0.6779999264 0.6960444696 0.0258930807
0.8195447871 0.6522515123 0.0145842028
0.9104853521 0.5725267442 0.0136651013
0.9778981920 0.4724052147 0.0557413793
1.0000000000 0.3978880979 0.0929808510
1.0000000000 0.4082152455 0.1241875750
1.0000000000 0.4685771685 0.1764556323
1.0000000000 0.5468199129 0.2356282646
0.1140261510 0.7916242035 0.1543996514
0.1140261510 0.7916377211 0.1543996514
0.1153444482 0.7922679196 0.1546559332
0.1169735270 0.7930117040 0.1549998810
0.1199929743 0.7943355768 0.1554282050
0.1251449436 0.7967905819 0.1563034668
0.1342114715 0.8006664866 0.1547381198
0.1507650181 0.8053581831 0.1310384832
0.2590443613 0.8135781396 0.1039974702
0.5739627549 0.8112859561 0.0906358919
0.7784868806 0.7927708267 0.0844352054
0.8910908492 0.7572556839 0.0645491938
0.9698148543 0.6850444597 0.0381837027
1.0000000000 0.5806417700 0.0510758996
1.0000000000 0.5011659428 0.1050499778
1.0000000000 0.5060155370 0.1635381270
1.0000000000 0.5599867058 0.2346255773
0.3111166584 0.8559125700 0.2572118830
0.3111166584 0.8559125700 0.2572118830
0.3122462862 0.8561768811 0.2577831068
0.3139002095 0.8566229334 0.2584041487
0.3165621742 0.8573975735 0.2595292410
0.3215414020 0.8588338998 0.2614316346
0.3305483998 0.8613849184 0.2649447543
0.3455734880 0.8655549442 0.2675773154
0.3666637726 0.8715181197 0.2460661801
0.4585468609 0.8801056727 0.2091619601
0.7048984768 0.8817375370 0.1842211178
0.8588598465 0.8697245942 0.1726788910
0.9521868645 0.8410760666 0.1486955136
0.9990002040 0.7840004290 0.1100877170
1.0000000000 0.6893768411 0.0877483329
1.0000000000 0.6011507128 0.1325884059
1.0000000000 0.6011955555 0.2194059536
0.5378063698 0.9176783602 0.4030754074
0.5378491519 0.9176708465 0.4030951134
0.5383526264 0.9178176136 0.4033729924
0.5391086536 0.9180569241 0.4038365189
0.5404184651 0.9184615355 0.4044904948
0.5428603728 0.9191755223 0.4058741524
0.5474785247 0.9204455140 0.4084136019
0.5551990731 0.9226772740 0.4126231314
0.5673090785 0.9263464545 0.4153099557
0.5821578594 0.9314239939 0.3903630063
0.6452647496 0.9392277692 0.3429709943
0.8089441708 0.9428884875 0.2957363675
0.9263342241 0.9351203966 0.2754670704
0.9940788823 0.9134231162 0.2546885724
1.0000000000 0.8713346989 0.2183786512
1.0000000000 0.7905600004 0.1751375450
1.0000000000 0.7014599903 0.1979009372
0.7123250449 0.9677111561 0.5554743819
0.7123325321 0.9677111561 0.5554642710
0.7125712495 0.9677899099 0.5556545673
0.7128193259 0.9678460462 0.5558406194
0.7134143098 0.9679844449 0.5563515295
0.7143333030 0.9682183881 0.5570871876
0.7160976027 0.9686765008 0.5585634968
0.7192547739 0.9695070806 0.5609987632
0.7245771180 0.9708265980 0.5650593244
0.7329726733 0.9728389858 0.5679944080
0.7425718430 0.9758422176 0.5431169859
0.7819121940 0.9809982020 0.4918168694
0.8936767709 0.9870901833 0.4300425191
0.9811419923 0.9863650377 0.4007217303
1.0000000000 0.9778184189 0.3901196128
1.0000000000 0.9472928107 0.3470904765
1.0000000000 0.8790295666 0.2888709701
0.8434372450 0.9850951341 0.7072387476
0.8434372450 0.9850951341 0.7072387476
0.8435287368 0.9850951341 0.7073436952
0.8436407675 0.9850951341 0.7074523864
0.8438597253 0.9851431916 0.7076498027
0.8443390300 0.9851500570 0.7080451967
0.8451769575 0.9852041060 0.7088768533
0.8466821523 0.9853579524 0.7101922545
0.8492766590 0.9855423808 0.7125039714
0.8536579197 0.9858566269 0.7164970333
0.8603486052 0.9864736975 0.7195068825
0.8674279836 0.9876685556 0.6998259907
0.8955628369 0.9911573443 0.6546649350
0.9721717454 0.9986283303 0.5912310436
1.0000000000 1.0000000000 0.5505912772
1.0000000000 0.9998305220 0.5373244038
1.0000000000 0.9935460554 0.4926517195
0.9462523877 0.9935197760 0.8315481188
0.9462523877 0.9935197760 0.8315481188
0.9463390152 0.9935197760 0.8316875541
0.9464095520 0.9935197760 0.8317798201
0.9465135174 0.9935197760 0.8318833288
0.9466686236 0.9935197760 0.8319776675
0.9469729111 0.9935774583 0.8322675925
0.9475865378 0.9936411281 0.8329008928
0.9486507021 0.9937896910 0.8340330538
0.9502228083 0.9939431845 0.8357684964
0.9534767606 0.9942885198 0.8390888648
0.9585283037 0.9948810011 0.8431382750
0.9626128295 0.9955688283 0.8273603480
0.9775786653 0.9977702494 0.7912932661
0.9998180832 1.0000000000 0.7266522048
1.0000000000 1.0000000000 0.6831798949
1.0000000000 1.0000000000 0.6729709944
0.9976097371 1.0000000000 0.9246926210
0.9976373935 1.0000000000 0.9245135466
0.9976339364 1.0000000000 0.9245359309
0.9976097371 1.0000000000 0.9246926210
0.9976373935 1.0000000000 0.9245135466
0.9976373935 1.0000000000 0.9245135466
0.9976373935 1.0000000000 0.9249028825
0.9976645731 1.0000000000 0.9250205887
0.9977376829 1.0000000000 0.9254255182
0.9978362221 1.0000000000 0.9262023666
0.9980609668 1.0000000000 0.9274409855
0.9983780900 1.0000000000 0.9295535981
0.9987710348 1.0000000000 0.9326078604
0.9991657874 1.0000000000 0.9181170599
1.0000000000 1.0000000000 0.8861276877
1.0000000000 1.0000000000 0.8253017297
1.0000000000 1.0000000000 0.7901809021
0.0000000000 0.0000000000 0.0000000000
0.0000000000 0.0000000000 0.0000000000
0.0000000000 0.0000000000 0.0000000000
0.0395462779 0.0000000000 0.0000000000
0.1194871571 0.0000000000 0.0000000000
0.2255722426 0.0021204230 0.0021204230
0.3465088262 0.0036493794 0.0036493794
0.4667693143 0.0059656492 0.0055243587
0.5900591015 0.0090232370 0.0074760511
0.7110941468 0.0139551373 0.0097484497
0.8178313323 0.0233333306 0.0112478686
0.9027745224 0.0478791145 0.0140036402
0.9720374245 0.1109344583 0.0277641620
1.0000000000 0.2111017025 0.0533863477
1.0000000000 0.3244301545 0.0977505174
1.0000000000 0.4374614911 0.1657786559
1.0000000000 0.5345232711 0.2326726072
0.0000000000 0.0000000000 0.0000000000
0.0000000000 0.0000000000 0.0000000000
0.0000000000 0.0000000000 0.0000000000
0.0455975752 0.0000000000 0.0000000000
0.1252465932 0.0007393333 0.0007393333
0.2292265228 0.0021204230 0.0021204230
0.3486339679 0.0036493794 0.0036493794
0.4680491996 0.0059656492 0.0055243587
0.5908993420 0.0090232370 0.0074760511
0.7115554217 0.0139551373 0.0097484497
0.8179744463 0.0233333306 0.0112478686
0.9027745224 0.0483244155 0.0140036402
0.9721418339 0.1109344583 0.0277641620
1.0000000000 0.2112736504 0.0539894449
1.0000000000 0.3244301545 0.0977505174
1.0000000000 0.4375298412 0.1657937573
1.0000000000 0.5345232711 0.2326726072
0.0000000000 0.0209697543 0.0000000000
0.0000000000 0.0180394581 0.0000000000
0.0184085105 0.0206739951 0.0000000000
0.0905198656 0.0080564298 0.0014302535
0.1691382153 0.0015781201 0.0013808395
0.2629294006 0.0023668675 0.0023668675
0.3692111586 0.0044386271 0.0039451127
0.4801729775 0.0061872569 0.0059656492
0.5977593869 0.0090232370 0.0074760511
0.7148362567 0.0139551373 0.0097484497
0.8196648563 0.0241205234 0.0112478686
0.9033557978 0.0489577600 0.0140036402
0.9723893689 0.1117169357 0.0277641620
1.0000000000 0.2118111592 0.0533863477
1.0000000000 0.3247647531 0.0974928035
1.0000000000 0.4377582380 0.1660185872
1.0000000000 0.5345832767 0.2326933688
0.0000000000 0.0813497173 0.0000000000
0.0000000000 0.0842376969 0.0000000000
0.0000000000 0.0967655414 0.0000000000
0.0717396337 0.0783251226 0.0000000000
0.1741201232 0.0626354246 0.0123112523
0.2884107889 0.0165669333 0.0033044197
0.3914497099 0.0062291242 0.0044386271
0.4981006492 0.0073792293 0.0059656492
0.6092281129 0.0097968299 0.0078626023
0.7205529321 0.0147292208 0.0097484497
0.8223561946 0.0249087151 0.0112478686
0.9044798112 0.0500934498 0.0140036402
0.9728816914 0.1132509377 0.0279609602
1.0000000000 0.2129132739 0.0539894449
1.0000000000 0.3254742549 0.0980560701
1.0000000000 0.4381816078 0.1662124623
1.0000000000 0.5347652936 0.2328387003
0.0000000000 0.1631652797 0.0000000000
0.0000000000 0.1647379609 0.0000000000
0.0000000000 0.1797630703 0.0000000000
0.0176607096 0.1781653404 0.0000000000
0.1419088438 0.1521827030 0.0000000000
0.2797991986 0.1266655887 0.0149225578
0.4050333326 0.0636235674 0.0130849679
0.5166204758 0.0162767747 0.0061037342
0.6244237764 0.0128914470 0.0082496440
0.7303997556 0.0168569694 0.0097484497
0.8267529749 0.0264840997 0.0112478686
0.9063226600 0.0527422082 0.0147777237
0.9736522724 0.1157553251 0.0285521041
1.0000000000 0.2149617888 0.0543030604
1.0000000000 0.3265410463 0.0985115030
1.0000000000 0.4387838018 0.1664992019
1.0000000000 0.5350370689 0.2329625197
0.0000000000 0.2670789130 0.0000000000
0.0000000000 0.2682020180 0.0000000000
0.0000000000 0.2815521485 0.0000000000
0.0000000000 0.2903975054 0.0000000000
0.0631968015 0.2818286070 0.0000000000
0.2354359285 0.2498564250 0.0000000000
0.3902839905 0.2124601157 0.0079593014
0.5245608008 0.1469366067 0.0305704094
0.6406388707 0.0520519882 0.0122631787
0.7435531476 0.0266315734 0.0097484497
0.8350351273 0.0330815219 0.0112478686
0.9098442847 0.0589519310 0.0160830085
0.9749602617 0.1211074581 0.0298811787
1.0000000000 0.2186214566 0.0552093674
1.0000000000 0.3284057218 0.0991957388
1.0000000000 0.4399072588 0.1670028760
1.0000000000 0.5355538043 0.2330037929
0.0000000000 0.3782297453 0.0000000000
0.0000000000 0.3788505722 0.0014299407
0.0000000000 0.3863803582 0.0019234551
0.0000000000 0.3957116969 0.0006902946
0.0000000000 0.4022087697 0.0000000000
0.1366118635 0.3904140279 0.0000000000
0.3422647509 0.3584379586 0.0000000000
0.5049654456 0.3152843567 0.0032549432
0.6414298904 0.2509810131 0.0413547988
0.7537622093 0.1336091563 0.0296351809
0.8445427392 0.0684998931 0.0169533006
0.9158135930 0.0806788296 0.0198868023
0.9774529001 0.1336470484 0.0321954930
1.0000000000 0.2258882213 0.0570444228
1.0000000000 0.3322561749 0.1005155144
1.0000000000 0.4419328489 0.1680747030
1.0000000000 0.5364615761 0.2332714430
0.0000000000 0.4934288266 0.0263855133
0.0000000000 0.4938183359 0.0278624363
0.0000000000 0.4981356154 0.0286506280
0.0000000000 0.5055929465 0.0288474262
0.0000000000 0.5127783600 0.0197877788
0.0041429563 0.5191547039 0.0014298156
0.2298225495 0.5042035958 0.0000000000
0.4520541738 0.4704700029 0.0000000000
0.6195523526 0.4237973644 0.0010354420
0.7498193044 0.3555771202 0.0355354586
0.8458788299 0.2486863088 0.0525040492
0.9203028532 0.1590582086 0.0362847257
0.9808936230 0.1727714778 0.0407021637
1.0000000000 0.2430199011 0.0614059547
1.0000000000 0.3397352845 0.1034372163
1.0000000000 0.4457237210 0.1699018533
1.0000000000 0.5381735476 0.2338272546
0.0000000000 0.6075869971 0.0676369109
0.0000000000 0.6079065410 0.0689330399
0.0000000000 0.6103404052 0.0691812773
0.0000000000 0.6145021268 0.0697139639
0.0000000000 0.6210579514 0.0697138390
0.0000000000 0.6273641201 0.0509828998
0.0280099797 0.6316444940 0.0089752247
0.3337383124 0.6170664902 0.0000000000
0.5660828225 0.5849915021 0.0000000000
0.7281655709 0.5372238344 0.0000000000
0.8402283743 0.4601612621 0.0218558457
0.9170952283 0.3636661093 0.0635872221
0.9815044118 0.2790148065 0.0647021465
1.0000000000 0.2902077888 0.0731392782
1.0000000000 0.3571609719 0.1096164486
1.0000000000 0.4529000782 0.1729042848
1.0000000000 0.5413024006 0.2346477147
0.0124230859 0.7109930127 0.1113038110
0.0124230859 0.7111475913 0.1121350691
0.0127829961 0.7123399656 0.1121350691
0.0136051920 0.7143831198 0.1117587021
0.0154037007 0.7175785421 0.1117587021
0.0193148155 0.7229119151 0.1097184489
0.0240670603 0.7276226908 0.0816777939
0.1101409119 0.7316330503 0.0341381453
0.4458718530 0.7229566732 0.0257951187
0.6781731464 0.6961755426 0.0258930807
0.8196469049 0.6523716631 0.0146325830
0.9105422401 0.5725957292 0.0140521431
0.9779208161 0.4725254400 0.0557413793
1.0000000000 0.3980271411 0.0932981161
1.0000000000 0.4082848298 0.1244522067
1.0000000000 0.4685814317 0.1764556323
1.0000000000 0.5468199129 0.2356282646
0.1140261510 0.7916242035 0.1546393723
0.1142482170 0.7917392288 0.1553623490
0.1151499685 0.7922317473 0.1554741602
0.1169735270 0.7930325437 0.1557187557
0.1199929743 0.7943562483 0.1562745171
0.1251449436 0.7968343668 0.1571240207
0.1343151221 0.8006642284 0.1556432423
0.1504946916 0.8053581831 0.1317135012
0.2589720194 0.8135521698 0.1043519178
0.5741031246 0.8113397777 0.0907807636
0.7785831904 0.7928183263 0.0844352054
0.8910967780 0.7573115465 0.0645491938
0.9698148543 0.6851270243 0.0381837027
1.0000000000 0.5807154329 0.0511947371
1.0000000000 0.5011814085 0.1049467322
1.0000000000 0.5060590831 0.1635521632
1.0000000000 0.5599867058 0.2346255773
0.3111166584 0.8559125700 0.2573504750
0.3111166584 0.8559125700 0.2576772899
0.3120505963 0.8561438030 0.2581001828
0.3137836375 0.8565728152 0.2588254809
0.3164237488 0.8573524045 0.2598437574
0.3214805468 0.8588004458 0.2618477852
0.3304527525 0.8613642446 0.2652581470
0.3455037578 0.8655486794 0.2680214341
0.3665661805 0.8714535445 0.2465135559
0.4585766942 0.8800899974 0.2095750662
0.7049507001 0.8817395355 0.1844358368
0.8589217921 0.8697446415 0.1726788910
0.9521866154 0.8410953282 0.1486955136
0.9990002040 0.7840270889 0.1105568059
1.0000000000 0.6894333922 0.0877483329
1.0000000000 0.6011507128 0.1325884059
1.0000000000 0.6011955555 0.2194059536
0.5378063698 0.9176708465 0.4031554785
0.5377964583 0.9176708465 0.4033421862
0.5382960435 0.9177988294 0.4036503724
0.5390810522 0.9180514141 0.4040441798
0.5403911146 0.9184502650 0.4047828414
0.5428718524 0.9191738944 0.4061774745
0.5474423920 0.9204455140 0.4086762025
0.5551843315 0.9226566227 0.4128443246
0.5673234045 0.9263333127 0.4155842754
0.5821706774 0.9313982110 0.3907045555
0.6452599874 0.9392108406 0.3433194786
0.8089366894 0.9429291788 0.2959411412
0.9263342241 0.9351203966 0.2754982848
0.9940788823 0.9134249320 0.2548442074
1.0000000000 0.8713346989 0.2185252392
1.0000000000 0.7905281463 0.1751867344
1.0000000000 0.7014599903 0.1979009372
0.7123250449 0.9677111561 0.5554844927
0.7122935986 0.9677111561 0.5555820437
0.7125236433 0.9677793843 0.5558049194
0.7128650603 0.9678460462 0.5560508877
0.7133585301 0.9679528682 0.5564297326
0.7143333030 0.9682183881 0.5572317978
0.7160828155 0.9686765008 0.5586622337
0.7192472867 0.9694860295 0.5611585556
0.7245532639 0.9708162604 0.5651750942
0.7329449833 0.9728389858 0.5681121135
0.7425568076 0.9758264293 0.5432508610
0.7819714808 0.9809982020 0.4920277862
0.8936611063 0.9870901833 0.4300716392
0.9811419923 0.9863650377 0.4007366968
1.0000000000 0.9778184189 0.3901196128
1.0000000000 0.9472928107 0.3470904765
1.0000000000 0.8790295666 0.2888709701
0.8434372450 0.9850951341 0.7072387476
0.8434372450 0.9850951341 0.7072486059
0.8435126790 0.9850951341 0.7073736446
0.8436598127 0.9850951341 0.7075108501
0.8438597253 0.9851431916 0.7076896728
0.8443199848 0.9851500570 0.7080926166
0.8451769575 0.9852041060 0.7089162242
0.8466550782 0.9853339237 0.7102264467
0.8492495227 0.9855423808 0.7125644317
0.8536475955 0.9858566269 0.7165359675
0.8603486052 0.9864736975 0.7195665940
0.8674279836 0.9876685556 0.6998952016
0.8955628369 0.9911573443 0.6547026737
0.9721734939 0.9986283303 0.5912786782
1.0000000000 1.0000000000 0.5505912772
1.0000000000 0.9998305220 0.5373244038
1.0000000000 0.9935460554 0.4926517195
0.9462523877 0.9935197760 0.8315481188
0.9462523877 0.9935197760 0.8315800884
0.9463390152 0.9935197760 0.8316875541
0.9464204038 0.9935197760 0.8318186359
0.9465135174 0.9935197760 0.8318897353
0.9466686236 0.9935197760 0.8319776675
0.9470398306 0.9935774583 0.8324521873
0.9476245192 0.9936411281 0.8329457382
0.9486941093 0.9937896910 0.8341172953
0.9502707063 0.9939431845 0.8358622470
0.9535303143 0.9942885198 0.8391740958
0.9585494761 0.9948810011 0.8431863428
0.9626075987 0.9955688283 0.8273923176
0.9775854836 0.9977702494 0.7912992062
0.9998180832 1.0000000000 0.7266522048
1.0000000000 1.0000000000 0.6831798949
1.0000000000 1.0000000000 0.6729709944
0.9976356650 1.0000000000 0.9245247387
0.9976356650 1.0000000000 0.9245247387
0.9976356650 1.0000000000 0.9245247387
0.9976373935 1.0000000000 0.9245135466
0.9976373935 1.0000000000 0.9245135466
0.9976373935 1.0000000000 0.9245135466
0.9976373935 1.0000000000 0.9249028825
0.9976931813 1.0000000000 0.9250990595
0.9977376829 1.0000000000 0.9254255182
0.9978362221 1.0000000000 0.9262023666
0.9980609668 1.0000000000 0.9274409855
0.9983780900 1.0000000000 0.9295535981
0.9987710348 1.0000000000 0.9326078604
0.9991657874 1.0000000000 0.9181170599
1.0000000000 1.0000000000 0.8861276877
1.0000000000 1.0000000000 0.8253017297
1.0000000000 1.0000000000 0.7901809021
0.0000000000 0.0000000000 0.0124082580
0.0000000000 0.0000000000 0.0124082580
0.0365901054 0.0000000000 0.0224463651
0.0867919476 0.0000000000 0.0122145532
0.1648893850 0.0007886222 0.0029590847
0.2615835290 0.0023668675 0.0023668675
0.3670905259 0.0039451127 0.0039451127
0.4784160948 0.0059656492 0.0059656492
0.5965893961 0.0090232370 0.0074760511
0.7142616130 0.0139551373 0.0097484497
0.8193058289 0.0233333306 0.0112478686
0.9032983311 0.0485608964 0.0140036402
0.9723296708 0.1112421181 0.0277641620
1.0000000000 0.2112854507 0.0540305039
1.0000000000 0.3243301135 0.0977916555
1.0000000000 0.4374524153 0.1662426025
1.0000000000 0.5345757760 0.2332918294
0.0000000000 0.0000000000 0.0124082580
0.0000000000 0.0000000000 0.0117309350
0.0304038053 0.0000000000 0.0186067399
0.0870336090 0.0000000000 0.0072824689
0.1646037169 0.0007886222 0.0015781201
0.2596093167 0.0023668675 0.0023175786
0.3654692907 0.0039451127 0.0038465349
0.4777069405 0.0059656492 0.0059656492
0.5963420678 0.0090232370 0.0074760511
0.7141792536 0.0139551373 0.0097484497
0.8192947724 0.0233333306 0.0112478686
0.9032809100 0.0485608964 0.0140036402
0.9723299205 0.1112651615 0.0277641620
1.0000000000 0.2112854507 0.0534967368
