bundles/resolve-cinematic-luts/Gamut/The Creator/CREATOR/Creator 07 - Bold.cube
TITLE "Creator LUT 07 by Gamut"
# Version 1.0 - 11/18/2025 - Designed for Rec.709 Color Space. Copyright 2025 Gamut, LLC.
LUT_3D_SIZE 33
0.0007890000 0.0063090000 0.0118290000
0.0147612187 0.0210455625 0.0265655625
0.0295224375 0.0343027500 0.0390840000
0.0493243437 0.0456218750 0.0511025938
0.0711762500 0.0533221250 0.0594870000
0.0949867813 0.0589813750 0.0643430312
0.1182064375 0.0620074375 0.0646267500
0.1439091250 0.0613121562 0.0615648125
0.1732470000 0.0585067500 0.0561892500
0.2057913750 0.0559201250 0.0499305625
0.2403961250 0.0529557500 0.0436613125
0.2765937187 0.0505790000 0.0370873125
0.3112335000 0.0485531250 0.0326275000
0.3449321563 0.0471780000 0.0310745313
0.3779995625 0.0457771250 0.0295221875
0.4135198750 0.0454630000 0.0291770000
0.4509340000 0.0454630000 0.0291770000
0.4890083125 0.0454630000 0.0291770000
0.5260723750 0.0457771250 0.0291770000
0.5620096562 0.0471780000 0.0299660000
0.5964136250 0.0488096250 0.0307540000
0.6291119375 0.0517013125 0.0318142187
0.6603868750 0.0548890625 0.0333665625
0.6897993125 0.0585634688 0.0357076250
0.7168675000 0.0620777500 0.0380490000
0.7414630937 0.0661285625 0.0405543125
0.7636866875 0.0703969375 0.0435403750
0.7846594062 0.0745492500 0.0464020938
0.8048650000 0.0793993750 0.0492393750
0.8248746563 0.0840157187 0.0524692500
0.8451480000 0.0884267500 0.0550518750
0.8662739687 0.0926551875 0.0581097188
0.8878640000 0.0971260000 0.0610560000
0.0147612187 0.0210455625 0.0265655625
0.0202072813 0.0264916250 0.0312226563
0.0325778750 0.0381471563 0.0420766250
0.0494467813 0.0503379688 0.0530391250
0.0711022500 0.0608825938 0.0616860625
0.0940881562 0.0682066875 0.0669227500
0.1175191875 0.0739995625 0.0687815625
0.1432306875 0.0767295938 0.0670284375
0.1719971875 0.0764205000 0.0627105625
0.2035986875 0.0751548750 0.0571140000
0.2384345000 0.0736492187 0.0512557500
0.2735803750 0.0719572187 0.0448606563
0.3085125312 0.0714337500 0.0393999063
0.3422387813 0.0703785625 0.0357322187
0.3761039688 0.0696295625 0.0341798438
0.4114818125 0.0690746875 0.0338350625
0.4489583750 0.0693411875 0.0338350625
0.4871107188 0.0698588125 0.0334405625
0.5246273125 0.0711102812 0.0338350625
0.5609472500 0.0726406563 0.0341551875
0.5956710312 0.0748207187 0.0356829375
0.6289619375 0.0779013438 0.0367425313
0.6605130000 0.0813107812 0.0387880000
0.6900242187 0.0852339062 0.0405767812
0.7173272500 0.0893725938 0.0433540312
0.7421385625 0.0939403437 0.0456835000
0.7647896563 0.0991026563 0.0486130937
0.7859999063 0.1040905313 0.0518072188
0.8063970938 0.1091791250 0.0549902500
0.8265313750 0.1143912188 0.0575320937
0.8469577812 0.1194204062 0.0610353437
0.8676758750 0.1248421563 0.0639153750
0.8893125312 0.1297484375 0.0672002500
0.0272550000 0.0366194375 0.0398227500
0.0303104375 0.0389361250 0.0413669375
0.0395763125 0.0462776875 0.0471348125
0.0552329375 0.0572647500 0.0556677813
0.0742035625 0.0675478750 0.0629800000
0.0968485625 0.0776476875 0.0699771563
0.1191675000 0.0863480625 0.0738367500
0.1450217500 0.0913500312 0.0730871875
0.1737339375 0.0938763125 0.0692650000
0.2053595313 0.0944963750 0.0649387187
0.2396081250 0.0940535625 0.0591453750
0.2749472500 0.0935795625 0.0535998125
0.3094793125 0.0935506875 0.0483226875
0.3433685000 0.0935506875 0.0443180000
0.3769486875 0.0937253750 0.0414176250
0.4125553750 0.0943178437 0.0400198750
0.4500946250 0.0952682500 0.0392318125
0.4884051250 0.0962636250 0.0392318125
0.5261908750 0.0978274375 0.0392318125
0.5625677812 0.0995276875 0.0396012500
0.5975550625 0.1023126250 0.0410845000
0.6306034062 0.1054364063 0.0418735937
0.6622328750 0.1091317500 0.0440458750
0.6919874062 0.1133953125 0.0461986563
0.7191858750 0.1180858750 0.0484608125
0.7441407813 0.1230678437 0.0511399063
0.7668142500 0.1283115625 0.0538460000
0.7881828438 0.1339964375 0.0574335937
0.8086376875 0.1397198750 0.0604953125
0.8288628750 0.1454508125 0.0638936562
0.8492126250 0.1512400625 0.0671973125
0.8701860938 0.1570419063 0.0703803437
0.8914208125 0.1628567500 0.0734542500
0.0388375312 0.0540460938 0.0517689375
0.0426087187 0.0547099688 0.0517909375
0.0501711563 0.0595764062 0.0543966875
0.0617635000 0.0663800625 0.0582525937
0.0794818750 0.0755908750 0.0630357500
0.0993613437 0.0852976563 0.0680167500
0.1213658750 0.0943486875 0.0714357812
0.1469565000 0.1026002813 0.0741890625
0.1772115000 0.1094075313 0.0759482812
0.2097394688 0.1133523438 0.0732736875
0.2437550625 0.1148135937 0.0682316562
0.2786517813 0.1158774687 0.0632964375
0.3131070000 0.1168225938 0.0584386875
0.3467499687 0.1179586563 0.0545820313
0.3800709688 0.1192465312 0.0510891563
0.4155107500 0.1204870313 0.0488433438
0.4528051875 0.1222374375 0.0468378750
0.4911235937 0.1240833750 0.0455008437
0.5288229687 0.1259036250 0.0451867188
0.5652282187 0.1282922813 0.0458374063
0.6001262187 0.1312905000 0.0468853438
0.6332696250 0.1346894688 0.0481981562
0.6648108125 0.1387475625 0.0498308437
0.6944731250 0.1432031250 0.0518029062
0.7216369687 0.1480741563 0.0543062188
0.7465505000 0.1535263750 0.0574117812
0.7695186250 0.1592709375 0.0604529375
0.7908090625 0.1652384375 0.0638904375
0.8112055937 0.1712477812 0.0671408437
0.8314873437 0.1772509688 0.0703261875
0.8519378438 0.1834283125 0.0739125938
0.8727498750 0.1894376562 0.0773317812
0.8939836562 0.1953939062 0.0810754375
0.0483625000 0.0728110000 0.0610401250
0.0529153437 0.0724191563 0.0599890000
0.0601666250 0.0754228750 0.0606422500
0.0713715313 0.0802257812 0.0607944375
0.0850380000 0.0856771250 0.0614956250
0.1028051875 0.0941766562 0.0639881562
0.1244692500 0.1028145625 0.0668563125
0.1501086875 0.1107893750 0.0710914063
0.1793595000 0.1185085000 0.0730718750
0.2125065625 0.1263465938 0.0742673438
0.2488323125 0.1344532500 0.0758548125
0.2849761250 0.1392610625 0.0742102188
0.3187151250 0.1416931250 0.0700531250
0.3517621563 0.1436210937 0.0661691875
0.3846344375 0.1453693750 0.0628239375
0.4195661250 0.1476775000 0.0597388750
0.4565913750 0.1498871250 0.0573430000
0.4946935312 0.1525354688 0.0552546250
0.5322253750 0.1552686250 0.0539963125
0.5683091250 0.1580527500 0.0537167500
0.6029230000 0.1613572500 0.0545985000
0.6361371250 0.1653327500 0.0558467500
0.6678220625 0.1696193125 0.0573476875
0.6973881562 0.1743566562 0.0591412813
0.7245406250 0.1796100000 0.0616290000
0.7494281250 0.1851170313 0.0648729063
0.7723093750 0.1910595625 0.0681405625
0.7937533750 0.1971941563 0.0717455313
0.8143293750 0.2034998750 0.0752786250
0.8347539063 0.2097471875 0.0787261250
0.8552418750 0.2159763750 0.0824023750
0.8759700000 0.2221628125 0.0864068750
0.8970368750 0.2281836250 0.0906631250
0.0556969375 0.0937430625 0.0688725000
0.0619856875 0.0926277812 0.0668876250
0.0700160000 0.0939128437 0.0649081250
0.0806785000 0.0971656250 0.0633460000
0.0928359063 0.1010137813 0.0612023750
0.1062098125 0.1042074375 0.0572962500
0.1265183750 0.1121495937 0.0605536875
0.1522755312 0.1201072813 0.0661123125
0.1813351875 0.1278915625 0.0684918437
0.2146587187 0.1363468438 0.0710910000
0.2504075313 0.1452623750 0.0731351250
0.2872497188 0.1540133750 0.0753856875
0.3231950312 0.1624294375 0.0773540312
0.3574029063 0.1692506250 0.0776340000
0.3903225312 0.1728645000 0.0756469063
0.4249270000 0.1759466562 0.0727884062
0.4615920937 0.1789107500 0.0696899062
0.4991800625 0.1817605000 0.0673788438
0.5362494063 0.1848868125 0.0655305000
0.5720037813 0.1884060000 0.0647431875
0.6066538125 0.1922527187 0.0647431875
0.6398716562 0.1964390938 0.0655883750
0.6713931250 0.2010712500 0.0671424687
0.7009467500 0.2061672813 0.0690551562
0.7281490938 0.2115359688 0.0716546250
0.7529182500 0.2173840312 0.0746045000
0.7758118438 0.2232574688 0.0781218750
0.7973965938 0.2296713438 0.0818052187
0.8181727813 0.2361288437 0.0854843750
0.8386990313 0.2423821875 0.0893305313
0.8590543750 0.2487279063 0.0934573437
0.8797428125 0.2550539375 0.0975071875
0.9008025625 0.2614461250 0.1017126250
0.0601261250 0.1162370000 0.0746906250
0.0682975313 0.1142351250 0.0707113437
0.0772881875 0.1146761875 0.0671671250
0.0883326875 0.1166471875 0.0635416562
0.1000153750 0.1190816250 0.0600898750
0.1131944687 0.1216975625 0.0558603437
0.1273687500 0.1231631250 0.0521751875
0.1526168438 0.1308409062 0.0565788438
0.1829282500 0.1385066875 0.0623656250
0.2156971563 0.1470786250 0.0661979688
0.2513553750 0.1566240625 0.0693676875
0.2875586562 0.1659199375 0.0720380000
0.3232760000 0.1751368750 0.0748831875
0.3579262500 0.1838557500 0.0777205000
0.3928171875 0.1930294375 0.0808290625
0.4296527187 0.2017096562 0.0836355000
0.4674400625 0.2079693750 0.0837151875
0.5049324063 0.2120430625 0.0817210938
0.5416018750 0.2153760625 0.0799018750
0.5772492812 0.2191129063 0.0784711875
0.6115181250 0.2232506875 0.0781798750
0.6446965937 0.2277689375 0.0788290000
0.6760564375 0.2326109375 0.0800190000
0.7053416563 0.2378379687 0.0819168750
0.7325706875 0.2435571250 0.0843904375
0.7572725000 0.2495507187 0.0873949687
0.7802132500 0.2558100625 0.0908211875
0.8018335000 0.2622307500 0.0948778750
0.8226284375 0.2687036250 0.0987862500
0.8432033437 0.2752732812 0.1026714687
0.8636967500 0.2816997500 0.1070273750
0.8841159062 0.2880760937 0.1112690312
0.9047836875 0.2942904375 0.1156192500
0.0616430000 0.1422483438 0.0757779375
0.0703802812 0.1391255000 0.0712550625
0.0809387812 0.1385985312 0.0670114062
0.0932324375 0.1392895000 0.0632156250
0.1062156562 0.1407269063 0.0596933438
0.1197830000 0.1422526875 0.0559562813
0.1331604375 0.1431304687 0.0502939375
0.1508913437 0.1435936875 0.0467943750
0.1817211563 0.1510758750 0.0526680625
0.2158115625 0.1593424688 0.0582947188
0.2514797187 0.1688071875 0.0635364687
0.2875779688 0.1784465313 0.0678129375
0.3227378750 0.1878239688 0.0717757187
0.3570590938 0.1971058437 0.0751806563
0.3921523437 0.2066983125 0.0789478437
0.4291862500 0.2166459688 0.0830208125
0.4686691250 0.2270647813 0.0877218438
0.5088237187 0.2367901250 0.0917985937
0.5472869062 0.2445589375 0.0942462500
0.5833598750 0.2499718125 0.0945597500
0.6176320000 0.2548696875 0.0944635000
0.6505703750 0.2595787813 0.0949199062
0.6818209375 0.2646110000 0.0959496875
0.7109768125 0.2701233125 0.0979655000
0.7377866563 0.2759318125 0.1004051875
0.7625182500 0.2822174687 0.1033641250
0.7852680312 0.2885619688 0.1067733125
0.8069402187 0.2950199375 0.1103389375
0.8277101875 0.3015378125 0.1144335625
0.8482488125 0.3081045312 0.1184721875
0.8684371875 0.3144267500 0.1225779063
0.8885269688 0.3207074688 0.1269136250
0.9088130937 0.3269489375 0.1312493750
0.0601650000 0.1724795000 0.0747900000
0.0696004062 0.1679854062 0.0683550000
0.0820254375 0.1664160000 0.0644799375
0.0968785000 0.1660650000 0.0619877500
0.1131685000 0.1663683750 0.0594906250
0.1255733750 0.1674641562 0.0553848437
0.1388461875 0.1679230000 0.0508456250
0.1558745000 0.1669645312 0.0440576250
0.1777657500 0.1659837500 0.0415615000
0.2130315937 0.1735527500 0.0486734688
0.2496868125 0.1825578125 0.0556796875
0.2859516875 0.1920709688 0.0610672187
0.3209976250 0.2013925000 0.0665428750
0.3556770938 0.2108761875 0.0711699375
0.3906943125 0.2203932500 0.0755703750
0.4279081875 0.2308410312 0.0806186875
0.4672217500 0.2416517500 0.0859532500
0.5077397188 0.2523741562 0.0910195000
0.5474684375 0.2627323750 0.0965363750
0.5856562813 0.2729006562 0.1020869375
0.6221360000 0.2820930000 0.1071327500
0.6564264375 0.2899000937 0.1110610625
0.6880065625 0.2964508750 0.1137474375
0.7170783438 0.3026257813 0.1161846563
0.7438027500 0.3087630000 0.1186762500
0.7682646250 0.3150759062 0.1216047188
0.7909117500 0.3214320625 0.1248519375
0.8124197500 0.3278042500 0.1283118437
0.8330857500 0.3341995000 0.1321525000
0.8532779688 0.3404879063 0.1361798125
0.8731895000 0.3466975625 0.1398811875
0.8929740937 0.3527390313 0.1439698125
0.9125315000 0.3587982500 0.1480137500
0.0571667813 0.2061895625 0.0720207812
0.0689123437 0.2006377500 0.0660596563
0.0843082813 0.1979793750 0.0620772812
0.1014950313 0.1966925625 0.0606855312
0.1185713125 0.1958909375 0.0589072812
0.1311723125 0.1965119687 0.0547694062
0.1450210000 0.1964516250 0.0501711250
0.1611945312 0.1949234375 0.0445902188
0.1816184375 0.1923818750 0.0386621250
0.2075686563 0.1906100313 0.0375065313
0.2453378125 0.1981870625 0.0457252500
0.2823127188 0.2071285312 0.0525463750
0.3182452500 0.2164017187 0.0590892500
0.3530825625 0.2255542812 0.0648855313
0.3883005938 0.2351584687 0.0710855625
0.4256758750 0.2455439375 0.0769487813
0.4652276563 0.2564464375 0.0831617188
0.5058008438 0.2674901875 0.0890097813
0.5456996875 0.2780772500 0.0948083437
0.5842367500 0.2886247813 0.1010088125
0.6212764063 0.2990136250 0.1074920937
0.6567120937 0.3093915937 0.1142091562
0.6900477188 0.3194475625 0.1212107500
0.7205675625 0.3289352500 0.1276046875
0.7482682500 0.3379245312 0.1336490312
0.7733115625 0.3459529063 0.1388362812
0.7961008125 0.3530691250 0.1430856563
0.8176756875 0.3598232813 0.1470571563
0.8381142500 0.3660859687 0.1506752187
0.8580090938 0.3721452188 0.1544649375
0.8775074375 0.3780313750 0.1579828125
0.8968450313 0.3838099688 0.1616026875
0.9160385625 0.3896211563 0.1655063438
0.0551321250 0.2425160000 0.0679815625
0.0701243750 0.2360620000 0.0634117812
0.0879255625 0.2324098750 0.0611291875
0.1071550000 0.2299602500 0.0601097500
0.1241009375 0.2286690625 0.0582798750
0.1371835937 0.2283974375 0.0545920313
0.1514342500 0.2276160000 0.0501711250
0.1666381875 0.2254880312 0.0446365312
0.1859091250 0.2223181875 0.0386375000
0.2091805312 0.2182667813 0.0338100937
0.2384658125 0.2164736250 0.0344018125
0.2766809375 0.2236285000 0.0433510625
0.3134938125 0.2322341250 0.0509701250
0.3490574375 0.2411657500 0.0577006875
0.3847196875 0.2505437500 0.0642641250
0.4225111250 0.2607907188 0.0717995000
0.4623956875 0.2715252500 0.0786407500
0.5032657500 0.2825687812 0.0857530000
0.5434740625 0.2933867500 0.0923436875
0.5821817500 0.3040064688 0.0987953438
0.6193478750 0.3145224375 0.1055411875
0.6549738125 0.3249200000 0.1126897500
0.6884717500 0.3351434375 0.1197658125
0.7193766875 0.3454020000 0.1272687813
0.7476969375 0.3554895000 0.1348443125
0.7735889375 0.3654426250 0.1424744062
0.7973953125 0.3749221250 0.1498303750
0.8196790938 0.3838387500 0.1566351875
0.8406715625 0.3919272500 0.1627141250
0.8609964688 0.3997757813 0.1684868125
0.8805147500 0.4066354375 0.1734028125
0.8996645938 0.4129481563 0.1777160312
0.9184220625 0.4193030625 0.1822708750
0.0561716875 0.2780079688 0.0643421250
0.0743328438 0.2713974375 0.0618618438
0.0937444688 0.2672910937 0.0605010000
0.1133052500 0.2642157500 0.0599238750
0.1297155000 0.2621951250 0.0578769375
0.1434416562 0.2610246250 0.0539505312
0.1578907500 0.2595095312 0.0500471875
0.1734651875 0.2569346563 0.0452091875
0.1912994375 0.2532536875 0.0394197500
0.2125918750 0.2482199375 0.0337854375
0.2383479375 0.2438214063 0.0304834375
0.2691473750 0.2421893125 0.0331200000
0.3070760000 0.2493218125 0.0411341250
0.3435040313 0.2574868437 0.0494061250
0.3801027812 0.2664322188 0.0566748438
0.4184926562 0.2762267500 0.0648794062
0.4588326250 0.2868016250 0.0731578125
0.4999184063 0.2976441875 0.0809113750
0.5404586250 0.3083661562 0.0883782812
0.5795372812 0.3189996875 0.0956424688
0.6172039375 0.3295885000 0.1029162812
0.6528842188 0.3399925938 0.1101176875
0.6864213125 0.3502151875 0.1174364062
0.7175255938 0.3603118750 0.1251952500
0.7460137500 0.3703668750 0.1328870937
0.7719512187 0.3802773750 0.1405537188
0.7957754062 0.3898111875 0.1480564375
0.8180979063 0.3989538750 0.1553036875
0.8392863125 0.4077362500 0.1623002813
0.8597896250 0.4163205000 0.1691704063
0.8796099063 0.4245682813 0.1758789375
0.8990910625 0.4327212500 0.1824731250
0.9179532500 0.4407863750 0.1890160000
0.0614788750 0.3109861250 0.0624441250
0.0814348750 0.3049415625 0.0616612500
0.1005737500 0.3004688125 0.0605010000
0.1197765937 0.2970468438 0.0598680000
0.1356418750 0.2946893750 0.0575918750
0.1496972812 0.2928223437 0.0539505312
0.1642085000 0.2903635000 0.0494914375
0.1800324375 0.2874861563 0.0452091875
0.1974047500 0.2834368750 0.0400115000
0.2173782187 0.2780385312 0.0345001875
0.2408627500 0.2728437500 0.0296698125
0.2680849375 0.2688706563 0.0282160313
0.2992380000 0.2676505000 0.0318388750
0.3366674375 0.2743135313 0.0408465000
0.3741992500 0.2825684375 0.0487195625
0.4134860625 0.2920060313 0.0574100625
0.4543507500 0.3022492500 0.0663290000
0.4959410938 0.3127686875 0.0750762812
0.5370021875 0.3233455625 0.0834178125
0.5763600937 0.3338270313 0.0914398125
0.6143053750 0.3442743750 0.0991150000
0.6504586875 0.3546829687 0.1068923750
0.6840960000 0.3648875625 0.1144163750
0.7153880312 0.3749963438 0.1224589375
0.7439510000 0.3849947500 0.1303091250
0.7699120938 0.3947299063 0.1379283437
0.7937299375 0.4041828750 0.1454740000
0.8160375313 0.4132755000 0.1526421875
0.8370623750 0.4220445000 0.1595566250
0.8574112812 0.4305814687 0.1664350000
0.8770597500 0.4389707500 0.1732111250
0.8963090625 0.4472252500 0.1797030000
0.9150216250 0.4554830000 0.1864963750
0.0706841875 0.3422538125 0.0622270000
0.0903611250 0.3364245312 0.0620080000
0.1086104687 0.3319155312 0.0610926875
0.1264368125 0.3283261250 0.0599238750
0.1412747500 0.3256220625 0.0570502500
0.1557173750 0.3231639687 0.0538514687
0.1707027500 0.3204076250 0.0493665625
0.1868100937 0.3171836563 0.0452091875
0.2042594062 0.3131417188 0.0400115000
0.2232230937 0.3076568437 0.0352639375
0.2450200938 0.3016959375 0.0303848438
0.2696595312 0.2967884687 0.0270828750
0.2972588438 0.2933437813 0.0276492812
0.3286725312 0.2925218438 0.0320114688
0.3670324062 0.2993967500 0.0408465000
0.4074948750 0.3082120000 0.0504445625
0.4491637500 0.3179116250 0.0595187187
0.4911321250 0.3281542813 0.0684847500
0.5326857812 0.3385309687 0.0775266875
0.5726040625 0.3488064687 0.0861034687
0.6109406875 0.3591517188 0.0943286563
0.6472108438 0.3694883438 0.1027098438
0.6812664687 0.3797030000 0.1107362500
0.7126423750 0.3897160625 0.1186806563
0.7412389062 0.3996974688 0.1265711250
0.7673098750 0.4094891875 0.1344003438
0.7911622500 0.4188842187 0.1418003125
0.8133842187 0.4279962500 0.1489796875
0.8344148125 0.4368235937 0.1560476875
0.8545105938 0.4454277500 0.1628120312
0.8740345000 0.4538641875 0.1694995625
0.8929435937 0.4622167187 0.1760534375
0.9114335625 0.4705308125 0.1825312500
0.0811093125 0.3728300000 0.0631300000
0.1000998125 0.3671944688 0.0631300000
0.1173175625 0.3626398750 0.0620080000
0.1332977812 0.3590013125 0.0599238750
0.1477680625 0.3561285625 0.0573984375
0.1624324062 0.3533778438 0.0538514687
0.1774645625 0.3503527500 0.0498761875
0.1937570000 0.3468775937 0.0457710000
0.2111946875 0.3427502500 0.0412288125
0.2294984063 0.3374604375 0.0361514375
0.2499706250 0.3314051250 0.0311486250
0.2725764687 0.3253068125 0.0283150313
0.2975468750 0.3210978750 0.0272552500
0.3260895312 0.3184547812 0.0280930938
0.3588383750 0.3180914375 0.0327752500
0.3998019688 0.3254210312 0.0420390625
0.4425458125 0.3347459375 0.0521320000
0.4853564375 0.3446294375 0.0618515938
0.5274340625 0.3547359375 0.0710473750
0.5679442812 0.3647701562 0.0799150000
0.6067238125 0.3750380000 0.0886350625
0.6433370312 0.3852102187 0.0972268438
0.6775310625 0.3953055625 0.1056353125
0.7091090312 0.4053650313 0.1139145313
0.7379447500 0.4152865000 0.1217844375
0.7639401875 0.4249182812 0.1295223437
0.7878010625 0.4343755000 0.1370826875
0.8100267812 0.4434037500 0.1443025000
0.8309769375 0.4522836250 0.1512544375
0.8510277813 0.4609373437 0.1579640000
0.8702254375 0.4693161875 0.1645259375
0.8890877188 0.4777396250 0.1710401250
0.9071570000 0.4860163750 0.1775265625
0.0933698438 0.4045284375 0.0645543750
0.1104751250 0.3989690000 0.0642547500
0.1261954063 0.3944305938 0.0628420000
0.1405540625 0.3906727187 0.0605745312
0.1548487188 0.3876576250 0.0579936875
0.1694851250 0.3847277813 0.0549315000
0.1850274688 0.3814812813 0.0510798125
0.2012680937 0.3778784687 0.0464637188
0.2186114375 0.3736340000 0.0419679062
0.2366968750 0.3685139375 0.0373585938
0.2559452812 0.3624597188 0.0332434375
0.2766903125 0.3560537500 0.0302860000
0.2992451250 0.3504828437 0.0288076250
0.3253755938 0.3473652812 0.0288076250
0.3556050937 0.3452277500 0.0296454375
0.3910569375 0.3453122188 0.0343276250
0.4341315625 0.3530445313 0.0442285000
0.4780065937 0.3625181250 0.0543478437
0.5206493750 0.3721870313 0.0635508750
0.5618346875 0.3821513438 0.0725782188
0.6012744688 0.3922210312 0.0817028750
0.6383464375 0.4022887500 0.0905321562
0.6728424687 0.4122367188 0.0989773750
0.7046307500 0.4220409375 0.1074316562
0.7335651875 0.4318152500 0.1155804375
0.7597698438 0.4413020000 0.1232778750
0.7836959375 0.4505705625 0.1306998125
0.8059462813 0.4595647812 0.1379070625
0.8268580312 0.4683025000 0.1449457813
0.8467064375 0.4767412187 0.1514558125
0.8659335000 0.4851373750 0.1581795000
0.8845180938 0.4933801250 0.1647255313
0.9022936562 0.5014493750 0.1710088438
0.1050725000 0.4371600000 0.0664790000
0.1204774375 0.4318154063 0.0659240000
0.1349304375 0.4273987500 0.0637386875
0.1488479688 0.4236426875 0.0614592812
0.1626365000 0.4204401250 0.0585843750
0.1773729063 0.4172540937 0.0555456875
0.1930135000 0.4140548750 0.0520544375
0.2092922500 0.4102415000 0.0478514688
0.2266182500 0.4058505000 0.0434455000
0.2446206875 0.4008466250 0.0394780313
0.2632112500 0.3950019375 0.0354365625
0.2824949063 0.3885404688 0.0326027187
0.3032210000 0.3822232500 0.0314443750
0.3263729687 0.3774062812 0.0303600000
0.3544731250 0.3749746250 0.0308037500
0.3874328437 0.3732097187 0.0319867812
0.4248415000 0.3736090000 0.0366685000
0.4686941562 0.3815012813 0.0463760937
0.5123578750 0.3910625625 0.0556001250
0.5544369063 0.4007120312 0.0649351875
0.5944863750 0.4105308750 0.0738283750
0.6321377500 0.4203427187 0.0828384688
0.6671486250 0.4299923750 0.0914904375
0.6991685313 0.4395921875 0.0998295938
0.7283847500 0.4490035000 0.1079700000
0.7547817187 0.4582696250 0.1158252813
0.7787950625 0.4672173750 0.1230445625
0.8011313438 0.4759664687 0.1303341875
0.8220542500 0.4844015000 0.1372785000
0.8419276562 0.4926628125 0.1439861250
0.8610660000 0.5008673125 0.1506694375
0.8795199062 0.5087917188 0.1572941875
0.8972650000 0.5166215000 0.1637615000
0.1143566875 0.4692613438 0.0673050000
0.1291393750 0.4643079375 0.0664790000
0.1428386562 0.4600715625 0.0645913125
0.1566535313 0.4563605312 0.0620257812
0.1706646875 0.4529956562 0.0594166250
0.1853689063 0.4497568750 0.0563902187
0.2010715312 0.4463286875 0.0530192813
0.2174629375 0.4425917188 0.0490672187
0.2348357188 0.4381845313 0.0448925938
0.2527601875 0.4332450000 0.0410149063
0.2709245937 0.4276097813 0.0371369687
0.2892272812 0.4211908125 0.0349190937
0.3085760937 0.4146660000 0.0334898437
0.3298715000 0.4089364375 0.0327013750
0.3551757187 0.4048574062 0.0327013750
0.3862945938 0.4029894688 0.0327013750
0.4212538125 0.4013773125 0.0343276563
0.4592310312 0.4020753125 0.0390098437
0.5026875937 0.4100841250 0.0477660000
0.5457443438 0.4196066250 0.0568328438
0.5866910938 0.4292262500 0.0654792188
0.6250082188 0.4387827813 0.0741476250
0.6603885312 0.4481352500 0.0830684688
0.6928924062 0.4573289688 0.0912395937
0.7224160937 0.4664027500 0.0992480312
0.7491082500 0.4752107813 0.1072533438
0.7733743750 0.4838335313 0.1145721875
0.7957808438 0.4922458750 0.1217173437
0.8167915937 0.5003814062 0.1285565625
0.8367546250 0.5083971563 0.1353726875
0.8558118437 0.5162696250 0.1420630000
0.8741904687 0.5239643125 0.1486929687
0.8920808125 0.5315721562 0.1551565625
0.1198142500 0.5003375625 0.0673050000
0.1358515937 0.4955042500 0.0665307813
0.1498319375 0.4914394375 0.0645913125
0.1639658125 0.4878907812 0.0620797813
0.1783303125 0.4844993750 0.0594166250
0.1932321875 0.4812335625 0.0567396563
0.2088841250 0.4777050625 0.0533642500
0.2255376875 0.4738854688 0.0497294062
0.2429360000 0.4695947500 0.0459962500
0.2608290000 0.4647778125 0.0421822812
0.2788030000 0.4592297500 0.0386895625
0.2967195313 0.4532009375 0.0368904062
0.3151300000 0.4469288750 0.0356828125
0.3351449687 0.4408741562 0.0350421875
0.3584979375 0.4355316875 0.0342537500
0.3870153750 0.4323086250 0.0342537500
0.4206985000 0.4309191250 0.0350421875
