bundles/resolve-cinematic-luts/Gamut/The Creator/CREATOR/Creator 10 - OT.cube
TITLE "Creator LUT 10 by Gamut"
# Version 1.0 - 11/18/2025 - Designed for Rec.709 Color Space. Copyright 2025 Gamut, LLC.
LUT_3D_SIZE 5
0.0031540000 0.0307540000 0.0007890000
0.2036115000 0.0260230000 0.0000000000
0.4283110000 0.0576145000 0.0000000000
0.6377185000 0.0890547500 0.0000000000
0.8386980000 0.1104320000 0.0000000000
0.0055200000 0.1684100000 0.1020182500
0.1935442500 0.1838350000 0.0643505000
0.4921315000 0.2178292500 0.0001972500
0.7302197500 0.1728437500 0.0000000000
0.9381207500 0.1593237500 0.0007890000
0.0000000000 0.3805530000 0.1954390000
0.2369325000 0.3983565000 0.2021882500
0.4803420000 0.4210130000 0.1277925000
0.7417517500 0.4472027500 0.0100545000
0.9998795000 0.4901480000 0.0003945000
0.0000000000 0.5661985000 0.2709460000
0.2783592500 0.6032497500 0.2905607500
0.5415372500 0.6317572500 0.2967577500
0.7546082500 0.6521015000 0.2280280000
0.9947765000 0.6820522500 0.1846210000
0.0047310000 0.8028340000 0.3829270000
0.3748092500 0.8386892500 0.3912897500
0.5997280000 0.8430830000 0.4066875000
0.7759192500 0.8382322500 0.3594712500
0.9562380000 0.8431500000 0.3030700000
0.0000000000 0.0382457500 0.1090202500
0.2100025000 0.0307540000 0.0323315000
0.4630972500 0.0636792500 0.0082800000
0.6574552500 0.0959045000 0.0069002500
0.8464170000 0.1171500000 0.0199117500
0.0000000000 0.2061977500 0.2481272500
0.1966708969 0.2212004687 0.2463280125
0.5025984844 0.2113446031 0.1774633031
0.7171990469 0.1820107906 0.1460025906
0.9330490000 0.1727712500 0.1652740000
0.0000000000 0.4311915000 0.3657527500
0.1190847156 0.4488478594 0.3513337437
0.5098425813 0.4714306312 0.3075133969
0.7991052344 0.4952433688 0.2169431938
1.0000000000 0.5072500000 0.2012010000
0.0000000000 0.6201920000 0.4180032500
0.0515615906 0.6512331125 0.4229927375
0.5617973156 0.6814333312 0.4346771687
0.7795804656 0.6965492031 0.3797114125
1.0000000000 0.7208062500 0.3426547500
0.0007890000 0.8552082500 0.5325690000
0.0742777500 0.8837732500 0.5118885000
0.5974270000 0.8866685000 0.5095090000
0.7809937500 0.8711950000 0.4747455000
0.9593477500 0.8718470000 0.4236062500
0.0000000000 0.0702590000 0.2805890000
0.1341910000 0.0571235000 0.2931140000
0.4817190000 0.0821695000 0.2157190000
0.7158472500 0.1170595000 0.1891342500
0.9476155000 0.1465720000 0.2122680000
0.0000000000 0.2318397500 0.3883215000
0.0230010781 0.2286251125 0.4188836969
0.5139283188 0.2054917469 0.3390237281
0.7651698594 0.1868912969 0.2791489719
0.9997852500 0.1844907500 0.2950922500
0.0220805000 0.4739135000 0.5440015000
0.1342692563 0.4837703250 0.5474264188
0.5294511719 0.5240437500 0.5331766562
0.8439631000 0.5115964125 0.4627723094
1.0000000000 0.5229685000 0.4640325000
0.1841852500 0.6717632500 0.6382972500
0.2000891969 0.6813362687 0.6492165906
0.5138790250 0.7601539625 0.6166941062
0.8117106125 0.7602575875 0.5685919688
1.0000000000 0.7775467500 0.5207057500
0.0890250000 0.9064315000 0.7361265000
0.1040917500 0.8968392500 0.7334227500
0.4662700000 0.9576450000 0.6609325000
0.7952460000 0.9178930000 0.6269740000
0.9697200000 0.9137560000 0.5834690000
0.0000000000 0.1053857500 0.4417747500
0.0039430000 0.0951872500 0.4649060000
0.4655250000 0.1138772500 0.4432240000
0.7345802500 0.1284245000 0.3508740000
0.9768117500 0.1625562500 0.3499510000
0.0000000000 0.2578842500 0.5323427500
0.0000000000 0.2509240281 0.5571908844
0.4589921125 0.2322002063 0.5482797812
0.7669795812 0.1966074250 0.4396916719
1.0000000000 0.2015422500 0.4236285000
0.0015775000 0.4942320000 0.6522355000
0.0098744156 0.4940282781 0.6541840062
0.4343997344 0.5225357656 0.7053122375
0.8603367875 0.5001375469 0.6004413812
1.0000000000 0.5170980000 0.5685980000
0.2330665000 0.7082762500 0.8256390000
0.2364125969 0.7168843375 0.8381448594
0.5225830594 0.7822079156 0.8364799406
0.8086546531 0.7951852281 0.7587296969
1.0000000000 0.7747920000 0.6797145000
0.3087890000 0.9364945000 0.9567127500
0.3094435000 0.9302335000 0.9528607500
0.4997350000 0.9611525000 0.9250667500
0.7321860000 0.9662677500 0.8201720000
0.9739830000 0.9475665000 0.7456947500
0.0000000000 0.1333080000 0.5447390000
0.0000000000 0.1247242500 0.5652750000
0.4209210000 0.1496710000 0.5956880000
0.7421940000 0.1481975000 0.5102417500
0.9991410000 0.1726270000 0.4766410000
0.0000000000 0.2820587500 0.6316922500
0.0000000000 0.2733557500 0.6479085000
0.3993257500 0.2599432500 0.6760107500
0.7555917500 0.2171012500 0.6003617500
1.0000000000 0.2193085000 0.5576192500
0.0000000000 0.5139980000 0.7864815000
0.0000000000 0.5091445000 0.7864935000
0.3444535000 0.5344145000 0.8993865000
0.8133607500 0.5216590000 0.8082735000
1.0000000000 0.5193440000 0.6992810000
0.1064617500 0.7308775000 0.9585655000
0.1038977500 0.7377587500 0.9669207500
0.4413297500 0.7953397500 0.9727802500
0.7314035000 0.7927057500 0.9668002500
1.0000000000 0.7533590000 0.8302875000
0.2437270000 0.9673130000 0.9737050000
0.2463402500 0.9607645000 0.9752462500
0.4735555000 0.9801395000 0.9803460000
0.7373622500 0.9722097500 0.9788017500
0.9604950000 0.9553830000 0.9466370000
