bundles/resolve-cinematic-luts/Gamut/The Creator/CREATOR/Creator 10 - OT.cube
TITLE "Creator LUT 10 by Gamut"
# Version 1.0 - 11/18/2025 - Designed for Rec.709 Color Space. Copyright 2025 Gamut, LLC.
LUT_3D_SIZE 33
0.0031540000 0.0307540000 0.0007890000
0.0147858437 0.0299413437 0.0007890000
0.0332682500 0.0276493125 0.0008382500
0.0561795625 0.0260230000 0.0000739688
0.0871615000 0.0260230000 0.0000000000
0.1182158125 0.0260230000 0.0000000000
0.1472643750 0.0260230000 0.0000000000
0.1760958437 0.0260230000 0.0000000000
0.2036115000 0.0260230000 0.0000000000
0.2315079688 0.0281670938 0.0000000000
0.2585356875 0.0289307500 0.0000000000
0.2854803437 0.0310009063 0.0000000000
0.3118955000 0.0333176250 0.0000000000
0.3394239062 0.0376788125 0.0000000000
0.3660371250 0.0415101875 0.0000000000
0.3931416875 0.0447795625 0.0000000000
0.4283110000 0.0576145000 0.0000000000
0.4600300000 0.0650072187 0.0000000000
0.4899201250 0.0693298125 0.0000000000
0.5185205938 0.0734515625 0.0000000000
0.5440777500 0.0769046250 0.0000000000
0.5690285313 0.0805484688 0.0000000000
0.5926872500 0.0837723750 0.0000000000
0.6148085000 0.0864480313 0.0000000000
0.6377185000 0.0890547500 0.0000000000
0.6617118438 0.0920219375 0.0000000000
0.6854277500 0.0944939375 0.0000000000
0.7086328750 0.0969724063 0.0000000000
0.7324523750 0.0996692500 0.0000000000
0.7561154375 0.1019751875 0.0000000000
0.7804144375 0.1046124375 0.0000000000
0.8087022500 0.1072018438 0.0000000000
0.8386980000 0.1104320000 0.0000000000
0.0031540000 0.0423209375 0.0085507812
0.0124691563 0.0415629687 0.0085507812
0.0293991875 0.0437415313 0.0078120313
0.0524141563 0.0444488750 0.0062843125
0.0845210312 0.0423866250 0.0039922188
0.1176107187 0.0416083125 0.0017741250
0.1486555313 0.0408921250 0.0009121250
0.1784414062 0.0407479375 0.0000000000
0.2069352812 0.0399952188 0.0000000000
0.2353539375 0.0407725938 0.0000000000
0.2631295313 0.0415383125 0.0000000000
0.2911294688 0.0432980938 0.0000000000
0.3188381875 0.0454493125 0.0000000000
0.3472265937 0.0489061875 0.0000000000
0.3750435625 0.0515927812 0.0000000000
0.4032194062 0.0548053437 0.0000000000
0.4312125937 0.0572967188 0.0000000000
0.4587171250 0.0597125000 0.0000000000
0.4869852188 0.0627862500 0.0000000000
0.5161442188 0.0679445625 0.0000000000
0.5469920937 0.0770310000 0.0000000000
0.5716047187 0.0802497188 0.0000000000
0.5957227812 0.0839139375 0.0000000000
0.6182331875 0.0868803438 0.0000000000
0.6416013750 0.0894895000 0.0000000000
0.6654154687 0.0924306250 0.0000000000
0.6892130937 0.0949833125 0.0000000000
0.7125329687 0.0977039062 0.0000000000
0.7362458750 0.1000504375 0.0000000000
0.7600776875 0.1023608125 0.0000000000
0.7848992187 0.1049774687 0.0000000000
0.8129938750 0.1075695625 0.0000000000
0.8427996563 0.1107797813 0.0000000000
0.0046817500 0.0545190000 0.0163135625
0.0147858437 0.0525979062 0.0177920000
0.0270578750 0.0544753750 0.0155738750
0.0472657500 0.0569569687 0.0140954687
0.0772785000 0.0588376250 0.0110400000
0.1117918750 0.0609514688 0.0071462813
0.1465276875 0.0594215000 0.0032526250
0.1783519375 0.0581517187 0.0009121250
0.2092080000 0.0564031875 0.0000000000
0.2395705625 0.0558386250 0.0000000000
0.2688063125 0.0557021250 0.0000000000
0.2975126875 0.0567792813 0.0000000000
0.3263643750 0.0579940625 0.0000000000
0.3551368125 0.0607784687 0.0000000000
0.3839009375 0.0630770625 0.0000000000
0.4123669688 0.0650194063 0.0000000000
0.4408052500 0.0667109375 0.0000000000
0.4685025938 0.0686208125 0.0000000000
0.4963865625 0.0702278750 0.0000000000
0.5227474687 0.0722917812 0.0000000000
0.5463430625 0.0743758750 0.0000000000
0.5694504062 0.0768437500 0.0000000000
0.5925401875 0.0798151875 0.0000000000
0.6150267500 0.0830310312 0.0000000000
0.6430929375 0.0892169375 0.0000000000
0.6669084687 0.0921398125 0.0000000000
0.6920153125 0.0953180625 0.0000000000
0.7153829063 0.0980918125 0.0000000000
0.7392698125 0.1004306875 0.0000000000
0.7630712500 0.1027445313 0.0000000000
0.7885002500 0.1053415000 0.0000000000
0.8164787500 0.1079488750 0.0000000000
0.8468240625 0.1111256875 0.0007890000
0.0055200000 0.0671593750 0.0247165000
0.0170778750 0.0655514375 0.0248397812
0.0279207813 0.0655892500 0.0233366563
0.0438706250 0.0681954375 0.0217843125
0.0729070937 0.0708191875 0.0186795000
0.1071670625 0.0742005000 0.0140708438
0.1421708750 0.0771837500 0.0086740000
0.1763907812 0.0797995937 0.0040661563
0.2099966875 0.0774197188 0.0016264063
0.2425323437 0.0749155313 0.0000000000
0.2738155312 0.0733652188 0.0000000000
0.3043380312 0.0727932500 0.0000000000
0.3343496250 0.0733600000 0.0000000000
0.3644285938 0.0742733437 0.0000000000
0.3942438437 0.0755961562 0.0000000000
0.4234455313 0.0765341875 0.0000000000
0.4521615937 0.0773216875 0.0000000000
0.4798114375 0.0778928750 0.0000000000
0.5068834688 0.0788959375 0.0000000000
0.5325039375 0.0800809688 0.0000000000
0.5556640000 0.0812973438 0.0000000000
0.5783362188 0.0824689688 0.0000000000
0.5996547500 0.0842844375 0.0000000000
0.6204643437 0.0857860625 0.0000000000
0.6421983437 0.0879037187 0.0000000000
0.6650699687 0.0900569062 0.0000000000
0.6884065625 0.0930210625 0.0000000000
0.7119235000 0.0954141250 0.0000000000
0.7402887813 0.1000995938 0.0000000000
0.7640241250 0.1023968125 0.0000000000
0.7898826875 0.1050477500 0.0000000000
0.8197687813 0.1083146875 0.0000246562
0.8495273750 0.1115040000 0.0007890000
0.0063090000 0.0832492500 0.0370633750
0.0201333750 0.0822264375 0.0363730000
0.0309515625 0.0821630625 0.0362251250
0.0444820937 0.0831083437 0.0332682188
0.0683551250 0.0858001250 0.0294731250
0.1023886875 0.0895891562 0.0226718125
0.1377746875 0.0933270625 0.0165600000
0.1725040625 0.0971810000 0.0103496562
0.2075953750 0.1009801250 0.0056186250
0.2421800312 0.1026690312 0.0019466875
0.2773647500 0.1000646250 0.0002956875
0.3105194062 0.0976670625 0.0000000000
0.3430042500 0.0961843750 0.0000000000
0.3748416250 0.0949794375 0.0000000000
0.4061329375 0.0939908750 0.0000000000
0.4365976250 0.0932958125 0.0000000000
0.4659952500 0.0924963750 0.0000000000
0.4940448125 0.0914080625 0.0000000000
0.5211238125 0.0904933125 0.0000000000
0.5463575937 0.0899458438 0.0000000000
0.5685187500 0.0894242500 0.0000000000
0.5902356562 0.0899141250 0.0000000000
0.6104732500 0.0905900625 0.0000000000
0.6312301875 0.0918568125 0.0000000000
0.6533132500 0.0931625000 0.0000000000
0.6756323438 0.0945425313 0.0000000000
0.6975906875 0.0965651250 0.0000000000
0.7197382187 0.0982025000 0.0000000000
0.7420738750 0.1002577500 0.0000000000
0.7652193750 0.1021666875 0.0000000000
0.7896343125 0.1044223125 0.0000000000
0.8183599062 0.1076157187 0.0000000000
0.8472781250 0.1105215000 0.0000000000
0.0069738750 0.1019747187 0.0530271875
0.0224254375 0.1014830312 0.0511580937
0.0341055937 0.1013252188 0.0504858438
0.0492262187 0.1017792500 0.0478790937
0.0679325000 0.1036097500 0.0437112500
0.0969453750 0.1069522188 0.0364469063
0.1329655312 0.1114822812 0.0289553438
0.1687788750 0.1155230625 0.0199358750
0.2045273125 0.1196700313 0.0120752813
0.2400592187 0.1240396875 0.0071463437
0.2762390937 0.1281408438 0.0034005625
0.3118725625 0.1297053750 0.0010846875
0.3476759688 0.1263256250 0.0001725938
0.3825278437 0.1234707500 0.0000000000
0.4161957187 0.1206577500 0.0000000000
0.4488762187 0.1181420313 0.0000000000
0.4800537812 0.1153469375 0.0000000000
0.5097249062 0.1124504688 0.0000000000
0.5376853125 0.1089707813 0.0000000000
0.5638111875 0.1061087500 0.0000000000
0.5856474375 0.1037061250 0.0000000000
0.6059595937 0.1016455937 0.0000000000
0.6261986563 0.1007507500 0.0000000000
0.6474800938 0.1002803125 0.0000000000
0.6687733125 0.1005045937 0.0000000000
0.6904560312 0.1013362812 0.0000000000
0.7121634375 0.1022222812 0.0000000000
0.7342713750 0.1034815000 0.0000000000
0.7565373438 0.1049731875 0.0000000000
0.7798698125 0.1068165625 0.0000000000
0.8046237188 0.1086529375 0.0000000000
0.8311868437 0.1108436562 0.0006657188
0.8592056875 0.1132893750 0.0007890000
0.0064567500 0.1229685000 0.0699381250
0.0233859375 0.1231733125 0.0678923750
0.0379993750 0.1222530000 0.0668326250
0.0538649687 0.1224800938 0.0645584688
0.0728763750 0.1240652500 0.0603435625
0.0953717188 0.1262342812 0.0536858437
0.1281611250 0.1308911250 0.0452084375
0.1650130625 0.1355474375 0.0350667500
0.2009648125 0.1401252500 0.0252833125
0.2375938750 0.1448512188 0.0160668750
0.2738084375 0.1494970000 0.0096108125
0.3104967813 0.1541042813 0.0049529375
0.3475893125 0.1580110625 0.0023658125
0.3843322812 0.1578905313 0.0006410625
0.4207208125 0.1538969375 0.0000000000
0.4556185938 0.1497867813 0.0000000000
0.4891805625 0.1453378750 0.0000000000
0.5213666563 0.1406677188 0.0000000000
0.5518901250 0.1357082500 0.0000000000
0.5797648750 0.1302140000 0.0000000000
0.6028728750 0.1261083750 0.0000000000
0.6247120000 0.1223041875 0.0000000000
0.6471755000 0.1191001875 0.0000000000
0.6688808125 0.1166380938 0.0000000000
0.6904926250 0.1148296250 0.0000000000
0.7118520625 0.1139464687 0.0000000000
0.7336464375 0.1136063750 0.0000000000
0.7557606563 0.1137440000 0.0000000000
0.7781328125 0.1139918750 0.0000000000
0.8022448125 0.1147757500 0.0000000000
0.8266979375 0.1159224375 0.0000000000
0.8519529687 0.1173310000 0.0006164062
0.8788645625 0.1190588125 0.0007890000
0.0063090000 0.1446577500 0.0864904687
0.0241749062 0.1459676875 0.0847308125
0.0409288750 0.1449880000 0.0837540000
0.0575245312 0.1454558125 0.0820077500
0.0773762188 0.1462683125 0.0784148750
0.0992273125 0.1485168438 0.0734793750
0.1252779063 0.1517700625 0.0652266250
0.1600662812 0.1564383125 0.0544261250
0.1976895938 0.1615664687 0.0432022188
0.2351079375 0.1668950312 0.0310747813
0.2716915625 0.1716959375 0.0212179687
0.3085203125 0.1765313438 0.0130361250
0.3459563750 0.1807918125 0.0068018125
0.3829185625 0.1847833437 0.0032773125
0.4206019062 0.1879478125 0.0009613750
0.4573441250 0.1865437500 0.0000000000
0.4927904062 0.1817289062 0.0000000000
0.5271772812 0.1753157188 0.0000000000
0.5599715937 0.1687163437 0.0000000000
0.5899938125 0.1623887500 0.0000000000
0.6153046250 0.1560831562 0.0000000000
0.6406644688 0.1508647187 0.0000000000
0.6658878437 0.1466455000 0.0000000000
0.6897893438 0.1426293125 0.0000000000
0.7130859687 0.1394122188 0.0000000000
0.7361396563 0.1370578750 0.0000000000
0.7597348750 0.1347724062 0.0000000000
0.7832813125 0.1332662500 0.0000000000
0.8077443125 0.1327913125 0.0000000000
0.8322196875 0.1325970625 0.0000739688
0.8560243750 0.1327377187 0.0000493125
0.8808413750 0.1331877188 0.0007890000
0.9066276250 0.1333865625 0.0006164062
0.0055200000 0.1684100000 0.1020182500
0.0241256250 0.1699760000 0.1003844687
0.0417868125 0.1695705000 0.0999657500
0.0599596250 0.1701167500 0.0990436563
0.0799943750 0.1707387500 0.0966616250
0.1032143750 0.1724971875 0.0922963750
0.1288616875 0.1753705625 0.0860188125
0.1572405625 0.1787867500 0.0760760625
0.1935442500 0.1838350000 0.0643505000
0.2318568750 0.1893842187 0.0520207813
0.2691365000 0.1946266875 0.0394514375
0.3068165312 0.1994548750 0.0268858437
0.3440482500 0.2041348750 0.0167572500
0.3813359687 0.2083740625 0.0090930937
0.4185155625 0.2120855000 0.0040414375
0.4561588750 0.2156528437 0.0015525937
0.4921315000 0.2178292500 0.0001972500
0.5281248750 0.2147698125 0.0000000000
0.5630340625 0.2076276875 0.0000000000
0.5946636875 0.2002883125 0.0000000000
0.6217971250 0.1934877500 0.0000000000
0.6502917500 0.1870498437 0.0000000000
0.6778415625 0.1813183125 0.0000000000
0.7042541250 0.1768003750 0.0000000000
0.7302197500 0.1728437500 0.0000000000
0.7563609687 0.1693667187 0.0000000000
0.7829167500 0.1665095000 0.0000000000
0.8098252188 0.1641740000 0.0000000000
0.8359180000 0.1624805000 0.0000986250
0.8616287187 0.1616080000 0.0007890000
0.8862441875 0.1608501875 0.0007890000
0.9110719687 0.1603538750 0.0007890000
0.9381207500 0.1593237500 0.0007890000
0.0041646250 0.1935021875 0.1155448125
0.0234846250 0.1954971250 0.1139471562
0.0412190625 0.1955923750 0.1144064063
0.0601775625 0.1959674063 0.1139895312
0.0812579062 0.1962072812 0.1122791875
0.1062604062 0.1978366562 0.1094624688
0.1325642187 0.2002881875 0.1050051875
0.1608790000 0.2034532187 0.0976330625
0.1906991250 0.2074408438 0.0868899063
0.2280059375 0.2124551562 0.0745824375
0.2666273125 0.2180378750 0.0612794063
0.3047319687 0.2230283750 0.0475423437
0.3423644062 0.2278301875 0.0328982812
0.3794345313 0.2320927812 0.0200590937
0.4170266562 0.2363930000 0.0106454687
0.4542432188 0.2400711250 0.0051746250
0.4907465625 0.2434123125 0.0017495938
0.5264032813 0.2458669375 0.0001972500
0.5623495312 0.2460642500 0.0000000000
0.5955180313 0.2414989062 0.0000000000
0.6243856875 0.2350259375 0.0000000000
0.6538893750 0.2285650000 0.0000000000
0.6831356875 0.2226933437 0.0000000000
0.7117786563 0.2171430625 0.0000000000
0.7399185000 0.2124725625 0.0000000000
0.7687011250 0.2087202187 0.0000000000
0.7985569375 0.2055669063 0.0000000000
0.8286974375 0.2025188125 0.0004438125
0.8562250312 0.2005788125 0.0000000000
0.8829709375 0.1994425625 0.0007890000
0.9099735937 0.1981977188 0.0007890000
0.9362353750 0.1975356875 0.0007890000
0.9651757812 0.1958827812 0.0007890000
0.0034005625 0.2190875625 0.1277963125
0.0203799062 0.2215164688 0.1262556563
0.0404033125 0.2220123125 0.1265205000
0.0585623125 0.2223554062 0.1267844687
0.0831499375 0.2230488125 0.1264184375
0.1087326875 0.2242268438 0.1252300312
0.1369794375 0.2262211250 0.1221827500
0.1656425313 0.2289741250 0.1163649687
0.1953368750 0.2326532500 0.1081490000
0.2258975625 0.2366418125 0.0965964375
0.2638342500 0.2418193125 0.0837218750
0.3026100937 0.2471648125 0.0695902188
0.3406971250 0.2518787500 0.0537673125
0.3783407187 0.2566546875 0.0378934687
0.4152324375 0.2607557500 0.0240513125
0.4524663750 0.2648912187 0.0124449375
0.4891707500 0.2682828750 0.0057170625
0.5248358125 0.2710686250 0.0019219688
0.5603700000 0.2731281250 0.0001972500
0.5938898750 0.2745412500 0.0000000000
0.6235987500 0.2742976875 0.0000000000
0.6546619062 0.2713632500 0.0000000000
0.6851638750 0.2667145625 0.0000000000
0.7145231250 0.2616464375 0.0000000000
0.7443955625 0.2568081875 0.0000000000
0.7750305625 0.2525086250 0.0000000000
0.8069821875 0.2490604375 0.0000000000
0.8384332187 0.2463467812 0.0000000000
0.8681175000 0.2440085000 0.0000986250
0.8963894688 0.2424564687 0.0007890000
0.9246100625 0.2411634375 0.0007890000
0.9522272500 0.2402061250 0.0007890000
0.9830626875 0.2382544375 0.0007890000
0.0023660000 0.2456749688 0.1391788438
0.0167570938 0.2481205000 0.1381558438
0.0383197813 0.2491587813 0.1384643125
0.0580870313 0.2494250000 0.1390770937
0.0831403750 0.2502785312 0.1392991563
0.1107413125 0.2511263438 0.1387336250
0.1412020625 0.2531708125 0.1374457813
0.1714269063 0.2557692188 0.1339686250
0.2012574062 0.2587859062 0.1276344375
0.2314848438 0.2626589687 0.1181076875
0.2623384687 0.2664610937 0.1055250312
0.3000728750 0.2714277812 0.0921127812
0.3386004375 0.2765181250 0.0763893750
0.3766756250 0.2811022188 0.0592090625
0.4140332812 0.2855649375 0.0417632812
0.4506617187 0.2896314063 0.0268858125
0.4871737812 0.2934825000 0.0147856250
0.5232101250 0.2963543750 0.0062593125
0.5588659062 0.2986298750 0.0019219688
0.5923319687 0.3004167187 0.0001972500
0.6217330625 0.3018693750 0.0000000000
0.6526283750 0.3034622813 0.0000000000
0.6840884063 0.3046076562 0.0000000000
0.7149569688 0.3043562500 0.0000000000
0.7457841563 0.3023038437 0.0000000000
0.7777426562 0.2993498750 0.0000000000
0.8108108750 0.2958891563 0.0000000000
0.8430525937 0.2928130625 0.0000000000
0.8740427500 0.2903138125 0.0000986250
0.9030291563 0.2888086250 0.0002712187
0.9319342188 0.2872647812 0.0000493125
0.9611635625 0.2860459062 0.0007890000
0.9927284687 0.2837800313 0.0007890000
0.0015770000 0.2723270000 0.1502112500
0.0142188125 0.2749289062 0.1493354688
0.0360277500 0.2763220625 0.1493780000
0.0575585625 0.2769470625 0.1505887500
0.0820371250 0.2778286250 0.1516882500
0.1128210312 0.2792298437 0.1521632187
0.1440863125 0.2807058125 0.1513913750
0.1771716562 0.2831622188 0.1496463125
0.2081558750 0.2861211250 0.1452063750
0.2383849687 0.2892348438 0.1382764062
0.2680897500 0.2929291875 0.1274939375
0.2986255000 0.2965700625 0.1133316250
0.3363155000 0.3013602500 0.0989635000
0.3745679687 0.3059838750 0.0828524687
0.4121258125 0.3104798125 0.0640440625
0.4494403438 0.3148287812 0.0458041563
0.4854957500 0.3186348750 0.0291773750
0.5213076875 0.3218048750 0.0163381562
0.5567781250 0.3242897500 0.0070481250
0.5903214063 0.3262316875 0.0019219688
0.6199050000 0.3279178750 0.0001972500
0.6507325625 0.3297588437 0.0000000000
0.6817825625 0.3319031875 0.0000000000
0.7127669688 0.3343544375 0.0000000000
0.7441207500 0.3368903750 0.0000000000
0.7769825625 0.3387942812 0.0000000000
0.8116411250 0.3396751250 0.0000000000
0.8448455938 0.3391235938 0.0000000000
0.8768393750 0.3381351250 0.0000000000
0.9065036875 0.3366124062 0.0000000000
0.9365251875 0.3350625000 0.0000493125
0.9664029687 0.3338770000 0.0007890000
0.9975201250 0.3318595000 0.0007890000
0.0007890000 0.2990397188 0.1614863125
0.0121985625 0.3020178750 0.1608555937
0.0355840000 0.3042143125 0.1608160312
0.0567080937 0.3047778750 0.1623197188
0.0826206875 0.3054638438 0.1635950625
0.1142160625 0.3069743125 0.1648001562
0.1480585312 0.3089568437 0.1650798125
0.1822658437 0.3108214062 0.1637445312
0.2149636562 0.3135158437 0.1606324375
0.2465424375 0.3166763125 0.1555604687
0.2754797500 0.3198660625 0.1475990312
0.3046576563 0.3233057188 0.1360093438
0.3354665000 0.3268715937 0.1208771250
0.3726299687 0.3312871563 0.1060046250
0.4104416562 0.3358454375 0.0890702187
0.4478091563 0.3400799375 0.0698468125
0.4841604687 0.3440240000 0.0501225000
0.5201064687 0.3473369375 0.0316167500
0.5555431250 0.3499986875 0.0172252500
0.5889018750 0.3521441875 0.0081568438
0.6181747813 0.3539565625 0.0031788438
0.6484654687 0.3559505312 0.0009860000
0.6796728750 0.3583376875 0.0000000000
0.7107634063 0.3608775000 0.0000000000
0.7420872500 0.3637954688 0.0000000000
0.7745327813 0.3669006250 0.0000000000
0.8093929375 0.3702873125 0.0000000000
0.8436822500 0.3736709687 0.0000000000
0.8763686875 0.3771216562 0.0000000000
0.9080610937 0.3798317813 0.0000000000
0.9387028438 0.3820341875 0.0000000000
0.9695915938 0.3825576875 0.0000000000
0.9997946875 0.3824539062 0.0007890000
0.0003451875 0.3264167500 0.1729722500
0.0100292187 0.3292053750 0.1723934375
0.0348943750 0.3321010000 0.1723714375
0.0549038438 0.3330583750 0.1742330000
0.0833868125 0.3341738125 0.1758633750
0.1158978125 0.3354827188 0.1773110625
0.1523786250 0.3372183125 0.1780438750
0.1890043125 0.3394651563 0.1775414375
0.2227698750 0.3417905625 0.1753396875
0.2545760313 0.3445012813 0.1715304062
0.2840204375 0.3475540000 0.1655061250
0.3127396562 0.3508554688 0.1564230938
0.3412849375 0.3538260000 0.1438775000
0.3725508437 0.3573863750 0.1284153437
0.4095065625 0.3615575625 0.1133203750
0.4467519688 0.3658933437 0.0955720625
0.4830775000 0.3698974375 0.0760155000
0.5187819375 0.3731504063 0.0548585625
0.5545038125 0.3758663750 0.0344810625
0.5880886875 0.3781081563 0.0192216875
0.6173063125 0.3800233125 0.0101526250
0.6473297500 0.3821877500 0.0051750312
0.6783628125 0.3846638750 0.0022178125
0.7092313437 0.3874864687 0.0006654375
0.7404329375 0.3906673125 0.0002465625
0.7729965313 0.3941164062 0.0000000000
0.8076939375 0.3978475625 0.0000000000
0.8428291250 0.4019040625 0.0000000000
0.8757465625 0.4062858125 0.0000000000
0.9079931875 0.4110035000 0.0000000000
0.9394760625 0.4159050625 0.0000000000
0.9715746562 0.4207017188 0.0000000000
0.9998744375 0.4250553750 0.0000000000
0.0000000000 0.3539868438 0.1845224062
0.0076390938 0.3571133750 0.1843248437
0.0325041562 0.3603682812 0.1839026875
0.0550530938 0.3614656250 0.1857291250
0.0832550938 0.3626524688 0.1878135000
0.1182185312 0.3643656250 0.1895995625
0.1568770000 0.3663230625 0.1905956563
0.1949544375 0.3682615625 0.1907890000
0.2310414062 0.3705545000 0.1897210000
0.2636261875 0.3731370312 0.1870274375
0.2934755000 0.3759044375 0.1822040625
0.3215670937 0.3787184062 0.1750518750
0.3495775937 0.3818086250 0.1650220000
0.3774925625 0.3845079062 0.1515335625
0.4088938438 0.3877544375 0.1356967188
0.4456909063 0.3919215938 0.1205265312
0.4822544375 0.3958146875 0.1032184688
0.5180941250 0.3991127187 0.0824865312
0.5539792812 0.4019457500 0.0600885312
0.5873868750 0.4042756250 0.0394647188
0.6164922812 0.4062413437 0.0243719688
0.6467308750 0.4086787812 0.0147610000
0.6777933750 0.4115331250 0.0080829688
0.7088621875 0.4147770000 0.0043862813
0.7404270000 0.4183725625 0.0026366875
0.7734296563 0.4223498438 0.0014541875
0.8087628438 0.4266845938 0.0004191562
0.8437071562 0.4313690312 0.0002958750
0.8776013750 0.4363995000 0.0000000000
0.9100786250 0.4416905625 0.0000000000
0.9424377188 0.4471718125 0.0000000000
0.9741932187 0.4528031875 0.0000000000
0.9998550312 0.4581809062 0.0000000000
0.0000000000 0.3805530000 0.1954390000
0.0061360000 0.3836820625 0.1953433750
0.0279451250 0.3870944375 0.1950497500
0.0544839688 0.3891549063 0.1965293125
0.0825731250 0.3903526250 0.1986728750
0.1194535000 0.3920661250 0.2005330000
0.1594650625 0.3939028750 0.2020316875
0.1994301875 0.3960623125 0.2026245000
0.2369325000 0.3983565000 0.2021882500
0.2708295312 0.4005243750 0.2001885000
0.3011641875 0.4031073750 0.1968612500
0.3298375313 0.4058130313 0.1914750625
0.3573213750 0.4084926250 0.1834320000
0.3849014375 0.4112617500 0.1726843125
0.4129713125 0.4140825000 0.1588148750
0.4442842500 0.4172106875 0.1432910625
0.4803420000 0.4210130000 0.1277925000
0.5166298125 0.4246189062 0.1098200000
0.5527618125 0.4276736875 0.0883394375
0.5866485938 0.4304323750 0.0668465937
0.6161782500 0.4330302500 0.0486578750
0.6468689062 0.4358642812 0.0338244375
0.6784906250 0.4391794375 0.0227210000
0.7097073750 0.4429463437 0.0150570312
0.7417517500 0.4472027500 0.0100545000
0.7750510625 0.4517174688 0.0063575313
0.8111403750 0.4566125000 0.0045835625
0.8467293125 0.4617485000 0.0030308750
0.8808401250 0.4672380000 0.0018730000
0.9133738437 0.4728974375 0.0015035313
0.9455161875 0.4786018125 0.0011830000
0.9779442812 0.4844474687 0.0007638750
0.9998795000 0.4901480000 0.0003945000
0.0000000000 0.4059796875 0.2053639063
0.0042630625 0.4094002187 0.2054520313
0.0244952187 0.4129975312 0.2050071875
0.0525846250 0.4154030000 0.2058441563
0.0817111875 0.4168025938 0.2081650000
0.1187474688 0.4186245937 0.2104125312
0.1598060625 0.4205795313 0.2122215625
0.2018557812 0.4225611250 0.2132792187
0.2402608438 0.4246733750 0.2131255312
0.2755171562 0.4267920625 0.2120765938
0.3065547813 0.4291752500 0.2098180625
0.3356526250 0.4317390937 0.2058215938
0.3634381875 0.4342471562 0.1994839688
0.3907716875 0.4370076875 0.1909212187
0.4181273438 0.4398431250 0.1797247500
0.4462535000 0.4427700000 0.1659163750
0.4776682500 0.4459391875 0.1504872812
0.5142002187 0.4498457500 0.1351075312
0.5511200938 0.4535203437 0.1170296563
0.5858207813 0.4568319687 0.0972809375
0.6159104375 0.4600231563 0.0789176250
0.6469163438 0.4635220000 0.0624775312
0.6790392188 0.4674773125 0.0486029062
0.7106590313 0.4717723750 0.0374981875
0.7432785000 0.4764559375 0.0285857187
0.7770151875 0.4813736562 0.0214146875
0.8134117500 0.4864798750 0.0166091562
0.8493493125 0.4918577813 0.0123707188
0.8828289063 0.4973821875 0.0094385937
0.9158515937 0.5031536562 0.0080335312
0.9481322812 0.5090257188 0.0064811875
0.9801135000 0.5147014375 0.0053228438
0.9998516562 0.5204512500 0.0038444375
0.0000000000 0.4306813125 0.2142503750
0.0038444375 0.4342959687 0.2143533125
0.0221785000 0.4380511250 0.2138310625
0.0503352500 0.4408156250 0.2143531250
0.0799775625 0.4423425000 0.2165618750
0.1154048438 0.4440596562 0.2188467813
0.1573319375 0.4460043125 0.2206876250
0.2001978125 0.4480067500 0.2219996563
0.2403500000 0.4500689375 0.2224790625
0.2771126250 0.4522462188 0.2222810625
0.3095635000 0.4545865000 0.2211658125
0.3396858125 0.4571446563 0.2184570312
0.3681119375 0.4597771875 0.2138878125
0.3960005000 0.4628355937 0.2076164062
0.4234699375 0.4659587500 0.1988753750
0.4511102188 0.4693228437 0.1880889063
0.4796808750 0.4725188750 0.1739931875
