bundles/resolve-cinematic-luts/Gamut/The Creator/CREATOR/Creator 07 - Bold.cube
TITLE "Creator LUT 07 by Gamut"
# Version 1.0 - 11/18/2025 - Designed for Rec.709 Color Space. Copyright 2025 Gamut, LLC.
LUT_3D_SIZE 5
0.0007890000 0.0063090000 0.0118290000
0.1732470000 0.0585067500 0.0561892500
0.4509340000 0.0454630000 0.0291770000
0.7168675000 0.0620777500 0.0380490000
0.8878640000 0.0971260000 0.0610560000
0.0601650000 0.1724795000 0.0747900000
0.1777657500 0.1659837500 0.0415615000
0.4672217500 0.2416517500 0.0859532500
0.7438027500 0.3087630000 0.1186762500
0.9125315000 0.3587982500 0.1480137500
0.1050725000 0.4371600000 0.0664790000
0.2266182500 0.4058505000 0.0434455000
0.4248415000 0.3736090000 0.0366685000
0.7283847500 0.4490035000 0.1079700000
0.8972650000 0.5166215000 0.1637615000
0.1481892500 0.6531950000 0.0577447500
0.2838602500 0.6296952500 0.0449135000
0.4373630000 0.5882477500 0.0356830000
0.6687157500 0.5770210000 0.0436325000
0.8564797500 0.6299297500 0.0850522500
0.2109540000 0.8109170000 0.0963150000
0.3293605000 0.7807335000 0.0760405000
0.4826185000 0.7362785000 0.0571295000
0.6658530000 0.7117402500 0.0542950000
0.8244590000 0.7183790000 0.0673050000
0.0468820000 0.0630927500 0.1834167500
0.2012382500 0.0317397500 0.2102627500
0.4615452500 0.0250370000 0.1854680000
0.7201782500 0.0360772500 0.1780405000
0.8919492500 0.0595662500 0.2158462500
0.0258255000 0.2024555000 0.2096055000
0.2179862612 0.2245952790 0.2283640491
0.5012055915 0.1801462165 0.1577224509
0.7359096384 0.1914702768 0.1494459866
0.8964907500 0.2303542500 0.1818705000
0.0456407500 0.4517567500 0.2302365000
0.2174258438 0.4825008616 0.1918420000
0.4626641629 0.4189563728 0.1468820268
0.7637134286 0.4803917612 0.2452416763
0.9234235000 0.5382860000 0.3047057500
0.0883837500 0.6658510000 0.2133552500
0.2422794397 0.6753767433 0.1856074129
0.4396422768 0.6306899844 0.1293866138
0.6796771205 0.5996093393 0.1379437366
0.8755675000 0.6531700000 0.2312650000
0.1491907500 0.8175215000 0.2464427500
0.2889247500 0.8258062500 0.2288425000
0.4823245000 0.7842435000 0.1657497500
0.6771445000 0.7460372500 0.1303110000
0.8394837500 0.7461857500 0.1747405000
0.0252340000 0.0533265000 0.4827110000
0.1849642500 0.0276002500 0.4872242500
0.4867940000 0.0232630000 0.4894850000
0.7635797500 0.0366685000 0.4774395000
0.9367575000 0.0542950000 0.4995015000
0.0220800000 0.2281345000 0.4729755000
0.1406474107 0.1889805826 0.5172646429
0.5132675112 0.1503357991 0.5138517879
0.7776555647 0.1612119196 0.4467635982
0.9335532500 0.1925445000 0.4411662500
0.0224745000 0.4897960000 0.5041380000
0.1121856451 0.5009203080 0.5160265022
0.5242842522 0.5231355647 0.5205656004
0.8051685580 0.4621494286 0.4371107589
0.9497450000 0.4595835000 0.4227470000
0.0611885000 0.7091057500 0.5095622500
0.1521338036 0.7255499152 0.4920600826
0.4665127545 0.7430588058 0.4419436652
0.7244007813 0.6736588996 0.3712662790
0.9329347500 0.7273855000 0.4763035000
0.1175690000 0.8695760000 0.5502990000
0.2023290000 0.8853450000 0.5199832500
0.5016400000 0.8941430000 0.4574325000
0.7271870000 0.8275137500 0.3469857500
0.8885660000 0.8184510000 0.3915585000
0.0374572500 0.0751635000 0.7537360000
0.1756220000 0.0488105000 0.7519590000
0.4856937500 0.0370630000 0.7706622500
0.7748580000 0.0421352500 0.7707520000
0.9488112500 0.0530020000 0.7795645000
0.0374572500 0.2624017500 0.7447005000
0.1322108661 0.2070150089 0.7592003192
0.4592634487 0.1683368058 0.7900406317
0.7808898192 0.1580598750 0.7747709710
0.9466292500 0.1853575000 0.7608547500
0.0289800000 0.5170815000 0.7542695000
0.1106212187 0.4950166116 0.7644296964
0.4232215312 0.4793793750 0.8151714152
0.8101986228 0.4328451853 0.8011785402
0.9744002500 0.4356810000 0.7524927500
0.0494937500 0.7481387500 0.7681390000
0.0843046250 0.7512053192 0.7712107589
0.3599174554 0.7690858996 0.7880688437
0.7839172857 0.7772085536 0.7709057812
0.9761450000 0.7520547500 0.7311795000
0.0755437500 0.9147002500 0.8084502500
0.1307602500 0.9210340000 0.8021207500
0.4130702500 0.9473627500 0.8080545000
0.7931407500 0.9680882500 0.7611160000
0.9619695000 0.9273652500 0.7332447500
0.0592670000 0.1156990000 0.9319440000
0.2122807500 0.0821827500 0.9266592500
0.5130070000 0.0648030000 0.9393865000
0.7849330000 0.0623717500 0.9434487500
0.9506650000 0.0628060000 0.9482790000
0.0598680000 0.3145810000 0.9141277500
0.1610007500 0.2502520000 0.9228352500
0.4593812500 0.2066802500 0.9436292500
0.7730890000 0.1920887500 0.9457772500
0.9416420000 0.2013205000 0.9389715000
0.0413765000 0.5583230000 0.9131525000
0.1304005000 0.5183925000 0.9199645000
0.4075900000 0.4826270000 0.9632915000
0.7736665000 0.4448442500 0.9742680000
0.9636585000 0.4387955000 0.9570625000
0.0607587500 0.7706652500 0.9236552500
0.0978650000 0.7618235000 0.9270967500
0.3146682500 0.7602207500 0.9421197500
0.7347077500 0.7580775000 0.9627270000
0.9778195000 0.7452922500 0.9646990000
0.0819500000 0.9548410000 0.9659370000
0.1365927500 0.9506357500 0.9601347500
0.3894285000 0.9643480000 0.9718265000
0.7501210000 0.9938102500 0.9941687500
1.0000000000 1.0000000000 0.9940200000
