bundles/resolve-cinematic-luts/Cinem8/Sony S-Log3 Color Grading LUTs/CMG_Cabin_S-Log3_33x.cube
TITLE "Copyright by CINEM8.CO"
LUT_3D_SIZE 5
0.0231740000 0.0200280000 0.0181950000
0.2189225000 0.0357907500 0.0094707500
0.5041605000 0.0337945000 0.0080870000
0.6725382500 0.0307312500 0.0227352500
0.7204240000 0.0285730000 0.0289770000
0.1131882500 0.1457272500 0.0661767500
0.2388265000 0.1741360000 0.0385472500
0.5266007500 0.1511810000 0.0002767500
0.6600935000 0.0578340000 0.0173512500
0.7090575000 0.0642205000 0.0220727500
0.3668085000 0.4385325000 0.1592355000
0.3913922500 0.4382385000 0.1591935000
0.6642900000 0.5537945000 0.0641185000
0.9147292500 0.5514567500 0.0314225000
0.9567610000 0.6029345000 0.0545520000
0.5655442500 0.6776942500 0.2137390000
0.5894402500 0.6776630000 0.2137215000
0.6352897500 0.7231617500 0.1923307500
0.9169337500 0.8295537500 0.2011987500
0.9710710000 0.8451890000 0.2250410000
0.5697300000 0.7138770000 0.2163130000
0.5955910000 0.7138770000 0.2163130000
0.6519380000 0.7740585000 0.1937025000
0.9346307500 0.8693255000 0.2106600000
0.9710710000 0.8710670000 0.2250410000
0.0093895000 0.0394752500 0.1005682500
0.1991167500 0.0640195000 0.1571075000
0.5722837500 0.0405095000 0.1001895000
0.7365162500 0.0404355000 0.1123912500
0.7708855000 0.0507315000 0.1412210000
0.0332310000 0.1539897500 0.1721795000
0.1905520000 0.1800262500 0.1739240000
0.5723690000 0.1882860000 0.1598890000
0.7500435000 0.0980162500 0.1497720000
0.7741147500 0.0897537500 0.1550140000
0.3650955000 0.4362552500 0.1861402500
0.3914930000 0.4353730000 0.1979330000
0.6600517500 0.5543702500 0.1190942500
0.9119195000 0.5743275000 0.1257082500
0.9537937500 0.6149512500 0.1219107500
0.5653270000 0.6774635000 0.2375375000
0.5929487500 0.6772737500 0.2413085000
0.6427372500 0.7342830000 0.2151447500
0.9163402500 0.8285242500 0.2278605000
0.9710710000 0.8454127500 0.2528407500
0.5697300000 0.7138770000 0.2421740000
0.5975305000 0.7138770000 0.2441135000
0.6585380000 0.7787965000 0.2192842500
0.9353647500 0.8693915000 0.2384417500
0.9710710000 0.8710670000 0.2528407500
0.0157800000 0.1002800000 0.2327145000
0.0470000000 0.1094090000 0.2507685000
0.4848525000 0.1691120000 0.4917825000
0.7186992500 0.1442830000 0.5126175000
0.7457330000 0.1563090000 0.5720720000
0.0157272500 0.1248592500 0.2322420000
0.0513827500 0.1386632500 0.2537442500
0.4797380000 0.1968850000 0.4886575000
0.7178585000 0.1749895000 0.5276762500
0.7447560000 0.1857965000 0.5784900000
0.1048040000 0.5053780000 0.6091125000
0.1319910000 0.5047782500 0.6090862500
0.5925715000 0.5946645000 0.5980210000
0.8639155000 0.6208490000 0.5946940000
0.8983485000 0.6158280000 0.5949215000
0.4124072500 0.7925715000 0.4878922500
0.4212070000 0.8027990000 0.5112895000
0.5778942500 0.8058795000 0.5307747500
0.8784650000 0.8832280000 0.6149387500
0.9432070000 0.9050937500 0.6203792500
0.3946765000 0.8537905000 0.5586000000
0.4132527500 0.8587560000 0.5756580000
0.5256625000 0.8397475000 0.5070315000
0.8975060000 0.9286732500 0.5989425000
0.9444950000 0.9308405000 0.6078120000
0.0257432500 0.1518915000 0.3440165000
0.0496720000 0.1519055000 0.3440412500
0.4057470000 0.2232327500 0.6708965000
0.6984385000 0.2121722500 0.7324735000
0.7305605000 0.2189815000 0.7530625000
0.0257115000 0.1756572500 0.3437400000
0.0534970000 0.1794597500 0.3436150000
0.4203450000 0.2522592500 0.6695837500
0.6978905000 0.2398257500 0.7317590000
0.7305677500 0.2468880000 0.7535172500
0.0364367500 0.3683522500 0.6270145000
0.0698667500 0.3979942500 0.6701882500
0.5058257500 0.5068945000 0.7833407500
0.8152092500 0.4981470000 0.8324485000
0.8311925000 0.4634202500 0.8361315000
0.3323630000 0.7868512500 0.8707080000
0.3599417500 0.7865735000 0.8707160000
0.4443982500 0.7996022500 0.8699082500
0.8559260000 0.8750672500 0.8528632500
0.9236970000 0.8805257500 0.8595162500
0.3803225000 0.8676412500 0.9005347500
0.4083440000 0.8676457500 0.9013292500
0.4457957500 0.8717322500 0.8987015000
0.8614822500 0.9430832500 0.8389442500
0.9450885000 0.9514995000 0.8631830000
0.0275800000 0.1609350000 0.3913440000
0.0534410000 0.1609350000 0.3913440000
0.4656010000 0.2337970000 0.7299745000
0.7047740000 0.2203630000 0.7819520000
0.7306490000 0.2203630000 0.7819520000
0.0275800000 0.1867960000 0.3913440000
0.0553797500 0.1887347500 0.3913440000
0.4705920000 0.2618165000 0.7302985000
0.7049975000 0.2481627500 0.7819520000
0.7306490000 0.2481627500 0.7819520000
0.0594340000 0.4246305000 0.7383160000
0.0944485000 0.4418932500 0.7600735000
0.4530145000 0.4445210000 0.8071700000
0.7912980000 0.4345182500 0.8598405000
0.8151490000 0.4286600000 0.8574995000
0.3566667500 0.8159682500 0.9463385000
0.3852147500 0.8169587500 0.9464517500
0.4331220000 0.8173542500 0.9451607500
0.8420345000 0.8666100000 0.9263410000
0.9168862500 0.8719510000 0.9280010000
0.3861300000 0.8686150000 0.9480590000
0.4139380000 0.8686182500 0.9481102500
0.4513520000 0.8723345000 0.9482745000
0.8291540000 0.9564670000 0.9385160000
0.9410880000 0.9596490000 0.9256680000
