bundles/resolve-cinematic-luts/Cinem8/Sony S-Log3 Color Grading LUTs/CMG_Harsh_S-Log3_33x.cube
TITLE "Copyright by CINEM8.CO"
LUT_3D_SIZE 33
0.0000000000 0.0000000000 0.0000000000
0.0000000000 0.0000000000 0.0000000000
0.0000000000 0.0000000000 0.0000000000
0.0000000000 0.0000000000 0.0000000000
0.0087931250 0.0000000000 0.0000000000
0.0510458438 0.0000000000 0.0000000000
0.0914038125 0.0000000000 0.0000000000
0.1397445000 0.0000000000 0.0000000000
0.1934070000 0.0000000000 0.0000000000
0.2485071250 0.0000000000 0.0000000000
0.3052502500 0.0000000000 0.0000000000
0.3606605625 0.0000000000 0.0000000000
0.4134052500 0.0000000000 0.0000000000
0.4651378125 0.0000000000 0.0000000000
0.5128218750 0.0000000000 0.0000000000
0.5599327500 0.0000000000 0.0000000000
0.5990190000 0.0000000000 0.0000000000
0.6381052500 0.0000000000 0.0000000000
0.6713801875 0.0000000000 0.0000000000
0.7042400313 0.0000000000 0.0000000000
0.7265916250 0.0000000000 0.0000000000
0.7463161563 0.0000000000 0.0000000000
0.7576397500 0.0000000000 0.0000000000
0.7647628750 0.0000000000 0.0000000000
0.7714047500 0.0000000000 0.0000000000
0.7776255313 0.0000000000 0.0000000000
0.7838594375 0.0000000000 0.0000000000
0.7901130312 0.0000000000 0.0000000000
0.7964330000 0.0000000000 0.0000000000
0.8029355000 0.0000000000 0.0000000000
0.8104355625 0.0000000000 0.0000000000
0.8244197813 0.0000000000 0.0000000000
0.8384040000 0.0000000000 0.0000000000
0.0000000000 0.0000000000 0.0000000000
0.0000000000 0.0000000000 0.0000000000
0.0000000000 0.0000000000 0.0000000000
0.0000000000 0.0000000000 0.0000000000
0.0087931250 0.0000000000 0.0000000000
0.0510458438 0.0000000000 0.0000000000
0.0914038125 0.0000000000 0.0000000000
0.1397445000 0.0000000000 0.0000000000
0.1934070000 0.0000000000 0.0000000000
0.2485071250 0.0000000000 0.0000000000
0.3052502500 0.0000000000 0.0000000000
0.3606605625 0.0000000000 0.0000000000
0.4134052500 0.0000000000 0.0000000000
0.4651378125 0.0000000000 0.0000000000
0.5128218750 0.0000000000 0.0000000000
0.5599327500 0.0000000000 0.0000000000
0.5990190000 0.0000000000 0.0000000000
0.6381052500 0.0000000000 0.0000000000
0.6713801875 0.0000000000 0.0000000000
0.7042400313 0.0000000000 0.0000000000
0.7265916250 0.0000000000 0.0000000000
0.7463161563 0.0000000000 0.0000000000
0.7576397500 0.0000000000 0.0000000000
0.7647628750 0.0000000000 0.0000000000
0.7714047500 0.0000000000 0.0000000000
0.7776255313 0.0000000000 0.0000000000
0.7838594375 0.0000000000 0.0000000000
0.7901130312 0.0000000000 0.0000000000
0.7964330000 0.0000000000 0.0000000000
0.8029355000 0.0000000000 0.0000000000
0.8104355625 0.0000000000 0.0000000000
0.8244197813 0.0000000000 0.0000000000
0.8384040000 0.0000000000 0.0000000000
0.0000000000 0.0000000000 0.0000000000
0.0000000000 0.0000000000 0.0000000000
0.0000000000 0.0000000000 0.0000000000
0.0000000000 0.0000000000 0.0000000000
0.0087931250 0.0000000000 0.0000000000
0.0510458438 0.0000000000 0.0000000000
0.0914038125 0.0000000000 0.0000000000
0.1397445000 0.0000000000 0.0000000000
0.1934070000 0.0000000000 0.0000000000
0.2485071250 0.0000000000 0.0000000000
0.3052502500 0.0000000000 0.0000000000
0.3606605625 0.0000000000 0.0000000000
0.4134052500 0.0000000000 0.0000000000
0.4651378125 0.0000000000 0.0000000000
0.5128218750 0.0000000000 0.0000000000
0.5599327500 0.0000000000 0.0000000000
0.5990190000 0.0000000000 0.0000000000
0.6381052500 0.0000000000 0.0000000000
0.6713801875 0.0000000000 0.0000000000
0.7042400313 0.0000000000 0.0000000000
0.7265916250 0.0000000000 0.0000000000
0.7463161563 0.0000000000 0.0000000000
0.7576397500 0.0000000000 0.0000000000
0.7647628750 0.0000000000 0.0000000000
0.7714047500 0.0000000000 0.0000000000
0.7776255313 0.0000000000 0.0000000000
0.7838594375 0.0000000000 0.0000000000
0.7901130312 0.0000000000 0.0000000000
0.7964330000 0.0000000000 0.0000000000
0.8029355000 0.0000000000 0.0000000000
0.8104355625 0.0000000000 0.0000000000
0.8244197813 0.0000000000 0.0000000000
0.8384040000 0.0000000000 0.0000000000
0.0000000000 0.0000000000 0.0000000000
0.0000000000 0.0000000000 0.0000000000
0.0000000000 0.0000000000 0.0000000000
0.0000000000 0.0000000000 0.0000000000
0.0087874375 0.0000000000 0.0000000000
0.0433680000 0.0000000000 0.0000000000
0.0823310313 0.0000000000 0.0000000000
0.1258128438 0.0000000000 0.0000000000
0.1773158437 0.0000000000 0.0000000000
0.2312023438 0.0000000000 0.0000000000
0.2869052187 0.0000000000 0.0000000000
0.3477505312 0.0000000000 0.0000000000
0.4091912188 0.0000000000 0.0000000000
0.4616081563 0.0000000000 0.0000000000
0.5115734687 0.0000000000 0.0000000000
0.5586871562 0.0000000000 0.0000000000
0.5978071563 0.0000000000 0.0000000000
0.6368934063 0.0000000000 0.0000000000
0.6703060625 0.0000000000 0.0000000000
0.7031659062 0.0000000000 0.0000000000
0.7257578750 0.0000000000 0.0000000000
0.7455024375 0.0000000000 0.0000000000
0.7571691563 0.0000000000 0.0000000000
0.7643952188 0.0000000000 0.0000000000
0.7710488438 0.0000000000 0.0000000000
0.7772769687 0.0000000000 0.0000000000
0.7835118125 0.0000000000 0.0000000000
0.7897665000 0.0000000000 0.0000000000
0.7960839688 0.0000000000 0.0000000000
0.8025808437 0.0000000000 0.0000000000
0.8100787188 0.0000000000 0.0000000000
0.8240509063 0.0000000000 0.0000000000
0.8380351250 0.0000000000 0.0000000000
0.0000000000 0.0166953750 0.0000000000
0.0000000000 0.0166953750 0.0000000000
0.0000000000 0.0166953750 0.0000000000
0.0000000000 0.0157260625 0.0000000000
0.0087808750 0.0146076250 0.0000000000
0.0433614375 0.0158756875 0.0000000000
0.0732573750 0.0165703750 0.0000000000
0.1153442500 0.0163983750 0.0000000000
0.1609086250 0.0155958750 0.0000000000
0.2126356250 0.0139378125 0.0000000000
0.2667781250 0.0112968750 0.0000000000
0.3265831875 0.0095387187 0.0000000000
0.3956328750 0.0081920000 0.0000000000
0.4567458125 0.0071861875 0.0000000000
0.5078517500 0.0068308750 0.0000000000
0.5572466875 0.0064031562 0.0000000000
0.5963751250 0.0061111250 0.0000000000
0.6354951250 0.0057790625 0.0000000000
0.6689183750 0.0055349375 0.0000000000
0.7019265313 0.0052998125 0.0000000000
0.7245185000 0.0051031250 0.0000000000
0.7445435000 0.0049465625 0.0000000000
0.7562302500 0.0048205000 0.0000000000
0.7638680625 0.0047417500 0.0000000000
0.7706246250 0.0047008750 0.0000000000
0.7768674375 0.0047121250 0.0000000000
0.7831096250 0.0047651250 0.0000000000
0.7893655625 0.0048766875 0.0000000000
0.7956841250 0.0050242500 0.0000000000
0.8021772500 0.0052192500 0.0000000000
0.8096695000 0.0054363125 0.0000000000
0.8236373125 0.0055942812 0.0000000000
0.8376095000 0.0057763750 0.0000000000
0.0000000000 0.0502973438 0.0000000000
0.0000000000 0.0502973438 0.0000000000
0.0000000000 0.0502973438 0.0000000000
0.0000000000 0.0493534688 0.0000000000
0.0102424063 0.0482350312 0.0000000000
0.0483585000 0.0467683750 0.0000000000
0.0782544375 0.0474630625 0.0000000000
0.1161311250 0.0472456563 0.0000000000
0.1613798750 0.0464400938 0.0000000000
0.2063269375 0.0454525312 0.0000000000
0.2578291875 0.0431960937 0.0000000000
0.3082187188 0.0380753125 0.0000000000
0.3668019687 0.0332350937 0.0000000000
0.4346527813 0.0299007813 0.0000000000
0.4921317188 0.0237164688 0.0000000000
0.5436136250 0.0233396563 0.0000000000
0.5944867500 0.0227904375 0.0000000000
0.6336151875 0.0224984062 0.0000000000
0.6672014375 0.0222425312 0.0000000000
0.7002201875 0.0220161250 0.0000000000
0.7231206562 0.0218284063 0.0000000000
0.7431456562 0.0216718437 0.0000000000
0.7552275313 0.0215602813 0.0000000000
0.7628968438 0.0214808437 0.0000000000
0.7699856563 0.0214513438 0.0000000000
0.7763015937 0.0214630625 0.0000000000
0.7825520937 0.0215204375 0.0000000000
0.7888100625 0.0216370000 0.0000000000
0.7951263750 0.0217781875 0.0000000000
0.8016144687 0.0219860937 0.0000000000
0.8091009688 0.0221797187 0.0000000000
0.8230541563 0.0223537188 0.0000000000
0.8370219688 0.0225116875 0.0000000000
0.0000000000 0.0777628125 0.0000000000
0.0000000000 0.0777628125 0.0000000000
0.0000000000 0.0777628125 0.0000000000
0.0000000000 0.0768235625 0.0000000000
0.0111700625 0.0757351875 0.0000000000
0.0492861562 0.0742685312 0.0000000000
0.0850710000 0.0726752500 0.0000000000
0.1229476875 0.0724578438 0.0000000000
0.1661448750 0.0716323750 0.0000000000
0.2107763125 0.0706417500 0.0000000000
0.2550178750 0.0694426875 0.0000000000
0.3027671563 0.0647064063 0.0000000000
0.3456507500 0.0546259375 0.0000000000
0.4030351250 0.0477981250 0.0000000000
0.4660904375 0.0365134375 0.0000000000
0.5239453437 0.0303076250 0.0000000000
0.5806908125 0.0296298125 0.0000000000
0.6315639375 0.0290805938 0.0000000000
0.6651938750 0.0288178750 0.0000000000
0.6983873750 0.0285640937 0.0000000000
0.7213130000 0.0283748125 0.0000000000
0.7416901875 0.0281963750 0.0000000000
0.7537720625 0.0280848125 0.0000000000
0.7618823750 0.0279957500 0.0000000000
0.7690026875 0.0279655625 0.0000000000
0.7756111250 0.0279791563 0.0000000000
0.7819347500 0.0280370000 0.0000000000
0.7881967812 0.0281635625 0.0000000000
0.7945151250 0.0283097500 0.0000000000
0.8009974687 0.0285324062 0.0000000000
0.8084789375 0.0287389375 0.0000000000
0.8224223750 0.0289236250 0.0000000000
0.8363755625 0.0290976250 0.0000000000
0.0000000000 0.1121841563 0.0000000000
0.0000000000 0.1121841563 0.0000000000
0.0000000000 0.1121841563 0.0000000000
0.0000000000 0.1117792813 0.0000000000
0.0172822188 0.1106955313 0.0000000000
0.0504053437 0.1092159063 0.0000000000
0.0861901875 0.1076226250 0.0000000000
0.1355312812 0.1049380938 0.0000000000
0.1787284687 0.1041126250 0.0000000000
0.2238185000 0.1034125000 0.0000000000
0.2684616250 0.1022990625 0.0000000000
0.3116905313 0.1010604687 0.0000000000
0.3541261250 0.0933167500 0.0000000000
0.3954346250 0.0836840312 0.0000000000
0.4472710625 0.0737765312 0.0000000000
0.5081708125 0.0620664375 0.0000000000
0.5510370312 0.0523283750 0.0000000000
0.6077825000 0.0516505625 0.0000000000
0.6521435000 0.0379960000 0.0000000000
0.6853806875 0.0377353750 0.0000000000
0.7181864375 0.0344095000 0.0000000000
0.7385887812 0.0342295000 0.0000000000
0.7514905625 0.0340963438 0.0000000000
0.7596008750 0.0340072813 0.0000000000
0.7672701875 0.0339744688 0.0000000000
0.7739236250 0.0339882500 0.0000000000
0.7805397500 0.0340597813 0.0000000000
0.7868749062 0.0341927188 0.0000000000
0.7931065625 0.0343604063 0.0000000000
0.7994775000 0.0346024375 0.0000000000
0.8069232188 0.0348262187 0.0000000000
0.8207566250 0.0350325625 0.0000000000
0.8347000625 0.0352172500 0.0000000000
0.0000000000 0.1512427500 0.0000000000
0.0000000000 0.1512427500 0.0000000000
0.0000000000 0.1512427500 0.0000000000
0.0000000000 0.1510753750 0.0000000000
0.0268911250 0.1506447500 0.0000000000
0.0588993125 0.1491601875 0.0000000000
0.0874370625 0.1475348125 0.0000000000
0.1367781563 0.1448502812 0.0000000000
0.1951567500 0.1414382500 0.0000000000
0.2402467812 0.1407381250 0.0000000000
0.2875000625 0.1401812500 0.0000000000
0.3311305312 0.1390282812 0.0000000000
0.3723341250 0.1377106250 0.0000000000
0.4131946250 0.1304146562 0.0000000000
0.4482027500 0.1225729375 0.0000000000
0.4978836250 0.1122400312 0.0000000000
0.5286055000 0.0945742500 0.0000000000
0.5714717187 0.0848361875 0.0000000000
0.6211419375 0.0637560000 0.0000000000
0.6649975625 0.0486441250 0.0000000000
0.7010821250 0.0442750000 0.0000000000
0.7345997187 0.0399220000 0.0000000000
0.7475786250 0.0397873125 0.0000000000
0.7567686875 0.0396768125 0.0000000000
0.7644380000 0.0396440000 0.0000000000
0.7717214375 0.0396604063 0.0000000000
0.7783825625 0.0397321250 0.0000000000
0.7850102187 0.0398905625 0.0000000000
0.7913150000 0.0400646250 0.0000000000
0.7974631250 0.0403454063 0.0000000000
0.8047974375 0.0405885625 0.0000000000
0.8185050938 0.0408196563 0.0000000000
0.8323385000 0.0410260000 0.0000000000
0.0000000000 0.1958274063 0.0186442812
0.0000000000 0.1958274063 0.0186442812
0.0000000000 0.1958274063 0.0186442812
0.0023029375 0.1957009375 0.0185692188
0.0459041875 0.1955078125 0.0184417188
0.0680512500 0.1949404062 0.0181010312
0.0954740625 0.1933100938 0.0171002500
0.1343583437 0.1908004062 0.0119726250
0.1927369375 0.1873883750 0.0000000000
0.2588982187 0.1839494375 0.0000000000
0.3061515000 0.1833925625 0.0000000000
0.3552483750 0.1824110000 0.0000000000
0.3979960312 0.1810249063 0.0000000000
0.4384710000 0.1796842812 0.0000000000
0.4741597500 0.1735516875 0.0000000000
0.5088260937 0.1660406250 0.0000000000
0.5392117813 0.1542884063 0.0000000000
0.5699336562 0.1366226250 0.0000000000
0.6058331250 0.1226760312 0.0000000000
0.6549979688 0.1001385312 0.0000000000
0.6835777500 0.0902371250 0.0000000000
0.7203741562 0.0848408750 0.0000000000
0.7355205312 0.0788636875 0.0000000000
0.7447877188 0.0787516562 0.0000000000
0.7516063125 0.0765639375 0.0000000000
0.7588897500 0.0765803438 0.0000000000
0.7658173125 0.0767915625 0.0000000000
0.7724293750 0.0769730000 0.0000000000
0.7795541563 0.0783499375 0.0000000000
0.7861710312 0.0795201250 0.0000000000
0.7934974062 0.0802797812 0.0000000000
0.8076308437 0.0817246250 0.0000000000
0.8213385000 0.0819557188 0.0000000000
0.0000000000 0.2467275625 0.0436113125
0.0000000000 0.2467275625 0.0436113125
0.0000000000 0.2467275625 0.0436113125
0.0324866875 0.2466361563 0.0435666250
0.0750838750 0.2464956250 0.0434846875
0.0917509375 0.2463165938 0.0433881250
0.1041037500 0.2457543125 0.0430586875
0.1409560313 0.2432988125 0.0428293750
0.1861266250 0.2402390000 0.0382160625
0.2522879062 0.2368000625 0.0000000000
0.3273436875 0.2333303750 0.0000000000
0.3764405625 0.2323488125 0.0000000000
0.4292246250 0.2305178750 0.0000000000
0.4712436563 0.2291088125 0.0000000000
0.5088041250 0.2276763125 0.0000000000
0.5441510938 0.2218743750 0.0000000000
0.5740325000 0.2189925000 0.0000000000
0.6044181875 0.2072402812 0.0000000000
0.6282818125 0.2015598125 0.0000000000
0.6636914063 0.1884693125 0.0000000000
0.6846352500 0.1777986875 0.0000000000
0.7061597813 0.1708640000 0.0000000000
0.7198930625 0.1631280625 0.0000000000
0.7235078750 0.1559810313 0.0000000000
0.7301278125 0.1534870000 0.0000000000
0.7346300625 0.1492150313 0.0000000000
0.7415576250 0.1494262500 0.0000000000
0.7479513750 0.1499296875 0.0000000000
0.7550605625 0.1513296250 0.0000000000
0.7635524375 0.1560574375 0.0000000000
0.7713475625 0.1577065000 0.0000000000
0.7863325625 0.1615788438 0.0000000000
0.8004660000 0.1630236875 0.0000000000
0.0045010938 0.2987436562 0.0654527187
0.0142348437 0.2987435000 0.0654527187
0.0244128125 0.2987435000 0.0654527187
0.0615684062 0.2986636563 0.0654214688
0.1034962187 0.2985581875 0.0653699062
0.1197128125 0.2984230000 0.0653159375
0.1265856250 0.2982490938 0.0652306250
0.1428658750 0.2972881875 0.0652579688
0.1860044688 0.2942825625 0.0655429687
0.2420129062 0.2901016250 0.0549248750
0.3170686875 0.2866319375 0.0000000000
0.3913041563 0.2836005313 0.0000000000
0.4440882188 0.2817695937 0.0000000000
0.4966836563 0.2799659375 0.0000000000
0.5361481875 0.2784985000 0.0000000000
0.5735523125 0.2771345000 0.0000000000
0.6048560938 0.2749131250 0.0000000000
0.6347375000 0.2720312500 0.0000000000
0.6604396250 0.2688691875 0.0000000000
0.6838133750 0.2640448125 0.0000000000
0.7007299375 0.2586565000 0.0000000000
0.7146185312 0.2509525938 0.0000000000
0.7212215000 0.2439977500 0.0000000000
0.7234232188 0.2350919687 0.0000000000
0.7269453125 0.2295913750 0.0000000000
0.7312489062 0.2250130937 0.0000000000
0.7363868438 0.2229512500 0.0000000000
0.7427805938 0.2234546875 0.0000000000
0.7495062188 0.2250133750 0.0000000000
0.7579411875 0.2297233750 0.0000000000
0.7673154375 0.2343131875 0.0000000000
0.7823253750 0.2381496250 0.0000000000
0.7973103750 0.2420219688 0.0000000000
0.0329893750 0.3529916250 0.0810428750
0.0418346875 0.3529911562 0.0810428750
0.0515684375 0.3529910000 0.0810428750
0.0878617813 0.3529296562 0.0810331250
0.1290351250 0.3528403750 0.0810003750
0.1452466562 0.3527297500 0.0809732187
0.1521118750 0.3525926875 0.0809281250
0.1585105000 0.3523614063 0.0808678438
0.1744746250 0.3513622500 0.0809118750
0.2296731250 0.3467978125 0.0772784063
0.2994643125 0.3408353750 0.0621820625
0.3736997813 0.3378039688 0.0015964375
0.4462946250 0.3356491250 0.0000000000
0.4988900625 0.3338454687 0.0000000000
0.5507310000 0.3321509375 0.0000000000
0.5900391875 0.3307520000 0.0000000000
0.6252545000 0.3303470000 0.0000000000
0.6565582813 0.3281256250 0.0000000000
0.6856705625 0.3277226250 0.0000000000
0.7113177500 0.3247376250 0.0000000000
0.7298176250 0.3217848750 0.0000000000
0.7455157187 0.3168644688 0.0000000000
0.7526243125 0.3114599375 0.0000000000
0.7558372813 0.3056547813 0.0000000000
0.7594790000 0.3008125000 0.0000000000
0.7642610937 0.2988674688 0.0000000000
0.7693986875 0.2969023750 0.0000000000
0.7757876250 0.2987603125 0.0000000000
0.7825132500 0.3003190000 0.0000000000
0.7901515313 0.3047796250 0.0000000000
0.7994688750 0.3093516250 0.0000000000
0.8145785625 0.3130444375 0.0000000000
0.8295885000 0.3168808750 0.0000000000
0.0588708437 0.4080329062 0.0942332188
0.0675447813 0.4080325312 0.0942332188
0.0763900937 0.4080320625 0.0942332188
0.1123280937 0.4079746875 0.0942260000
0.1526391875 0.4079039062 0.0942147500
0.1684101250 0.4078095625 0.0942022812
0.1752702812 0.4076970625 0.0941840000
0.1816531563 0.4075074063 0.0941602813
0.1877356563 0.4072378750 0.0941166875
0.2122449063 0.4055903125 0.0919649063
0.2812261563 0.3992443750 0.0838531875
0.3555356250 0.3922165625 0.0659793438
0.4281304687 0.3900617188 0.0052152812
0.4988087812 0.3882676250 0.0000000000
0.5506497188 0.3865730937 0.0000000000
0.6019395625 0.3846260313 0.0000000000
0.6382694375 0.3835440313 0.0000000000
0.6734847500 0.3831390312 0.0000000000
0.7042181563 0.3830479688 0.0000000000
0.7332755000 0.3828220313 0.0000000000
0.7537535937 0.3812648438 0.0000000000
0.7710350000 0.3787800000 0.0000000000
0.7796233750 0.3753722187 0.0000000000
0.7833419687 0.3711173750 0.0000000000
0.7877781875 0.3685840000 0.0000000000
0.7926799062 0.3672972813 0.0000000000
0.7981338125 0.3673596250 0.0000000000
0.8045224063 0.3693143125 0.0000000000
0.8111062500 0.3719430625 0.0000000000
0.8187445313 0.3764036875 0.0000000000
0.8273360625 0.3807605000 0.0000000000
0.8424242813 0.3844525937 0.0000000000
0.8575339687 0.3881454062 0.0000000000
0.0743250625 0.4662474375 0.0978243125
0.0823135000 0.4662474375 0.0978243125
0.0909874375 0.4662470625 0.0978243125
0.1263332500 0.4662031250 0.0978255313
0.1663482500 0.4661390625 0.0978185000
0.1820939375 0.4660634687 0.0978165313
0.1889320000 0.4659673750 0.0978074375
0.1952935000 0.4658118438 0.0978032188
0.2013439375 0.4655935000 0.0977888750
0.2112851875 0.4658894375 0.0978463438
0.2402044375 0.4648881250 0.0958100625
0.3172630312 0.4564743750 0.0831286563
0.4077271875 0.4453109375 0.0561154375
0.4784055000 0.4435168438 0.0000000000
0.5414176875 0.4431657500 0.0000000000
0.5927075312 0.4412186875 0.0000000000
0.6362820625 0.4357361875 0.0000000000
0.6726119375 0.4346541875 0.0000000000
0.7079856250 0.4351014375 0.0000000000
0.7387303437 0.4350712500 0.0000000000
0.7617329375 0.4349416875 0.0000000000
0.7806973437 0.4334085938 0.0000000000
0.7900996875 0.4306006250 0.0000000000
0.7947485313 0.4270312813 0.0000000000
0.7993291250 0.4247286875 0.0000000000
0.8045195938 0.4239035313 0.0000000000
0.8099309375 0.4240183750 0.0000000000
0.8161492812 0.4261830625 0.0000000000
0.8226871250 0.4288137500 0.0000000000
0.8296814062 0.4333015000 0.0000000000
0.8382729375 0.4376583125 0.0000000000
0.8530605937 0.4413403437 0.0000000000
0.8681488125 0.4450324375 0.0000000000
0.0894505625 0.5240457500 0.1008577813
0.0973986250 0.5240457500 0.1008577813
0.1053870625 0.5240457500 0.1008577813
0.1405758125 0.5240030625 0.1008592188
0.1799986250 0.5239524375 0.1008606250
0.1955042813 0.5238840625 0.1008624063
0.2023170938 0.5238067188 0.1008638125
0.2086545000 0.5236697188 0.1008682188
0.2146835625 0.5234855000 0.1008733750
0.2240190937 0.5237437813 0.1009482500
0.2383703437 0.5246859688 0.1011212187
0.2770238437 0.5211224688 0.0949866250
0.3702371250 0.5085730937 0.0731658438
0.4582927813 0.4981706563 0.0480271875
0.5213049687 0.4978195625 0.0042932812
0.5835656250 0.4975737188 0.0000000000
0.6271401562 0.4920912188 0.0000000000
0.6707146875 0.4866087188 0.0000000000
0.7068748437 0.4863888750 0.0000000000
0.7422598437 0.4868970000 0.0000000000
0.7669220625 0.4868515625 0.0000000000
0.7884109687 0.4867460937 0.0000000000
0.7994240312 0.4848103437 0.0000000000
0.8048868438 0.4818408125 0.0000000000
0.8102867188 0.4801591250 0.0000000000
0.8156215625 0.4795647500 0.0000000000
0.8212832187 0.4800991250 0.0000000000
0.8274590000 0.4823163125 0.0000000000
0.8338199687 0.4851346562 0.0000000000
0.8407682500 0.4896243437 0.0000000000
0.8487510938 0.4940014375 0.0000000000
0.8635387500 0.4976834687 0.0000000000
0.8783264062 0.5013655000 0.0000000000
0.0999740000 0.5760170000 0.0960845000
0.1073568125 0.5760170000 0.0960845000
0.1153048750 0.5760170000 0.0960845000
0.1499798750 0.5759885625 0.0960885625
0.1892742500 0.5759415000 0.0960906250
0.2047483438 0.5758915625 0.0960961563
0.2115453750 0.5758234375 0.0960994375
0.2178415312 0.5757221875 0.0961098437
0.2238345000 0.5755692500 0.0961202500
0.2297067187 0.5753285938 0.0961435625
0.2388630000 0.5755223750 0.0962391875
0.2695761250 0.5719248750 0.0941993437
0.3409533750 0.5592820000 0.0836391250
0.4307742187 0.5482941250 0.0606299688
0.5052601250 0.5441376875 0.0307378125
0.5675207812 0.5438918437 0.0000000000
0.6192600000 0.5451195000 0.0000000000
0.6628345313 0.5396370000 0.0000000000
0.7019741250 0.5351454375 0.0000000000
0.7378175000 0.5349963750 0.0000000000
0.7668147500 0.5342613750 0.0000000000
0.7898800313 0.5339051563 0.0000000000
0.8027670625 0.5326812500 0.0000000000
0.8094791875 0.5301862813 0.0000000000
0.8149162500 0.5286522500 0.0000000000
0.8202935937 0.5282266250 0.0000000000
0.8259074375 0.5287816250 0.0000000000
0.8319875937 0.5310400625 0.0000000000
0.8382861250 0.5338438750 0.0000000000
0.8449846563 0.5382754375 0.0000000000
0.8529568125 0.5426476250 0.0000000000
0.8675948437 0.5462609687 0.0000000000
0.8823825000 0.5499430000 0.0000000000
0.1104974375 0.6279882500 0.0913112188
0.1178802500 0.6279882500 0.0913112188
0.1252630625 0.6279882500 0.0913112187
0.1598976875 0.6279598125 0.0913152812
0.1986783125 0.6279270000 0.0913199688
0.2140239688 0.6278806250 0.0913261562
0.2207894375 0.6278309375 0.0913331875
0.2270698125 0.6277389062 0.0913454688
0.2330215312 0.6276217187 0.0913618750
0.2388576562 0.6274123437 0.0913904375
0.2445506250 0.6271071875 0.0914345000
0.2700687813 0.6227612813 0.0893173125
0.3335056563 0.6100844062 0.0828518438
0.4014904687 0.5990030312 0.0711032500
0.4777415625 0.5942611562 0.0433405938
0.5514759375 0.5902099687 0.0150936875
0.6032151562 0.5914376250 0.0000000000
0.6549543750 0.5926652812 0.0000000000
0.6940939688 0.5881737188 0.0000000000
0.7329167813 0.5837529375 0.0000000000
0.7623724063 0.5823607500 0.0000000000
0.7897727188 0.5813149687 0.0000000000
0.8042361250 0.5798403125 0.0000000000
0.8128222188 0.5780571875 0.0000000000
0.8195085937 0.5769977188 0.0000000000
0.8249231250 0.5767197500 0.0000000000
0.8305794688 0.5774435000 0.0000000000
0.8366118125 0.5797225625 0.0000000000
0.8428147188 0.5825676250 0.0000000000
0.8494508125 0.5869846562 0.0000000000
0.8571732188 0.5912987187 0.0000000000
0.8718005625 0.5949071562 0.0000000000
0.8864385938 0.5985205000 0.0000000000
0.1207413125 0.6741849375 0.0841894375
0.1276813750 0.6741849375 0.0841894375
0.1350641875 0.6741849375 0.0841894375
0.1690661250 0.6741662500 0.0841926875
0.2078011875 0.6741341875 0.0841973125
0.2230785937 0.6741013750 0.0842026875
0.2298371250 0.6740550625 0.0842094375
0.2360772187 0.6739896250 0.0842201250
0.2420083125 0.6738861875 0.0842354375
0.2478121562 0.6737318125 0.0842599375
0.2534780000 0.6734771875 0.0842991875
0.2610231562 0.6727628125 0.0842048125
0.2931476250 0.6667723750 0.0813958750
0.3636886875 0.6523306562 0.0734039687
0.4565913750 0.6352986875 0.0556623125
0.5318456562 0.6309101563 0.0286390313
0.5918699375 0.6315576875 0.0116492500
0.6436091563 0.6327853437 0.0000000000
0.6895768750 0.6350056875 0.0000000000
0.7283996875 0.6305849062 0.0000000000
