bundles/resolve-cinematic-luts/Cinem8/Sony S-Log3 Color Grading LUTs/CMG_Harsh_S-Log3_33x.cube
TITLE "Copyright by CINEM8.CO"
LUT_3D_SIZE 5
0.0000000000 0.0000000000 0.0000000000
0.1934070000 0.0000000000 0.0000000000
0.5990190000 0.0000000000 0.0000000000
0.7714047500 0.0000000000 0.0000000000
0.8384040000 0.0000000000 0.0000000000
0.0000000000 0.1512427500 0.0000000000
0.1951567500 0.1414382500 0.0000000000
0.5286055000 0.0945742500 0.0000000000
0.7644380000 0.0396440000 0.0000000000
0.8323385000 0.0410260000 0.0000000000
0.0999740000 0.5760170000 0.0960845000
0.2238345000 0.5755692500 0.0961202500
0.6192600000 0.5451195000 0.0000000000
0.8149162500 0.5286522500 0.0000000000
0.8823825000 0.5499430000 0.0000000000
0.1711807500 0.8343140000 0.0780295000
0.2868992500 0.8343140000 0.0780282500
0.4759135000 0.8068277500 0.0711662500
0.8329150000 0.7981302500 0.0779795000
0.9047760000 0.8033462500 0.0793082500
0.1711520000 0.8813170000 0.0780000000
0.2883200000 0.8813170000 0.0779992500
0.4692650000 0.8564000000 0.0715230000
0.8350697500 0.8457822500 0.0785450000
0.9047750000 0.8464640000 0.0792770000
0.0000000000 0.0000000000 0.0871550000
0.1777322500 0.0000000000 0.1440272500
0.6330452500 0.0000000000 0.0863865000
0.7821337500 0.0000000000 0.0955260000
0.8476100000 0.0000000000 0.1047930000
0.0000000000 0.1392697500 0.1539602500
0.1496670000 0.1639710000 0.1765960000
0.6566117500 0.0941052500 0.1038235000
0.7866000000 0.0385025000 0.0837792500
0.8504332500 0.0519617500 0.1249395000
0.0991435000 0.5733932500 0.2142015000
0.2230030000 0.5855395000 0.2085965000
0.6229152500 0.5452602500 0.0904490000
0.8181542500 0.5307697500 0.0519830000
0.8857292500 0.5671815000 0.0913615000
0.1711807500 0.8343140000 0.1956060000
0.2801070000 0.8353962500 0.1862527500
0.4593832500 0.8106045000 0.1800427500
0.8336985000 0.7983162500 0.1846532500
0.9047760000 0.8038935000 0.2028067500
0.1711520000 0.8813170000 0.1969472500
0.2826957500 0.8818685000 0.1895137500
0.4489332500 0.8602235000 0.1824330000
0.8335077500 0.8461370000 0.1820495000
0.9047750000 0.8464640000 0.2028047500
0.0000000000 0.0000000000 0.2107860000
0.0426090000 0.0091632500 0.2264815000
0.4994090000 0.0560465000 0.4622245000
0.7090852500 0.0268797500 0.4590135000
0.7646875000 0.0348500000 0.4801450000
0.0000000000 0.1249287500 0.2104345000
0.0466450000 0.1458300000 0.2344427500
0.5221290000 0.1857072500 0.4858277500
0.7088725000 0.1559675000 0.4757017500
0.7612855000 0.1692472500 0.4903267500
0.0000000000 0.5472325000 0.5248895000
0.0391332500 0.5585252500 0.5328097500
0.6406225000 0.6402035000 0.6298875000
0.8657530000 0.6286185000 0.5873832500
0.9316045000 0.6469380000 0.6140215000
0.1127272500 0.8521440000 0.5333562500
0.2320277500 0.8536347500 0.5083557500
0.4178367500 0.8621855000 0.5018247500
0.8560860000 0.8423370000 0.4883065000
0.9379855000 0.8668537500 0.6239050000
0.1122410000 0.9011915000 0.5450115000
0.2345507500 0.9012700000 0.5220637500
0.4074100000 0.9094260000 0.5215875000
0.8541815000 0.8936112500 0.5027317500
0.9370475000 0.9085245000 0.6107885000
0.0000000000 0.0621480000 0.3129450000
0.0408057500 0.0621705000 0.3129612500
0.3628995000 0.1833482500 0.6560245000
0.6991427500 0.1066880000 0.6917775000
0.7630132500 0.1095772500 0.7009485000
0.0000000000 0.1841940000 0.3127682500
0.0452547500 0.1926132500 0.3242820000
0.4171445000 0.2948745000 0.6812057500
0.7052592500 0.2246085000 0.7015280000
0.7631135000 0.2340102500 0.7018955000
0.0000000000 0.4095800000 0.5409795000
0.0380940000 0.4310395000 0.5713252500
0.4764480000 0.5712100000 0.8120862500
0.7930982500 0.4840045000 0.7853737500
0.8767160000 0.5406105000 0.8099980000
0.0160167500 0.8278502500 0.7918960000
0.1386297500 0.8305180000 0.7936992500
0.2583472500 0.8358912500 0.8011095000
0.8771465000 0.8788007500 0.8574887500
0.9569962500 0.8782225000 0.8601412500
0.0466975000 0.8949940000 0.8010550000
0.1670370000 0.8955265000 0.7994200000
0.2858335000 0.9018380000 0.8052985000
0.8618965000 0.9479582500 0.8492342500
0.9588480000 0.9445597500 0.8590045000
0.0000000000 0.0700560000 0.3667730000
0.0422302500 0.0700550000 0.3667730000
0.3875100000 0.1902990000 0.7183935000
0.7062865000 0.1136872500 0.7503340000
0.7649270000 0.1136920000 0.7503340000
0.0000000000 0.1929410000 0.3667730000
0.0453052500 0.1956987500 0.3707222500
0.4140160000 0.3005477500 0.7324337500
0.7092560000 0.2310720000 0.7541697500
0.7649270000 0.2375522500 0.7503340000
0.0000000000 0.4113930000 0.5914435000
0.0409790000 0.4318740000 0.6172760000
0.4189600000 0.5316305000 0.8318370000
0.7825732500 0.4536900000 0.8291462500
0.8536320000 0.4878660000 0.8379175000
0.0000000000 0.8375725000 0.8738447500
0.1171662500 0.8400687500 0.8769652500
0.2408285000 0.8435910000 0.8850295000
0.8680505000 0.8730375000 0.9337302500
0.9560895000 0.8751827500 0.9302110000
0.0496290000 0.8956540000 0.8693830000
0.1677440000 0.8961832500 0.8698490000
0.2644850000 0.9005595000 0.8751750000
0.8490425000 0.9472310000 0.9270115000
0.9611340000 0.9508900000 0.9335890000
