bundles/resolve-cinematic-luts/Cinem8/Sony S-Log3 Color Grading LUTs/CMG_Bloom_S-Log3_33x.cube
TITLE "Copyright by CINEM8.CO"
LUT_3D_SIZE 33
0.0396260000 0.0352820000 0.0408640000
0.0504255313 0.0353054375 0.0407847812
0.0612250625 0.0353288750 0.0407055625
0.0738730312 0.0354555000 0.0406564062
0.0868053750 0.0355980000 0.0406118750
0.1039555313 0.0358590938 0.0409162500
0.1226394375 0.0361633125 0.0413475000
0.1499388750 0.0366323437 0.0421305938
0.1829820000 0.0372112500 0.0431482500
0.2284558125 0.0379408750 0.0444380313
0.2881361250 0.0388427500 0.0460388125
0.3445275313 0.0396785313 0.0476766250
0.3943411250 0.0403821250 0.0493885000
0.4427627188 0.0410742813 0.0511091875
0.4856163125 0.0417206875 0.0528651250
0.5284725937 0.0423683438 0.0546495312
0.5713665000 0.0430335000 0.0568325000
0.6142604063 0.0436986562 0.0590154687
0.6595964375 0.0444968125 0.0615165000
0.7051069062 0.0453044688 0.0640402500
0.7475521250 0.0460960000 0.0668486250
0.7892310312 0.0468835000 0.0697281563
0.8137661875 0.0473475625 0.0719345625
0.8297294687 0.0476499062 0.0738044062
0.8400275000 0.0478955000 0.0753537500
0.8453684375 0.0480914375 0.0766226562
0.8510564375 0.0482313125 0.0776513750
0.8572650313 0.0482870938 0.0783198125
0.8637361250 0.0483038750 0.0788456250
0.8709290938 0.0482134063 0.0789792187
0.8781303125 0.0481198125 0.0791005625
0.8853851563 0.0480059062 0.0791422813
0.8926400000 0.0478920000 0.0791840000
0.0404585000 0.0445557500 0.0412708750
0.0499591250 0.0446593438 0.0413636875
0.0607586563 0.0446827812 0.0412844687
0.0734358750 0.0446915938 0.0412966563
0.0863727187 0.0448159688 0.0412615625
0.1034537813 0.0447016875 0.0413930312
0.1221125625 0.0448694063 0.0417614063
0.1495267500 0.0448726875 0.0423788438
0.1826463750 0.0451410937 0.0432860625
0.2280394688 0.0453199062 0.0444518125
0.2876275312 0.0455922813 0.0459108437
0.3440830000 0.0462018125 0.0475010000
0.3940247188 0.0464529063 0.0491175625
0.4424663750 0.0471322188 0.0508395625
0.4854002188 0.0477272500 0.0526007500
0.5282593437 0.0483737500 0.0543834688
0.5711930625 0.0490227187 0.0565428125
0.6140869688 0.0496878750 0.0587257812
0.6594483750 0.0505026562 0.0612311875
0.7049606562 0.0513115000 0.0637552500
0.7474482500 0.0521405312 0.0665640000
0.7891377500 0.0529374062 0.0694436250
0.8137400937 0.0534727188 0.0716769063
0.8297369688 0.0538106875 0.0735601875
0.8400365000 0.0541235313 0.0750902813
0.8453787500 0.0543783125 0.0763423437
0.8510665625 0.0546117500 0.0773744375
0.8572748750 0.0548078750 0.0780479375
0.8637459687 0.0549074062 0.0785725000
0.8709389375 0.0550445000 0.0787026563
0.8781402187 0.0549899687 0.0788233125
0.8853954688 0.0551299687 0.0788605625
0.8926503125 0.0550160625 0.0789022812
0.0412910000 0.0538295000 0.0416777500
0.0507916250 0.0539330938 0.0417705625
0.0602922500 0.0540366875 0.0418633750
0.0729694687 0.0540455000 0.0418755625
0.0859355625 0.0540520625 0.0419018125
0.1030211250 0.0539196562 0.0420427188
0.1216108125 0.0537120000 0.0422381875
0.1489998750 0.0535787812 0.0427927500
0.1822342500 0.0533814375 0.0435343125
0.2277038437 0.0532497500 0.0445896250
0.2872111875 0.0529713125 0.0459246250
0.3435744063 0.0529513438 0.0473730313
0.3935801875 0.0529761875 0.0489419375
0.4421499688 0.0532030000 0.0505686250
0.4851038750 0.0537851875 0.0523311250
0.5280432500 0.0543803125 0.0541190937
0.5709798125 0.0550281250 0.0562767500
0.6139135313 0.0556770938 0.0584360937
0.6592749375 0.0564918750 0.0609415000
0.7048125937 0.0573173437 0.0634699375
0.7473020000 0.0581475625 0.0662790000
0.7890338750 0.0589819375 0.0691590000
0.8136468125 0.0595266250 0.0713923750
0.8297108750 0.0599358438 0.0733025312
0.8400440000 0.0602843125 0.0748460625
0.8453877500 0.0606063437 0.0760788750
0.8510768750 0.0608986250 0.0770941250
0.8572850000 0.0611883125 0.0777710000
0.8637558125 0.0614281875 0.0783006250
0.8709487812 0.0616480312 0.0784295312
0.8781500625 0.0618210625 0.0785467500
0.8854053750 0.0620001250 0.0785833125
0.8926606250 0.0621401250 0.0786205625
0.0431988438 0.0643142812 0.0431469688
0.0511545000 0.0644406250 0.0432430313
0.0606551250 0.0645442187 0.0433358438
0.0725176875 0.0651568437 0.0434855313
0.0854837813 0.0651634062 0.0435117813
0.1029729375 0.0643645625 0.0428470938
0.1216351875 0.0640390313 0.0428943750
0.1495455000 0.0632027813 0.0430507500
0.1830171250 0.0627233125 0.0436293125
0.2283975938 0.0621897500 0.0445651250
0.2878066875 0.0616555625 0.0458292500
0.3439460625 0.0610272813 0.0472898750
0.3936305938 0.0603306250 0.0489350312
0.4421503437 0.0600540625 0.0504742188
0.4848520625 0.0592600000 0.0520085937
0.5278057812 0.0598243438 0.0537925313
0.5707539688 0.0602055312 0.0558913125
0.6136905313 0.0608533437 0.0580489687
0.6590880937 0.0616019687 0.0605616250
0.7046257500 0.0624274375 0.0630900625
0.7471742812 0.0632165312 0.0658971250
0.7889107813 0.0640472812 0.0687769063
0.8136167188 0.0646010312 0.0710497188
0.8297065625 0.0650110937 0.0729716875
0.8400553750 0.0653725625 0.0744960938
0.8454005313 0.0656938125 0.0757135938
0.8510898437 0.0660417188 0.0767272187
0.8572977500 0.0663766875 0.0774078125
0.8637687500 0.0666867500 0.0779351875
0.8709622812 0.0669943437 0.0780565000
0.8781636250 0.0672261250 0.0781714688
0.8854192812 0.0675007500 0.0781990938
0.8926745937 0.0676798125 0.0782356563
0.0452721250 0.0749853750 0.0447796250
0.0529900937 0.0751152187 0.0448761875
0.0609457500 0.0752415625 0.0449722500
0.0728083125 0.0758541875 0.0451219375
0.0850342500 0.0765451250 0.0452803750
0.1025234063 0.0757462813 0.0446156875
0.1216573125 0.0746545625 0.0436997500
0.1496401875 0.0737004375 0.0437079375
0.1837642500 0.0724451250 0.0438382500
0.2293819687 0.0716294375 0.0446110625
0.2886436875 0.0707116250 0.0457688750
0.3446848125 0.0698275937 0.0471586250
0.3940882500 0.0684996250 0.0488705000
0.4422867500 0.0675015625 0.0504859375
0.4848623750 0.0660193750 0.0519062500
0.5275639062 0.0652074687 0.0534620625
0.5705150000 0.0655220000 0.0555461250
0.6134631875 0.0659031875 0.0576449063
0.6588633125 0.0666468125 0.0601582500
0.7044368437 0.0674022813 0.0626963125
0.7469853750 0.0681913750 0.0655033750
0.7887866250 0.0689713750 0.0683800937
0.8134971875 0.0695215000 0.0706526875
0.8296901563 0.0699349375 0.0726219062
0.8400647500 0.0702972500 0.0741581250
0.8454127188 0.0706169375 0.0753450000
0.8511034375 0.0709640625 0.0763433125
0.8573110938 0.0713507812 0.0770281563
0.8637818750 0.0717061250 0.0775592500
0.8709757813 0.0720722187 0.0776755000
0.8781776875 0.0723917500 0.0777828750
0.8854334688 0.0727011250 0.0778072500
0.8926891250 0.0729757500 0.0778348750
0.0489273438 0.0906384375 0.0476535625
0.0558134375 0.0906015625 0.0476535313
0.0635314063 0.0907314062 0.0477500938
0.0728421563 0.0912382188 0.0479319063
0.0850680938 0.0919291563 0.0480903438
0.1015290313 0.0929937500 0.0480366875
0.1206629375 0.0919020313 0.0471207500
0.1501431875 0.0889051250 0.0447794375
0.1845677500 0.0872482500 0.0444535000
0.2313624687 0.0846953125 0.0442976875
0.2911611875 0.0829460000 0.0450180000
0.3470793125 0.0813106875 0.0461880000
0.3964137500 0.0792857812 0.0476928750
0.4441409375 0.0777676875 0.0495603750
0.4858880625 0.0758607500 0.0515511875
0.5283971250 0.0742491563 0.0530217187
0.5704322813 0.0720718125 0.0551654688
0.6133833750 0.0723863437 0.0572495312
0.6585593125 0.0716038438 0.0595414063
0.7041354062 0.0723543125 0.0620801562
0.7467810000 0.0730923125 0.0648899687
0.7885822500 0.0738723125 0.0677666875
0.8134628750 0.0744145000 0.0700940313
0.8296710000 0.0748285938 0.0720688125
0.8400827188 0.0751850313 0.0735940312
0.8454317188 0.0755020937 0.0747708750
0.8511245000 0.0758780313 0.0757432500
0.8573329375 0.0762892813 0.0764166875
0.8638042187 0.0767071250 0.0769350313
0.8709992188 0.0771373125 0.0770252500
0.8782015625 0.0775119062 0.0771226250
0.8854581875 0.0778935625 0.0771171875
0.8927139687 0.0782029375 0.0771415625
0.0531578125 0.1081031250 0.0509788750
0.0597414063 0.1080056250 0.0509437188
0.0666275000 0.1079687500 0.0509436875
0.0755175000 0.1084556875 0.0511312500
0.0850085625 0.1090174375 0.0513270625
0.1014695000 0.1100820313 0.0512734063
0.1194704375 0.1112825000 0.0511426250
0.1489506875 0.1082855938 0.0488013125
0.1853285000 0.1040185625 0.0455097500
0.2324237188 0.1010640625 0.0448976875
0.2936991875 0.0970281250 0.0444148750
0.3501543125 0.0945613125 0.0451473750
0.3993852500 0.0914910000 0.0463417500
0.4470434375 0.0892759688 0.0480022500
0.4880656250 0.0869973750 0.0504922500
0.5297461875 0.0849610312 0.0525332813
0.5713233750 0.0815377500 0.0547068750
0.6133585313 0.0793604063 0.0568506250
0.6584730625 0.0781677500 0.0590834375
0.7038035313 0.0772775937 0.0613859375
0.7464572500 0.0780123125 0.0641958125
0.7883722500 0.0787463750 0.0670734062
0.8132528750 0.0792885625 0.0694007500
0.8296731875 0.0797118437 0.0714534063
0.8401000625 0.0800689375 0.0729841875
0.8454531875 0.0803755000 0.0741209063
0.8511470000 0.0807488125 0.0750832500
0.8573570000 0.0812091250 0.0757338750
0.8638290625 0.0816515000 0.0762408125
0.8710253125 0.0821549375 0.0763012813
0.8782287500 0.0825936250 0.0763726250
0.8854859375 0.0830234687 0.0763473125
0.8927425625 0.0834051250 0.0763418750
0.0609331563 0.1336970625 0.0571763125
0.0674894688 0.1335998438 0.0571411563
0.0740730625 0.1335023438 0.0571060000
0.0807859687 0.1335520000 0.0571190625
0.0898562813 0.1340938750 0.0573206250
0.1017643437 0.1349696563 0.0573892813
0.1197652813 0.1361701250 0.0572585000
0.1459522812 0.1385301875 0.0558775625
0.1823300938 0.1342631563 0.0525860000
0.2339945938 0.1271845313 0.0466646250
0.2963180000 0.1223144687 0.0450559375
0.3544833125 0.1167125938 0.0441328125
0.4044380000 0.1121320313 0.0445276875
0.4519620313 0.1082890313 0.0456984375
0.4928539063 0.1041483750 0.0476229375
0.5338104063 0.1016236250 0.0501172812
0.5745660938 0.0968415938 0.0524943750
0.6161432813 0.0934183125 0.0546679687
0.6595777188 0.0903601250 0.0580348437
0.7048467812 0.0890598125 0.0602782812
0.7464572500 0.0861643437 0.0634276250
0.7883803750 0.0868951250 0.0663052813
0.8132197812 0.0843578125 0.0683314375
0.8296400938 0.0847810938 0.0703840938
0.8401321563 0.0849401250 0.0719865000
0.8454820625 0.0852214375 0.0731280000
0.8512062500 0.0858347500 0.0740314687
0.8574304062 0.0864176875 0.0746626875
0.8639410312 0.0872585000 0.0751345625
0.8711843125 0.0882231875 0.0751683125
0.8783996875 0.0888286250 0.0752044688
0.8856953750 0.0896498125 0.0751340938
0.8929525625 0.0900796563 0.0751087813
0.0710717500 0.1647105000 0.0652885000
0.0776098750 0.1646134687 0.0652533437
0.0841661875 0.1645162500 0.0652181875
0.0899787187 0.1643850312 0.0651615000
0.0965730000 0.1644295000 0.0651712500
0.1076563125 0.1652721562 0.0652645313
0.1202963750 0.1662573125 0.0652938125
0.1464833750 0.1686173750 0.0639128750
0.1781277500 0.1717505000 0.0616985000
0.2297922500 0.1646718750 0.0557771250
0.2989272500 0.1543800000 0.0468502500
0.3581405000 0.1479440000 0.0448012500
0.4100855000 0.1392102500 0.0429975000
0.4583332813 0.1338570000 0.0433687500
0.4990296875 0.1269232500 0.0444450000
0.5398558750 0.1225364375 0.0463738438
0.5798927500 0.1165655000 0.0489290000
0.6206484375 0.1117834688 0.0513060937
0.6632003750 0.1078273125 0.0552996875
0.7067044375 0.1047310625 0.0587965625
0.7479876250 0.1007622500 0.0620787500
0.7886016250 0.0971996563 0.0654877813
0.8134319375 0.0943220000 0.0674804375
0.8297249375 0.0899804688 0.0690640937
0.8402170000 0.0901395000 0.0706665000
0.8455218437 0.0900673125 0.0718749375
0.8512428125 0.0906553750 0.0727831875
0.8575235938 0.0917288125 0.0733367813
0.8640483750 0.0926922500 0.0737892500
0.8713857188 0.0945794375 0.0737695625
0.8786481250 0.0956461250 0.0737790000
0.8859878125 0.0969145625 0.0736571250
0.8932835000 0.0977357500 0.0735867500
0.0840842813 0.2029835937 0.0759143438
0.0906014063 0.2029062500 0.0758866250
0.0971395312 0.2028092188 0.0758514687
0.1028670312 0.2027065000 0.0758068125
0.1085609375 0.2025700938 0.0757468125
0.1158008125 0.2027180312 0.0757143437
0.1276161250 0.2036700625 0.0757682500
0.1442370000 0.2054930313 0.0757813438
0.1758813750 0.2086261562 0.0735669688
0.2243544062 0.2141346875 0.0689747813
0.2934894063 0.2038428125 0.0600479062
0.3599287812 0.1927860938 0.0498725937
0.4130875313 0.1835386562 0.0466197188
0.4635732188 0.1740686875 0.0439367813
0.5053235000 0.1656733125 0.0430727813
0.5461134375 0.1584460313 0.0439506563
0.5869753125 0.1503287812 0.0447240000
0.6270121875 0.1443578437 0.0472791563
0.6695034375 0.1377234375 0.0501499688
0.7121250000 0.1337292188 0.0542735625
0.7522920000 0.1279883125 0.0583119687
0.7925787187 0.1233523750 0.0618538437
0.8167259688 0.1179665625 0.0648888750
0.8330098750 0.1132846875 0.0664390313
0.8431256875 0.1095744688 0.0680025000
0.8484305313 0.1095022812 0.0692109375
0.8542776250 0.1106754688 0.0699982500
0.8605837187 0.1118800937 0.0705253125
0.8675685000 0.1155516562 0.0705891563
0.8752225313 0.1192246875 0.0703168125
0.8827601250 0.1221525625 0.0701383125
0.8905996563 0.1262289688 0.0696534688
0.8979393438 0.1274974063 0.0695315938
0.1003813125 0.2495534375 0.0894129375
0.1068744375 0.2494985937 0.0893937188
0.1133915625 0.2494212500 0.0893660000
0.1190513750 0.2493429062 0.0893316563
0.1246437500 0.2492430625 0.0892871250
0.1302018750 0.2490973750 0.0892226563
0.1373923750 0.2492419375 0.0891885625
0.1519870000 0.2509398438 0.0895788437
0.1704607500 0.2532600625 0.0898161875
0.2189337813 0.2587685938 0.0852240000
0.2866395625 0.2669918750 0.0779143125
0.3530789375 0.2559351562 0.0677390000
0.4141270625 0.2433487500 0.0550668125
0.4658265000 0.2333650938 0.0509347500
0.5104749375 0.2209502500 0.0447350625
0.5523187500 0.2122613437 0.0436726875
0.5944181250 0.2009246250 0.0417733125
0.6352800000 0.1928073750 0.0425466563
0.6778132500 0.1836645625 0.0442692500
0.7204828125 0.1768035937 0.0470805938
0.7602307500 0.1701817500 0.0513905625
0.7996793438 0.1637839375 0.0554755625
0.8237676250 0.1580898750 0.0588624375
0.8398156563 0.1521750000 0.0618199688
0.8498868125 0.1482523750 0.0634113750
0.8545664688 0.1452065000 0.0650109375
0.8604135625 0.1463796875 0.0657982500
0.8670740313 0.1494209375 0.0659538750
0.8740841250 0.1532236875 0.0659911875
0.8830049063 0.1640400938 0.0647082187
0.8908591875 0.1687538125 0.0642770625
0.8996984062 0.1784461562 0.0630662813
0.9075379375 0.1825225625 0.0625814375
0.1155255313 0.2950310938 0.1020010625
0.1220050625 0.2949845313 0.1019852813
0.1284981875 0.2949296875 0.1019660625
0.1340993437 0.2948688437 0.1019393125
0.1396240313 0.2947933750 0.1019050938
0.1450848438 0.2946880000 0.1018579687
0.1505935937 0.2945389375 0.1017918750
0.1590796563 0.2950340625 0.1019240000
0.1755271563 0.2972292187 0.1025385313
0.2076806562 0.3020682813 0.1014050937
0.2753864375 0.3102915625 0.0940954062
0.3450800312 0.3189642187 0.0859710313
0.4061281562 0.3063778125 0.0732988438
0.4647985937 0.2945924062 0.0614087188
0.5100485312 0.2826886875 0.0548674063
0.5546719062 0.2705550313 0.0485641250
0.5973507812 0.2600555625 0.0451036250
0.6394501563 0.2487188438 0.0432042500
0.6829526250 0.2399419062 0.0427795625
0.7256641875 0.2305725313 0.0444426875
0.7664262188 0.2232259687 0.0466761875
0.8054557500 0.2159472187 0.0510327500
0.8305595000 0.2099451875 0.0535107187
0.8465485625 0.2037220625 0.0568200938
0.8567283750 0.2001639375 0.0586805938
0.8613633750 0.1969056563 0.0603080937
0.8666124687 0.1973043750 0.0614370000
0.8732729375 0.2003456250 0.0615926250
0.8799171562 0.2057433750 0.0621643750
0.8886831875 0.2166305625 0.0610813438
0.8973135937 0.2274405312 0.0601711250
0.9057335625 0.2373480312 0.0595050312
0.9145727812 0.2470403750 0.0582942500
0.1283641250 0.3383243750 0.1127682500
0.1348164688 0.3382943750 0.1127593437
0.1412960000 0.3382478125 0.1127435625
0.1468129062 0.3382059687 0.1127255625
0.1522638750 0.3381471250 0.1126990000
0.1576620625 0.3380706250 0.1126644375
0.1630768750 0.3379648750 0.1126171875
0.1686941875 0.3378501250 0.1125811875
0.1772526250 0.3383681250 0.1127333750
0.2061203125 0.3431395000 0.1123799375
0.2524683125 0.3509228125 0.1101402500
0.3221619062 0.3595954687 0.1020158750
0.3958311250 0.3691668750 0.0922621250
0.4545015625 0.3573814687 0.0803720000
0.5036612500 0.3488000625 0.0716101250
0.5488861250 0.3371775313 0.0649652187
0.5931586250 0.3289805000 0.0572116250
0.6358375000 0.3184810312 0.0537511250
0.6808370625 0.3110065625 0.0499958750
0.7245466875 0.3025055000 0.0494386250
0.7667032500 0.2956493750 0.0494540000
0.8073265312 0.2889311250 0.0512755625
0.8338648125 0.2835020625 0.0525730625
0.8527229375 0.2784248750 0.0535215000
0.8630505000 0.2755170000 0.0550508750
0.8682765000 0.2748597188 0.0553538750
0.8734863750 0.2754858750 0.0565008125
0.8795977813 0.2817112500 0.0569088750
0.8862420000 0.2871090000 0.0574806250
0.8928415312 0.2989871250 0.0591967188
0.9013171875 0.3098678750 0.0584864375
0.9080601562 0.3206360000 0.0599990938
0.9164801250 0.3305435000 0.0593330000
0.1407572187 0.3805074688 0.1227521563
0.1472049687 0.3804794375 0.1227440938
0.1536573125 0.3804494375 0.1227351875
0.1591418750 0.3804136250 0.1227199687
0.1645085937 0.3803737812 0.1227021562
0.1698392500 0.3803122187 0.1226746875
0.1751914375 0.3802353438 0.1226400000
0.1806501250 0.3801457187 0.1226120625
0.1863398125 0.3800538438 0.1225961250
0.2030300312 0.3822175937 0.1222561250
0.2460922188 0.3899332187 0.1207964375
0.2990231875 0.3993870000 0.1173236562
0.3726924062 0.4089584062 0.1075699062
0.4440159062 0.4180497187 0.0982151563
0.4931755937 0.4094683125 0.0894532813
0.5420575313 0.4010687187 0.0809775000
0.5864261563 0.3931840625 0.0736616562
0.6306986562 0.3849870313 0.0659080625
0.6760509375 0.3782539062 0.0612645312
0.7212576562 0.3710553125 0.0573767187
0.7643043750 0.3651908750 0.0557687188
0.8063221875 0.3589630625 0.0553721562
0.8346195000 0.3544107187 0.0549517812
0.8549121562 0.3499065000 0.0547197500
0.8672585625 0.3480481875 0.0546522500
0.8726323125 0.3480411563 0.0546241250
0.8782333125 0.3505820625 0.0549470000
0.8843055000 0.3570348750 0.0553730937
0.8905260000 0.3647148750 0.0562240000
0.8971255313 0.3765930000 0.0579400938
0.9037478125 0.3881643125 0.0596747500
0.9104925938 0.3988530312 0.0612102500
0.9172355625 0.4096211562 0.0627229063
0.1513683125 0.4182498125 0.1296029375
0.1577976875 0.4182296562 0.1295982500
0.1642454375 0.4182016250 0.1295901875
0.1696403125 0.4181748750 0.1295796563
0.1749621875 0.4181395625 0.1295641875
0.1802250938 0.4180925000 0.1295439688
0.1855180000 0.4180283125 0.1295156250
0.1907846875 0.4179311875 0.1294786875
0.1961863750 0.4178280625 0.1294492500
0.2042899687 0.4181413125 0.1295755000
0.2237389375 0.4207680625 0.1293980000
0.2764475312 0.4309682187 0.1264262812
0.3486713125 0.4453910625 0.1199294375
0.4199948125 0.4544823750 0.1105746875
0.4819354375 0.4616533125 0.1028159375
0.5308173750 0.4532537187 0.0943401563
0.5758108125 0.4473995000 0.0898696875
0.6201794375 0.4395148437 0.0825538437
0.6662938125 0.4347325000 0.0760843125
0.7117776563 0.4282432812 0.0715325000
0.7559977500 0.4240514375 0.0683849375
0.7987978125 0.4189386875 0.0669620000
0.8288753125 0.4156146250 0.0662301250
0.8512024688 0.4125141562 0.0656420938
0.8635663750 0.4110681875 0.0656675625
0.8689751250 0.4118858437 0.0658253750
0.8745240000 0.4143907500 0.0663175625
0.8803876875 0.4206995625 0.0674209062
0.8866107500 0.4283063750 0.0682987500
0.8932461563 0.4391598750 0.0703919688
0.8998684375 0.4507311875 0.0721266250
0.9066385938 0.4603082187 0.0739819375
0.9133833750 0.4709969375 0.0755174375
0.1616697812 0.4559860937 0.1362907500
0.1680998125 0.4559661875 0.1362861875
0.1745291875 0.4559460312 0.1362815000
0.1799137500 0.4559209375 0.1362717812
0.1851459375 0.4558946875 0.1362610000
0.1903660000 0.4558520312 0.1362431250
0.1955911563 0.4558023438 0.1362220313
0.2008007187 0.4557179687 0.1361914688
0.2060104062 0.4556073438 0.1361530313
0.2134739062 0.4558454063 0.1362451250
0.2243362500 0.4566216563 0.1365338750
0.2529240000 0.4615344062 0.1351681875
0.3249254062 0.4767036250 0.1291724062
0.3963308437 0.4910030312 0.1226269688
0.4582714687 0.4981739687 0.1148682188
0.5196376562 0.5051818437 0.1073635312
0.5646310937 0.4993276250 0.1028930625
0.6096245313 0.4934734062 0.0984225937
0.6557611562 0.4888665313 0.0924677812
0.7020070938 0.4843280938 0.0860899687
0.7465280000 0.4807555625 0.0824401562
0.7905014375 0.4773154063 0.0794776562
0.8215635937 0.4749977812 0.0778103125
0.8456709375 0.4731255937 0.0769107812
0.8599196875 0.4729489062 0.0766245000
0.8653459375 0.4741789062 0.0768752813
0.8709396875 0.4774683438 0.0775492187
0.8767512500 0.4837411562 0.0788218750
0.8828036875 0.4912847813 0.0803507188
0.8894416562 0.5020650938 0.0824708750
0.8961183750 0.5127440625 0.0845822500
0.9028885313 0.5223210938 0.0864375625
0.9096586875 0.5318981250 0.0882928750
0.1676365000 0.4936375000 0.1406970000
0.1740757187 0.4936210938 0.1406941875
0.1805057500 0.4936011875 0.1406896250
0.1858033125 0.4935802188 0.1406829063
0.1910137500 0.4935550000 0.1406728750
0.1961641250 0.4935201563 0.1406596875
0.2013544375 0.4934743750 0.1406409375
0.2065135000 0.4934050000 0.1406178750
0.2116790000 0.4933075000 0.1405860000
0.2168379375 0.4931544375 0.1405451563
0.2242434375 0.4933440000 0.1406345000
0.2422140625 0.4956121250 0.1410304375
0.2850183750 0.5035086250 0.1398791250
0.3592561875 0.5192677187 0.1329395625
0.4396072500 0.5359266250 0.1226190000
0.5009734375 0.5429345000 0.1151143125
0.5542975000 0.5476595000 0.1111665000
0.5992909375 0.5418052812 0.1066960313
0.6450920000 0.5374490625 0.1045871875
0.6912863125 0.5329491875 0.0988010625
0.7368298750 0.5303367500 0.0951045000
0.7811751875 0.5272457188 0.0921250000
0.8152323750 0.5256230625 0.0897362500
0.8413364063 0.5242141875 0.0883557812
0.8563177500 0.5243245000 0.0880677500
0.8625812500 0.5258825000 0.0883165312
0.8682418750 0.5293835000 0.0890625000
0.8741871875 0.5360794375 0.0904792188
0.8803011250 0.5438295000 0.0920986250
0.8871850937 0.5554355625 0.0945810313
0.8938829375 0.5661736250 0.0967189375
0.9009488437 0.5765779688 0.0989456875
0.9077190000 0.5861550000 0.1008010000
0.1736032188 0.5312889063 0.1451032500
0.1800424375 0.5312725000 0.1451004375
0.1864816562 0.5312560938 0.1450976250
0.1917798750 0.5312353750 0.1450910313
0.1969033125 0.5312142813 0.1450840000
0.2020319375 0.5311804688 0.1450715625
0.2071525625 0.5311425000 0.1450575000
0.2122767813 0.5310770312 0.1450367812
0.2173917812 0.5309945312 0.1450124063
0.2225065313 0.5308545937 0.1449781250
0.2276074688 0.5306530312 0.1449345312
0.2421212500 0.5323344688 0.1451310625
0.2743084375 0.5375863438 0.1457413750
0.3193491562 0.5460727188 0.1436462813
0.4025325937 0.5641913125 0.1329315938
0.4823092187 0.5806871563 0.1228650938
0.5356332812 0.5854121562 0.1189172813
0.5889573438 0.5901371562 0.1149694688
0.6347584063 0.5857809375 0.1128606250
0.6806171563 0.5815317187 0.1109204688
0.7261090937 0.5789578438 0.1078155937
0.7714770625 0.5768269063 0.1047893437
0.8059061250 0.5755533750 0.1023835938
0.8350051875 0.5748394688 0.1002817187
0.8519832187 0.5754130937 0.0995127500
0.8589793125 0.5772580938 0.0997597812
0.8654771875 0.5810870938 0.1005037500
0.8714893750 0.5879945937 0.1019925000
0.8777370625 0.5961677813 0.1037559687
0.8846825312 0.6079802813 0.1063289375
0.8916263750 0.6195440938 0.1088290937
0.8987134062 0.6300075312 0.1110823750
0.9057793125 0.6404118750 0.1133091250
0.1756079375 0.5715447500 0.1477791875
0.1820944063 0.5715305312 0.1477776875
0.1885336250 0.5715141250 0.1477748750
0.1937618125 0.5714960937 0.1477696250
0.1988798125 0.5714751875 0.1477626875
0.2039417188 0.5714465313 0.1477535937
0.2090461250 0.5714098750 0.1477403750
0.2141192187 0.5713539062 0.1477249062
0.2192096875 0.5712762500 0.1477031875
0.2242892500 0.5711556875 0.1476775000
0.2293613125 0.5709716250 0.1476415625
0.2344410000 0.5707202188 0.1475982813
0.2503381875 0.5726103125 0.1478168125
0.2923406250 0.5802890938 0.1478483125
0.3741160625 0.5978707500 0.1433163125
0.4560795937 0.6155450625 0.1326318438
0.5194230000 0.6261021875 0.1232122500
0.5727470625 0.6308271875 0.1192644375
0.6255229375 0.6344448750 0.1183025625
0.6713816875 0.6301956562 0.1163624063
