bundles/resolve-cinematic-luts/Cinem8/Sony S-Log3 Color Grading LUTs/CMG_Agfa_S-Log3_33x.cube
TITLE "Copyright by CINEM8.CO"
# LUT SIZE 33x33x33, 17424, 574992
# Data domain
# LUT data points begin
#  
# 
LUT_3D_SIZE 33
0.0340990000 0.0344470000 0.0338110000
0.0340990000 0.0344470000 0.0338110000
0.0340990000 0.0344470000 0.0338110000
0.0340990000 0.0344470000 0.0338110000
0.0340990000 0.0344470000 0.0338110000
0.0347700000 0.0383540000 0.0338110000
0.0711290000 0.0435170000 0.0348950000
0.0967070000 0.0494370000 0.0366630000
0.1282670000 0.0529590000 0.0326080000
0.1819690000 0.0642050000 0.0252630000
0.2431620000 0.0733240000 0.0005450000
0.3102700000 0.0865510000 0.0000000000
0.3754280000 0.1069900000 0.0000000000
0.4356440000 0.1267920000 0.0000000000
0.4973610000 0.1562600000 0.0000000000
0.5562590000 0.1832880000 0.0000000000
0.6210870000 0.2147910000 0.0000000000
0.6793550000 0.2421670000 0.0000000000
0.7314530000 0.2701600000 0.0000000000
0.7695620000 0.2890720000 0.0000000000
0.7837720000 0.2990320000 0.0000000000
0.7837720000 0.2990320000 0.0000000000
0.7837720000 0.2990320000 0.0000000000
0.7837720000 0.2990320000 0.0000000000
0.7837720000 0.2990320000 0.0000000000
0.7837720000 0.2990320000 0.0000000000
0.7837720000 0.2990320000 0.0000000000
0.7837720000 0.2990320000 0.0000000000
0.7837720000 0.2990320000 0.0000000000
0.7837720000 0.2990320000 0.0000000000
0.7837720000 0.2990320000 0.0000000000
0.7837720000 0.2990320000 0.0000000000
0.7837720000 0.2990320000 0.0000000000
0.0340990000 0.0344470000 0.0338110000
0.0340990000 0.0344470000 0.0338110000
0.0340990000 0.0344470000 0.0338110000
0.0340990000 0.0344470000 0.0338110000
0.0340990000 0.0344470000 0.0338110000
0.0321760000 0.0383540000 0.0338110000
0.0698580000 0.0424900000 0.0340240000
0.0945120000 0.0494190000 0.0367020000
0.1256570000 0.0529930000 0.0324680000
0.1781670000 0.0637680000 0.0261590000
0.2401220000 0.0725020000 0.0011390000
0.3069770000 0.0862730000 0.0000000000
0.3730400000 0.1063730000 0.0000000000
0.4344940000 0.1263800000 0.0000000000
0.4968400000 0.1559230000 0.0000000000
0.5564480000 0.1833480000 0.0000000000
0.6220910000 0.2153020000 0.0000000000
0.6810890000 0.2434860000 0.0000000000
0.7330850000 0.2709260000 0.0000000000
0.7712820000 0.2899840000 0.0000000000
0.7837720000 0.2990320000 0.0000000000
0.7837720000 0.2990320000 0.0000000000
0.7837720000 0.2990320000 0.0000000000
0.7837720000 0.2990320000 0.0000000000
0.7837720000 0.2990320000 0.0000000000
0.7837720000 0.2990320000 0.0000000000
0.7837720000 0.2990320000 0.0000000000
0.7837720000 0.2990320000 0.0000000000
0.7837720000 0.2990320000 0.0000000000
0.7837720000 0.2990320000 0.0000000000
0.7837720000 0.2990320000 0.0000000000
0.7837720000 0.2990320000 0.0000000000
0.7837720000 0.2990320000 0.0000000000
0.0340990000 0.0344470000 0.0338110000
0.0340990000 0.0344470000 0.0338110000
0.0340990000 0.0344470000 0.0338110000
0.0340990000 0.0344470000 0.0338110000
0.0340990000 0.0344470000 0.0338110000
0.0304060000 0.0383540000 0.0338110000
0.0653400000 0.0405290000 0.0333910000
0.0919170000 0.0489560000 0.0367530000
0.1221920000 0.0530460000 0.0323780000
0.1738890000 0.0629170000 0.0271190000
0.2364600000 0.0713880000 0.0022030000
0.3026700000 0.0858140000 0.0000000000
0.3700280000 0.1056080000 0.0000000000
0.4326710000 0.1257070000 0.0000000000
0.4952880000 0.1548200000 0.0000000000
0.5559900000 0.1831960000 0.0000000000
0.6224310000 0.2154620000 0.0000000000
0.6822380000 0.2443460000 0.0000000000
0.7345580000 0.2717060000 0.0000000000
0.7729080000 0.2910840000 0.0000000000
0.7837720000 0.2990320000 0.0000000000
0.7837720000 0.2990320000 0.0000000000
0.7837720000 0.2990320000 0.0000000000
0.7837720000 0.2990320000 0.0000000000
0.7837720000 0.2990320000 0.0000000000
0.7837720000 0.2990320000 0.0000000000
0.7837720000 0.2990320000 0.0000000000
0.7837720000 0.2990320000 0.0000000000
0.7837720000 0.2990320000 0.0000000000
0.7837720000 0.2990320000 0.0000000000
0.7837720000 0.2990320000 0.0000000000
0.7837720000 0.2990320000 0.0000000000
0.7837720000 0.2990320000 0.0000000000
0.0340990000 0.0344470000 0.0338110000
0.0340990000 0.0344470000 0.0338110000
0.0340990000 0.0344470000 0.0338110000
0.0340990000 0.0344470000 0.0338110000
0.0340990000 0.0344470000 0.0338110000
0.0311840000 0.0373620000 0.0338110000
0.0595910000 0.0387910000 0.0335040000
0.0889330000 0.0481710000 0.0368140000
0.1184300000 0.0528970000 0.0325220000
0.1693220000 0.0619770000 0.0281210000
0.2322780000 0.0703650000 0.0039400000
0.2970790000 0.0848610000 0.0000000000
0.3650720000 0.1041790000 0.0000000000
0.4301900000 0.1247900000 0.0000000000
0.4930400000 0.1536270000 0.0000000000
0.5548190000 0.1828450000 0.0000000000
0.6221370000 0.2153220000 0.0000000000
0.6826920000 0.2447100000 0.0000000000
0.7334310000 0.2711130000 0.0000000000
0.7740450000 0.2918370000 0.0000000000
0.7837720000 0.2990320000 0.0000000000
0.7837720000 0.2990320000 0.0000000000
0.7837720000 0.2990320000 0.0000000000
0.7837720000 0.2990320000 0.0000000000
0.7837720000 0.2990320000 0.0000000000
0.7837720000 0.2990320000 0.0000000000
0.7837720000 0.2990320000 0.0000000000
0.7837720000 0.2990320000 0.0000000000
0.7837720000 0.2990320000 0.0000000000
0.7837720000 0.2990320000 0.0000000000
0.7837720000 0.2990320000 0.0000000000
0.7837720000 0.2990320000 0.0000000000
0.7837720000 0.2990320000 0.0000000000
0.0339700000 0.0492970000 0.0375890000
0.0339760000 0.0487490000 0.0375960000
0.0340110000 0.0457710000 0.0372070000
0.0340670000 0.0409540000 0.0350660000
0.0340840000 0.0393480000 0.0343460000
0.0338620000 0.0359890000 0.0338110000
0.0546120000 0.0382450000 0.0336130000
0.0816900000 0.0460100000 0.0369640000
0.1132800000 0.0520810000 0.0335010000
0.1641630000 0.0602990000 0.0291600000
0.2275740000 0.0696640000 0.0060540000
0.2922220000 0.0837890000 0.0000000000
0.3607890000 0.1028740000 0.0000000000
0.4272760000 0.1237210000 0.0000000000
0.4905040000 0.1523110000 0.0000000000
0.5530460000 0.1823120000 0.0000000000
0.6192530000 0.2138140000 0.0000000000
0.6825320000 0.2445760000 0.0000000000
0.7337430000 0.2712500000 0.0000000000
0.7749990000 0.2925700000 0.0000000000
0.7837720000 0.2990320000 0.0000000000
0.7837720000 0.2990320000 0.0000000000
0.7837720000 0.2990320000 0.0000000000
0.7837720000 0.2990320000 0.0000000000
0.7837720000 0.2990320000 0.0000000000
0.7837720000 0.2990320000 0.0000000000
0.7837720000 0.2990320000 0.0000000000
0.7837720000 0.2990320000 0.0000000000
0.7837720000 0.2990320000 0.0000000000
0.7837720000 0.2990320000 0.0000000000
0.7837720000 0.2990320000 0.0000000000
0.7837720000 0.2990320000 0.0000000000
0.7837720000 0.2990320000 0.0000000000
0.0186490000 0.0693830000 0.0413440000
0.0197310000 0.0683060000 0.0413580000
0.0240180000 0.0640380000 0.0403800000
0.0257410000 0.0623220000 0.0395480000
0.0293730000 0.0583110000 0.0379720000
0.0323620000 0.0547810000 0.0375240000
0.0486920000 0.0530040000 0.0406910000
0.0804310000 0.0564680000 0.0378520000
0.1107100000 0.0579050000 0.0363090000
0.1574830000 0.0585700000 0.0304810000
0.2217760000 0.0688000000 0.0087300000
0.2876540000 0.0825200000 0.0000000000
0.3566420000 0.1014070000 0.0000000000
0.4242590000 0.1224360000 0.0000000000
0.4854590000 0.1498940000 0.0000000000
0.5506760000 0.1815800000 0.0000000000
0.6168100000 0.2123340000 0.0000000000
0.6817230000 0.2439640000 0.0000000000
0.7337090000 0.2712160000 0.0000000000
0.7754190000 0.2928760000 0.0000000000
0.7837720000 0.2990320000 0.0000000000
0.7837720000 0.2990320000 0.0000000000
0.7837720000 0.2990320000 0.0000000000
0.7837720000 0.2990320000 0.0000000000
0.7837720000 0.2990320000 0.0000000000
0.7837720000 0.2990320000 0.0000000000
0.7837720000 0.2990320000 0.0000000000
0.7837720000 0.2990320000 0.0000000000
0.7837720000 0.2990320000 0.0000000000
0.7837720000 0.2990320000 0.0000000000
0.7837720000 0.2990320000 0.0000000000
0.7837720000 0.2990320000 0.0000000000
0.7837720000 0.2990320000 0.0000000000
0.0038400000 0.0864010000 0.0451590000
0.0041890000 0.0857180000 0.0451680000
0.0045760000 0.0849580000 0.0451770000
0.0060880000 0.0822490000 0.0450760000
0.0069500000 0.0811210000 0.0447950000
0.0104630000 0.0777960000 0.0432490000
0.0230050000 0.0768810000 0.0450150000
0.0813110000 0.0788920000 0.0424950000
0.1139130000 0.0810050000 0.0399780000
0.1614790000 0.0745350000 0.0322390000
0.2120220000 0.0660650000 0.0126610000
0.2823720000 0.0813810000 0.0000000000
0.3522960000 0.0996940000 0.0000000000
0.4209390000 0.1209970000 0.0000000000
0.4819090000 0.1487040000 0.0000000000
0.5468080000 0.1796530000 0.0000000000
0.6145790000 0.2110740000 0.0000000000
0.6803210000 0.2429130000 0.0000000000
0.7333300000 0.2710620000 0.0000000000
0.7754420000 0.2928950000 0.0000000000
0.7837720000 0.2990320000 0.0000000000
0.7837720000 0.2990320000 0.0000000000
0.7837720000 0.2990320000 0.0000000000
0.7837720000 0.2990320000 0.0000000000
0.7837720000 0.2990320000 0.0000000000
0.7837720000 0.2990320000 0.0000000000
0.7837720000 0.2990320000 0.0000000000
0.7837720000 0.2990320000 0.0000000000
0.7837720000 0.2990320000 0.0000000000
0.7837720000 0.2990320000 0.0000000000
0.7837720000 0.2990320000 0.0000000000
0.7837720000 0.2990320000 0.0000000000
0.7837720000 0.2990320000 0.0000000000
0.0019930000 0.1053840000 0.0469850000
0.0019990000 0.1049860000 0.0467860000
0.0020180000 0.1036450000 0.0461140000
0.0020280000 0.1029250000 0.0457530000
0.0020560000 0.1009510000 0.0451710000
0.0021190000 0.0963680000 0.0450360000
0.0046430000 0.0966820000 0.0462200000
0.0747790000 0.1014010000 0.0445230000
0.1094530000 0.1057150000 0.0402420000
0.1622940000 0.1044310000 0.0320160000
0.2217660000 0.0865950000 0.0144210000
0.2739790000 0.0786090000 0.0000000000
0.3472410000 0.0975360000 0.0000000000
0.4172280000 0.1192680000 0.0000000000
0.4779630000 0.1473600000 0.0000000000
0.5416810000 0.1769000000 0.0000000000
0.6099740000 0.2086860000 0.0000000000
0.6782710000 0.2414030000 0.0000000000
0.7325930000 0.2706710000 0.0000000000
0.7751670000 0.2927040000 0.0000000000
0.7837720000 0.2990320000 0.0000000000
0.7837720000 0.2990320000 0.0000000000
0.7837720000 0.2990320000 0.0000000000
0.7837720000 0.2990320000 0.0000000000
0.7837720000 0.2990320000 0.0000000000
0.7837720000 0.2990320000 0.0000000000
0.7837720000 0.2990320000 0.0000000000
0.7837720000 0.2990320000 0.0000000000
0.7837720000 0.2990320000 0.0000000000
0.7837720000 0.2990320000 0.0000000000
0.7837720000 0.2990320000 0.0000000000
0.7837720000 0.2990320000 0.0000000000
0.7837720000 0.2990320000 0.0000000000
0.0023980000 0.1209770000 0.0490170000
0.0023610000 0.1202030000 0.0490070000
0.0023190000 0.1193070000 0.0489960000
0.0021950000 0.1166960000 0.0489620000
0.0021930000 0.1166650000 0.0489610000
0.0020960000 0.1146470000 0.0489340000
0.0029920000 0.1174440000 0.0489740000
0.0533100000 0.1218940000 0.0450360000
0.1049260000 0.1282820000 0.0404070000
0.1629110000 0.1335730000 0.0269690000
0.2329220000 0.1291000000 0.0045700000
0.2845390000 0.1074810000 0.0000000000
0.3392210000 0.0942740000 0.0000000000
0.4105170000 0.1165490000 0.0000000000
0.4736420000 0.1458640000 0.0000000000
0.5384010000 0.1744190000 0.0000000000
0.6056860000 0.2065580000 0.0000000000
0.6755300000 0.2394150000 0.0000000000
0.7314670000 0.2701260000 0.0000000000
0.7743960000 0.2920730000 0.0000000000
0.7837720000 0.2990320000 0.0000000000
0.7837720000 0.2990320000 0.0000000000
0.7837720000 0.2990320000 0.0000000000
0.7837720000 0.2990320000 0.0000000000
0.7837720000 0.2990320000 0.0000000000
0.7837720000 0.2990320000 0.0000000000
0.7837720000 0.2990320000 0.0000000000
0.7837720000 0.2990320000 0.0000000000
0.7837720000 0.2990320000 0.0000000000
0.7837720000 0.2990320000 0.0000000000
0.7837720000 0.2990320000 0.0000000000
0.7837720000 0.2990320000 0.0000000000
0.7837720000 0.2990320000 0.0000000000
0.0036830000 0.1502400000 0.0513940000
0.0036370000 0.1491380000 0.0510160000
0.0035830000 0.1478680000 0.0505770000
0.0035110000 0.1461600000 0.0500090000
0.0033630000 0.1426680000 0.0493780000
0.0033510000 0.1423940000 0.0492960000
0.0032520000 0.1400770000 0.0492400000
0.0172740000 0.1478660000 0.0462160000
0.0888610000 0.1576510000 0.0358550000
0.1569630000 0.1680770000 0.0190780000
0.2374060000 0.1705810000 0.0000270000
0.3083700000 0.1681920000 0.0000000000
0.3564300000 0.1424640000 0.0000000000
0.4031960000 0.1143060000 0.0000000000
0.4682120000 0.1438790000 0.0000000000
0.5342500000 0.1720780000 0.0000000000
0.6010140000 0.2042510000 0.0000000000
0.6707280000 0.2361860000 0.0000000000
0.7299930000 0.2694450000 0.0000000000
0.7734190000 0.2914310000 0.0000000000
0.7837720000 0.2990320000 0.0000000000
0.7837720000 0.2990320000 0.0000000000
0.7837720000 0.2990320000 0.0000000000
0.7837720000 0.2990320000 0.0000000000
0.7837720000 0.2990320000 0.0000000000
0.7837720000 0.2990320000 0.0000000000
0.7837720000 0.2990320000 0.0000000000
0.7837720000 0.2990320000 0.0000000000
0.7837720000 0.2990320000 0.0000000000
0.7837720000 0.2990320000 0.0000000000
0.7837720000 0.2990320000 0.0000000000
0.7837720000 0.2990320000 0.0000000000
0.7837720000 0.2990320000 0.0000000000
0.0034500000 0.1946260000 0.0697900000
0.0034630000 0.1932000000 0.0690450000
0.0035140000 0.1891340000 0.0663940000
0.0035400000 0.1870900000 0.0650120000
0.0035660000 0.1851150000 0.0638070000
0.0036020000 0.1821290000 0.0621910000
0.0036100000 0.1814870000 0.0618150000
0.0036070000 0.1829430000 0.0605670000
0.0263680000 0.1956960000 0.0474810000
0.1374280000 0.2088920000 0.0169910000
0.2406420000 0.2245980000 0.0001080000
0.3257980000 0.2302100000 0.0000000000
0.3891520000 0.2201850000 0.0000000000
0.4370080000 0.1914070000 0.0000000000
0.4639950000 0.1486700000 0.0000000000
0.5245410000 0.1682140000 0.0000000000
0.5948330000 0.2011800000 0.0000000000
0.6656520000 0.2334160000 0.0000000000
0.7278960000 0.2684470000 0.0000000000
0.7719460000 0.2904570000 0.0000000000
0.7837720000 0.2990320000 0.0000000000
0.7837720000 0.2990320000 0.0000000000
0.7837720000 0.2990320000 0.0000000000
0.7837720000 0.2990320000 0.0000000000
0.7837720000 0.2990320000 0.0000000000
0.7837720000 0.2990320000 0.0000000000
0.7837720000 0.2990320000 0.0000000000
0.7837720000 0.2990320000 0.0000000000
0.7837720000 0.2990320000 0.0000000000
0.7837720000 0.2990320000 0.0000000000
0.7837720000 0.2990320000 0.0000000000
0.7837720000 0.2990320000 0.0000000000
0.7837720000 0.2990320000 0.0000000000
0.0032170000 0.2414410000 0.1022980000
0.0032230000 0.2400920000 0.1012580000
0.0032330000 0.2380300000 0.0995110000
0.0032420000 0.2360470000 0.0972200000
0.0032520000 0.2338360000 0.0947410000
0.0032670000 0.2304210000 0.0917130000
0.0032820000 0.2272160000 0.0895450000
0.0032910000 0.2252940000 0.0876490000
0.0032040000 0.2410350000 0.0871880000
0.0784510000 0.2596940000 0.0547910000
0.2325620000 0.2814210000 0.0165260000
0.3393150000 0.2969010000 0.0002980000
0.4219230000 0.2986940000 0.0000000000
0.4827180000 0.2875720000 0.0000000000
0.5245540000 0.2607890000 0.0000000000
0.5528190000 0.2228610000 0.0000000000
0.5843270000 0.1969530000 0.0000000000
0.6568240000 0.2306850000 0.0000000000
0.7214080000 0.2654220000 0.0000000000
0.7685000000 0.2886700000 0.0000000000
0.7837720000 0.2990320000 0.0000000000
0.7837720000 0.2990320000 0.0000000000
0.7837720000 0.2990320000 0.0000000000
0.7837720000 0.2990320000 0.0000000000
0.7837720000 0.2990320000 0.0000000000
0.7837720000 0.2990320000 0.0000000000
0.7837720000 0.2990320000 0.0000000000
0.7837720000 0.2990320000 0.0000000000
0.7837720000 0.2990320000 0.0000000000
0.7837720000 0.2990320000 0.0000000000
0.7837720000 0.2990320000 0.0000000000
0.7837720000 0.2990320000 0.0000000000
0.7837720000 0.2990320000 0.0000000000
0.0028960000 0.3063770000 0.1617460000
0.0029040000 0.3049420000 0.1604840000
0.0029140000 0.3030480000 0.1589550000
0.0029260000 0.3006950000 0.1569860000
0.0029560000 0.2950250000 0.1521680000
0.0029720000 0.2918130000 0.1491700000
0.0029990000 0.2865290000 0.1453520000
0.0030200000 0.2825360000 0.1422630000
0.0030160000 0.2825420000 0.1355000000
0.0028450000 0.3092380000 0.1218080000
0.2048910000 0.3350850000 0.0902560000
0.3366090000 0.3504510000 0.0515490000
0.4308080000 0.3606570000 0.0251780000
0.5052990000 0.3609210000 0.0019020000
0.5630940000 0.3522640000 0.0000000000
0.6068090000 0.3329530000 0.0000000000
0.6418390000 0.3058240000 0.0000000000
0.6694170000 0.2698890000 0.0000000000
0.7106040000 0.2605110000 0.0000000000
0.7645060000 0.2872950000 0.0000000000
0.7837720000 0.2990320000 0.0000000000
0.7837720000 0.2990320000 0.0000000000
0.7837720000 0.2990320000 0.0000000000
0.7837720000 0.2990320000 0.0000000000
0.7837720000 0.2990320000 0.0000000000
0.7837720000 0.2990320000 0.0000000000
0.7837720000 0.2990320000 0.0000000000
0.7837720000 0.2990320000 0.0000000000
0.7837720000 0.2990320000 0.0000000000
0.7837720000 0.2990320000 0.0000000000
0.7837720000 0.2990320000 0.0000000000
0.7837720000 0.2990320000 0.0000000000
0.7837720000 0.2990320000 0.0000000000
0.0025150000 0.3741170000 0.1990440000
0.0025230000 0.3726860000 0.1984120000
0.0025360000 0.3705740000 0.1975970000
0.0025520000 0.3677610000 0.1965530000
0.0025700000 0.3647680000 0.1952570000
0.0025880000 0.3616130000 0.1935430000
0.0026140000 0.3570700000 0.1908180000
0.0026410000 0.3522130000 0.1870310000
0.0026660000 0.3478710000 0.1843420000
0.0025890000 0.3606210000 0.1847720000
0.1245240000 0.3945640000 0.1672070000
0.3285120000 0.4138080000 0.1436100000
0.4354540000 0.4277210000 0.1139050000
0.5169710000 0.4299230000 0.0826150000
0.5807970000 0.4255860000 0.0518470000
0.6297740000 0.4134500000 0.0170840000
0.6714360000 0.3934740000 0.0038580000
0.7093510000 0.3680100000 0.0000000000
0.7447620000 0.3419480000 0.0000000000
0.7700060000 0.3165960000 0.0000000000
0.7850100000 0.3016930000 0.0000000000
0.7837720000 0.2990320000 0.0000000000
0.7837720000 0.2990320000 0.0000000000
0.7837720000 0.2990320000 0.0000000000
0.7837720000 0.2990320000 0.0000000000
0.7837720000 0.2990320000 0.0000000000
0.7837720000 0.2990320000 0.0000000000
0.7837720000 0.2990320000 0.0000000000
0.7837720000 0.2990320000 0.0000000000
0.7837720000 0.2990320000 0.0000000000
0.7837720000 0.2990320000 0.0000000000
0.7837720000 0.2990320000 0.0000000000
0.7837720000 0.2990320000 0.0000000000
0.0136360000 0.4505670000 0.2417990000
0.0130510000 0.4496630000 0.2411580000
0.0121130000 0.4481820000 0.2400630000
0.0106790000 0.4462020000 0.2389330000
0.0089130000 0.4414580000 0.2363940000
0.0071070000 0.4374670000 0.2346550000
0.0067960000 0.4344560000 0.2334730000
0.0066290000 0.4311720000 0.2322620000
0.0063730000 0.4267970000 0.2300360000
0.0056740000 0.4195550000 0.2262430000
0.0697130000 0.4539610000 0.2266800000
0.3145970000 0.4768090000 0.2103240000
0.4369100000 0.4937610000 0.1924080000
0.5276800000 0.5020610000 0.1742170000
0.5985980000 0.5026230000 0.1588900000
0.6502650000 0.4939590000 0.1152160000
0.6960960000 0.4783400000 0.0624640000
0.7336970000 0.4550510000 0.0289400000
0.7699900000 0.4290860000 0.0106990000
0.7979690000 0.4067240000 0.0006700000
0.8153670000 0.3829590000 0.0000000000
0.8088600000 0.3585830000 0.0000000000
0.8045320000 0.3454350000 0.0000000000
0.8016960000 0.3375460000 0.0000000000
0.7989120000 0.3308260000 0.0000000000
0.7966880000 0.3258340000 0.0000000000
0.7960740000 0.3243650000 0.0000000000
0.7957000000 0.3234550000 0.0000000000
0.7956510000 0.3233110000 0.0000000000
0.7951500000 0.3223100000 0.0000000000
0.7949730000 0.3219620000 0.0000000000
0.7961020000 0.3244100000 0.0000000000
0.7975750000 0.3276270000 0.0000000000
0.0866510000 0.5135360000 0.2833490000
0.0850910000 0.5131370000 0.2831840000
0.0816370000 0.5121840000 0.2826260000
0.0781520000 0.5108980000 0.2818580000
0.0745370000 0.5093330000 0.2808910000
0.0698650000 0.5073210000 0.2797950000
0.0608900000 0.5014630000 0.2760440000
0.0574250000 0.4979100000 0.2736100000
0.0547110000 0.4946490000 0.2711620000
0.0499210000 0.4891680000 0.2671330000
0.0569990000 0.4951890000 0.2685710000
0.2980950000 0.5329700000 0.2683980000
0.4317140000 0.5490890000 0.2543520000
0.5317430000 0.5598800000 0.2429810000
0.6099190000 0.5652860000 0.2308670000
0.6702970000 0.5674310000 0.2165900000
0.7178770000 0.5559200000 0.1817400000
0.7590300000 0.5380320000 0.1316300000
0.7964430000 0.5161180000 0.0816380000
0.8251370000 0.4952640000 0.0489090000
0.8453630000 0.4729820000 0.0308500000
0.8432010000 0.4551320000 0.0238820000
0.8373680000 0.4405190000 0.0190600000
0.8330520000 0.4282130000 0.0137730000
0.8313850000 0.4230150000 0.0108400000
0.8297770000 0.4185880000 0.0087000000
0.8287730000 0.4156000000 0.0070700000
0.8285880000 0.4150380000 0.0066360000
0.8280390000 0.4138080000 0.0055540000
0.8274700000 0.4124750000 0.0047430000
0.8272580000 0.4119590000 0.0044490000
0.8281130000 0.4139990000 0.0057660000
0.8291670000 0.4169110000 0.0078030000
0.2267770000 0.5682360000 0.3242500000
0.2265370000 0.5680590000 0.3240860000
0.2253440000 0.5674410000 0.3237410000
0.2237170000 0.5664670000 0.3230890000
0.2212020000 0.5650890000 0.3221220000
0.2181910000 0.5634240000 0.3209840000
0.2144470000 0.5611730000 0.3190480000
0.2068320000 0.5566300000 0.3140480000
0.2018070000 0.5543820000 0.3119510000
0.1954670000 0.5517910000 0.3097600000
0.1774480000 0.5453520000 0.3059630000
0.2779920000 0.5756200000 0.3169160000
0.4250960000 0.5969070000 0.3105710000
0.5298980000 0.6102130000 0.3002860000
0.6124390000 0.6170470000 0.2877150000
0.6764440000 0.6177000000 0.2747270000
0.7312280000 0.6159450000 0.2604670000
0.7761940000 0.6042550000 0.2301070000
0.8169610000 0.5892830000 0.1888890000
0.8482670000 0.5728170000 0.1557130000
0.8717670000 0.5559480000 0.1169600000
0.8781580000 0.5414570000 0.0956910000
0.8728020000 0.5284670000 0.0737810000
0.8685760000 0.5203740000 0.0596800000
0.8655590000 0.5142830000 0.0511210000
0.8638330000 0.5098970000 0.0463470000
0.8631440000 0.5080490000 0.0449650000
0.8618970000 0.5047460000 0.0425810000
0.8616330000 0.5039800000 0.0421250000
0.8609760000 0.5019070000 0.0408750000
0.8612000000 0.5024980000 0.0412310000
0.8609710000 0.5019060000 0.0408800000
0.8618510000 0.5046510000 0.0425180000
0.3129030000 0.6162660000 0.3615040000
0.3130500000 0.6163350000 0.3615810000
0.3126760000 0.6161250000 0.3613440000
0.3116280000 0.6155500000 0.3608820000
0.3057820000 0.6125270000 0.3581520000
0.3033420000 0.6112750000 0.3569280000
0.3004070000 0.6097170000 0.3553870000
0.2969900000 0.6078940000 0.3535460000
0.2928620000 0.6056970000 0.3519500000
0.2874100000 0.6026930000 0.3498740000
0.2768940000 0.5971760000 0.3472250000
0.2942230000 0.6041460000 0.3471080000
0.4168190000 0.6391690000 0.3586850000
0.5207490000 0.6528440000 0.3506760000
0.6091340000 0.6603880000 0.3411030000
0.6790960000 0.6670260000 0.3337010000
0.7356710000 0.6677650000 0.3206170000
0.7854380000 0.6626420000 0.3035650000
0.8308170000 0.6535930000 0.2791820000
0.8650670000 0.6404010000 0.2500920000
0.8926060000 0.6266390000 0.2206410000
0.9051170000 0.6138890000 0.2040780000
0.9020020000 0.6025330000 0.1921410000
0.8997540000 0.5967180000 0.1856010000
0.8974430000 0.5911580000 0.1777830000
0.8959560000 0.5877170000 0.1732320000
0.8944720000 0.5839770000 0.1669890000
0.8940280000 0.5828650000 0.1652460000
0.8936070000 0.5818040000 0.1633560000
0.8925140000 0.5792570000 0.1595800000
0.8915880000 0.5770860000 0.1561940000
0.8919370000 0.5779250000 0.1576050000
0.8925810000 0.5794330000 0.1599390000
0.3673700000 0.6565740000 0.3944120000
0.3676800000 0.6568710000 0.3946710000
0.3677440000 0.6569010000 0.3946790000
0.3673840000 0.6566210000 0.3944690000
0.3669080000 0.6560730000 0.3940460000
0.3660720000 0.6552470000 0.3934170000
0.3650100000 0.6541580000 0.3926050000
0.3613700000 0.6506790000 0.3894260000
0.3594380000 0.6487720000 0.3877070000
0.3571400000 0.6468220000 0.3855950000
0.3540860000 0.6442920000 0.3828090000
0.3481440000 0.6401430000 0.3789440000
0.3999990000 0.6715680000 0.3999020000
0.5090170000 0.6898520000 0.3963170000
0.5993070000 0.7006950000 0.3892810000
0.6713290000 0.7070770000 0.3779040000
0.7313430000 0.7102710000 0.3682550000
0.7858280000 0.7084830000 0.3573710000
