bundles/resolve-cinematic-luts/Cinem8/Sony S-Log3 Color Grading LUTs/CMG_Ektar_S-Log3_33x.cube
TITLE "Copyright by CINEM8.CO"
# LUT SIZE 33x33x33, 17424, 574992
# Data domain
# LUT data points begin
#  
# 
LUT_3D_SIZE 33
0.0232790000 0.0434140000 0.0222910000
0.0232790000 0.0434140000 0.0222910000
0.0232790000 0.0434140000 0.0222910000
0.0232790000 0.0434140000 0.0222910000
0.0232790000 0.0434140000 0.0222910000
0.0281970000 0.0434190000 0.0233030000
0.0595300000 0.0511820000 0.0266030000
0.0854720000 0.0574640000 0.0271730000
0.1115270000 0.0607300000 0.0240570000
0.1451840000 0.0645550000 0.0241140000
0.1850520000 0.0682520000 0.0182290000
0.2328890000 0.0679980000 0.0083820000
0.2894750000 0.0656430000 0.0000000000
0.3461320000 0.0621660000 0.0000000000
0.3978190000 0.0518480000 0.0000000000
0.4445160000 0.0309830000 0.0000000000
0.4879180000 0.0117820000 0.0000000000
0.5610600000 0.0298040000 0.0000000000
0.6286110000 0.0837030000 0.0000000000
0.6815760000 0.1164740000 0.0000000000
0.7194010000 0.1457300000 0.0039280000
0.7226930000 0.1495420000 0.0064210000
0.7226930000 0.1495420000 0.0064210000
0.7226930000 0.1495420000 0.0064210000
0.7226930000 0.1495420000 0.0064210000
0.7226930000 0.1495420000 0.0064210000
0.7226930000 0.1495420000 0.0064210000
0.7226930000 0.1495420000 0.0064210000
0.7226930000 0.1495420000 0.0064210000
0.7226930000 0.1495420000 0.0064210000
0.7226930000 0.1495420000 0.0064210000
0.7226930000 0.1495420000 0.0064210000
0.7226930000 0.1495420000 0.0064210000
0.0232790000 0.0434140000 0.0222910000
0.0232790000 0.0434140000 0.0222910000
0.0232790000 0.0434140000 0.0222910000
0.0232790000 0.0434140000 0.0222910000
0.0232790000 0.0434140000 0.0222910000
0.0278560000 0.0434180000 0.0230040000
0.0585800000 0.0509180000 0.0265840000
0.0848930000 0.0571740000 0.0271660000
0.1104390000 0.0605760000 0.0242090000
0.1441780000 0.0645470000 0.0243210000
0.1840480000 0.0681170000 0.0184690000
0.2323030000 0.0681740000 0.0087470000
0.2887700000 0.0656980000 0.0000000000
0.3455960000 0.0622120000 0.0000000000
0.3976030000 0.0518940000 0.0000000000
0.4444930000 0.0309980000 0.0000000000
0.4880820000 0.0117850000 0.0000000000
0.5617140000 0.0301170000 0.0000000000
0.6294920000 0.0842100000 0.0000000000
0.6825880000 0.1174410000 0.0000000000
0.7195930000 0.1459340000 0.0040860000
0.7226930000 0.1495420000 0.0064210000
0.7226930000 0.1495420000 0.0064210000
0.7226930000 0.1495420000 0.0064210000
0.7226930000 0.1495420000 0.0064210000
0.7226930000 0.1495420000 0.0064210000
0.7226930000 0.1495420000 0.0064210000
0.7226930000 0.1495420000 0.0064210000
0.7226930000 0.1495420000 0.0064210000
0.7226930000 0.1495420000 0.0064210000
0.7226930000 0.1495420000 0.0064210000
0.7226930000 0.1495420000 0.0064210000
0.7226930000 0.1495420000 0.0064210000
0.0232790000 0.0434140000 0.0222910000
0.0232790000 0.0434140000 0.0222910000
0.0232790000 0.0434140000 0.0222910000
0.0232790000 0.0434140000 0.0222910000
0.0232790000 0.0434140000 0.0222910000
0.0274430000 0.0434170000 0.0227930000
0.0535440000 0.0489420000 0.0265120000
0.0841560000 0.0568030000 0.0271570000
0.1074380000 0.0601270000 0.0245970000
0.1415350000 0.0645240000 0.0246200000
0.1829050000 0.0679690000 0.0187410000
0.2316230000 0.0683770000 0.0091700000
0.2877490000 0.0657800000 0.0000000000
0.3448290000 0.0622850000 0.0000000000
0.3964470000 0.0521390000 0.0000000000
0.4443540000 0.0311530000 0.0000000000
0.4880660000 0.0117850000 0.0000000000
0.5620800000 0.0303320000 0.0000000000
0.6301300000 0.0846000000 0.0000000000
0.6831130000 0.1179560000 0.0000000000
0.7197630000 0.1461020000 0.0042240000
0.7226930000 0.1495420000 0.0064210000
0.7226930000 0.1495420000 0.0064210000
0.7226930000 0.1495420000 0.0064210000
0.7226930000 0.1495420000 0.0064210000
0.7226930000 0.1495420000 0.0064210000
0.7226930000 0.1495420000 0.0064210000
0.7226930000 0.1495420000 0.0064210000
0.7226930000 0.1495420000 0.0064210000
0.7226930000 0.1495420000 0.0064210000
0.7226930000 0.1495420000 0.0064210000
0.7226930000 0.1495420000 0.0064210000
0.7226930000 0.1495420000 0.0064210000
0.0232790000 0.0434140000 0.0222910000
0.0232790000 0.0434140000 0.0222910000
0.0232790000 0.0434140000 0.0222910000
0.0232790000 0.0434140000 0.0222910000
0.0232790000 0.0434140000 0.0222910000
0.0253160000 0.0434140000 0.0222910000
0.0511550000 0.0483100000 0.0264660000
0.0831560000 0.0564250000 0.0271400000
0.1065630000 0.0601050000 0.0248580000
0.1405440000 0.0645150000 0.0247130000
0.1816400000 0.0677610000 0.0190450000
0.2307310000 0.0685820000 0.0096490000
0.2838390000 0.0657510000 0.0000000000
0.3415540000 0.0625350000 0.0000000000
0.3958610000 0.0522630000 0.0000000000
0.4441110000 0.0314200000 0.0000000000
0.4879150000 0.0117820000 0.0000000000
0.5622680000 0.0304030000 0.0000000000
0.6305030000 0.0848130000 0.0000000000
0.6816440000 0.1165530000 0.0000000000
0.7198960000 0.1462220000 0.0043230000
0.7226930000 0.1495420000 0.0064210000
0.7226930000 0.1495420000 0.0064210000
0.7226930000 0.1495420000 0.0064210000
0.7226930000 0.1495420000 0.0064210000
0.7226930000 0.1495420000 0.0064210000
0.7226930000 0.1495420000 0.0064210000
0.7226930000 0.1495420000 0.0064210000
0.7226930000 0.1495420000 0.0064210000
0.7226930000 0.1495420000 0.0064210000
0.7226930000 0.1495420000 0.0064210000
0.7226930000 0.1495420000 0.0064210000
0.7226930000 0.1495420000 0.0064210000
0.0232790000 0.0434140000 0.0222910000
0.0232790000 0.0434140000 0.0222910000
0.0232790000 0.0434140000 0.0222910000
0.0232790000 0.0434140000 0.0222910000
0.0232790000 0.0434140000 0.0222910000
0.0238850000 0.0434140000 0.0222910000
0.0450960000 0.0473970000 0.0263240000
0.0785060000 0.0556900000 0.0270180000
0.1054000000 0.0600770000 0.0252060000
0.1399940000 0.0645100000 0.0247840000
0.1803020000 0.0674230000 0.0193760000
0.2295280000 0.0687060000 0.0101060000
0.2822290000 0.0657390000 0.0000000000
0.3403390000 0.0626450000 0.0000000000
0.3951980000 0.0524040000 0.0000000000
0.4436070000 0.0319590000 0.0000000000
0.4875470000 0.0117740000 0.0000000000
0.5585800000 0.0283630000 0.0000000000
0.6306180000 0.0849140000 0.0000000000
0.6820910000 0.1169670000 0.0000000000
0.7200180000 0.1463570000 0.0044020000
0.7226930000 0.1495420000 0.0064210000
0.7226930000 0.1495420000 0.0064210000
0.7226930000 0.1495420000 0.0064210000
0.7226930000 0.1495420000 0.0064210000
0.7226930000 0.1495420000 0.0064210000
0.7226930000 0.1495420000 0.0064210000
0.7226930000 0.1495420000 0.0064210000
0.7226930000 0.1495420000 0.0064210000
0.7226930000 0.1495420000 0.0064210000
0.7226930000 0.1495420000 0.0064210000
0.7226930000 0.1495420000 0.0064210000
0.7226930000 0.1495420000 0.0064210000
0.0229620000 0.0516840000 0.0266980000
0.0229740000 0.0513780000 0.0265720000
0.0230630000 0.0490920000 0.0259820000
0.0231240000 0.0475390000 0.0257000000
0.0232380000 0.0444720000 0.0233570000
0.0232790000 0.0434140000 0.0222910000
0.0365130000 0.0472100000 0.0261150000
0.0734470000 0.0549010000 0.0268870000
0.0990870000 0.0599250000 0.0269850000
0.1383110000 0.0644930000 0.0248220000
0.1787330000 0.0670270000 0.0197630000
0.2275760000 0.0689050000 0.0108430000
0.2803500000 0.0657250000 0.0000000000
0.3389560000 0.0627240000 0.0000000000
0.3943500000 0.0525840000 0.0000000000
0.4417630000 0.0336260000 0.0000000000
0.4870390000 0.0117620000 0.0000000000
0.5579710000 0.0280790000 0.0000000000
0.6304650000 0.0847840000 0.0000000000
0.6822670000 0.1171430000 0.0000000000
0.7200910000 0.1464770000 0.0044410000
0.7226930000 0.1495420000 0.0064210000
0.7226930000 0.1495420000 0.0064210000
0.7226930000 0.1495420000 0.0064210000
0.7226930000 0.1495420000 0.0064210000
0.7226930000 0.1495420000 0.0064210000
0.7226930000 0.1495420000 0.0064210000
0.7226930000 0.1495420000 0.0064210000
0.7226930000 0.1495420000 0.0064210000
0.7226930000 0.1495420000 0.0064210000
0.7226930000 0.1495420000 0.0064210000
0.7226930000 0.1495420000 0.0064210000
0.7226930000 0.1495420000 0.0064210000
0.0057810000 0.0670430000 0.0331300000
0.0061790000 0.0666720000 0.0331460000
0.0078010000 0.0651620000 0.0332120000
0.0114180000 0.0623110000 0.0327580000
0.0138390000 0.0608640000 0.0319170000
0.0191980000 0.0579440000 0.0297350000
0.0332170000 0.0574350000 0.0295460000
0.0714660000 0.0595250000 0.0298270000
0.0937880000 0.0609530000 0.0273050000
0.1305830000 0.0643950000 0.0245390000
0.1745340000 0.0659670000 0.0208000000
0.2243870000 0.0691640000 0.0119670000
0.2784140000 0.0657110000 0.0000000000
0.3376020000 0.0627050000 0.0000000000
0.3933320000 0.0528000000 0.0000000000
0.4405460000 0.0349190000 0.0000000000
0.4858290000 0.0117600000 0.0000000000
0.5570190000 0.0276530000 0.0000000000
0.6300550000 0.0845420000 0.0000000000
0.6821270000 0.1170050000 0.0000000000
0.7201100000 0.1464480000 0.0044810000
0.7226930000 0.1495420000 0.0064210000
0.7226930000 0.1495420000 0.0064210000
0.7226930000 0.1495420000 0.0064210000
0.7226930000 0.1495420000 0.0064210000
0.7226930000 0.1495420000 0.0064210000
0.7226930000 0.1495420000 0.0064210000
0.7226930000 0.1495420000 0.0064210000
0.7226930000 0.1495420000 0.0064210000
0.7226930000 0.1495420000 0.0064210000
0.7226930000 0.1495420000 0.0064210000
0.7226930000 0.1495420000 0.0064210000
0.7226930000 0.1495420000 0.0064210000
0.0000000000 0.0806190000 0.0346070000
0.0000000000 0.0803640000 0.0344590000
0.0000000000 0.0794290000 0.0338420000
0.0000000000 0.0790650000 0.0335230000
0.0000000000 0.0781830000 0.0327520000
0.0000000000 0.0765950000 0.0319410000
0.0166410000 0.0768800000 0.0352270000
0.0694600000 0.0814650000 0.0338710000
0.0973960000 0.0827530000 0.0338300000
0.1322160000 0.0795430000 0.0307010000
0.1723340000 0.0685350000 0.0216680000
0.2233050000 0.0691510000 0.0122230000
0.2759880000 0.0656940000 0.0000000000
0.3360180000 0.0626830000 0.0000000000
0.3920990000 0.0530630000 0.0000000000
0.4397420000 0.0355290000 0.0000000000
0.4829810000 0.0118950000 0.0000000000
0.5558150000 0.0270570000 0.0000000000
0.6294480000 0.0841290000 0.0000000000
0.6817720000 0.1166880000 0.0000000000
0.7201100000 0.1464480000 0.0044810000
0.7226930000 0.1495420000 0.0064210000
0.7226930000 0.1495420000 0.0064210000
0.7226930000 0.1495420000 0.0064210000
0.7226930000 0.1495420000 0.0064210000
0.7226930000 0.1495420000 0.0064210000
0.7226930000 0.1495420000 0.0064210000
0.7226930000 0.1495420000 0.0064210000
0.7226930000 0.1495420000 0.0064210000
0.7226930000 0.1495420000 0.0064210000
0.7226930000 0.1495420000 0.0064210000
0.7226930000 0.1495420000 0.0064210000
0.7226930000 0.1495420000 0.0064210000
0.0000000000 0.0951660000 0.0377460000
0.0000000000 0.0949920000 0.0377120000
0.0000000000 0.0947510000 0.0376890000
0.0000000000 0.0934630000 0.0377630000
0.0000000000 0.0939000000 0.0377380000
0.0000000000 0.0913410000 0.0378830000
0.0000000000 0.0933370000 0.0391940000
0.0625650000 0.1003360000 0.0388420000
0.0968150000 0.1059860000 0.0372500000
0.1368510000 0.1081830000 0.0336940000
0.1895760000 0.1017130000 0.0255530000
0.2270890000 0.0777570000 0.0130970000
0.2706530000 0.0656590000 0.0000000000
0.3332330000 0.0626460000 0.0000000000
0.3899090000 0.0535290000 0.0000000000
0.4388200000 0.0360300000 0.0000000000
0.4820020000 0.0119560000 0.0000000000
0.5544270000 0.0263670000 0.0000000000
0.6279750000 0.0832210000 0.0000000000
0.6812520000 0.1161850000 0.0000000000
0.7200620000 0.1464310000 0.0044410000
0.7226930000 0.1495420000 0.0064210000
0.7226930000 0.1495420000 0.0064210000
0.7226930000 0.1495420000 0.0064210000
0.7226930000 0.1495420000 0.0064210000
0.7226930000 0.1495420000 0.0064210000
0.7226930000 0.1495420000 0.0064210000
0.7226930000 0.1495420000 0.0064210000
0.7226930000 0.1495420000 0.0064210000
0.7226930000 0.1495420000 0.0064210000
0.7226930000 0.1495420000 0.0064210000
0.7226930000 0.1495420000 0.0064210000
0.7226930000 0.1495420000 0.0064210000
0.0000000000 0.1158560000 0.0409110000
0.0000000000 0.1154860000 0.0409110000
0.0000000000 0.1150710000 0.0409110000
0.0000000000 0.1124410000 0.0409470000
0.0000000000 0.1119910000 0.0409540000
0.0000000000 0.1129950000 0.0409410000
0.0000000000 0.1132510000 0.0404630000
0.0300550000 0.1192430000 0.0421330000
0.0874180000 0.1278810000 0.0401820000
0.1323110000 0.1347260000 0.0371180000
0.1985260000 0.1359790000 0.0298180000
0.2567060000 0.1292600000 0.0083270000
0.2971280000 0.0961940000 0.0000000000
0.3292290000 0.0625910000 0.0000000000
0.3866700000 0.0542200000 0.0000000000
0.4368620000 0.0369920000 0.0000000000
0.4808870000 0.0120350000 0.0000000000
0.5526570000 0.0254890000 0.0000000000
0.6246270000 0.0804420000 0.0000000000
0.6804590000 0.1154320000 0.0000000000
0.7199820000 0.1463360000 0.0043620000
0.7226930000 0.1495420000 0.0064210000
0.7226930000 0.1495420000 0.0064210000
0.7226930000 0.1495420000 0.0064210000
0.7226930000 0.1495420000 0.0064210000
0.7226930000 0.1495420000 0.0064210000
0.7226930000 0.1495420000 0.0064210000
0.7226930000 0.1495420000 0.0064210000
0.7226930000 0.1495420000 0.0064210000
0.7226930000 0.1495420000 0.0064210000
0.7226930000 0.1495420000 0.0064210000
0.7226930000 0.1495420000 0.0064210000
0.7226930000 0.1495420000 0.0064210000
0.0000000000 0.1524330000 0.0484680000
0.0000000000 0.1519420000 0.0483860000
0.0000000000 0.1489480000 0.0475520000
0.0000000000 0.1483200000 0.0473440000
0.0000000000 0.1471340000 0.0469370000
0.0000000000 0.1443020000 0.0460380000
0.0000000000 0.1483920000 0.0473210000
0.0000000000 0.1486780000 0.0453790000
0.0211910000 0.1617020000 0.0426700000
0.1094080000 0.1757580000 0.0373820000
0.1940680000 0.1878760000 0.0223450000
0.2748380000 0.1898940000 0.0000000000
0.3386770000 0.1732750000 0.0000000000
0.3898300000 0.1439650000 0.0000000000
0.3971240000 0.0702970000 0.0000000000
0.4324680000 0.0391220000 0.0000000000
0.4773040000 0.0125610000 0.0000000000
0.5481260000 0.0230910000 0.0000000000
0.6232010000 0.0791400000 0.0000000000
0.6794480000 0.1144960000 0.0000000000
0.7194900000 0.1458390000 0.0040270000
0.7226930000 0.1495420000 0.0064210000
0.7226930000 0.1495420000 0.0064210000
0.7226930000 0.1495420000 0.0064210000
0.7226930000 0.1495420000 0.0064210000
0.7226930000 0.1495420000 0.0064210000
0.7226930000 0.1495420000 0.0064210000
0.7226930000 0.1495420000 0.0064210000
0.7226930000 0.1495420000 0.0064210000
0.7226930000 0.1495420000 0.0064210000
0.7226930000 0.1495420000 0.0064210000
0.7226930000 0.1495420000 0.0064210000
0.7226930000 0.1495420000 0.0064210000
0.0000000000 0.1900630000 0.0531310000
0.0000000000 0.1896990000 0.0530930000
0.0000000000 0.1870050000 0.0527520000
0.0000000000 0.1864600000 0.0526520000
0.0000000000 0.1858750000 0.0525330000
0.0000000000 0.1852560000 0.0524140000
0.0000000000 0.1826640000 0.0517840000
0.0000000000 0.1853530000 0.0523610000
0.0000000000 0.1906680000 0.0504010000
0.0241840000 0.2154090000 0.0362580000
0.1715660000 0.2393500000 0.0074460000
0.2814980000 0.2562080000 0.0000000000
0.3675110000 0.2628950000 0.0000000000
0.4386460000 0.2522400000 0.0000000000
0.4901180000 0.2184960000 0.0000000000
0.5175940000 0.1667510000 0.0000000000
0.5028130000 0.0640060000 0.0000000000
0.5371510000 0.0178580000 0.0000000000
0.6161660000 0.0735460000 0.0000000000
0.6747200000 0.1101250000 0.0000000000
0.7183160000 0.1447310000 0.0031580000
0.7226930000 0.1495420000 0.0064210000
0.7226930000 0.1495420000 0.0064210000
0.7226930000 0.1495420000 0.0064210000
0.7226930000 0.1495420000 0.0064210000
0.7226930000 0.1495420000 0.0064210000
0.7226930000 0.1495420000 0.0064210000
0.7226930000 0.1495420000 0.0064210000
0.7226930000 0.1495420000 0.0064210000
0.7226930000 0.1495420000 0.0064210000
0.7226930000 0.1495420000 0.0064210000
0.7226930000 0.1495420000 0.0064210000
0.7226930000 0.1495420000 0.0064210000
0.0000000000 0.2270390000 0.0538690000
0.0000000000 0.2266250000 0.0539300000
0.0000000000 0.2261800000 0.0539270000
0.0000000000 0.2255530000 0.0539230000
0.0000000000 0.2247550000 0.0539190000
0.0000000000 0.2239570000 0.0539140000
0.0000000000 0.2212980000 0.0538980000
0.0000000000 0.2206670000 0.0538940000
0.0000000000 0.2275550000 0.0538130000
0.0000000000 0.2493300000 0.0402590000
0.1298870000 0.2863840000 0.0000000000
0.2824220000 0.3174320000 0.0000000000
0.3893280000 0.3383450000 0.0000000000
0.4725720000 0.3420000000 0.0000000000
0.5425870000 0.3357820000 0.0000000000
0.5888610000 0.3118080000 0.0000000000
0.6185740000 0.2726100000 0.0000000000
0.6314190000 0.2073410000 0.0000000000
0.6292190000 0.1197730000 0.0000000000
0.6691240000 0.1061270000 0.0000000000
0.7158950000 0.1425840000 0.0015370000
0.7226930000 0.1495420000 0.0064210000
0.7226930000 0.1495420000 0.0064210000
0.7226930000 0.1495420000 0.0064210000
0.7226930000 0.1495420000 0.0064210000
0.7226930000 0.1495420000 0.0064210000
0.7226930000 0.1495420000 0.0064210000
0.7226930000 0.1495420000 0.0064210000
0.7226930000 0.1495420000 0.0064210000
0.7226930000 0.1495420000 0.0064210000
0.7226930000 0.1495420000 0.0064210000
0.7226930000 0.1495420000 0.0064210000
0.7226930000 0.1495420000 0.0064210000
0.0000000000 0.2684350000 0.0489670000
0.0000000000 0.2681840000 0.0490350000
0.0000000000 0.2678500000 0.0491240000
0.0000000000 0.2672720000 0.0492310000
0.0000000000 0.2667290000 0.0492990000
0.0000000000 0.2661090000 0.0493810000
0.0000000000 0.2635850000 0.0497520000
0.0000000000 0.2629160000 0.0498280000
0.0000000000 0.2619380000 0.0498350000
0.0000000000 0.2805350000 0.0415440000
0.0680600000 0.3384140000 0.0000000000
0.2839480000 0.3804740000 0.0000000000
0.4027700000 0.4096870000 0.0000000000
0.5000170000 0.4235060000 0.0000000000
0.5777750000 0.4279110000 0.0000000000
0.6360930000 0.4198470000 0.0000000000
0.6782660000 0.3997730000 0.0000000000
0.7105680000 0.3681780000 0.0000000000
0.7297930000 0.3240250000 0.0000000000
0.7365460000 0.2644330000 0.0000000000
0.7368940000 0.2019770000 0.0000000000
0.7250470000 0.1548170000 0.0063980000
0.7226930000 0.1495420000 0.0064210000
0.7226930000 0.1495420000 0.0064210000
0.7226930000 0.1495420000 0.0064210000
0.7226930000 0.1495420000 0.0064210000
0.7226930000 0.1495420000 0.0064210000
0.7226930000 0.1495420000 0.0064210000
0.7226930000 0.1495420000 0.0064210000
0.7226930000 0.1495420000 0.0064210000
0.7226930000 0.1495420000 0.0064210000
0.7226930000 0.1495420000 0.0064210000
0.7226930000 0.1495420000 0.0064210000
0.0000000000 0.3326910000 0.0070220000
0.0000000000 0.3323400000 0.0073760000
0.0000000000 0.3316030000 0.0079600000
0.0000000000 0.3267330000 0.0156230000
0.0000000000 0.3254140000 0.0178090000
0.0000000000 0.3243680000 0.0192610000
0.0000000000 0.3231760000 0.0208220000
0.0000000000 0.3212530000 0.0228080000
0.0000000000 0.3158500000 0.0296250000
0.0000000000 0.3227820000 0.0212820000
0.0130530000 0.3885650000 0.0000000000
0.2828170000 0.4354640000 0.0000000000
0.4153950000 0.4721920000 0.0000000000
0.5197420000 0.4945750000 0.0000000000
0.6085530000 0.5090810000 0.0000000000
0.6727730000 0.5116390000 0.0000000000
0.7203040000 0.5057240000 0.0000000000
0.7594300000 0.4865230000 0.0000000000
0.7854950000 0.4532110000 0.0000000000
0.8044260000 0.4123220000 0.0000000000
0.8125790000 0.3715550000 0.0000000000
0.8065600000 0.3362230000 0.0000000000
0.7910340000 0.3058700000 0.0000000000
0.7806800000 0.2845850000 0.0000000000
0.7753590000 0.2726940000 0.0000000000
0.7695450000 0.2602980000 0.0000000000
0.7674980000 0.2549770000 0.0000000000
0.7663140000 0.2523330000 0.0000000000
0.7650150000 0.2495060000 0.0002370000
0.7630560000 0.2455290000 0.0004310000
0.7608650000 0.2408180000 0.0001580000
0.7594520000 0.2378870000 0.0000000000
0.7610430000 0.2412210000 0.0001850000
0.0000000000 0.4108810000 0.0000000000
0.0000000000 0.4105410000 0.0000000000
0.0000000000 0.4100670000 0.0000000000
0.0000000000 0.4093970000 0.0000000000
0.0000000000 0.4082770000 0.0000000000
0.0000000000 0.4038250000 0.0000000000
0.0000000000 0.4015320000 0.0000000000
0.0000000000 0.4003610000 0.0000000000
0.0000000000 0.3988910000 0.0000000000
0.0000000000 0.3928510000 0.0000000000
0.0001450000 0.4300280000 0.0000000000
0.2879960000 0.4854000000 0.0000000000
0.4276570000 0.5248260000 0.0000000000
0.5353520000 0.5509490000 0.0000000000
0.6282350000 0.5674900000 0.0000000000
0.7002980000 0.5831670000 0.0000000000
0.7526200000 0.5869960000 0.0000000000
0.7951960000 0.5798660000 0.0000000000
0.8269120000 0.5601290000 0.0000000000
0.8495980000 0.5328250000 0.0000000000
0.8641730000 0.5025910000 0.0000000000
0.8635490000 0.4702210000 0.0000000000
0.8544530000 0.4497930000 0.0000000000
0.8486360000 0.4356060000 0.0000000000
0.8444470000 0.4254270000 0.0000000000
0.8419240000 0.4192350000 0.0000000000
0.8404110000 0.4156480000 0.0000000000
0.8392260000 0.4126930000 0.0000000000
0.8387080000 0.4114410000 0.0000000000
0.8377950000 0.4091960000 0.0000000000
0.8362310000 0.4054340000 0.0000000000
0.8349460000 0.4022640000 0.0000000000
0.8357710000 0.4042580000 0.0000000000
0.1059960000 0.4762450000 0.0000000000
0.1056310000 0.4760910000 0.0000000000
0.1047930000 0.4758240000 0.0000000000
0.1033170000 0.4754220000 0.0000000000
0.1013160000 0.4748410000 0.0000000000
0.0989600000 0.4741990000 0.0000000000
0.0855450000 0.4704950000 0.0000000000
0.0801520000 0.4690130000 0.0000000000
0.0767070000 0.4680800000 0.0000000000
0.0707300000 0.4664750000 0.0000000000
0.0743070000 0.4673930000 0.0000000000
0.2868190000 0.5247720000 0.0000000000
0.4313460000 0.5678030000 0.0000000000
0.5450000000 0.5970710000 0.0000000000
0.6412000000 0.6167750000 0.0000000000
0.7162700000 0.6320160000 0.0000000000
0.7741140000 0.6457630000 0.0000000000
0.8183230000 0.6419580000 0.0000000000
0.8579630000 0.6335590000 0.0000000000
0.8853740000 0.6190140000 0.0000000000
0.8988140000 0.5974600000 0.0000000000
0.9079180000 0.5764100000 0.0000000000
0.9010450000 0.5613130000 0.0000000000
0.8964970000 0.5519340000 0.0000000000
0.8935110000 0.5450300000 0.0000000000
0.8922170000 0.5419990000 0.0000000000
0.8904360000 0.5377730000 0.0000000000
0.8902570000 0.5373470000 0.0000000000
0.8890010000 0.5342230000 0.0000000000
0.8887280000 0.5335470000 0.0000000000
0.8876880000 0.5309690000 0.0000000000
0.8873230000 0.5300350000 0.0000000000
0.8871870000 0.5297080000 0.0000000000
0.2501860000 0.5378450000 0.0000000000
0.2501860000 0.5378450000 0.0000000000
0.2499090000 0.5376950000 0.0000000000
0.2486770000 0.5369930000 0.0000000000
0.2473390000 0.5362900000 0.0000000000
0.2411960000 0.5330740000 0.0000000000
0.2375560000 0.5311840000 0.0000000000
0.2356460000 0.5302040000 0.0000000000
0.2337060000 0.5291900000 0.0000000000
0.2305280000 0.5275530000 0.0000000000
0.2211970000 0.5231680000 0.0000000000
0.2895810000 0.5651130000 0.0000000000
0.4306350000 0.6050240000 0.0000000000
0.5465210000 0.6355670000 0.0000000000
0.6428210000 0.6592020000 0.0000000000
0.7233980000 0.6770170000 0.0000000000
0.7857290000 0.6952820000 0.0000000000
0.8350650000 0.6981000000 0.0000000000
0.8750300000 0.6941980000 0.0000000000
0.9057440000 0.6842440000 0.0000000000
0.9269210000 0.6683820000 0.0000000000
0.9371030000 0.6560070000 0.0000000000
0.9361460000 0.6416130000 0.0000000000
0.9339500000 0.6355140000 0.0000000000
0.9323820000 0.6315730000 0.0000000000
0.9307000000 0.6276230000 0.0000000000
0.9297670000 0.6254010000 0.0000000000
0.9289980000 0.6237500000 0.0000000000
0.9285290000 0.6228350000 0.0000000000
0.9276660000 0.6210990000 0.0000000000
0.9269020000 0.6195720000 0.0000000000
0.9256830000 0.6171360000 0.0000000000
0.9259260000 0.6176440000 0.0000000000
0.3248660000 0.5899350000 0.0000000000
0.3249690000 0.5900260000 0.0000000000
0.3248660000 0.5899350000 0.0000000000
0.3246250000 0.5897320000 0.0000000000
0.3243150000 0.5894680000 0.0000000000
0.3237290000 0.5890280000 0.0000000000
0.3227990000 0.5882470000 0.0000000000
0.3217650000 0.5875010000 0.0000000000
0.3173890000 0.5844130000 0.0000000000
0.3154930000 0.5830840000 0.0000000000
0.3135980000 0.5817780000 0.0000000000
0.3158370000 0.5835040000 0.0000000000
0.4250120000 0.6386250000 0.0000000000
0.5403430000 0.6717220000 0.0000000000
0.6435920000 0.6952300000 0.0000000000
0.7262140000 0.7158580000 0.0000000000
0.7881810000 0.7307800000 0.0000000000
0.8422300000 0.7447040000 0.0000000000
