bundles/resolve-cinematic-luts/Cinem8/Sony S-Log3 Color Grading LUTs/CMG_Ektar_S-Log3_33x.cube
TITLE "Copyright by CINEM8.CO"
# LUT SIZE 33x33x33, 17424, 574992
# Data domain
# LUT data points begin
#  
# 
LUT_3D_SIZE 5
0.0232790000 0.0434140000 0.0222910000
0.1115270000 0.0607300000 0.0240570000
0.4879180000 0.0117820000 0.0000000000
0.7226930000 0.1495420000 0.0064210000
0.7226930000 0.1495420000 0.0064210000
0.0000000000 0.0951660000 0.0377460000
0.0968150000 0.1059860000 0.0372500000
0.4820020000 0.0119560000 0.0000000000
0.7226930000 0.1495420000 0.0064210000
0.7226930000 0.1495420000 0.0064210000
0.1059960000 0.4762450000 0.0000000000
0.0767070000 0.4680800000 0.0000000000
0.7741140000 0.6457630000 0.0000000000
0.8935110000 0.5450300000 0.0000000000
0.8871870000 0.5297080000 0.0000000000
0.4240230000 0.6777750000 0.0000000000
0.4240230000 0.6777750000 0.0000000000
0.7540200000 0.7952990000 0.0000000000
0.9857030000 0.8482250000 0.0000000000
0.9857030000 0.8482250000 0.0000000000
0.4240230000 0.6777750000 0.0000000000
0.4240230000 0.6777750000 0.0000000000
0.7351290000 0.7899270000 0.0000000000
0.9857030000 0.8482250000 0.0000000000
0.9857030000 0.8482250000 0.0000000000
0.0024610000 0.0423490000 0.1110390000
0.0883920000 0.0601800000 0.1170950000
0.4855450000 0.0117660000 0.0000000000
0.7226930000 0.1495420000 0.0064210000
0.7226930000 0.1495420000 0.0064210000
0.0000000000 0.1024440000 0.0986790000
0.0563610000 0.1034280000 0.0974780000
0.4795710000 0.0121840000 0.0000000000
0.7226930000 0.1495420000 0.0064210000
0.7226930000 0.1495420000 0.0064210000
0.0782950000 0.4685020000 0.0000000000
0.0553960000 0.4618610000 0.0000000000
0.7681230000 0.6412730000 0.0000000000
0.8911220000 0.5394360000 0.0000000000
0.8833770000 0.5192430000 0.0000000000
0.4240230000 0.6777750000 0.0000000000
0.4240230000 0.6777750000 0.0000000000
0.7483000000 0.7941210000 0.0000000000
0.9857030000 0.8482250000 0.0000000000
0.9857030000 0.8482250000 0.0000000000
0.4240230000 0.6777750000 0.0000000000
0.4240230000 0.6777750000 0.0000000000
0.7309960000 0.7893180000 0.0000000000
0.9857030000 0.8482250000 0.0000000000
0.9857030000 0.8482250000 0.0000000000
0.0101280000 0.0087010000 0.3952870000
0.0100280000 0.0086780000 0.3937400000
0.5741130000 0.2973530000 0.6148750000
0.8206010000 0.3987820000 0.6133160000
0.8265640000 0.4183030000 0.6466550000
0.0098960000 0.0086530000 0.3918090000
0.0097070000 0.0086330000 0.3893840000
0.5659150000 0.2842470000 0.6001010000
0.8178710000 0.3881040000 0.5934290000
0.8258600000 0.4150970000 0.6403500000
0.0000000000 0.5611800000 0.6099780000
0.0000000000 0.5551200000 0.6005920000
0.6814890000 0.7307360000 0.6702070000
0.8936840000 0.6184430000 0.6196020000
0.8841720000 0.6050050000 0.6648280000
0.1835020000 0.7662930000 0.5574200000
0.2082480000 0.7645400000 0.5434470000
0.6342430000 0.8499640000 0.5686460000
0.9606190000 0.9104740000 0.5865380000
0.9591880000 0.9170370000 0.6365600000
0.2170170000 0.7635470000 0.5383020000
0.2279880000 0.7608200000 0.5276360000
0.6173770000 0.8426830000 0.5489550000
0.9578050000 0.9069630000 0.5734800000
0.9595900000 0.9167800000 0.6210680000
0.0158610000 0.0100410000 0.4809000000
0.0158610000 0.0100410000 0.4809000000
0.0050050000 0.3528020000 0.7226430000
0.8142330000 0.5922840000 0.8445230000
0.8142330000 0.5922840000 0.8445230000
0.0158610000 0.0100410000 0.4809000000
0.0158610000 0.0100410000 0.4809000000
0.0009010000 0.3068850000 0.7051140000
0.8142330000 0.5922840000 0.8445230000
0.8142330000 0.5922840000 0.8445230000
0.0000000000 0.5279390000 0.7826310000
0.0000000000 0.5230880000 0.7809080000
0.0026010000 0.6166930000 0.8135770000
0.8408670000 0.6580300000 0.8618700000
0.8362030000 0.6345330000 0.8568870000
0.0000000000 0.7604550000 0.8223630000
0.0000000000 0.7604550000 0.8223630000
0.1842610000 0.8535060000 0.8536920000
0.8874600000 0.9500410000 0.9023640000
0.9041620000 0.9521380000 0.9126340000
0.0000000000 0.7604550000 0.8223630000
0.0000000000 0.7605110000 0.8212270000
0.0896700000 0.8470410000 0.8493190000
0.8809880000 0.9545630000 0.8937330000
0.9047410000 0.9600790000 0.9076390000
0.0158610000 0.0100410000 0.4809000000
0.0158610000 0.0100410000 0.4809000000
0.0003350000 0.3247200000 0.7128670000
0.8142330000 0.5922840000 0.8445230000
0.8958600000 0.9594620000 0.9131090000
0.0158610000 0.0100410000 0.4809000000
0.0158610000 0.0100410000 0.4809000000
0.0033970000 0.2570820000 0.6796680000
0.8142330000 0.5922840000 0.8445230000
0.8958600000 0.9594620000 0.9131090000
0.0000000000 0.5148440000 0.7781480000
0.0000000000 0.5101190000 0.7766010000
0.0000000000 0.5812660000 0.8074480000
0.8293860000 0.6389270000 0.8566360000
0.8958600000 0.9594620000 0.9131090000
0.0000000000 0.7604550000 0.8223630000
0.0000000000 0.7604550000 0.8223630000
0.0469910000 0.8437030000 0.8550140000
0.8696240000 0.9485980000 0.9103280000
0.8958600000 0.9594620000 0.9131090000
0.0000000000 0.7604550000 0.8223630000
0.0000000000 0.7604550000 0.8223630000
0.0047110000 0.8376210000 0.8541550000
0.8588820000 0.9558200000 0.9125430000
0.8958600000 0.9594620000 0.9131090000
