bundles/resolve-cinematic-luts/Cinem8/Sony S-Log3 Color Grading LUTs/CMG_Bloom_S-Log3_33x.cube
TITLE "Copyright by CINEM8.CO"
LUT_3D_SIZE 5
0.0396260000 0.0352820000 0.0408640000
0.1829820000 0.0372112500 0.0431482500
0.5713665000 0.0430335000 0.0568325000
0.8400275000 0.0478955000 0.0753537500
0.8926400000 0.0478920000 0.0791840000
0.0710717500 0.1647105000 0.0652885000
0.1781277500 0.1717505000 0.0616985000
0.5798927500 0.1165655000 0.0489290000
0.8402170000 0.0901395000 0.0706665000
0.8932835000 0.0977357500 0.0735867500
0.1676365000 0.4936375000 0.1406970000
0.2116790000 0.4933075000 0.1405860000
0.5542975000 0.5476595000 0.1111665000
0.8563177500 0.5243245000 0.0880677500
0.9077190000 0.5861550000 0.1008010000
0.1748760000 0.7745837500 0.1560805000
0.2185900000 0.7745487500 0.1560437500
0.3505630000 0.7926027500 0.1565542500
0.8386190000 0.8617817500 0.1384077500
0.9257170000 0.8822927500 0.1400792500
0.1732050000 0.8319140000 0.1546190000
0.2218350000 0.8319140000 0.1545937500
0.3895470000 0.8580415000 0.1523305000
0.8633790000 0.9238190000 0.1382107500
0.9257160000 0.9254130000 0.1389070000
0.0192060000 0.0498805000 0.1287842500
0.1681392500 0.0556115000 0.1558187500
0.5661685000 0.0578890000 0.1447807500
0.8379827500 0.0598412500 0.1592357500
0.8896355000 0.0641247500 0.1781787500
0.0407862500 0.1629962500 0.1504767500
0.1538700000 0.1633580000 0.1574975000
0.6058340000 0.1359517500 0.1562480000
0.8443947500 0.0999875000 0.1537332500
0.8902860000 0.1189825000 0.1869412500
0.1662180000 0.4914487500 0.1846645000
0.2095285000 0.5025322500 0.1824125000
0.5559782500 0.5485825000 0.1508917500
0.8606447500 0.5277402500 0.1279910000
0.9083597500 0.5936940000 0.1631250000
0.1748667500 0.7743272500 0.1998692500
0.2095432500 0.7789872500 0.1910052500
0.3238720000 0.7905107500 0.1913982500
0.8397495000 0.8625547500 0.1721660000
0.9257170000 0.8826650000 0.1916540000
0.1731962500 0.8319140000 0.2033732500
0.2250677500 0.8319140000 0.2066057500
0.4043332500 0.8603827500 0.2044587500
0.8643310000 0.9238647500 0.1906777500
0.9257157500 0.9254127500 0.1916527500
0.0160910000 0.1493050000 0.2772910000
0.0616092500 0.1511865000 0.2821715000
0.5462050000 0.1717000000 0.4961605000
0.8836922500 0.1275520000 0.4907937500
0.9437810000 0.1378255000 0.5597365000
0.0153627500 0.1913137500 0.2767367500
0.0650967500 0.2082827500 0.2990697500
0.5816030000 0.2213160000 0.5320690000
0.8929322500 0.1733542500 0.5216360000
0.9441647500 0.1891555000 0.5686652500
0.0599500000 0.5140140000 0.4825650000
0.1010225000 0.5216105000 0.4910605000
0.5287070000 0.5234935000 0.5123935000
0.8723792500 0.5013135000 0.5023830000
0.9224875000 0.5168450000 0.5225320000
0.1302460000 0.8068062500 0.4449842500
0.1712892500 0.8072847500 0.4288900000
0.2527632500 0.8004700000 0.3993110000
0.8423942500 0.8622645000 0.4016670000
0.9354880000 0.8891952500 0.5319147500
0.1184590000 0.8816430000 0.4957260000
0.1680352500 0.8839790000 0.5069497500
0.2724740000 0.8747460000 0.4703915000
0.8633412500 0.9324195000 0.5148042500
0.9353135000 0.9346530000 0.5187615000
0.0286527500 0.2350390000 0.4719810000
0.0702702500 0.2349395000 0.4720182500
0.3678580000 0.2196257500 0.8623235000
0.8880270000 0.1761155000 0.8620625000
0.9403485000 0.1766525000 0.9001427500
0.0282310000 0.2761072500 0.4715610000
0.0732850000 0.2866970000 0.4952615000
0.4359992500 0.2639377500 0.8940805000
0.8928930000 0.2166177500 0.8838712500
0.9403397500 0.2265667500 0.9009265000
0.0230877500 0.4069050000 0.6135285000
0.0636235000 0.4220495000 0.6414940000
0.3658022500 0.4156770000 0.8493010000
0.9006212500 0.3257670000 0.8799722500
0.9531045000 0.3585700000 0.8999227500
0.0823472500 0.8085247500 0.7914895000
0.1172822500 0.8131747500 0.7963912500
0.1669322500 0.8132945000 0.7988272500
0.8324765000 0.8268360000 0.8279320000
0.9428220000 0.8264872500 0.8288935000
0.0840162500 0.9124155000 0.8303225000
0.1365992500 0.9124332500 0.8317085000
0.1972730000 0.9135267500 0.8284582500
0.8164802500 0.9334595000 0.8272755000
0.9434905000 0.9425552500 0.8312620000
0.0261750000 0.2436340000 0.5465430000
0.0717927500 0.2435490000 0.5465430000
0.4696005000 0.2201305000 0.9543280000
0.8971187500 0.1774315000 0.9486270000
0.9402410000 0.1767690000 0.9486270000
0.0258292500 0.2886907500 0.5465430000
0.0750245000 0.2919225000 0.5465430000
0.4798672500 0.2682530000 0.9546487500
0.8974910000 0.2268625000 0.9486270000
0.9402410000 0.2268622500 0.9486270000
0.0220240000 0.4530145000 0.7377435000
0.0731562500 0.4656642500 0.7520117500
0.3374495000 0.4012260000 0.9119600000
0.9065670000 0.3361637500 0.9570827500
0.9505115000 0.3333835000 0.9568260000
0.0830685000 0.8404110000 0.9050590000
0.1344425000 0.8416045000 0.9051517500
0.2099767500 0.8353585000 0.9068652500
0.8256985000 0.8065150000 0.9501220000
0.9514027500 0.8018425000 0.9493917500
0.0838610000 0.9129520000 0.9056760000
0.1365697500 0.9129527500 0.9057425000
0.1951805000 0.9140195000 0.9074990000
0.8014330000 0.9399142500 0.9376052500
0.9459650000 0.9436660000 0.9435980000
