bundles/resolve-cinematic-luts/Cinem8/Sony S-Log3 Color Grading LUTs/CMG_Cabin_S-Log3_33x.cube
TITLE "Copyright by CINEM8.CO"
LUT_3D_SIZE 33
0.0231740000 0.0200280000 0.0181950000
0.0342847813 0.0211201875 0.0181448438
0.0453955625 0.0222123750 0.0180946875
0.0630217812 0.0242681875 0.0177398437
0.0816503750 0.0264722500 0.0173381250
0.1083278750 0.0288956250 0.0160368125
0.1379322500 0.0313987500 0.0144083750
0.1757046875 0.0336715312 0.0121496562
0.2189225000 0.0357907500 0.0094707500
0.2635044375 0.0370868125 0.0076130313
0.3096453750 0.0374421250 0.0066938125
0.3520878750 0.0374608750 0.0060441250
0.3871335000 0.0368065000 0.0059335000
0.4208826562 0.0360886563 0.0059576875
0.4494459375 0.0351169375 0.0065211250
0.4778584687 0.0341840312 0.0071120000
0.5041605000 0.0337945000 0.0080870000
0.5304625313 0.0334049687 0.0090620000
0.5558221875 0.0336988125 0.0102115625
0.5811145313 0.0340414687 0.0113735937
0.6066918750 0.0337421250 0.0136115000
0.6323404687 0.0332822812 0.0161183750
0.6494971875 0.0324840000 0.0184721250
0.6624079687 0.0315165000 0.0207493125
0.6725382500 0.0307312500 0.0227352500
0.6802355937 0.0301054687 0.0244663438
0.6874092500 0.0295950000 0.0259101875
0.6937973750 0.0292575000 0.0269231563
0.6998886250 0.0289776250 0.0277632500
0.7051634688 0.0288562188 0.0281279375
0.7104030625 0.0287398750 0.0284773125
0.7154135312 0.0286564375 0.0287271562
0.7204240000 0.0285730000 0.0289770000
0.0258369688 0.0271769063 0.0195351562
0.0338736875 0.0280380000 0.0197184375
0.0449844687 0.0291301875 0.0196682812
0.0602950625 0.0309276250 0.0188706250
0.0785674062 0.0330919375 0.0184007813
0.1032460000 0.0353736875 0.0166907500
0.1321235000 0.0378253125 0.0149136875
0.1692836562 0.0399653438 0.0123430625
0.2120932812 0.0419960625 0.0094562188
0.2583569688 0.0425628125 0.0074867188
0.3064199063 0.0420846250 0.0064397500
0.3497197500 0.0416416562 0.0058105312
0.3864800625 0.0400638437 0.0057408438
0.4202535000 0.0393173125 0.0057660625
0.4489139063 0.0382308438 0.0063336250
0.4773265313 0.0373014062 0.0069250938
0.5036298750 0.0369604375 0.0079084062
0.5299319063 0.0365709063 0.0088834062
0.5553099375 0.0368153125 0.0100377812
0.5806035938 0.0371544375 0.0112001562
0.6059244375 0.0368839688 0.0133139375
0.6315089063 0.0364313437 0.0157897812
0.6487618750 0.0356186875 0.0181729063
0.6617207813 0.0346440000 0.0204647813
0.6717333125 0.0338560000 0.0224169688
0.6793276250 0.0332278125 0.0241185313
0.6865115937 0.0327385313 0.0255663125
0.6929151875 0.0324328125 0.0265851875
0.6990021875 0.0321775625 0.0274236563
0.7042653437 0.0321238750 0.0277838750
0.7095028125 0.0320184688 0.0281324375
0.7144994687 0.0320061250 0.0283770000
0.7195099375 0.0319226875 0.0286268437
0.0284999375 0.0343258125 0.0208753125
0.0365366562 0.0351869062 0.0210585938
0.0445733750 0.0360480000 0.0212418750
0.0598839688 0.0378454375 0.0204442187
0.0758406875 0.0397513750 0.0195315625
0.1001630313 0.0419933750 0.0177534062
0.1270416250 0.0443033750 0.0155676250
0.1634749062 0.0463919063 0.0128483750
0.2056722500 0.0482898750 0.0096496250
0.2515277500 0.0487681250 0.0074721875
0.3012724375 0.0475606250 0.0063134375
0.3464942812 0.0462841562 0.0055564687
0.3841119375 0.0442446250 0.0055072500
0.4196000625 0.0425746563 0.0055734062
0.4482847500 0.0414595000 0.0061420000
0.4767945000 0.0404153125 0.0067375938
0.5030979375 0.0400778125 0.0077215000
0.5294012812 0.0397368438 0.0087048125
0.5547793125 0.0399812500 0.0098591875
0.5800913438 0.0402709375 0.0110263750
0.6054135000 0.0399969375 0.0131405000
0.6307414688 0.0395731875 0.0154922188
0.6479303125 0.0387677500 0.0178443125
0.6609854687 0.0377786875 0.0201655625
0.6710461250 0.0369835000 0.0221324375
0.6785226875 0.0363525625 0.0238002500
0.6856036250 0.0358608750 0.0252185000
0.6920175312 0.0355763438 0.0262413125
0.6981200000 0.0353528750 0.0270856875
0.7033789062 0.0353238125 0.0274442813
0.7086046875 0.0352861250 0.0277883750
0.7135992187 0.0352847187 0.0280321250
0.7185958750 0.0352723750 0.0282766875
0.0341947500 0.0452731563 0.0236381563
0.0397249062 0.0458665312 0.0239225937
0.0477616250 0.0467276250 0.0241058750
0.0620732813 0.0489094375 0.0242428437
0.0780300000 0.0508153750 0.0233301875
0.1014350938 0.0530313750 0.0195441250
0.1282116875 0.0553438750 0.0170056563
0.1620779375 0.0577419062 0.0130409687
0.2032959062 0.0597888750 0.0093217188
0.2468326563 0.0606930625 0.0069085000
0.2947064688 0.0598759375 0.0056070625
0.3408055313 0.0568103125 0.0047583125
0.3790579375 0.0522415313 0.0046133437
0.4157051875 0.0493903125 0.0048120937
0.4471105000 0.0449532813 0.0057953750
0.4756737812 0.0438674063 0.0064008125
0.5024253438 0.0432591562 0.0074945938
0.5287287813 0.0429216562 0.0084785000
0.5541284375 0.0431256562 0.0096387500
0.5794404687 0.0434153438 0.0108059375
0.6044153750 0.0431822813 0.0127527500
0.6297141875 0.0427625312 0.0150904687
0.6469924687 0.0419431563 0.0174625000
0.6600872813 0.0409484687 0.0197959375
0.6700119375 0.0401431562 0.0217241875
0.6773914688 0.0395076875 0.0233641875
0.6844519688 0.0390365000 0.0247773750
0.6908763750 0.0387766875 0.0258041250
0.6969701563 0.0385860313 0.0266451875
0.7022017812 0.0386149062 0.0269933750
0.7074195000 0.0386008437 0.0273344063
0.7123813750 0.0386616562 0.0275657812
0.7173759063 0.0386602500 0.0278095312
0.0403560000 0.0568048750 0.0266198750
0.0455005313 0.0573570625 0.0269198750
0.0510306875 0.0579504375 0.0272043125
0.0653423438 0.0601322500 0.0273412812
0.0806193750 0.0625172500 0.0274711250
0.1040244688 0.0647332500 0.0236850625
0.1301380625 0.0670620000 0.0188541250
0.1639023125 0.0694625312 0.0145367500
0.2024270000 0.0719192500 0.0093861250
0.2449843750 0.0729724375 0.0064524062
0.2900518750 0.0727408750 0.0049369375
0.3342800625 0.0700656250 0.0039455000
0.3730878750 0.0632837500 0.0037167500
0.4103698750 0.0579032813 0.0038197500
0.4431355000 0.0518053125 0.0050103750
0.4744194062 0.0473975625 0.0060305000
0.5012830000 0.0467216250 0.0071517500
0.5280345625 0.0461133750 0.0082455313
0.5534358750 0.0463140000 0.0094061875
0.5787710938 0.0465564375 0.0105790625
0.6037460000 0.0463233750 0.0125258750
0.6286366250 0.0459596250 0.0146675937
0.6458857500 0.0451442500 0.0170256250
0.6591391875 0.0441270625 0.0194078125
0.6691035000 0.0433161250 0.0213482500
0.6762889687 0.0426715938 0.0229326250
0.6832524375 0.0421958750 0.0243180000
0.6896888437 0.0419643125 0.0253492500
0.6957931250 0.0417983750 0.0261942500
0.7010065625 0.0418658750 0.0265355000
0.7061970000 0.0419097500 0.0268661250
0.7111470000 0.0419931875 0.0270930000
0.7161088750 0.0420540000 0.0273243750
0.0524290625 0.0731625000 0.0328046563
0.0563409063 0.0732248437 0.0328361875
0.0614854375 0.0737770312 0.0331361875
0.0695110000 0.0767082813 0.0321148125
0.0847880313 0.0790932813 0.0322446563
0.1092277188 0.0829240937 0.0308413750
0.1353413125 0.0852528438 0.0260104375
0.1709155938 0.0870157187 0.0155412813
0.2098878437 0.0893296250 0.0091803438
0.2504873750 0.0918891563 0.0054074062
0.2949957500 0.0924332188 0.0037098125
0.3373091875 0.0912186875 0.0026774687
0.3753160000 0.0858773750 0.0025137812
0.4115549687 0.0782078750 0.0023858125
0.4406928438 0.0693781563 0.0030881875
0.4729999687 0.0627093437 0.0043403125
0.4992132500 0.0527102812 0.0061228125
0.5260768437 0.0520343437 0.0072440625
0.5523910312 0.0495321875 0.0090529063
0.5777279063 0.0497712500 0.0102261875
0.6022767188 0.0495985313 0.0119631562
0.6271673438 0.0492347812 0.0141048750
0.6443864062 0.0484338437 0.0164140937
0.6576485000 0.0474165000 0.0187970000
0.6674746875 0.0465813125 0.0207006875
0.6745885312 0.0459305000 0.0222651875
0.6814027500 0.0454710313 0.0236058125
0.6877794687 0.0452560313 0.0246183125
0.6938387500 0.0451347187 0.0254459375
0.6989629375 0.0452555938 0.0257528437
0.7041185625 0.0453387812 0.0260701563
0.7089664688 0.0454832500 0.0262579375
0.7139164688 0.0455666875 0.0264848125
0.0666518750 0.0912750000 0.0401541875
0.0701154687 0.0911592187 0.0400880937
0.0740273125 0.0912215625 0.0401196250
0.0809800625 0.0942965625 0.0388848125
0.0892838125 0.0976159375 0.0376273125
0.1137235000 0.1014467500 0.0362240312
0.1414950625 0.1058033125 0.0342632500
0.1770693438 0.1075661875 0.0237940937
0.2189507500 0.1089518125 0.0095661250
0.2599978437 0.1113685312 0.0045828750
0.3029686250 0.1140455625 0.0023844375
0.3447229375 0.1136066562 0.0011699688
0.3815282500 0.1104261875 0.0011038750
0.4169662187 0.1041972500 0.0010409688
0.4429298125 0.0929772500 0.0013161250
0.4716091875 0.0835766875 0.0020800000
0.4974973125 0.0689160625 0.0041931250
0.5237105937 0.0589170000 0.0059756250
0.5502635625 0.0556838750 0.0079587500
0.5765555625 0.0529990625 0.0098291563
0.6010651875 0.0528327500 0.0115469375
0.6254071875 0.0525586875 0.0134200313
0.6426262500 0.0517577500 0.0157292500
0.6560095313 0.0507382188 0.0181222187
0.6658443750 0.0499028750 0.0200266250
0.6726717187 0.0492269375 0.0215116250
0.6794143125 0.0487611875 0.0228323750
0.6856716563 0.0485793125 0.0238073750
0.6916712500 0.0484745625 0.0246162500
0.6966934375 0.0486564375 0.0248839062
0.7017598125 0.0487930000 0.0251668750
0.7065396562 0.0489781563 0.0253285937
0.7113875625 0.0491226250 0.0255163750
0.0876587188 0.1162227187 0.0517500313
0.0910601562 0.1161198750 0.0516932187
0.0945237500 0.1160040937 0.0516271250
0.0989073125 0.1168325625 0.0511835937
0.1061382500 0.1202956875 0.0497126563
0.1184248750 0.1265529062 0.0469524063
0.1461964375 0.1309094687 0.0449916250
0.1860611875 0.1371478750 0.0367252187
0.2279425937 0.1385335000 0.0224972500
0.2757613125 0.1394081250 0.0063340000
0.3202832187 0.1417669687 0.0019786875
0.3609074375 0.1433918125 0.0004668125
0.3974796250 0.1409315938 0.0003813438
0.4320473125 0.1375360625 0.0003289375
0.4578723438 0.1291017500 0.0004949687
0.4835549687 0.1179841250 0.0007515937
0.5072355938 0.1059775000 0.0017362187
0.5331237187 0.0913168750 0.0038493437
0.5544875625 0.0791051563 0.0048588125
0.5810183437 0.0756893750 0.0069035000
0.6014000625 0.0614428437 0.0096086563
0.6257028750 0.0611751875 0.0114625625
0.6400816875 0.0556877500 0.0145269063
0.6534649688 0.0546682187 0.0169198750
0.6631610000 0.0534999375 0.0188985938
0.6699645000 0.0527825000 0.0203923437
0.6766060312 0.0527112500 0.0215497813
0.6828844687 0.0527329063 0.0224630000
0.6892448125 0.0532986562 0.0232178750
0.6948074687 0.0542938125 0.0234461562
0.6999139062 0.0546598750 0.0236907500
0.7051017187 0.0554881563 0.0238211875
0.7098815625 0.0556733125 0.0239829062
0.1131882500 0.1457272500 0.0661767500
0.1165482500 0.1456330312 0.0661261250
0.1199496875 0.1455301875 0.0660693125
0.1232910000 0.1453997812 0.0659991562
0.1276557500 0.1462260000 0.0655550000
0.1377185000 0.1529585313 0.0625880625
0.1510348750 0.1604046250 0.0592838125
0.1908996250 0.1666430313 0.0510174062
0.2388265000 0.1741360000 0.0385472500
0.2866452187 0.1750106250 0.0223840000
0.3412494375 0.1753012500 0.0040090000
0.3834247813 0.1766079062 0.0003402500
0.4193558750 0.1761283750 0.0002015000
0.4536904375 0.1734530938 0.0001297188
0.4793076250 0.1691973125 0.0001320625
0.5048516875 0.1608653750 0.0002795625
0.5266007500 0.1511810000 0.0002767500
0.5502813750 0.1391743750 0.0012613750
0.5687985000 0.1224925000 0.0016931875
0.5896358437 0.1101364062 0.0025825625
0.6085620000 0.0914401250 0.0055587500
0.6270425625 0.0733734688 0.0084967812
0.6411275625 0.0673617500 0.0116556875
0.6503974688 0.0590022813 0.0153725313
0.6600935000 0.0578340000 0.0173512500
0.6665631875 0.0565355625 0.0189675000
0.6731808750 0.0564228125 0.0201336875
0.6795436875 0.0572585938 0.0207997812
0.6859251250 0.0580278750 0.0214928750
0.6925687187 0.0606495938 0.0216424062
0.6982156250 0.0618289375 0.0218476250
0.7038696875 0.0633922188 0.0219423125
0.7090575000 0.0642205000 0.0220727500
0.1440329687 0.1809339375 0.0826822500
0.1473566562 0.1808594062 0.0826456250
0.1507166562 0.1807651875 0.0825950000
0.1540168125 0.1806665313 0.0825463750
0.1573393125 0.1805338750 0.0824755938
0.1626806562 0.1825544375 0.0814885312
0.1737731563 0.1904758438 0.0779775937
0.1916498438 0.2013219062 0.0716577188
0.2395767188 0.2088148750 0.0591875625
0.2997953750 0.2184459063 0.0394188125
0.3543995937 0.2187365313 0.0210438125
0.4070811563 0.2181595000 0.0040514688
0.4447329375 0.2174355937 0.0020342813
0.4805621250 0.2165254688 0.0013269375
0.5087938125 0.2127025625 0.0005335312
0.5343344375 0.2084218125 0.0004710937
0.5571713750 0.2007590625 0.0000816562
0.5789204375 0.1910746875 0.0000788438
0.5995687500 0.1801016563 0.0001692187
0.6175593750 0.1632754063 0.0004809375
0.6335993125 0.1484866563 0.0016151563
0.6506243125 0.1259702500 0.0048242187
0.6597793438 0.1122338438 0.0067027812
0.6687554375 0.1033500937 0.0105141875
0.6730050312 0.0970376875 0.0125139063
0.6794747187 0.0957392500 0.0141301563
0.6857357187 0.0968635000 0.0149611563
0.6920708750 0.0979607813 0.0155597187
0.7006263125 0.1016920625 0.0160483125
0.7088582187 0.1061282188 0.0161680312
0.7164399375 0.1098776250 0.0163046250
0.7247691563 0.1146129375 0.0163852500
0.7304232188 0.1161762188 0.0164799375
0.1809521875 0.2226573750 0.1015635000
0.1842343750 0.2226053437 0.1015428750
0.1875580625 0.2225308125 0.1015062500
0.1908347813 0.2224569062 0.1014743125
0.1941221250 0.2223613750 0.1014285625
0.1973610937 0.2222373125 0.1013595000
0.2026720625 0.2242610000 0.1003730625
0.2161726250 0.2360161250 0.0947865000
0.2356546875 0.2494180000 0.0870828750
0.2958733438 0.2590490313 0.0673141250
0.3701397500 0.2711235625 0.0392041250
0.4228213125 0.2705465312 0.0222117812
0.4716575625 0.2682341875 0.0079847500
0.5092074375 0.2670796875 0.0053989688
0.5446290000 0.2644471875 0.0024172500
0.5727841250 0.2605993125 0.0015590625
0.5972528750 0.2559690000 0.0005896875
0.6200898125 0.2483062500 0.0002002500
0.6431452500 0.2427103125 0.0000902500
0.6638868750 0.2320293125 0.0001729687
0.6790852500 0.2219474375 0.0002390625
0.6944271250 0.2088447813 0.0013118750
0.7025090000 0.1949761875 0.0024481250
0.7071924687 0.1855636875 0.0032902813
0.7109578125 0.1790406875 0.0051984375
0.7106480000 0.1747939375 0.0055328125
0.7169090000 0.1759181875 0.0063638125
0.7228569687 0.1806764688 0.0060169375
0.7313847500 0.1846692500 0.0064380000
0.7459699063 0.1963631563 0.0064384687
0.7551399375 0.2019270000 0.0065452500
0.7688194688 0.2130063750 0.0065977500
0.7771486875 0.2177416875 0.0066783750
0.2166450000 0.2632914375 0.1182330313
0.2199010937 0.2632475312 0.1182170938
0.2231832813 0.2631955000 0.1181964687
0.2264266562 0.2631384688 0.1181750938
0.2296905625 0.2630676875 0.1181460312
0.2328987500 0.2629770000 0.1181048125
0.2361073437 0.2628560625 0.1180363750
0.2425743438 0.2668090938 0.1160150937
0.2576802812 0.2811200312 0.1090447813
0.2861511563 0.2985270000 0.0965994375
0.3604175625 0.3106015313 0.0684894375
0.4342992813 0.3231323125 0.0406117812
0.4831355313 0.3208199688 0.0263847500
0.5322951250 0.3185291875 0.0123935938
0.5697208750 0.3159537500 0.0080697500
0.6050420938 0.3134271250 0.0050701250
0.6320302187 0.3097530625 0.0034925000
0.6564989688 0.3051227500 0.0025231250
0.6822565000 0.3012628125 0.0013474375
0.7054052500 0.2959589063 0.0012297812
0.7258752500 0.2904025937 0.0004101562
0.7403755625 0.2820068125 0.0004148437
0.7500600938 0.2751475938 0.0001431250
0.7536704063 0.2656029063 0.0002429688
0.7562706250 0.2602277188 0.0003259375
0.7554765625 0.2557703750 0.0005687500
0.7576066562 0.2552185000 0.0008650625
0.7635546250 0.2599767813 0.0005181875
0.7702587188 0.2661200625 0.0006588125
0.7844570938 0.2776978438 0.0007580000
0.7982323125 0.2890385625 0.0009300937
0.8108780625 0.2997110625 0.0012296250
0.8245575937 0.3107904375 0.0012821250
0.2498850000 0.3017467500 0.1304791250
0.2530889062 0.3017190938 0.1304725625
0.2563450000 0.3016751875 0.1304566250
0.2595516250 0.3016361562 0.1304457500
0.2627833750 0.3015811250 0.1304258750
0.2659733750 0.3015106875 0.1304047187
0.2691546875 0.3014201250 0.1303663750
0.2725176875 0.3017050312 0.1300957188
0.2790876250 0.3059286250 0.1279396250
0.3018611875 0.3249914687 0.1172503437
0.3390950625 0.3478291875 0.1005547500
0.4129767813 0.3603599687 0.0726770938
0.4860891250 0.3738032500 0.0452641250
0.5352487188 0.3715124687 0.0312729687
0.5857016875 0.3693079375 0.0182253125
0.6230270938 0.3668383750 0.0138835625
0.6569435000 0.3657940000 0.0106332500
0.6839316250 0.3621199375 0.0090556250
0.7142265625 0.3607783125 0.0060776875
0.7404002500 0.3571532813 0.0047585312
0.7668062500 0.3547065000 0.0028191250
0.7880905625 0.3498644687 0.0015440625
0.8002193125 0.3453077500 0.0009325000
0.8087180625 0.3403680625 0.0003526562
0.8121216250 0.3358666250 0.0003797500
0.8145409375 0.3349042813 0.0003990625
0.8167165000 0.3343962500 0.0007532500
0.8233010312 0.3397683437 0.0012166250
0.8300051250 0.3459116250 0.0013572500
0.8387885625 0.3558636562 0.0028385000
0.8521770000 0.3670882500 0.0031093125
0.8606876250 0.3761332500 0.0043969687
0.8733333750 0.3868057500 0.0046965000
0.2822278125 0.3392115000 0.1416844063
0.2854160625 0.3391857187 0.1416785000
0.2886199687 0.3391580625 0.1416719375
0.2918011562 0.3391247187 0.1416638750
0.2949961562 0.3390876875 0.1416545000
0.2981549375 0.3390310312 0.1416406562
0.3013180625 0.3389607187 0.1416223750
0.3045791562 0.3391341562 0.1414491250
0.3080450937 0.3396896250 0.1410436562
0.3194286250 0.3475730312 0.1361334687
0.3509651875 0.3720666250 0.1211939375
0.3915960625 0.3972884688 0.1027959687
0.4647084062 0.4107317500 0.0753830000
0.5364405625 0.4232316250 0.0495742813
0.5868935313 0.4210270937 0.0365266250
0.6370475937 0.4187359687 0.0236086250
0.6725710625 0.4173637187 0.0193113125
0.7064874688 0.4163193438 0.0160610000
0.7382209375 0.4152433125 0.0129939062
0.7689320313 0.4141365938 0.0098725000
0.7979817812 0.4132694063 0.0072768437
0.8252020937 0.4115369063 0.0048820000
0.8427328750 0.4098421562 0.0033947500
0.8536758438 0.4072049688 0.0024750625
0.8605964688 0.4061272812 0.0020604062
0.8638191250 0.4060386875 0.0020238438
0.8681749375 0.4080854375 0.0023007812
0.8748049375 0.4135013750 0.0028220312
0.8817141562 0.4199398125 0.0036675312
0.8904975938 0.4298918438 0.0051487812
0.8990450938 0.4395843750 0.0066468437
0.9074559375 0.4485600937 0.0079558125
0.9159665625 0.4576050937 0.0092434688
0.3109818750 0.3727140000 0.1487264375
0.3141075000 0.3726957187 0.1487231562
0.3172957500 0.3726699375 0.1487172500
0.3204269375 0.3726447188 0.1487123125
0.3235969375 0.3726117500 0.1487045000
0.3267214688 0.3725678437 0.1486961562
0.3298546250 0.3725086875 0.1486826875
0.3329482812 0.3724186875 0.1486641250
0.3361630625 0.3725790000 0.1484906875
0.3406372187 0.3753381562 0.1466176250
0.3531730000 0.3857400625 0.1400301875
0.3906276875 0.4139030312 0.1220984687
0.4430948125 0.4464636250 0.0977161250
0.5148269688 0.4589635000 0.0719074062
0.5810383750 0.4676897500 0.0525156875
0.6311924375 0.4653986250 0.0395976875
0.6771618125 0.4618951875 0.0284948750
0.7126852812 0.4605229375 0.0241975625
0.7473839375 0.4595441875 0.0213611250
0.7791732812 0.4584728437 0.0183235937
0.8116168750 0.4598261250 0.0155614375
0.8410997500 0.4595739375 0.0130555938
0.8613419375 0.4593745625 0.0113913750
0.8753836563 0.4584463750 0.0102694375
0.8824628750 0.4577024375 0.0099115000
0.8860027187 0.4582813437 0.0099883750
0.8901287500 0.4602616250 0.0103556875
0.8958396250 0.4654116875 0.0112384375
0.9026505000 0.4717877500 0.0121066875
0.9100571250 0.4808665312 0.0139064375
0.9186046250 0.4905590625 0.0154045000
0.9256185312 0.4985648437 0.0170118438
0.9340293750 0.5075405625 0.0183208125
0.3396308437 0.4061423437 0.1555450312
0.3427522812 0.4061243750 0.1555418750
0.3458779062 0.4061060938 0.1555385938
0.3489945938 0.4060825625 0.1555342813
0.3521145937 0.4060577187 0.1555295938
0.3552155313 0.4060180000 0.1555228125
0.3583144375 0.4059715937 0.1555148437
0.3613800625 0.4058933437 0.1555011562
0.3644274062 0.4057902187 0.1554824062
0.3684978750 0.4078347813 0.1540510938
0.3741242812 0.4131124375 0.1505007812
0.3920355625 0.4275710000 0.1407393437
0.4413265000 0.4630727188 0.1168232500
0.4934943438 0.4946537500 0.0938581563
0.5597057500 0.5033800000 0.0744664375
0.6252646875 0.5119721563 0.0558145937
0.6712340625 0.5084687187 0.0447117812
0.7172034375 0.5049652812 0.0336089687
0.7530345000 0.5037456250 0.0297337813
0.7877890312 0.5027715625 0.0269269063
0.8215193125 0.5039976562 0.0241485937
0.8543960312 0.5059659375 0.0214762500
0.8769070000 0.5070493125 0.0198755937
0.8936601250 0.5076165000 0.0185766875
0.9034969687 0.5084286875 0.0181102500
0.9071954063 0.5093413437 0.0182438437
0.9115311563 0.5119710000 0.0188776250
0.9170122500 0.5170545937 0.0198507500
0.9228055000 0.5232417187 0.0213936875
0.9301137812 0.5322581250 0.0232161875
0.9372272500 0.5411846563 0.0253132500
0.9442411563 0.5491904375 0.0269205937
0.9512550625 0.5571962187 0.0285279375
0.3668085000 0.4385325000 0.1592355000
0.3698713125 0.4385189063 0.1592340937
0.3729927500 0.4385009375 0.1592309375
0.3760606875 0.4384826562 0.1592288750
0.3791685000 0.4384591250 0.1592247500
0.3822335000 0.4384287812 0.1592210937
0.3853144375 0.4383870625 0.1592146875
0.3883613125 0.4383263125 0.1592070000
0.3913922500 0.4382385000 0.1591935000
0.3943800937 0.4381030000 0.1591751875
0.3983825625 0.4401105625 0.1577443750
0.4072139688 0.4509940000 0.1502928125
0.4315352500 0.4766641250 0.1327288750
0.4826887187 0.5111139688 0.1098560312
0.5423066875 0.5384875000 0.0910639375
0.6078656250 0.5470796562 0.0724120938
0.6642900000 0.5537945000 0.0641185000
0.7102593750 0.5502910625 0.0530156875
0.7503658125 0.5480708125 0.0424422500
0.7857780937 0.5469428125 0.0386048750
0.8247663750 0.5464780000 0.0349568750
0.8595550938 0.5478314063 0.0319682813
0.8855158750 0.5493571875 0.0317721875
0.9045688750 0.5502193125 0.0314096563
0.9147292500 0.5514567500 0.0314225000
0.9187974375 0.5528554062 0.0321038437
0.9227544375 0.5557281875 0.0335595000
0.9274780312 0.5612980312 0.0361763750
0.9327460000 0.5676495000 0.0387492500
0.9379531562 0.5773232812 0.0446915000
0.9449110625 0.5862946875 0.0470918125
0.9497470937 0.5949287188 0.0529446562
0.9567610000 0.6029345000 0.0545520000
0.3939861562 0.4709226563 0.1629259688
0.3970489687 0.4709090625 0.1629245625
0.4001117813 0.4708954687 0.1629231563
0.4031755312 0.4708775000 0.1629212188
0.4062345938 0.4708592187 0.1629193438
0.4092874063 0.4708301875 0.1629162500
0.4123324063 0.4707978438 0.1629129687
0.4153613125 0.4707417812 0.1629068438
0.4183735000 0.4706714687 0.1628993438
0.4213449375 0.4705512813 0.1628862812
0.4242647813 0.4703787812 0.1628684687
0.4314722500 0.4779921250 0.1575364062
0.4467136563 0.5000871250 0.1422823438
0.4728974687 0.5247053750 0.1257616563
0.5315010625 0.5549477188 0.1070618125
0.5904665625 0.5821871563 0.0890095937
0.6468909375 0.5889020000 0.0807160000
0.7033153125 0.5956168438 0.0724224062
0.7434217500 0.5933965937 0.0618489687
0.7831094062 0.5912680000 0.0513133438
0.8227554375 0.5906492500 0.0466348438
0.8628021563 0.5903117500 0.0427765625
0.8906749375 0.5912226563 0.0422642187
0.9131777500 0.5925271875 0.0433062500
0.9256380000 0.5940595625 0.0442554687
0.9300297187 0.5958834687 0.0454160938
0.9343564688 0.5992422500 0.0474195000
0.9387013125 0.6050552188 0.0508582500
0.9432117813 0.6118929375 0.0550748750
0.9478936562 0.6217310625 0.0620470625
0.9527504375 0.6313598437 0.0685671250
0.9574309062 0.6400387500 0.0747232188
0.9622669375 0.6486727813 0.0805760625
0.4218406250 0.5047395000 0.1664729375
0.4248575000 0.5047272188 0.1664710937
0.4279203125 0.5047136250 0.1664696875
0.4309372188 0.5046980000 0.1664674688
0.4339930000 0.5046798750 0.1664655625
0.4370073750 0.5046540312 0.1664619687
0.4400430000 0.5046224375 0.1664585000
0.4430438437 0.5045735000 0.1664521250
0.4460424375 0.5045066250 0.1664443125
0.4489997187 0.5044019688 0.1664309063
0.4519077500 0.5042428125 0.1664120000
0.4547699375 0.5040243750 0.1663852812
0.4625146250 0.5126761875 0.1602569375
0.4799835312 0.5398836563 0.1425681875
0.5149556875 0.5828970000 0.1174680625
0.5738319062 0.6118703750 0.0997763438
0.6356890625 0.6224791250 0.0955696250
0.6921134375 0.6291939687 0.0872760312
0.7361110625 0.6338105625 0.0872367500
0.7757987187 0.6316819687 0.0767011250
