bundles/resolve-cinematic-luts/Cinem8/Sony S-Log3 Color Grading LUTs/CMG_Vision_50D_33x.cube
TITLE "Copyright by CINEM8.CO"
# LUT SIZE 33x33x33, 17424, 574992
# Data domain
# LUT data points begin
#  
# 
LUT_3D_SIZE 33
0.0401840000 0.0386350000 0.0210080000
0.0401840000 0.0386350000 0.0210080000
0.0401840000 0.0386350000 0.0210080000
0.0401840000 0.0386350000 0.0210080000
0.0401840000 0.0386350000 0.0210080000
0.0401850000 0.0387480000 0.0211170000
0.0438480000 0.0399680000 0.0229970000
0.0654060000 0.0465210000 0.0250210000
0.0978000000 0.0569790000 0.0289170000
0.1331580000 0.0719580000 0.0342660000
0.1862320000 0.0898100000 0.0352280000
0.2482190000 0.1091260000 0.0346950000
0.3100480000 0.1281360000 0.0349420000
0.3749020000 0.1440130000 0.0367650000
0.4439320000 0.1696850000 0.0351760000
0.5026030000 0.1911200000 0.0392670000
0.5599200000 0.2221560000 0.0489310000
0.6021360000 0.2445170000 0.0611540000
0.6411270000 0.2675850000 0.0653960000
0.6807120000 0.2892110000 0.0824920000
0.7142990000 0.3089420000 0.0913120000
0.7476830000 0.3276830000 0.1071490000
0.7748060000 0.3442810000 0.1140890000
0.8005470000 0.3633420000 0.1317010000
0.8184050000 0.3767000000 0.1360800000
0.8328820000 0.3876840000 0.1502060000
0.8336930000 0.3882290000 0.1508470000
0.8336930000 0.3882290000 0.1508470000
0.8336930000 0.3882290000 0.1508470000
0.8336930000 0.3882290000 0.1508470000
0.8336930000 0.3882290000 0.1508470000
0.8336930000 0.3882290000 0.1508470000
0.8336930000 0.3882290000 0.1508470000
0.0401840000 0.0386350000 0.0210080000
0.0401840000 0.0386350000 0.0210080000
0.0401840000 0.0386350000 0.0210080000
0.0401840000 0.0386350000 0.0210080000
0.0401840000 0.0386350000 0.0210080000
0.0401840000 0.0386350000 0.0210080000
0.0424410000 0.0395660000 0.0219390000
0.0605200000 0.0459240000 0.0248900000
0.0945210000 0.0564830000 0.0285600000
0.1281430000 0.0699990000 0.0336780000
0.1812800000 0.0887470000 0.0351620000
0.2434400000 0.1081340000 0.0344130000
0.3067980000 0.1274810000 0.0355430000
0.3736670000 0.1436360000 0.0366450000
0.4443370000 0.1698150000 0.0352520000
0.5046980000 0.1918890000 0.0399060000
0.5632680000 0.2239410000 0.0493340000
0.6061770000 0.2461940000 0.0624300000
0.6469710000 0.2713610000 0.0681470000
0.6875850000 0.2924540000 0.0867340000
0.7219080000 0.3142450000 0.0952860000
0.7543730000 0.3313990000 0.1110380000
0.7838030000 0.3507680000 0.1195290000
0.8082970000 0.3697370000 0.1354820000
0.8255660000 0.3833700000 0.1422580000
0.8336930000 0.3882290000 0.1508470000
0.8336930000 0.3882290000 0.1508470000
0.8336930000 0.3882290000 0.1508470000
0.8336930000 0.3882290000 0.1508470000
0.8336930000 0.3882290000 0.1508470000
0.8336930000 0.3882290000 0.1508470000
0.8336930000 0.3882290000 0.1508470000
0.8336930000 0.3882290000 0.1508470000
0.0401840000 0.0386350000 0.0210080000
0.0401840000 0.0386350000 0.0210080000
0.0401840000 0.0386350000 0.0210080000
0.0401840000 0.0386350000 0.0210080000
0.0401840000 0.0386350000 0.0210080000
0.0401840000 0.0386350000 0.0210080000
0.0411340000 0.0394270000 0.0217820000
0.0546050000 0.0449040000 0.0248790000
0.0898730000 0.0544060000 0.0278720000
0.1218350000 0.0671310000 0.0328850000
0.1747070000 0.0867250000 0.0348450000
0.2370380000 0.1062560000 0.0341230000
0.3016160000 0.1262190000 0.0366090000
0.3711400000 0.1429340000 0.0361570000
0.4431920000 0.1694790000 0.0350220000
0.5056700000 0.1922030000 0.0401630000
0.5652180000 0.2248660000 0.0489820000
0.6095660000 0.2481400000 0.0626990000
0.6526970000 0.2739060000 0.0703490000
0.6936620000 0.2973530000 0.0907710000
0.7287050000 0.3175670000 0.0991930000
0.7618200000 0.3368430000 0.1111180000
0.7927660000 0.3576200000 0.1257470000
0.8143220000 0.3735180000 0.1347700000
0.8318870000 0.3870850000 0.1491300000
0.8336930000 0.3882290000 0.1508470000
0.8336930000 0.3882290000 0.1508470000
0.8336930000 0.3882290000 0.1508470000
0.8336930000 0.3882290000 0.1508470000
0.8336930000 0.3882290000 0.1508470000
0.8336930000 0.3882290000 0.1508470000
0.8336930000 0.3882290000 0.1508470000
0.8336930000 0.3882290000 0.1508470000
0.0401840000 0.0386500000 0.0210220000
0.0401840000 0.0386350000 0.0210080000
0.0401840000 0.0386350000 0.0210080000
0.0401840000 0.0386350000 0.0210080000
0.0401840000 0.0386350000 0.0210080000
0.0401840000 0.0386350000 0.0210080000
0.0401890000 0.0394310000 0.0217820000
0.0492900000 0.0422490000 0.0247870000
0.0843670000 0.0518960000 0.0272640000
0.1149220000 0.0648460000 0.0318450000
0.1662020000 0.0833900000 0.0344670000
0.2296800000 0.1031440000 0.0344410000
0.2949530000 0.1236030000 0.0370720000
0.3673490000 0.1421600000 0.0356560000
0.4402520000 0.1685980000 0.0344490000
0.5048550000 0.1919500000 0.0399440000
0.5650880000 0.2248090000 0.0490090000
0.6118570000 0.2496100000 0.0625940000
0.6568050000 0.2755460000 0.0718930000
0.6983390000 0.3005130000 0.0916480000
0.7348420000 0.3204460000 0.1020470000
0.7687620000 0.3414810000 0.1113990000
0.7980790000 0.3612980000 0.1300120000
0.8202620000 0.3785570000 0.1376670000
0.8336620000 0.3882060000 0.1508560000
0.8336930000 0.3882290000 0.1508470000
0.8336930000 0.3882290000 0.1508470000
0.8336930000 0.3882290000 0.1508470000
0.8336930000 0.3882290000 0.1508470000
0.8336930000 0.3882290000 0.1508470000
0.8336930000 0.3882290000 0.1508470000
0.8336930000 0.3882290000 0.1508470000
0.8336930000 0.3882290000 0.1508470000
0.0402680000 0.0421730000 0.0245080000
0.0402500000 0.0417730000 0.0241030000
0.0402160000 0.0408370000 0.0231620000
0.0402000000 0.0402450000 0.0225760000
0.0401870000 0.0391010000 0.0214610000
0.0401880000 0.0393030000 0.0216580000
0.0401870000 0.0391420000 0.0215010000
0.0456470000 0.0405810000 0.0244150000
0.0773850000 0.0509270000 0.0267490000
0.1081100000 0.0625250000 0.0305360000
0.1568860000 0.0794140000 0.0345760000
0.2217460000 0.0995510000 0.0345670000
0.2875120000 0.1203610000 0.0367430000
0.3601280000 0.1409910000 0.0365240000
0.4341040000 0.1665260000 0.0335070000
0.5023440000 0.1910450000 0.0392400000
0.5643570000 0.2244520000 0.0491360000
0.6129460000 0.2503920000 0.0624100000
0.6596230000 0.2771550000 0.0729210000
0.7018370000 0.3020970000 0.0906390000
0.7410890000 0.3239500000 0.1041990000
0.7748580000 0.3443230000 0.1141100000
0.8032690000 0.3656120000 0.1332650000
0.8259800000 0.3836630000 0.1426810000
0.8336930000 0.3882290000 0.1508470000
0.8336930000 0.3882290000 0.1508470000
0.8336930000 0.3882290000 0.1508470000
0.8336930000 0.3882290000 0.1508470000
0.8336930000 0.3882290000 0.1508470000
0.8336930000 0.3882290000 0.1508470000
0.8336930000 0.3882290000 0.1508470000
0.8336930000 0.3882290000 0.1508470000
0.8336930000 0.3882290000 0.1508470000
0.0406160000 0.0475790000 0.0263750000
0.0405760000 0.0470600000 0.0258280000
0.0405040000 0.0460940000 0.0251120000
0.0404130000 0.0448290000 0.0249450000
0.0403360000 0.0435790000 0.0248710000
0.0403110000 0.0430940000 0.0248470000
0.0402830000 0.0425070000 0.0246430000
0.0415700000 0.0418180000 0.0242480000
0.0666640000 0.0469860000 0.0251860000
0.1017000000 0.0583320000 0.0293810000
0.1461520000 0.0758190000 0.0347970000
0.2126570000 0.0965390000 0.0343780000
0.2793740000 0.1175700000 0.0359350000
0.3500740000 0.1393700000 0.0385030000
0.4257740000 0.1630660000 0.0339940000
0.4982790000 0.1896270000 0.0380590000
0.5625050000 0.2234990000 0.0490780000
0.6128460000 0.2502970000 0.0624460000
0.6609670000 0.2780630000 0.0734810000
0.7037930000 0.3028710000 0.0899680000
0.7455510000 0.3264370000 0.1061250000
0.7795000000 0.3472180000 0.1167440000
0.8088390000 0.3700740000 0.1353610000
0.8303950000 0.3862570000 0.1474520000
0.8336930000 0.3882290000 0.1508470000
0.8336930000 0.3882290000 0.1508470000
0.8336930000 0.3882290000 0.1508470000
0.8336930000 0.3882290000 0.1508470000
0.8336930000 0.3882290000 0.1508470000
0.8336930000 0.3882290000 0.1508470000
0.8336930000 0.3882290000 0.1508470000
0.8336930000 0.3882290000 0.1508470000
0.8336930000 0.3882290000 0.1508470000
0.0375430000 0.0537210000 0.0293910000
0.0381440000 0.0530900000 0.0293350000
0.0388990000 0.0522780000 0.0292820000
0.0404580000 0.0505100000 0.0290840000
0.0407640000 0.0494530000 0.0283530000
0.0406260000 0.0477080000 0.0265110000
0.0405900000 0.0472380000 0.0260160000
0.0415190000 0.0466430000 0.0253970000
0.0604360000 0.0498620000 0.0287860000
0.0961720000 0.0570950000 0.0289890000
0.1348340000 0.0725670000 0.0344290000
0.2008520000 0.0928560000 0.0350740000
0.2694610000 0.1147890000 0.0352920000
0.3397530000 0.1366280000 0.0381420000
0.4185300000 0.1596370000 0.0358900000
0.4926520000 0.1876630000 0.0363910000
0.5577310000 0.2209470000 0.0483930000
0.6115420000 0.2494770000 0.0625150000
0.6610670000 0.2781280000 0.0735650000
0.7036440000 0.3028140000 0.0900190000
0.7485010000 0.3281350000 0.1076410000
0.7833010000 0.3503160000 0.1192010000
0.8124770000 0.3724290000 0.1350150000
0.8328210000 0.3876430000 0.1501020000
0.8336930000 0.3882290000 0.1508470000
0.8336930000 0.3882290000 0.1508470000
0.8336930000 0.3882290000 0.1508470000
0.8336930000 0.3882290000 0.1508470000
0.8336930000 0.3882290000 0.1508470000
0.8336930000 0.3882290000 0.1508470000
0.8336930000 0.3882290000 0.1508470000
0.8336930000 0.3882290000 0.1508470000
0.8336930000 0.3882290000 0.1508470000
0.0258280000 0.0622270000 0.0343800000
0.0271690000 0.0611160000 0.0340560000
0.0287530000 0.0596490000 0.0337260000
0.0303250000 0.0582620000 0.0331960000
0.0335810000 0.0560400000 0.0313880000
0.0353370000 0.0551210000 0.0304570000
0.0378150000 0.0534050000 0.0296340000
0.0382400000 0.0527080000 0.0297770000
0.0541690000 0.0561650000 0.0308770000
0.0910380000 0.0615460000 0.0319430000
0.1235910000 0.0690600000 0.0332330000
0.1855880000 0.0896220000 0.0352100000
0.2547820000 0.1105190000 0.0350530000
0.3283360000 0.1326730000 0.0363650000
0.4094700000 0.1565330000 0.0362450000
0.4853270000 0.1852330000 0.0344610000
0.5518110000 0.2177110000 0.0466560000
0.6089840000 0.2479120000 0.0625300000
0.6600930000 0.2774970000 0.0730880000
0.7040380000 0.3029650000 0.0898840000
0.7499120000 0.3288480000 0.1085140000
0.7861410000 0.3526940000 0.1210030000
0.8151840000 0.3740400000 0.1347330000
0.8335550000 0.3881290000 0.1507550000
0.8336930000 0.3882290000 0.1508470000
0.8336930000 0.3882290000 0.1508470000
0.8336930000 0.3882290000 0.1508470000
0.8336930000 0.3882290000 0.1508470000
0.8336930000 0.3882290000 0.1508470000
0.8336930000 0.3882290000 0.1508470000
0.8336930000 0.3882290000 0.1508470000
0.8336930000 0.3882290000 0.1508470000
0.8336930000 0.3882290000 0.1508470000
0.0137790000 0.0767070000 0.0404240000
0.0141950000 0.0757290000 0.0397030000
0.0147650000 0.0744150000 0.0387240000
0.0163910000 0.0712530000 0.0374740000
0.0174940000 0.0695280000 0.0370290000
0.0195710000 0.0668010000 0.0363150000
0.0211360000 0.0657610000 0.0355730000
0.0244950000 0.0632920000 0.0350690000
0.0426050000 0.0644380000 0.0357230000
0.0825980000 0.0714880000 0.0373720000
0.1172910000 0.0783460000 0.0373870000
0.1724570000 0.0866820000 0.0349540000
0.2417910000 0.1077090000 0.0343110000
0.3177270000 0.1297230000 0.0347880000
0.3982940000 0.1533020000 0.0351850000
0.4770310000 0.1816900000 0.0343760000
0.5442070000 0.2137980000 0.0440510000
0.6024590000 0.2446690000 0.0612240000
0.6569460000 0.2756830000 0.0719760000
0.7032420000 0.3026440000 0.0901580000
0.7504550000 0.3291500000 0.1088340000
0.7878860000 0.3541540000 0.1221530000
0.8172720000 0.3757330000 0.1355570000
0.8336930000 0.3882290000 0.1508470000
0.8336930000 0.3882290000 0.1508470000
0.8336930000 0.3882290000 0.1508470000
0.8336930000 0.3882290000 0.1508470000
0.8336930000 0.3882290000 0.1508470000
0.8336930000 0.3882290000 0.1508470000
0.8336930000 0.3882290000 0.1508470000
0.8336930000 0.3882290000 0.1508470000
0.8336930000 0.3882290000 0.1508470000
0.8336930000 0.3882290000 0.1508470000
0.0126740000 0.0899720000 0.0502680000
0.0125830000 0.0891520000 0.0494260000
0.0124480000 0.0878990000 0.0482140000
0.0122920000 0.0863810000 0.0469490000
0.0120630000 0.0839980000 0.0453810000
0.0119360000 0.0826350000 0.0445380000
0.0122040000 0.0804040000 0.0430790000
0.0130730000 0.0783170000 0.0412700000
0.0173910000 0.0773130000 0.0409230000
0.0680820000 0.0833690000 0.0438760000
0.1090630000 0.0898140000 0.0420380000
0.1579370000 0.0976490000 0.0407980000
0.2270710000 0.1032140000 0.0350950000
0.3014560000 0.1260760000 0.0365440000
0.3825620000 0.1469820000 0.0364430000
0.4661770000 0.1763250000 0.0368070000
0.5359840000 0.2096690000 0.0413230000
0.5978410000 0.2426640000 0.0592920000
0.6503190000 0.2729660000 0.0695020000
0.7012530000 0.3018700000 0.0908390000
0.7499430000 0.3288780000 0.1085320000
0.7885430000 0.3546280000 0.1226390000
0.8186890000 0.3769690000 0.1363540000
0.8336930000 0.3882290000 0.1508470000
0.8336930000 0.3882290000 0.1508470000
0.8336930000 0.3882290000 0.1508470000
0.8336930000 0.3882290000 0.1508470000
0.8336930000 0.3882290000 0.1508470000
0.8336930000 0.3882290000 0.1508470000
0.8336930000 0.3882290000 0.1508470000
0.8336930000 0.3882290000 0.1508470000
0.8336930000 0.3882290000 0.1508470000
0.8336930000 0.3882290000 0.1508470000
0.0143420000 0.1063940000 0.0618790000
0.0142050000 0.1050710000 0.0609540000
0.0140270000 0.1033390000 0.0597320000
0.0138450000 0.1015800000 0.0584710000
0.0135730000 0.0987600000 0.0569060000
0.0132310000 0.0952630000 0.0548030000
0.0131400000 0.0943670000 0.0541620000
0.0129150000 0.0921910000 0.0524210000
0.0127640000 0.0905790000 0.0509330000
0.0484450000 0.0959970000 0.0507060000
0.1009650000 0.1021900000 0.0502240000
0.1437130000 0.1110210000 0.0471520000
0.2174450000 0.1158710000 0.0415160000
0.2857360000 0.1214640000 0.0367410000
0.3668580000 0.1421010000 0.0359200000
0.4516790000 0.1717930000 0.0364330000
0.5276980000 0.2048240000 0.0396340000
0.5921460000 0.2401990000 0.0561970000
0.6451180000 0.2701720000 0.0672470000
0.6981900000 0.3002380000 0.0913250000
0.7485670000 0.3281770000 0.1076990000
0.7882860000 0.3544140000 0.1225010000
0.8193720000 0.3776610000 0.1368980000
0.8336930000 0.3882290000 0.1508470000
0.8336930000 0.3882290000 0.1508470000
0.8336930000 0.3882290000 0.1508470000
0.8336930000 0.3882290000 0.1508470000
0.8336930000 0.3882290000 0.1508470000
0.8336930000 0.3882290000 0.1508470000
0.8336930000 0.3882290000 0.1508470000
0.8336930000 0.3882290000 0.1508470000
0.8336930000 0.3882290000 0.1508470000
0.8336930000 0.3882290000 0.1508470000
0.0099420000 0.1414580000 0.0786090000
0.0103310000 0.1392520000 0.0772520000
0.0107680000 0.1362890000 0.0755340000
0.0112820000 0.1334180000 0.0738080000
0.0119190000 0.1298730000 0.0723480000
0.0126300000 0.1258900000 0.0705670000
0.0138560000 0.1188910000 0.0666410000
0.0143170000 0.1159400000 0.0651910000
0.0146310000 0.1135360000 0.0649460000
0.0308950000 0.1164660000 0.0623560000
0.0870860000 0.1200480000 0.0592030000
0.1335120000 0.1297640000 0.0570470000
0.2043780000 0.1357100000 0.0521250000
0.2809280000 0.1393130000 0.0448780000
0.3499910000 0.1429280000 0.0400780000
0.4355900000 0.1670660000 0.0336910000
0.5158070000 0.1968830000 0.0411810000
0.5848990000 0.2363100000 0.0529240000
0.6389800000 0.2658560000 0.0642930000
0.6940340000 0.2976390000 0.0906890000
0.7432890000 0.3252380000 0.1051080000
0.7870060000 0.3534530000 0.1215540000
0.8192800000 0.3775760000 0.1368450000
0.8336930000 0.3882290000 0.1508470000
0.8336930000 0.3882290000 0.1508470000
0.8336930000 0.3882290000 0.1508470000
0.8336930000 0.3882290000 0.1508470000
0.8336930000 0.3882290000 0.1508470000
0.8336930000 0.3882290000 0.1508470000
0.8336930000 0.3882290000 0.1508470000
0.8336930000 0.3882290000 0.1508470000
0.8336930000 0.3882290000 0.1508470000
0.8336930000 0.3882290000 0.1508470000
0.0115450000 0.1903280000 0.1012530000
0.0117340000 0.1886040000 0.1001370000
0.0120320000 0.1859860000 0.0985400000
0.0122400000 0.1828500000 0.0968360000
0.0121820000 0.1759560000 0.0935370000
0.0116650000 0.1712210000 0.0910680000
0.0105890000 0.1658340000 0.0881770000
0.0088740000 0.1581360000 0.0847680000
0.0082330000 0.1534140000 0.0832460000
0.0115560000 0.1521600000 0.0805620000
0.0483090000 0.1541280000 0.0766340000
0.1145680000 0.1608570000 0.0719090000
0.1920090000 0.1705550000 0.0703490000
0.2724130000 0.1758530000 0.0597960000
0.3469390000 0.1747120000 0.0500950000
0.4208670000 0.1714320000 0.0402600000
0.5001830000 0.1902970000 0.0386010000
0.5716480000 0.2282560000 0.0490030000
0.6314550000 0.2612590000 0.0611290000
0.6887560000 0.2933910000 0.0875070000
0.7390220000 0.3227600000 0.1034360000
0.7846520000 0.3514610000 0.1200660000
0.8184200000 0.3767030000 0.1361010000
0.8336930000 0.3882290000 0.1508470000
0.8336930000 0.3882290000 0.1508470000
0.8336930000 0.3882290000 0.1508470000
0.8336930000 0.3882290000 0.1508470000
0.8336930000 0.3882290000 0.1508470000
0.8336930000 0.3882290000 0.1508470000
0.8336930000 0.3882290000 0.1508470000
0.8336930000 0.3882290000 0.1508470000
0.8336930000 0.3882290000 0.1508470000
0.8336930000 0.3882290000 0.1508470000
0.0154100000 0.2390100000 0.1277130000
0.0154000000 0.2370990000 0.1268440000
0.0150430000 0.2339710000 0.1253790000
0.0145810000 0.2301760000 0.1233520000
0.0137070000 0.2258610000 0.1206070000
0.0131450000 0.2212360000 0.1171260000
0.0123760000 0.2148430000 0.1132270000
0.0119860000 0.2085900000 0.1109670000
0.0115540000 0.2010730000 0.1080250000
0.0111850000 0.1956400000 0.1048120000
0.0186000000 0.1962230000 0.1021930000
0.0797710000 0.2005350000 0.0961170000
0.1726040000 0.2124690000 0.0910830000
0.2674370000 0.2208450000 0.0828720000
0.3482670000 0.2281340000 0.0722060000
0.4218310000 0.2209680000 0.0577940000
0.4929940000 0.2112960000 0.0451800000
0.5567970000 0.2204550000 0.0479720000
0.6191480000 0.2551260000 0.0602960000
0.6791230000 0.2886980000 0.0817240000
0.7323220000 0.3192930000 0.1008760000
0.7812920000 0.3485800000 0.1178730000
0.8168600000 0.3754390000 0.1354680000
0.8336930000 0.3882290000 0.1508470000
0.8336930000 0.3882290000 0.1508470000
0.8336930000 0.3882290000 0.1508470000
0.8336930000 0.3882290000 0.1508470000
0.8336930000 0.3882290000 0.1508470000
0.8336930000 0.3882290000 0.1508470000
0.8336930000 0.3882290000 0.1508470000
0.8336930000 0.3882290000 0.1508470000
0.8336930000 0.3882290000 0.1508470000
0.8336930000 0.3882290000 0.1508470000
0.0479120000 0.2941680000 0.1577770000
0.0473240000 0.2931320000 0.1574800000
0.0455640000 0.2909630000 0.1563650000
0.0423270000 0.2877290000 0.1546110000
0.0365470000 0.2833950000 0.1518650000
0.0266040000 0.2778670000 0.1480880000
0.0154980000 0.2706540000 0.1435480000
0.0131560000 0.2656410000 0.1402260000
0.0130430000 0.2576680000 0.1347280000
0.0136350000 0.2514100000 0.1320470000
0.0139980000 0.2499550000 0.1315720000
0.0251030000 0.2511930000 0.1297560000
0.1462900000 0.2562290000 0.1230420000
0.2530550000 0.2687610000 0.1159640000
0.3477540000 0.2823780000 0.1087790000
0.4293440000 0.2842430000 0.0958750000
0.5007930000 0.2761860000 0.0789080000
0.5585810000 0.2602180000 0.0663660000
0.6093510000 0.2577960000 0.0627360000
0.6649900000 0.2809680000 0.0752770000
0.7220750000 0.3141430000 0.0954520000
0.7731430000 0.3435450000 0.1133580000
0.8127140000 0.3725710000 0.1350090000
0.8336930000 0.3882290000 0.1508470000
0.8336930000 0.3882290000 0.1508470000
0.8336930000 0.3882290000 0.1508470000
0.8336930000 0.3882290000 0.1508470000
0.8336930000 0.3882290000 0.1508470000
0.8336930000 0.3882290000 0.1508470000
0.8336930000 0.3882290000 0.1508470000
0.8336930000 0.3882290000 0.1508470000
0.8336930000 0.3882290000 0.1508470000
0.8336930000 0.3882290000 0.1508470000
0.0956900000 0.3488340000 0.1884670000
0.0953310000 0.3485400000 0.1882270000
0.0931910000 0.3471190000 0.1871340000
0.0892800000 0.3444620000 0.1852390000
0.0839920000 0.3406420000 0.1829370000
0.0786000000 0.3363220000 0.1802800000
0.0730480000 0.3313210000 0.1776060000
0.0680380000 0.3262030000 0.1743780000
0.0583080000 0.3173400000 0.1684370000
0.0524710000 0.3098200000 0.1634870000
0.0500950000 0.3003580000 0.1596010000
0.0516600000 0.3059800000 0.1613270000
0.1130600000 0.3092060000 0.1585180000
0.2451340000 0.3204690000 0.1518170000
0.3417980000 0.3311590000 0.1431520000
0.4286770000 0.3409280000 0.1357210000
0.5080420000 0.3400060000 0.1243510000
0.5717000000 0.3302240000 0.1085060000
0.6222000000 0.3127820000 0.0950960000
0.6635990000 0.3001300000 0.0876480000
0.7080670000 0.3057200000 0.0909690000
0.7618080000 0.3368500000 0.1110910000
0.8074470000 0.3689910000 0.1349350000
0.8328360000 0.3876760000 0.1500710000
0.8336930000 0.3882290000 0.1508470000
0.8336930000 0.3882290000 0.1508470000
0.8336930000 0.3882290000 0.1508470000
0.8336930000 0.3882290000 0.1508470000
0.8336930000 0.3882290000 0.1508470000
0.8336930000 0.3882290000 0.1508470000
0.8336930000 0.3882290000 0.1508470000
0.8336930000 0.3882290000 0.1508470000
0.8336930000 0.3882290000 0.1508470000
0.1749480000 0.4067970000 0.2245020000
0.1758490000 0.4073080000 0.2248810000
0.1748910000 0.4067640000 0.2244910000
0.1721560000 0.4051300000 0.2233880000
0.1684260000 0.4024080000 0.2217180000
0.1636010000 0.3968210000 0.2183030000
0.1607080000 0.3898050000 0.2138720000
0.1579560000 0.3839570000 0.2102210000
0.1523830000 0.3782140000 0.2069180000
0.1448570000 0.3722370000 0.2046140000
0.1278740000 0.3629550000 0.1998210000
0.1065850000 0.3541690000 0.1928330000
0.1377440000 0.3673220000 0.2024510000
0.2309600000 0.3721610000 0.1923350000
0.3294330000 0.3836430000 0.1852060000
0.4247670000 0.3970700000 0.1789980000
0.5086880000 0.4005460000 0.1686620000
0.5782610000 0.3973930000 0.1575970000
0.6356520000 0.3852150000 0.1435370000
0.6757910000 0.3658420000 0.1277880000
0.7158880000 0.3489550000 0.1167300000
0.7551350000 0.3424000000 0.1148590000
0.7980000000 0.3613150000 0.1298850000
0.8293930000 0.3856980000 0.1463220000
0.8336930000 0.3882290000 0.1508470000
0.8336930000 0.3882290000 0.1508470000
0.8336930000 0.3882290000 0.1508470000
0.8336930000 0.3882290000 0.1508470000
0.8336930000 0.3882290000 0.1508470000
0.8336930000 0.3882290000 0.1508470000
0.8336930000 0.3882290000 0.1508470000
0.8336930000 0.3882290000 0.1508470000
0.8336930000 0.3882290000 0.1508470000
0.2553480000 0.4584720000 0.2588810000
0.2566670000 0.4593620000 0.2596940000
0.2570630000 0.4596230000 0.2599020000
0.2559840000 0.4589190000 0.2592770000
0.2532480000 0.4572660000 0.2578840000
0.2482920000 0.4546350000 0.2557360000
0.2418450000 0.4510220000 0.2529480000
0.2337070000 0.4454080000 0.2498130000
0.2213780000 0.4363220000 0.2460010000
0.2127190000 0.4302680000 0.2431680000
0.2036070000 0.4238650000 0.2388480000
0.1918150000 0.4163410000 0.2320180000
0.1786860000 0.4090450000 0.2259780000
0.2318870000 0.4286370000 0.2386110000
0.3191200000 0.4345000000 0.2300720000
0.4132430000 0.4461500000 0.2230480000
0.5017360000 0.4566040000 0.2165300000
0.5816340000 0.4596490000 0.2088090000
0.6436310000 0.4559950000 0.1974880000
0.6906610000 0.4396120000 0.1783180000
0.7295340000 0.4197560000 0.1634290000
0.7667090000 0.3972430000 0.1506080000
0.7985790000 0.3855860000 0.1435880000
0.8252910000 0.3871140000 0.1475260000
0.8336930000 0.3882290000 0.1508470000
0.8336930000 0.3882290000 0.1508470000
0.8336930000 0.3882290000 0.1508470000
0.8336930000 0.3882290000 0.1508470000
0.8336930000 0.3882290000 0.1508470000
0.8336930000 0.3882290000 0.1508470000
0.8336930000 0.3882290000 0.1508470000
0.8336930000 0.3882290000 0.1508470000
0.8336930000 0.3882290000 0.1508470000
0.2967880000 0.5066840000 0.2921870000
0.2984400000 0.5080160000 0.2932950000
0.2993110000 0.5087810000 0.2939540000
0.2993150000 0.5087800000 0.2939510000
0.2984110000 0.5080040000 0.2932690000
0.2966090000 0.5064680000 0.2920510000
0.2940020000 0.5042320000 0.2904110000
0.2906340000 0.5011640000 0.2884550000
0.2864100000 0.4973120000 0.2866560000
0.2791290000 0.4884650000 0.2817480000
0.2754650000 0.4812240000 0.2768530000
0.2719550000 0.4739940000 0.2716260000
0.2630430000 0.4635510000 0.2632410000
0.2734980000 0.4766850000 0.2737210000
0.3205950000 0.4867970000 0.2740110000
0.4003000000 0.4948020000 0.2679550000
0.4896960000 0.5068500000 0.2611330000
0.5750280000 0.5118010000 0.2528070000
