bundles/resolve-cinematic-luts/Cinem8/Sony S-Log3 Color Grading LUTs/CMG_Agfa_S-Log3_33x.cube
TITLE "Copyright by CINEM8.CO"
# LUT SIZE 33x33x33, 17424, 574992
# Data domain
# LUT data points begin
#  
# 
LUT_3D_SIZE 5
0.0340990000 0.0344470000 0.0338110000
0.1282670000 0.0529590000 0.0326080000
0.6210870000 0.2147910000 0.0000000000
0.7837720000 0.2990320000 0.0000000000
0.7837720000 0.2990320000 0.0000000000
0.0023980000 0.1209770000 0.0490170000
0.1049260000 0.1282820000 0.0404070000
0.6056860000 0.2065580000 0.0000000000
0.7837720000 0.2990320000 0.0000000000
0.7837720000 0.2990320000 0.0000000000
0.2267770000 0.5682360000 0.3242500000
0.2018070000 0.5543820000 0.3119510000
0.7312280000 0.6159450000 0.2604670000
0.8655590000 0.5142830000 0.0511210000
0.8618510000 0.5046510000 0.0425180000
0.4322050000 0.7164970000 0.4471520000
0.4322050000 0.7164970000 0.4471520000
0.6764200000 0.7884550000 0.4792540000
0.9564240000 0.8333490000 0.4894190000
0.9564240000 0.8333260000 0.4893590000
0.4322050000 0.7164970000 0.4471520000
0.4322050000 0.7164970000 0.4471520000
0.6350010000 0.7803750000 0.4814200000
0.9564240000 0.8333490000 0.4894190000
0.9564240000 0.8333490000 0.4894190000
0.0073320000 0.0236640000 0.1549070000
0.1160980000 0.0789800000 0.1668660000
0.6189380000 0.2136410000 0.0000000000
0.7837720000 0.2990320000 0.0000000000
0.7837720000 0.2990320000 0.0000000000
0.0034850000 0.1483840000 0.1757190000
0.0312730000 0.1393810000 0.1505420000
0.5977310000 0.2026400000 0.0000000000
0.7837720000 0.2990320000 0.0000000000
0.7837720000 0.2990320000 0.0000000000
0.2024540000 0.5546050000 0.3121040000
0.1771820000 0.5452340000 0.3058590000
0.7205810000 0.6108800000 0.2581110000
0.8625510000 0.5064750000 0.0438780000
0.8575170000 0.4918850000 0.0354920000
0.4322050000 0.7164970000 0.4471520000
0.4322050000 0.7164970000 0.4471520000
0.6654240000 0.7876980000 0.4808880000
0.9564240000 0.8333490000 0.4894190000
0.9564240000 0.8333490000 0.4894190000
0.4322050000 0.7164970000 0.4471520000
0.4322050000 0.7164970000 0.4471520000
0.6292800000 0.7793460000 0.4814900000
0.9564240000 0.8333490000 0.4894190000
0.9564240000 0.8333490000 0.4894190000
0.0016410000 0.1686130000 0.5053600000
0.0016700000 0.1608560000 0.4985530000
0.6645880000 0.4588750000 0.6725460000
0.8541300000 0.5185060000 0.6572150000
0.8608940000 0.5380460000 0.6858620000
0.0016890000 0.1551410000 0.4937070000
0.0017420000 0.1447460000 0.4819070000
0.6501240000 0.4360040000 0.6436230000
0.8475660000 0.4921950000 0.6157050000
0.8527870000 0.5099460000 0.6416670000
0.0004550000 0.5918210000 0.7098200000
0.0005210000 0.5890570000 0.6958910000
0.6559080000 0.7057780000 0.6962020000
0.8792900000 0.6010040000 0.6019300000
0.8781430000 0.5968020000 0.6303130000
0.2265500000 0.7685130000 0.6966580000
0.2620230000 0.7658520000 0.6793320000
0.5837900000 0.8247530000 0.6871080000
0.9492580000 0.8762710000 0.6629860000
0.9487590000 0.8826100000 0.6969190000
0.2776170000 0.7631340000 0.6665600000
0.3046940000 0.7600240000 0.6473710000
0.5594380000 0.8104500000 0.6529480000
0.9426230000 0.8671740000 0.6350890000
0.9490390000 0.8788350000 0.6709710000
0.0014010000 0.2202120000 0.5586600000
0.0014010000 0.2202120000 0.5586600000
0.5601550000 0.4933030000 0.7609960000
0.8767040000 0.6461490000 0.8522480000
0.8767040000 0.6461490000 0.8522480000
0.0014010000 0.2202120000 0.5586600000
0.0014010000 0.2202120000 0.5586600000
0.5159010000 0.4782560000 0.7504770000
0.8767040000 0.6461490000 0.8522480000
0.8767040000 0.6461490000 0.8522480000
0.0001840000 0.5389080000 0.7832890000
0.0001920000 0.5365020000 0.7820600000
0.4323600000 0.6679030000 0.8252310000
0.8944310000 0.6702040000 0.8635070000
0.8891670000 0.6537740000 0.8578790000
0.0000820000 0.7736370000 0.8506170000
0.0000820000 0.7736370000 0.8506170000
0.1235820000 0.8236770000 0.8630370000
0.8953970000 0.9355620000 0.9110610000
0.9204170000 0.9375080000 0.9157840000
0.0000820000 0.7736370000 0.8506170000
0.0000840000 0.7737140000 0.8503560000
0.0192820000 0.8105660000 0.8596160000
0.8823450000 0.9365550000 0.9050550000
0.9215720000 0.9472210000 0.9158970000
0.0014010000 0.2202120000 0.5586600000
0.0014010000 0.2202120000 0.5586600000
0.5504630000 0.4893540000 0.7585600000
0.8767040000 0.6461490000 0.8522480000
0.9138020000 0.9490890000 0.9242330000
0.0014010000 0.2202120000 0.5586600000
0.0014010000 0.2202120000 0.5586600000
0.4957860000 0.4692160000 0.7456260000
0.8767040000 0.6461490000 0.8522480000
0.9138020000 0.9490890000 0.9242330000
0.0002240000 0.5293530000 0.7779310000
0.0002310000 0.5277590000 0.7770070000
0.3853000000 0.6521760000 0.8185360000
0.8868890000 0.6543120000 0.8578940000
0.9138020000 0.9490890000 0.9242330000
0.0000820000 0.7735230000 0.8505930000
0.0000820000 0.7736370000 0.8506170000
0.0224920000 0.8119640000 0.8627430000
0.8841210000 0.9358040000 0.9209090000
0.9138020000 0.9490890000 0.9242330000
0.0000820000 0.7736370000 0.8506170000
0.0000820000 0.7736370000 0.8506170000
0.0000780000 0.8024650000 0.8636860000
0.8657930000 0.9399210000 0.9181060000
0.9138020000 0.9490890000 0.9242330000
