bundles/resolve-cinematic-luts/Cinem8/Sony S-Log3 Color Grading LUTs/CMG_Vision_50D_33x.cube
TITLE "Copyright by CINEM8.CO"
# LUT SIZE 33x33x33, 17424, 574992
# Data domain
# LUT data points begin
#  
# 
LUT_3D_SIZE 5
0.0401840000 0.0386350000 0.0210080000
0.0978000000 0.0569790000 0.0289170000
0.5599200000 0.2221560000 0.0489310000
0.8184050000 0.3767000000 0.1360800000
0.8336930000 0.3882290000 0.1508470000
0.0137790000 0.0767070000 0.0404240000
0.0426050000 0.0644380000 0.0357230000
0.5442070000 0.2137980000 0.0440510000
0.8336930000 0.3882290000 0.1508470000
0.8336930000 0.3882290000 0.1508470000
0.1749480000 0.4067970000 0.2245020000
0.1523830000 0.3782140000 0.2069180000
0.5086880000 0.4005460000 0.1686620000
0.8336930000 0.3882290000 0.1508470000
0.8336930000 0.3882290000 0.1508470000
0.4941100000 0.7038020000 0.4356100000
0.4943720000 0.7043280000 0.4358430000
0.4861590000 0.6951130000 0.4294110000
0.8914450000 0.7467270000 0.4041970000
0.9236630000 0.6931840000 0.3604750000
0.4943720000 0.7043280000 0.4358430000
0.4943720000 0.7043280000 0.4358430000
0.4943720000 0.7043280000 0.4358430000
0.8117270000 0.8112130000 0.4722870000
0.9545780000 0.8423380000 0.4797550000
0.0146810000 0.0536810000 0.0844640000
0.0811600000 0.0655090000 0.0831800000
0.5614300000 0.2229520000 0.0490930000
0.8299820000 0.3860380000 0.1470100000
0.8336930000 0.3882290000 0.1508470000
0.0124180000 0.0770280000 0.0696560000
0.0278920000 0.0591810000 0.0467010000
0.5312060000 0.2071660000 0.0398290000
0.8336930000 0.3882290000 0.1508470000
0.8336930000 0.3882290000 0.1508470000
0.1465100000 0.3735490000 0.2050690000
0.1256440000 0.3620220000 0.1991710000
0.4796690000 0.3902870000 0.1658130000
0.8336930000 0.3882290000 0.1508470000
0.8336930000 0.3882290000 0.1508470000
0.4821680000 0.6916960000 0.4258330000
0.4943720000 0.7043280000 0.4358430000
0.4851840000 0.6942960000 0.4285350000
0.8825350000 0.7558930000 0.4118150000
0.9265060000 0.7028760000 0.3667730000
0.4943720000 0.7043280000 0.4358430000
0.4943720000 0.7043280000 0.4358430000
0.4943720000 0.7043280000 0.4358430000
0.7951730000 0.8077430000 0.4712370000
0.9545780000 0.8423380000 0.4797550000
0.1140500000 0.1985840000 0.3897430000
0.1058960000 0.1907960000 0.3798630000
0.5637050000 0.3707540000 0.5117170000
0.8516320000 0.4813270000 0.4607680000
0.8568540000 0.4511040000 0.3663520000
0.0908680000 0.1803780000 0.3672250000
0.0657830000 0.1649770000 0.3453350000
0.5237370000 0.3271760000 0.4488160000
0.8499590000 0.4317090000 0.3052480000
0.8353230000 0.3908070000 0.1610280000
0.0239800000 0.3899740000 0.4472430000
0.0221540000 0.3800140000 0.4138610000
0.3957670000 0.4046750000 0.3890240000
0.8336930000 0.3882290000 0.1508470000
0.8336930000 0.3882290000 0.1508470000
0.4427740000 0.6726790000 0.4479430000
0.4797680000 0.6919250000 0.4324450000
0.4746630000 0.6818100000 0.4183650000
0.8665790000 0.7476400000 0.4090060000
0.9238530000 0.6938890000 0.3609400000
0.4943260000 0.7041620000 0.4357660000
0.4943720000 0.7043280000 0.4358430000
0.4943720000 0.7043280000 0.4358430000
0.7750050000 0.8038360000 0.4719700000
0.9545780000 0.8423380000 0.4797550000
0.2338590000 0.2745930000 0.4790390000
0.2338590000 0.2745930000 0.4790390000
0.4372240000 0.4156410000 0.6424210000
0.8426380000 0.6149150000 0.7695220000
0.9114060000 0.6547160000 0.7986780000
0.2338590000 0.2745930000 0.4790390000
0.2338590000 0.2745930000 0.4790390000
0.3913600000 0.3942840000 0.6252710000
0.8690560000 0.6262310000 0.7758340000
0.9130550000 0.6481300000 0.7820980000
0.3997030000 0.4105550000 0.6400260000
0.3977690000 0.4136070000 0.6418860000
0.4082550000 0.4105950000 0.6451110000
0.8588130000 0.6121930000 0.7492720000
0.9059740000 0.6230310000 0.7266840000
0.2835590000 0.7139490000 0.7373620000
0.3065980000 0.7444580000 0.7343780000
0.3130210000 0.7338920000 0.7082450000
0.8039420000 0.7969800000 0.7241980000
0.9240590000 0.7433310000 0.6634390000
0.3714900000 0.7818090000 0.7176910000
0.3862630000 0.7728430000 0.6904910000
0.3993640000 0.7633790000 0.6551010000
0.7055060000 0.8369590000 0.6598150000
0.9476170000 0.8819380000 0.6476440000
0.2338590000 0.2745930000 0.4790390000
0.2338590000 0.2745930000 0.4790390000
0.4179150000 0.4073980000 0.6369530000
0.8416800000 0.6139180000 0.7676300000
0.9109850000 0.6553770000 0.8010980000
0.2338590000 0.2745930000 0.4790390000
0.2338590000 0.2745930000 0.4790390000
0.3714880000 0.3842440000 0.6106300000
0.8558390000 0.6203160000 0.7730700000
0.9109850000 0.6553770000 0.8010980000
0.3943050000 0.4005320000 0.6321010000
0.3959400000 0.4014530000 0.6333340000
0.2698300000 0.3011980000 0.5103300000
0.8174650000 0.6001710000 0.7605990000
0.9109850000 0.6553770000 0.8010980000
0.2962440000 0.6895340000 0.7520980000
0.2978590000 0.7272280000 0.7646620000
0.2969630000 0.7261010000 0.7637500000
0.7368470000 0.7779170000 0.8232930000
0.9285960000 0.7642080000 0.8376640000
0.3463690000 0.8043300000 0.7882080000
0.3463690000 0.8043300000 0.7882080000
0.3463690000 0.8043300000 0.7882080000
0.6129250000 0.8725190000 0.8468050000
0.9195550000 0.9291840000 0.8770880000
