bundles/resolve-cinematic-luts/Phantom Luts/DJI/DJI Phntm Film LUTs - G3/WDR Pre-LUT/WDR Mavic 3 Pre-LUT.cube
TITLE "Generated by Resolve"
LUT_3D_SIZE 33
0.109163 0.109163 0.109163
0.121553 0.10898 0.10898
0.135103 0.108736 0.108736
0.149828 0.108293 0.108293
0.165789 0.107439 0.107439
0.183307 0.106233 0.106233
0.202609 0.104646 0.104646
0.223926 0.102586 0.102586
0.247333 0.100008 0.100008
0.272755 0.0970321 0.0970321
0.299641 0.0936599 0.0936599
0.32752 0.0901198 0.0901198
0.355932 0.0865339 0.0865339
0.383993 0.0830549 0.0830549
0.411658 0.0798047 0.0798047
0.43888 0.0768749 0.0768749
0.4654 0.0741588 0.0741588
0.491096 0.0717479 0.0717479
0.515755 0.0696574 0.0696574
0.539223 0.0679637 0.0679637
0.561593 0.0669261 0.0669261
0.582132 0.0663767 0.0663767
0.600946 0.0663767 0.0663767
0.618036 0.066865 0.066865
0.633616 0.0679026 0.0679026
0.648142 0.0695354 0.0695354
0.661891 0.0715343 0.0715343
0.674998 0.0737163 0.0737163
0.687831 0.0760052 0.0760052
0.700618 0.0784772 0.0784772
0.713603 0.0811017 0.0811017
0.727047 0.0840162 0.0840162
0.740627 0.0868238 0.0868238
0.109041 0.121614 0.109041
0.121675 0.121675 0.109102
0.135454 0.121645 0.109071
0.150256 0.121309 0.108736
0.166445 0.120653 0.10808
0.184115 0.119615 0.107042
0.203555 0.118166 0.105592
0.225177 0.116396 0.103822
0.248814 0.114061 0.101488
0.274388 0.111238 0.0986648
0.301457 0.108049 0.0954757
0.329503 0.104677 0.0921035
0.358144 0.10132 0.0887465
0.386648 0.0982681 0.0856947
0.414557 0.0952773 0.0827039
0.441917 0.0924849 0.0799115
0.468635 0.0899672 0.0773938
0.494621 0.0878462 0.0752575
0.519692 0.0861677 0.073579
0.543603 0.0849317 0.0723583
0.566079 0.0840009 0.0714275
0.586862 0.0836957 0.0711223
0.606027 0.0840314 0.071458
0.62356 0.0849622 0.0723888
0.639628 0.0864729 0.0738994
0.654429 0.0883803 0.0758068
0.668391 0.0906081 0.0780346
0.68191 0.0931868 0.0806134
0.695216 0.0959793 0.0834058
0.708415 0.0988479 0.0862745
0.721859 0.10193 0.0893568
0.735531 0.105058 0.0924849
0.749493 0.108263 0.0956893
0.108766 0.135149 0.108766
0.12163 0.135439 0.109056
0.135454 0.135454 0.109071
0.150393 0.135256 0.108873
0.166781 0.134798 0.108415
0.18471 0.13402 0.107637
0.204517 0.132921 0.106538
0.226184 0.131212 0.104829
0.250004 0.129046 0.102663
0.275822 0.126482 0.100099
0.303212 0.123598 0.0972305
0.331533 0.120516 0.0941329
0.36051 0.117479 0.0910964
0.38909 0.114534 0.0881514
0.417334 0.111864 0.085481
0.44506 0.109438 0.0830549
0.472099 0.10724 0.0808576
0.49836 0.105379 0.078996
0.523781 0.104051 0.0776684
0.547982 0.103105 0.0767224
0.570886 0.102617 0.0762341
0.59202 0.102647 0.0762646
0.611444 0.103258 0.0768749
0.629496 0.104707 0.0783246
0.645914 0.106569 0.0801862
0.661112 0.108888 0.0825055
0.675441 0.111467 0.0850843
0.68925 0.114336 0.087953
0.703014 0.117571 0.0912032
0.716808 0.12105 0.094667
0.730587 0.124468 0.098085
0.744549 0.127886 0.101518
0.758801 0.13138 0.104997
0.108049 0.149569 0.108049
0.121096 0.150042 0.108522
0.13518 0.150332 0.108797
0.150332 0.150332 0.108812
0.166888 0.150042 0.108522
0.185153 0.149599 0.10808
0.205112 0.148669 0.107149
0.2271 0.147265 0.105745
0.251148 0.145342 0.103822
0.277165 0.142977 0.101457
0.304952 0.14049 0.09897
0.333639 0.137758 0.0962387
0.362829 0.134951 0.093431
0.391699 0.13228 0.0907454
0.420172 0.129839 0.0883192
0.448203 0.127718 0.0861982
0.475837 0.126116 0.084596
0.502464 0.124636 0.0831159
0.528084 0.123491 0.0819715
0.552544 0.12282 0.0813001
0.57583 0.122698 0.081178
0.597482 0.123262 0.0817426
0.617517 0.124468 0.082948
0.635706 0.126055 0.084535
0.65243 0.128222 0.0867018
0.668025 0.130938 0.0894026
0.682857 0.13402 0.0925002
0.6972 0.137423 0.0959029
0.711299 0.141009 0.0994888
0.725261 0.14464 0.10312
0.739422 0.14844 0.10692
0.753826 0.152316 0.110796
0.76846 0.156176 0.114656
0.106844 0.165194 0.106844
0.120058 0.165835 0.107485
0.134371 0.166354 0.107988
0.14992 0.166766 0.1084
0.166812 0.166812 0.108446
0.185153 0.166445 0.10808
0.205325 0.165713 0.107362
0.227604 0.164614 0.106249
0.252033 0.163058 0.104692
0.278523 0.161166 0.1028
0.306432 0.158801 0.10045
0.335363 0.156313 0.0979629
0.36492 0.153872 0.0955062
0.394217 0.151644 0.0932784
0.423072 0.149569 0.0912184
0.45156 0.147921 0.0895552
0.479332 0.146441 0.0880903
0.506386 0.145388 0.0870222
0.532479 0.144732 0.0863813
0.557351 0.144457 0.0860914
0.580957 0.144656 0.086305
0.603067 0.145678 0.0873274
0.623407 0.147189 0.088838
0.642084 0.149279 0.0909285
0.65919 0.151827 0.0934768
0.67509 0.154818 0.0964675
0.690455 0.15845 0.100084
0.705104 0.162173 0.103822
0.719539 0.166064 0.107713
0.733822 0.170031 0.111681
0.748211 0.17406 0.115709
0.762936 0.178256 0.119905
0.778042 0.182589 0.124239
0.105104 0.182177 0.105104
0.118593 0.183093 0.10602
0.133196 0.183886 0.106813
0.148943 0.184497 0.107424
0.16611 0.184817 0.107744
0.184833 0.184833 0.107759
0.205295 0.184405 0.107332
0.227802 0.183536 0.106462
0.252689 0.182422 0.105348
0.279438 0.180804 0.103731
0.307774 0.178851 0.101778
0.337026 0.176699 0.0996262
0.366857 0.174517 0.0974441
0.396643 0.172778 0.0957046
0.425986 0.171206 0.0941329
0.454795 0.169848 0.0927901
0.482902 0.168734 0.0916609
0.510246 0.167956 0.090898
0.536706 0.167666 0.0905928
0.56228 0.168093 0.0910201
0.586343 0.16875 0.0916762
0.608621 0.16994 0.0928664
0.629221 0.171725 0.0946517
0.648249 0.174151 0.0970779
0.665812 0.177157 0.100084
0.682322 0.180774 0.103716
0.697749 0.184466 0.107393
0.712627 0.188403 0.11133
0.727321 0.192569 0.115496
0.741924 0.196857 0.119783
0.75668 0.201251 0.124178
0.771695 0.205722 0.128649
0.786755 0.210025 0.132952
0.102678 0.200641 0.102678
0.116625 0.202014 0.104051
0.131487 0.203082 0.105119
0.147448 0.203891 0.105928
0.164858 0.204456 0.106493
0.183902 0.204791 0.106828
0.204898 0.204898 0.106935
0.227893 0.204501 0.106538
0.252903 0.203525 0.105562
0.279942 0.202182 0.104219
0.308644 0.200626 0.102663
0.338399 0.198947 0.100984
0.368795 0.19736 0.0993973
0.39881 0.195819 0.0978561
0.428412 0.194522 0.0965591
0.457633 0.193591 0.0956283
0.486244 0.192966 0.0950027
0.514015 0.19263 0.094667
0.540993 0.192859 0.0948959
0.566659 0.193362 0.0953994
0.591104 0.1944 0.096437
0.613825 0.196048 0.098085
0.634791 0.198184 0.100221
0.654063 0.20087 0.102907
0.672084 0.204334 0.106355
0.68867 0.208026 0.110063
0.704433 0.212039 0.114076
0.719554 0.216236 0.118273
0.734401 0.220539 0.122576
0.749386 0.225223 0.12726
0.764233 0.229694 0.131731
0.779217 0.23415 0.136187
0.7944 0.238575 0.140597
0.0995804 0.220935 0.0995804
0.113695 0.222461 0.101122
0.128939 0.223896 0.102556
0.145327 0.225162 0.103807
0.163104 0.226093 0.104738
0.182513 0.22678 0.10544
0.203815 0.227192 0.105852
0.227161 0.227161 0.105806
0.252659 0.226673 0.105333
0.280079 0.225711 0.104372
0.309087 0.224445 0.10309
0.339376 0.223316 0.101976
0.370092 0.222034 0.100694
0.400549 0.220951 0.0996109
0.430549 0.220035 0.0986954
0.460029 0.219364 0.098024
0.489113 0.219226 0.0978866
0.517388 0.219379 0.0980392
0.544579 0.219821 0.0984817
0.57055 0.220645 0.0992905
0.595209 0.221912 0.100557
0.618189 0.223789 0.102434
0.639704 0.22649 0.105135
0.659297 0.22948 0.108141
0.677302 0.232929 0.111574
0.694026 0.236759 0.115404
0.709911 0.240894 0.119554
0.7252 0.245258 0.123919
0.740459 0.249989 0.128634
0.755291 0.25449 0.13315
0.770153 0.259007 0.137652
0.785168 0.263478 0.142138
0.800366 0.267918 0.146563
0.0957656 0.243091 0.0957656
0.110185 0.244953 0.097612
0.125704 0.246647 0.099321
0.142473 0.248295 0.100954
0.160876 0.249851 0.10251
0.180667 0.250919 0.103593
0.202213 0.251575 0.10425
0.225849 0.251835 0.104494
0.251728 0.251728 0.104387
0.279744 0.251347 0.104021
0.309331 0.250675 0.103334
0.339742 0.249668 0.102342
0.370748 0.248676 0.101335
0.401541 0.247944 0.100603
0.431983 0.247471 0.10013
0.462028 0.247349 0.100023
0.49131 0.247395 0.100069
0.519722 0.247715 0.100374
0.547204 0.248432 0.101091
0.573495 0.249577 0.102251
0.598444 0.251118 0.103777
0.621805 0.253391 0.10605
0.643259 0.256016 0.10869
0.662989 0.259159 0.111818
0.681147 0.26276 0.115419
0.698009 0.266712 0.119387
0.713954 0.270939 0.123598
0.729534 0.275578 0.128252
0.744549 0.280064 0.132723
0.759396 0.284581 0.137255
0.774273 0.289113 0.141772
0.789273 0.293568 0.146227
0.804669 0.298207 0.150866
0.0913252 0.267033 0.0913252
0.106233 0.269383 0.0936599
0.12221 0.271534 0.0958267
0.139422 0.273625 0.0979019
0.157977 0.275334 0.0996262
0.178195 0.276844 0.101122
0.200244 0.278004 0.102281
0.224308 0.278676 0.102953
0.250553 0.278935 0.103227
0.278904 0.278904 0.103197
0.308782 0.278508 0.102785
0.339635 0.277943 0.102235
0.370977 0.277302 0.101579
0.402029 0.276799 0.101091
0.432944 0.276799 0.101091
0.463127 0.276844 0.101122
0.492653 0.277134 0.101411
0.521309 0.277684 0.101961
0.548943 0.278553 0.102831
0.575509 0.279973 0.104265
0.600717 0.281788 0.106065
0.624033 0.284001 0.108278
0.645563 0.286702 0.110994
0.665339 0.289891 0.114168
0.683513 0.293507 0.117784
0.700587 0.297688 0.121981
0.716609 0.301961 0.126253
0.731929 0.306355 0.130648
0.746914 0.310811 0.135088
0.7617 0.315267 0.139559
0.776486 0.319707 0.143984
0.791653 0.324331 0.148608
0.806729 0.328649 0.152926
0.0868544 0.292851 0.0868544
0.102327 0.295735 0.0897536
0.118746 0.298344 0.0923629
0.136278 0.300755 0.0947585
0.1552 0.302831 0.096849
0.175692 0.304616 0.0986191
0.198093 0.306111 0.10013
0.222782 0.307424 0.101442
0.249393 0.308049 0.102052
0.277897 0.308171 0.10219
0.307988 0.307988 0.101991
0.339101 0.307683 0.101701
0.370855 0.307439 0.101442
0.402365 0.307408 0.101427
0.433234 0.307378 0.101381
0.463554 0.307546 0.101549
0.493217 0.307973 0.101976
0.522042 0.30869 0.102693
0.54995 0.309834 0.103853
0.576577 0.311315 0.105333
0.601724 0.313054 0.107073
0.625055 0.315297 0.1093
0.646586 0.318013 0.112016
0.666377 0.321202 0.115221
0.684749 0.325017 0.11902
0.70164 0.329015 0.123018
0.717525 0.333165 0.127169
0.732769 0.337469 0.131472
0.747677 0.341833 0.135851
0.762387 0.346242 0.140246
0.77734 0.350835 0.144839
0.792142 0.355093 0.149096
0.807095 0.359274 0.153292
0.0832532 0.320653 0.0832532
0.0988479 0.323674 0.0862593
0.115526 0.326558 0.0891432
0.13344 0.32932 0.0919203
0.152804 0.331853 0.0944533
0.173693 0.33402 0.0966201
0.196551 0.336004 0.0985885
0.221271 0.337316 0.0999161
0.248142 0.338216 0.100816
0.276997 0.338674 0.101274
0.307347 0.338766 0.101366
0.338689 0.338689 0.101289
0.370687 0.338689 0.101274
0.402182 0.338643 0.101244
0.433219 0.338766 0.101366
0.463676 0.339071 0.101671
0.4934 0.339559 0.102159
0.522499 0.340551 0.103151
0.550286 0.341588 0.104189
0.576806 0.342962 0.105562
0.601953 0.344701 0.107301
0.625269 0.346914 0.109514
0.646876 0.349706 0.112306
0.666712 0.352941 0.115541
0.684794 0.356466 0.119066
0.701549 0.360342 0.122942
0.717372 0.364416 0.127016
0.732509 0.368627 0.131228
0.747463 0.373053 0.135653
0.762142 0.377401 0.140002
0.776761 0.381659 0.144244
0.791455 0.385824 0.148425
0.806287 0.389883 0.152483
0.0801556 0.349569 0.0801556
0.0961929 0.353017 0.0836194
0.113207 0.356237 0.0868391
0.13135 0.359243 0.0898299
0.151186 0.362234 0.0928206
0.172381 0.364721 0.0953078
0.195346 0.366781 0.0973831
0.220279 0.368338 0.0989395
0.247303 0.369375 0.0999771
0.27628 0.36997 0.100572
0.307057 0.370474 0.101076
0.338491 0.370504 0.101091
0.370398 0.370398 0.100999
0.401953 0.370413 0.100999
0.433005 0.37055 0.101152
0.463508 0.370916 0.101503
0.493462 0.371633 0.10222
0.522316 0.372366 0.102968
0.550072 0.373373 0.10396
0.576516 0.37467 0.105272
0.601572 0.376318 0.10692
0.624903 0.378561 0.109163
0.646479 0.381308 0.11191
0.666102 0.384344 0.114931
0.684077 0.387762 0.118349
0.70071 0.391501 0.122087
0.716411 0.395468 0.126055
0.731624 0.399741 0.130343
0.746395 0.403983 0.134585
0.760861 0.408118 0.13872
0.775311 0.412222 0.142809
0.789899 0.416266 0.146853
0.804623 0.420233 0.15082
0.0784924 0.379431 0.0784924
0.0947738 0.383139 0.0822003
0.112123 0.386694 0.0857404
0.130785 0.390204 0.0892653
0.150607 0.393194 0.092256
0.171923 0.395804 0.0948501
0.195026 0.398001 0.0970626
0.220127 0.399725 0.0987869
0.247303 0.400916 0.0999619
0.276616 0.401846 0.100893
0.307164 0.402106 0.101167
0.338613 0.402152 0.101213
0.370535 0.402075 0.101137
0.40209 0.40209 0.101152
0.433173 0.402258 0.10132
0.463813 0.402747 0.101808
0.493462 0.403174 0.10222
0.522225 0.403815 0.102876
0.549905 0.404746 0.103807
0.576303 0.405982 0.105043
0.601511 0.407813 0.106859
0.624628 0.409812 0.108873
0.645914 0.412284 0.111345
0.665446 0.415229 0.114275
0.68333 0.418555 0.117617
0.699947 0.422278 0.121324
0.715663 0.426246 0.125307
0.730556 0.430213 0.129274
0.745129 0.434256 0.133303
0.759487 0.438285 0.137346
0.7738 0.442237 0.141299
0.788327 0.446235 0.145281
0.80296 0.450111 0.149157
0.078233 0.410086 0.078233
0.0946822 0.413962 0.0821088
0.112413 0.417884 0.0860304
0.130999 0.421332 0.0894789
0.150958 0.42446 0.092607
0.172396 0.427192 0.0953231
0.19556 0.42945 0.0975967
0.220905 0.431403 0.0995499
0.248127 0.432654 0.100801
0.277195 0.433341 0.101488
0.307759 0.433616 0.101762
0.339193 0.433631 0.101778
0.371054 0.433494 0.10164
0.402762 0.433677 0.101823
0.433722 0.433722 0.101869
0.464073 0.433921 0.102068
0.49366 0.434287 0.102419
0.522332 0.434821 0.102968
0.549889 0.435645 0.103792
0.576394 0.437003 0.105135
0.601267 0.438468 0.106615
0.624292 0.440391 0.108537
0.645457 0.442741 0.110887
0.664836 0.445518 0.113664
0.682658 0.448783 0.11693
0.699245 0.452476 0.120623
0.714687 0.456184 0.124331
0.729427 0.459983 0.12813
0.743801 0.463828 0.131975
0.757992 0.467704 0.135851
0.77229 0.471641 0.139788
0.786648 0.475471 0.143618
0.800992 0.479042 0.147189
0.0791638 0.441169 0.0791638
0.0958877 0.445319 0.0833143
0.113451 0.449088 0.0870832
0.132097 0.452567 0.0905623
0.152056 0.455711 0.0937057
0.173526 0.458457 0.0964523
0.196887 0.460929 0.0989242
0.22208 0.46273 0.100725
0.249226 0.46389 0.101884
0.278218 0.464515 0.10251
0.30869 0.464698 0.102693
0.340032 0.464637 0.102632
0.372076 0.464683 0.102678
0.403479 0.46453 0.102525
0.434318 0.464469 0.102464
0.464546 0.464546 0.102541
0.494026 0.46479 0.102785
0.522606 0.465263 0.103258
0.550301 0.466194 0.104189
0.576425 0.467185 0.10518
0.601144 0.468498 0.106493
0.624033 0.470298 0.108293
0.645106 0.472541 0.110536
0.664576 0.475425 0.11342
0.682155 0.478431 0.116426
0.698375 0.481773 0.119768
0.71368 0.485328 0.123323
0.728298 0.489006 0.127001
0.742565 0.492744 0.130739
0.756695 0.496559 0.134554
0.770657 0.50016 0.138155
0.784726 0.503685 0.14168
0.798901 0.507103 0.145098
0.0810254 0.472267 0.0810254
0.0976425 0.47631 0.085069
0.115236 0.480095 0.0888685
0.133883 0.483604 0.0923629
0.153841 0.486732 0.095491
0.175509 0.489677 0.098436
0.198596 0.491875 0.100633
0.223636 0.493523 0.102281
0.250706 0.494606 0.103365
0.279637 0.495155 0.103929
0.310201 0.495445 0.104204
0.341497 0.495323 0.104082
0.373159 0.495003 0.103761
0.404456 0.494759 0.103517
0.435218 0.494606 0.103365
0.465324 0.49456 0.103319
0.494881 0.494881 0.103639
0.523323 0.495216 0.103975
0.550668 0.495796 0.104555
0.576684 0.496681 0.10544
0.601267 0.497841 0.106615
0.623972 0.499458 0.108217
0.64509 0.501747 0.110521
0.664195 0.504265 0.113039
0.681636 0.507149 0.115908
0.697673 0.510292 0.119051
0.712734 0.513603 0.122377
0.727169 0.517113 0.125887
0.741405 0.520821 0.12958
0.755199 0.5243 0.133059
0.768917 0.527642 0.136416
0.782696 0.530892 0.139651
0.796628 0.534066 0.142824
0.0836194 0.502983 0.0836194
0.100221 0.506996 0.0876478
0.117754 0.510719 0.091371
0.1364 0.514244 0.0948806
0.15642 0.517418 0.0980697
0.177768 0.520043 0.100694
0.200793 0.522179 0.102831
0.225727 0.52372 0.104372
0.252674 0.524681 0.105333
0.281651 0.525277 0.105928
0.312016 0.525383 0.106035
0.34316 0.525109 0.10576
0.374701 0.524636 0.105287
0.405829 0.524239 0.104891
0.436454 0.523949 0.104601
0.466667 0.52401 0.104662
0.495903 0.524025 0.104677
0.524163 0.524163 0.104814
0.551308 0.524559 0.105211
0.577188 0.525277 0.105928
0.601633 0.526329 0.106981
0.624414 0.528008 0.108659
0.645075 0.52987 0.110506
0.663951 0.532143 0.112795
0.681208 0.534829 0.11548
0.697093 0.53782 0.118471
0.712169 0.541176 0.121813
0.726314 0.544366 0.125017
0.740078 0.547601 0.128252
0.753658 0.550866 0.131518
0.767193 0.55404 0.134676
0.780743 0.557061 0.137713
0.794522 0.560082 0.140719
0.0869764 0.533074 0.0869764
0.103487 0.537026 0.0909133
0.12105 0.54078 0.094667
0.139681 0.544259 0.0981613
0.159442 0.547189 0.101091
0.180652 0.549691 0.103578
0.203571 0.551705 0.105608
0.228412 0.55317 0.107073
0.255497 0.554269 0.108171
0.284169 0.554559 0.108461
0.314305 0.554421 0.108324
0.345327 0.554025 0.107927
0.376761 0.55346 0.107362
0.407904 0.553063 0.106966
0.438437 0.552697 0.106584
0.468254 0.552361 0.106249
0.497337 0.552193 0.106096
0.52546 0.552209 0.106111
0.552438 0.552438 0.106325
0.578256 0.553094 0.106996
0.602518 0.553964 0.107866
0.624903 0.555261 0.109148
0.645411 0.556954 0.110842
0.664073 0.559014 0.112902
0.681025 0.56141 0.115312
0.696864 0.564355 0.118242
0.711543 0.567285 0.121172
0.725475 0.570291 0.124178
0.738964 0.573251 0.127138
0.752194 0.57615 0.130053
0.765438 0.579034 0.132937
0.778943 0.58201 0.135897
0.792309 0.584604 0.138506
0.091249 0.562493 0.091249
0.107866 0.566537 0.0952773
0.1252 0.570077 0.0988174
0.143587 0.573312 0.102052
0.163256 0.57615 0.104906
0.184344 0.578531 0.107271
0.207187 0.580468 0.109224
0.232044 0.581949 0.110704
0.258778 0.582696 0.111452
0.287343 0.582879 0.111635
0.317327 0.582589 0.11133
0.34815 0.581994 0.11075
0.379538 0.581384 0.11014
0.410513 0.580835 0.109575
0.440818 0.580224 0.108965
0.470436 0.57969 0.108431
0.499275 0.579293 0.108034
0.527199 0.57911 0.107851
0.554192 0.579339 0.10808
0.579705 0.579705 0.108446
0.603677 0.58027 0.109026
0.625772 0.581262 0.110018
0.646052 0.582727 0.111482
0.664515 0.584604 0.113344
0.681453 0.586984 0.11574
0.696773 0.58941 0.118151
0.711101 0.591989 0.120745
0.724773 0.594736 0.123476
0.738048 0.597482 0.126223
0.751202 0.600305 0.129061
0.764065 0.602808 0.131563
0.776989 0.605203 0.133959
0.790082 0.607523 0.136278
0.0965896 0.591241 0.0965896
0.112871 0.594965 0.100298
0.130083 0.598352 0.1037
0.148302 0.601434 0.106783
0.167849 0.60415 0.109499
0.188907 0.606485 0.111833
0.211719 0.608408 0.113756
0.236255 0.609552 0.1149
0.262791 0.610101 0.11545
0.291203 0.610132 0.11548
0.32105 0.60972 0.115068
0.351949 0.609201 0.114549
0.382986 0.60824 0.113588
0.413626 0.60734 0.112688
0.443748 0.606546 0.111894
0.473213 0.605859 0.111208
0.501961 0.605371 0.110719
0.529717 0.60502 0.110369
0.556252 0.604807 0.110155
0.581506 0.604913 0.110246
0.605295 0.605295 0.110643
0.627146 0.606043 0.111391
0.647211 0.607309 0.112642
0.665415 0.608911 0.11426
0.681926 0.610864 0.116213
0.697017 0.613062 0.118395
0.711055 0.615351 0.120699
0.72433 0.617685 0.123033
0.737408 0.620249 0.125597
0.750134 0.622644 0.127993
0.762737 0.624887 0.130236
0.775311 0.626932 0.13228
0.787961 0.628809 0.134157
0.102907 0.618662 0.102907
0.119081 0.622263 0.106508
0.136187 0.625559 0.109804
0.154269 0.628504 0.112749
0.173861 0.631251 0.115511
0.194675 0.633341 0.117601
0.217166 0.634958 0.119203
0.241566 0.635981 0.120226
0.267933 0.636347 0.120592
0.296147 0.636179 0.120439
0.325963 0.635721 0.119982
0.356466 0.634821 0.119066
0.38735 0.633692 0.117952
0.417762 0.632578 0.116823
0.447593 0.631495 0.11574
0.47689 0.63064 0.114885
0.505455 0.629969 0.114214
0.532906 0.629297 0.113558
0.559152 0.628809 0.113054
0.584054 0.62855 0.11281
0.607553 0.628656 0.112902
0.629297 0.629297 0.113558
0.649073 0.630259 0.114504
0.66688 0.631464 0.115709
0.682979 0.633021 0.117266
0.697765 0.634897 0.119142
0.711543 0.636942 0.121187
0.724712 0.63917 0.12343
0.73724 0.641169 0.125414
0.749508 0.643122 0.127367
0.761776 0.645029 0.129274
0.774105 0.646815 0.13106
0.786572 0.648524 0.132769
0.11043 0.644999 0.11043
0.126421 0.648417 0.113848
0.143359 0.651545 0.116976
0.161547 0.654582 0.120012
0.180758 0.656962 0.122393
0.201358 0.658854 0.124285
0.223621 0.660227 0.125658
0.247822 0.661051 0.126482
0.274052 0.661295 0.126726
0.302235 0.661097 0.126528
0.331624 0.660197 0.125628
0.361837 0.659007 0.124437
0.392493 0.657649 0.123079
0.422721 0.656352 0.121782
0.452522 0.655238 0.120668
0.481407 0.653971 0.119402
0.509514 0.652842 0.118273
0.536721 0.651926 0.117357
0.562753 0.651209 0.11664
0.587442 0.650767 0.116197
0.610681 0.650599 0.11603
0.631922 0.650752 0.116182
0.651347 0.651347 0.116777
0.66891 0.652308 0.117739
0.684703 0.653544 0.118975
0.699138 0.655085 0.120516
0.712581 0.656794 0.122225
0.725277 0.658564 0.123995
0.737545 0.660288 0.125719
0.749477 0.661906 0.127337
0.761318 0.663386 0.128817
0.773358 0.664897 0.130327
0.785458 0.666224 0.131655
0.11902 0.670176 0.11902
0.135027 0.673609 0.122454
0.151781 0.676555 0.125399
0.169497 0.679149 0.127977
0.18854 0.681346 0.13019
0.208988 0.683085 0.131914
0.231052 0.684245 0.133089
0.255177 0.684993 0.133837
0.281117 0.684947 0.133776
0.308904 0.684352 0.133181
0.338094 0.683268 0.132097
0.368048 0.681804 0.130648
0.398383 0.68014 0.128969
0.428473 0.678691 0.12752
0.457847 0.67715 0.125994
0.486503 0.675669 0.124498
0.51429 0.67422 0.123064
0.5411 0.672908 0.121752
0.566842 0.671901 0.120745
0.591348 0.67126 0.120089
0.614206 0.67071 0.119539
0.635081 0.670497 0.119326
0.654063 0.670649 0.119493
0.671244 0.671244 0.120089
0.686854 0.672297 0.121126
0.700984 0.673533 0.122377
0.713985 0.674784 0.123629
0.726253 0.676127 0.124956
0.73817 0.677516 0.126345
0.749844 0.678874 0.127703
0.761547 0.680201 0.129046
0.773098 0.681224 0.130068
0.784756 0.682124 0.130953
0.128527 0.694255 0.128527
0.144244 0.697398 0.13167
0.1608 0.70013 0.134417
0.178286 0.70248 0.136767
0.197024 0.704387 0.138674
0.217227 0.705882 0.140154
0.239307 0.707057 0.141344
0.26302 0.707393 0.14168
0.288655 0.707042 0.141329
0.316106 0.706111 0.140383
0.345006 0.704738 0.139025
0.374746 0.703075 0.137346
0.405005 0.70132 0.135592
0.434562 0.699336 0.133608
0.463539 0.697414 0.131685
0.491905 0.695613 0.1299
0.519448 0.693935 0.128206
0.54612 0.6925 0.126772
0.571405 0.69102 0.125307
0.595346 0.689815 0.124102
0.617884 0.68896 0.123232
0.638514 0.688487 0.122759
0.657221 0.68838 0.122652
0.674098 0.688655 0.122942
0.689204 0.689204 0.123476
0.702968 0.690074 0.124346
0.715724 0.691081 0.125353
0.727672 0.692103 0.12639
0.739254 0.693156 0.127428
0.750622 0.694194 0.128481
0.761913 0.69514 0.129412
0.773266 0.695949 0.13022
0.784649 0.696574 0.130846
0.138445 0.717067 0.138445
0.153826 0.71986 0.141253
0.170153 0.722393 0.143771
0.187457 0.724544 0.145937
0.206119 0.726375 0.147753
0.226047 0.727581 0.148974
0.247578 0.728222 0.149615
0.271046 0.728313 0.149691
0.296468 0.727749 0.149126
0.323629 0.726528 0.147906
0.352316 0.724941 0.146334
0.381704 0.722911 0.144289
0.41149 0.720699 0.142092
0.440803 0.718471 0.139864
0.469459 0.716213 0.137606
0.497383 0.713985 0.135378
0.524681 0.712062 0.133455
0.550912 0.71017 0.131563
0.575921 0.708446 0.129824
0.599527 0.706889 0.128267
0.621622 0.705577 0.12697
0.641886 0.704753 0.126146
0.660395 0.704448 0.125841
0.676921 0.704372 0.12575
0.691676 0.70457 0.125963
0.705028 0.705028 0.126421
0.717449 0.705699 0.127092
0.729213 0.706538 0.127932
0.740566 0.707362 0.128756
0.751568 0.708049 0.129427
0.762524 0.708629 0.130022
0.773587 0.709163 0.130556
0.784802 0.709606 0.130999
0.148379 0.738735 0.148379
0.163485 0.741268 0.150912
0.179461 0.743435 0.153079
0.196582 0.745418 0.155062
0.214939 0.746944 0.156588
0.234577 0.74786 0.157504
0.255787 0.74818 0.157824
0.278859 0.747875 0.157519
0.303944 0.746975 0.156619
0.331014 0.745647 0.155291
0.359289 0.743664 0.153292
0.388281 0.741238 0.150881
0.417624 0.738582 0.148226
0.446586 0.736004 0.145647
0.474983 0.733486 0.14313
0.50277 0.731121 0.140764
0.529519 0.728634 0.138277
0.555306 0.726314 0.135958
0.579995 0.724254 0.133898
0.603342 0.722438 0.132082
0.625284 0.720989 0.130632
0.645151 0.719753 0.129397
0.663157 0.718944 0.128588
0.679377 0.718563 0.128206
0.693919 0.718547 0.128191
0.707027 0.718776 0.12842
0.719203 0.719203 0.128847
0.730602 0.719661 0.129305
0.74165 0.720195 0.129839
0.752483 0.720699 0.130343
