bundles/resolve-cinematic-luts/Phantom Luts/DJI/DJI Phntm Film LUTs - G3/WDR Pre-LUT/WDR Mavic 3 Pre-LUT.cube
TITLE "Generated by Resolve"
LUT_3D_SIZE 9
0.109163 0.109163 0.109163
0.165789 0.107439 0.107439
0.247333 0.100008 0.100008
0.355932 0.0865339 0.0865339
0.4654 0.0741588 0.0741588
0.561593 0.0669261 0.0669261
0.633616 0.0679026 0.0679026
0.687831 0.0760052 0.0760052
0.740627 0.0868238 0.0868238
0.106844 0.165194 0.106844
0.166812 0.166812 0.108446
0.252033 0.163058 0.104692
0.36492 0.153872 0.0955062
0.479332 0.146441 0.0880903
0.580957 0.144656 0.086305
0.65919 0.151827 0.0934768
0.719539 0.166064 0.107713
0.778042 0.182589 0.124239
0.0957656 0.243091 0.0957656
0.160876 0.249851 0.10251
0.251728 0.251728 0.104387
0.370748 0.248676 0.101335
0.49131 0.247395 0.100069
0.598444 0.251118 0.103777
0.681147 0.26276 0.115419
0.744549 0.280064 0.132723
0.804669 0.298207 0.150866
0.0801556 0.349569 0.0801556
0.151186 0.362234 0.0928206
0.247303 0.369375 0.0999771
0.370398 0.370398 0.100999
0.493462 0.371633 0.10222
0.601572 0.376318 0.10692
0.684077 0.387762 0.118349
0.746395 0.403983 0.134585
0.804623 0.420233 0.15082
0.0810254 0.472267 0.0810254
0.153841 0.486732 0.095491
0.250706 0.494606 0.103365
0.373159 0.495003 0.103761
0.494881 0.494881 0.103639
0.601267 0.497841 0.106615
0.681636 0.507149 0.115908
0.741405 0.520821 0.12958
0.796628 0.534066 0.142824
0.0965896 0.591241 0.0965896
0.167849 0.60415 0.109499
0.262791 0.610101 0.11545
0.382986 0.60824 0.113588
0.501961 0.605371 0.110719
0.605295 0.605295 0.110643
0.681926 0.610864 0.116213
0.737408 0.620249 0.125597
0.787961 0.628809 0.134157
0.128527 0.694255 0.128527
0.197024 0.704387 0.138674
0.288655 0.707042 0.141329
0.405005 0.70132 0.135592
0.519448 0.693935 0.128206
0.617884 0.68896 0.123232
0.689204 0.689204 0.123476
0.739254 0.693156 0.127428
0.784649 0.696574 0.130846
0.166705 0.778531 0.166705
0.230762 0.784222 0.172396
0.317296 0.781781 0.16997
0.428168 0.770581 0.15877
0.537209 0.757794 0.145968
0.630503 0.747662 0.135836
0.697261 0.743358 0.131533
0.74345 0.74345 0.13164
0.78587 0.743877 0.132067
0.190936 0.844739 0.190936
0.249607 0.84506 0.191257
0.33106 0.837537 0.183734
0.437552 0.821958 0.168154
0.543191 0.805753 0.151949
0.633829 0.792981 0.139178
0.698726 0.786801 0.132998
0.74374 0.785733 0.13193
0.785626 0.785626 0.131823
0.108431 0.108431 0.166796
0.165408 0.107042 0.165408
0.247196 0.0998703 0.158221
0.356161 0.0867628 0.145113
0.466087 0.0748455 0.133196
0.562676 0.0680247 0.12639
0.635325 0.0695964 0.127947
0.690044 0.078233 0.136584
0.743404 0.089601 0.147951
0.10721 0.165576 0.165576
0.167529 0.167529 0.167529
0.25333 0.16434 0.16434
0.366857 0.15581 0.15581
0.481895 0.14902 0.14902
0.58407 0.147768 0.147768
0.662882 0.15552 0.15552
0.723781 0.170321 0.170321
0.782589 0.187152 0.187152
0.0977798 0.245121 0.156146
0.163439 0.252415 0.163439
0.255177 0.255177 0.166201
0.374762 0.252689 0.163714
0.49575 0.251835 0.16286
0.60322 0.255894 0.166918
0.686137 0.26775 0.178759
0.749554 0.285069 0.196094
0.809308 0.302831 0.213855
0.0843671 0.353765 0.142718
0.155612 0.366659 0.155612
0.252201 0.374273 0.163226
0.375402 0.375402 0.16434
0.498238 0.37641 0.165362
0.606439 0.381186 0.170138
0.688746 0.392432 0.181384
0.750866 0.408453 0.197391
0.808881 0.424475 0.213428
0.0860304 0.477272 0.144396
0.15877 0.491661 0.15877
0.255512 0.499428 0.166537
0.377813 0.499641 0.166751
0.499077 0.499077 0.166186
0.605402 0.501976 0.1691
0.685466 0.510979 0.178103
0.74493 0.524361 0.19147
0.799817 0.537255 0.204364
0.101122 0.595789 0.159487
0.172198 0.608499 0.172198
0.26688 0.614206 0.177905
0.38674 0.611994 0.175692
0.505196 0.608606 0.17232
0.608225 0.608225 0.171923
0.684443 0.613382 0.177081
0.7393 0.622126 0.18584
0.78941 0.630259 0.193957
0.132036 0.697765 0.190402
0.200305 0.707668 0.200305
0.291432 0.709819 0.202441
0.407233 0.703563 0.196185
0.521202 0.695689 0.188312
0.619135 0.690211 0.182849
0.689921 0.689921 0.182559
0.73933 0.693233 0.18587
0.784283 0.696208 0.18883
0.168795 0.780606 0.227146
0.232258 0.785718 0.232258
0.318242 0.782727 0.229252
0.428595 0.771023 0.217548
0.53724 0.757809 0.204349
0.630076 0.74725 0.193774
0.696498 0.742596 0.18912
0.742443 0.742443 0.188983
0.784741 0.742748 0.189288
0.191135 0.844938 0.249485
0.249378 0.844831 0.249378
0.33051 0.836988 0.241535
0.436728 0.821118 0.225666
0.542153 0.804715 0.209262
0.63267 0.791821 0.196368
0.697459 0.78555 0.190097
0.742519 0.784512 0.189059
0.784436 0.784436 0.188983
0.105699 0.105699 0.25304
0.162936 0.10457 0.251911
0.245029 0.0977035 0.245029
0.354314 0.0849012 0.232242
0.464637 0.0733959 0.220722
0.561715 0.0670634 0.214389
0.635035 0.0693065 0.216648
0.690394 0.0785687 0.22591
0.744259 0.0904555 0.237797
0.105592 0.163943 0.252934
0.166278 0.166278 0.255253
0.252552 0.163577 0.252552
0.366659 0.155612 0.244587
0.482383 0.149493 0.238468
0.58529 0.149004 0.23798
0.664668 0.157305 0.246281
0.725994 0.172534 0.261509
0.785077 0.189624 0.278599
0.0978561 0.245197 0.245197
0.16405 0.25304 0.25304
0.256504 0.256504 0.256504
0.376745 0.254673 0.254673
0.498039 0.254124 0.254124
0.60589 0.258564 0.258564
0.688914 0.270527 0.270527
0.7523 0.287816 0.287816
0.811963 0.305486 0.305486
0.0863508 0.355749 0.233677
0.158129 0.369177 0.247105
0.254963 0.377035 0.254963
0.378195 0.378195 0.256123
0.500923 0.379095 0.257023
0.609049 0.383795 0.261723
0.691188 0.394858 0.272801
0.752926 0.410498 0.288426
0.810803 0.426413 0.304341
0.0886397 0.479881 0.235966
0.16144 0.494331 0.250431
0.25803 0.50193 0.25803
0.380148 0.501976 0.258076
0.501228 0.501228 0.257313
0.607294 0.503868 0.259968
0.687007 0.51252 0.26862
0.745861 0.525277 0.281376
0.800565 0.538003 0.294087
0.103136 0.597787 0.250462
0.174212 0.610513 0.263203
0.26865 0.615976 0.26865
0.388037 0.613291 0.265965
0.506264 0.609689 0.262364
0.608789 0.608789 0.261479
0.684489 0.613428 0.266102
0.738857 0.621683 0.274372
0.788464 0.629313 0.282002
0.133333 0.699046 0.280659
0.201236 0.708598 0.290211
0.29192 0.710307 0.29192
0.406989 0.703319 0.284916
0.5205 0.694972 0.276585
0.617884 0.68896 0.270573
0.688197 0.688197 0.26981
0.737163 0.691066 0.272679
0.781659 0.693584 0.275196
0.168582 0.780407 0.315923
0.231464 0.784939 0.320455
0.316808 0.781292 0.316808
0.426551 0.768963 0.304479
0.534813 0.755383 0.290898
0.627329 0.744503 0.280018
0.693401 0.739498 0.275013
0.739208 0.739208 0.274708
0.781353 0.739376 0.274891
0.189059 0.842863 0.336385
0.246784 0.842237 0.335775
0.327611 0.834073 0.327611
0.4336 0.81799 0.311528
0.538857 0.801419 0.294957
0.629282 0.788418 0.281956
0.69398 0.782071 0.275593
0.739101 0.781079 0.274617
0.781048 0.781048 0.274571
0.100603 0.100603 0.370001
0.158038 0.0996872 0.369085
0.24062 0.0932784 0.362692
0.350286 0.0808881 0.350286
0.461006 0.0697642 0.339178
0.558541 0.0638743 0.333288
0.632441 0.0667124 0.336126
0.688518 0.0766918 0.34609
0.742977 0.0891737 0.358572
0.101686 0.160052 0.371099
0.162829 0.162829 0.373877
0.249699 0.160708 0.371756
0.364309 0.153262 0.364309
0.480461 0.14757 0.358618
0.584237 0.147936 0.358984
0.664271 0.156893 0.367941
0.72604 0.172564 0.383612
0.785351 0.189899 0.400946
0.0958419 0.243183 0.365255
0.162646 0.251621 0.373693
0.255634 0.255634 0.377707
0.37641 0.254337 0.37641
0.49807 0.254154 0.376226
0.606256 0.25893 0.381003
0.689326 0.270939 0.393011
0.752575 0.28809 0.410163
0.812177 0.305715 0.427787
0.0861524 0.355566 0.355566
0.158312 0.36936 0.36936
0.25536 0.377432 0.377432
0.378576 0.378576 0.378576
0.501213 0.37937 0.37937
0.609171 0.383917 0.383917
0.691142 0.394827 0.394827
0.752605 0.410193 0.410193
0.810315 0.42591 0.42591
0.0889754 0.480201 0.358373
0.161715 0.494591 0.372763
0.258091 0.502007 0.380163
0.379873 0.501701 0.379873
0.500862 0.500862 0.379019
0.606683 0.503273 0.38143
0.686076 0.511589 0.389761
0.744549 0.523964 0.402136
0.798749 0.536187 0.414343
0.102937 0.597589 0.372351
0.173739 0.61004 0.384802
0.267872 0.615198 0.389944
0.386908 0.612146 0.386908
0.504829 0.60824 0.383001
0.606912 0.606912 0.381659
0.681941 0.610864 0.385611
0.735775 0.618616 0.393362
0.784848 0.625696 0.400443
0.132052 0.69778 0.401465
0.199542 0.706905 0.41059
0.289799 0.708186 0.411872
0.40441 0.700725 0.40441
0.517327 0.691814 0.395499
0.614069 0.685145 0.38883
0.683696 0.683696 0.387381
0.732357 0.686259 0.389944
0.776532 0.688457 0.392142
0.165698 0.777508 0.435096
0.228092 0.781552 0.439139
0.31281 0.777295 0.434882
0.42208 0.764492 0.42208
0.529839 0.750408 0.407996
0.622049 0.739208 0.396796
0.687892 0.733989 0.391562
0.733532 0.733532 0.391119
0.775586 0.733593 0.39118
0.184451 0.838254 0.453849
0.241764 0.837217 0.452811
0.322148 0.828626 0.444221
0.427985 0.812375 0.427985
0.533135 0.795697 0.411292
0.623484 0.782635 0.39823
0.688167 0.776242 0.391852
0.733288 0.77528 0.390875
0.77528 0.77528 0.39089
0.0956436 0.0956436 0.486885
0.153338 0.0949874 0.486229
0.236271 0.0889296 0.480171
0.346395 0.076997 0.468238
0.457481 0.0662394 0.457481
0.555673 0.0610208 0.452262
0.630091 0.0643778 0.455604
0.68661 0.0747997 0.466041
0.741909 0.0881056 0.479347
0.0977646 0.156115 0.489006
0.159548 0.159548 0.492424
0.247059 0.158068 0.490959
0.362325 0.151278 0.484154
0.479042 0.146151 0.479042
0.583352 0.147051 0.479942
0.663935 0.156573 0.489448
0.725933 0.172473 0.505348
0.785733 0.19028 0.523171
0.0938277 0.241154 0.485069
0.161517 0.250492 0.494408
0.255085 0.255085 0.498985
0.376272 0.254215 0.498116
0.498268 0.254353 0.498268
0.606653 0.259342 0.503243
0.689754 0.271366 0.515267
0.752728 0.288243 0.532143
0.812329 0.305867 0.549767
0.0861372 0.355535 0.477378
0.158633 0.36968 0.491508
0.255772 0.377844 0.499672
0.378759 0.378759 0.500587
0.501488 0.37966 0.501488
0.609262 0.384009 0.505852
0.69102 0.394705 0.516533
0.75227 0.409842 0.531685
0.809735 0.42533 0.547173
0.0893111 0.480552 0.480552
0.161929 0.49482 0.49482
0.258152 0.502052 0.502052
0.379599 0.501427 0.501427
0.500404 0.500404 0.500404
0.605936 0.50251 0.50251
0.684962 0.510475 0.510475
0.743145 0.52256 0.52256
0.796872 0.53431 0.53431
0.102708 0.59736 0.49395
0.173266 0.609552 0.506142
0.267018 0.614343 0.510933
0.385657 0.61091 0.507485
0.503166 0.606577 0.503166
0.604822 0.604822 0.501411
0.679316 0.60824 0.504829
0.732631 0.615473 0.512047
0.781048 0.621897 0.518486
0.130755 0.696468 0.521981
0.197726 0.705089 0.530617
0.287358 0.705745 0.531258
0.401556 0.697887 0.5234
0.513985 0.688457 0.513985
0.610193 0.681254 0.506767
0.679255 0.679255 0.504768
0.727413 0.681315 0.506828
0.771267 0.683192 0.508705
0.1626 0.774426 0.553841
0.22443 0.77789 0.557305
0.308644 0.773129 0.552544
0.417502 0.759915 0.53933
0.524834 0.745403 0.524834
0.616648 0.733822 0.513237
0.682292 0.728389 0.50782
0.72781 0.72781 0.50724
0.769802 0.727825 0.50724
0.179614 0.833417 0.570855
0.236622 0.832074 0.569512
0.316762 0.823224 0.560662
0.422354 0.80676 0.544198
0.527382 0.789944 0.527382
0.617594 0.776745 0.514183
0.682368 0.770443 0.507881
0.727504 0.769497 0.506935
0.769497 0.769497 0.506935
0.0920729 0.0920729 0.586725
0.150149 0.091783 0.586435
0.233387 0.0860456 0.580697
0.343877 0.0744793 0.569131
0.455528 0.0642863 0.558938
0.554345 0.0596933 0.554345
0.629404 0.0636912 0.558343
0.686442 0.0746319 0.569284
0.742351 0.0885481 0.5832
0.095491 0.153857 0.590143
0.157748 0.157748 0.594049
0.245823 0.156847 0.593149
0.361669 0.150622 0.586923
0.479225 0.146349 0.58265
0.584115 0.147814 0.584115
0.665125 0.157748 0.594049
0.727443 0.173983 0.610285
0.787472 0.19202 0.628321
0.0934462 0.240772 0.588098
0.161807 0.250782 0.598108
0.256031 0.256031 0.603357
0.377447 0.255375 0.602686
0.499901 0.256001 0.603311
0.608408 0.261082 0.608408
0.69131 0.272923 0.620249
0.754345 0.28986 0.637171
0.813748 0.307286 0.654597
0.0876173 0.357015 0.582269
0.160357 0.371405 0.596658
0.257527 0.379599 0.604837
0.380438 0.380438 0.605692
0.503044 0.381216 0.60647
0.610651 0.385397 0.610651
0.691951 0.395636 0.620874
0.753155 0.410727 0.635981
0.81033 0.425925 0.651179
0.0909438 0.482185 0.585595
0.163394 0.496284 0.599695
0.259449 0.503349 0.606775
0.380697 0.502541 0.605951
0.501259 0.501259 0.604669
0.606424 0.503014 0.606424
0.684916 0.51043 0.613855
0.742824 0.52224 0.625666
0.796155 0.533593 0.637003
0.10367 0.598321 0.598321
0.173983 0.610269 0.610269
0.267247 0.614557 0.614557
0.385687 0.610941 0.610941
0.502693 0.606104 0.606104
0.60383 0.60383 0.60383
0.677806 0.606744 0.606744
0.730632 0.613474 0.613474
0.778515 0.619364 0.619364
0.130632 0.696345 0.625284
0.197177 0.70454 0.633463
0.286152 0.704555 0.633478
0.399802 0.696132 0.625055
0.511666 0.686152 0.615091
0.60737 0.678447 0.60737
0.67602 0.67602 0.604944
0.723735 0.677638 0.606577
0.767269 0.679179 0.608118
0.160769 0.77258 0.655421
0.221958 0.775418 0.658244
0.305592 0.770077 0.652918
0.414023 0.756436 0.639277
0.521035 0.741619 0.624445
0.612558 0.729717 0.612558
0.678004 0.724102 0.606943
0.7234 0.7234 0.606226
0.765301 0.723323 0.606149
0.175982 0.829786 0.670634
0.232624 0.828061 0.66891
0.312581 0.819059 0.659907
0.418036 0.802426 0.643275
0.522942 0.785504 0.626352
0.613123 0.772274 0.613123
0.677897 0.765972 0.606836
0.723079 0.765072 0.60592
0.765103 0.765103 0.605951
0.0909285 0.0909285 0.656657
0.149416 0.0910506 0.656779
0.233051 0.0857252 0.651438
0.343923 0.0745098 0.640238
0.456046 0.0648051 0.630518
0.555444 0.0607919 0.626505
0.63122 0.0654917 0.63122
0.68896 0.0771344 0.642863
0.745434 0.0916304 0.657343
0.0957961 0.154162 0.661524
0.158587 0.158587 0.665949
0.247181 0.158206 0.665568
0.363546 0.152499 0.659861
0.481849 0.148974 0.656336
0.587396 0.151095 0.658457
0.668742 0.161364 0.668742
0.731411 0.177951 0.685313
0.791547 0.196094 0.703456
0.0957351 0.243076 0.661463
0.164645 0.25362 0.672007
0.259342 0.259342 0.677729
0.381247 0.259174 0.677562
0.50396 0.26006 0.678447
0.612497 0.265171 0.683558
0.695277 0.27689 0.695277
0.758236 0.293751 0.712139
0.817487 0.311009 0.729412
0.0914931 0.360891 0.657206
0.164431 0.375479 0.671794
0.261448 0.38352 0.679835
0.384405 0.384405 0.68072
0.506859 0.385016 0.681346
0.614298 0.389044 0.685359
0.695399 0.399084 0.695399
0.756329 0.413916 0.710231
0.813153 0.428763 0.725078
0.0948806 0.486122 0.660609
0.167147 0.500038 0.67451
0.262745 0.506645 0.681132
0.384009 0.505837 0.680323
0.504326 0.504326 0.678798
0.609049 0.505638 0.680125
0.687282 0.512795 0.687282
0.744686 0.524102 0.698589
0.797498 0.534936 0.709407
0.106874 0.601541 0.672602
0.176867 0.613169 0.684245
0.269825 0.617151 0.688212
0.387915 0.613169 0.68423
0.504479 0.607889 0.67895
0.604868 0.604868 0.675944
0.678401 0.60734 0.678401
0.730678 0.613519 0.684581
0.778088 0.618936 0.690013
0.132601 0.698329 0.698329
0.198718 0.706081 0.706081
0.287251 0.705638 0.705638
0.40032 0.696635 0.696635
0.511543 0.686015 0.686015
0.606592 0.677653 0.677653
0.674891 0.674891 0.674891
0.722286 0.676188 0.676188
0.765454 0.677378 0.677378
0.161044 0.772869 0.726772
0.221592 0.775051 0.728954
0.304814 0.769299 0.723201
0.412726 0.755138 0.709041
0.519417 0.740001 0.693904
0.610712 0.727886 0.681788
0.67602 0.722118 0.67602
0.721294 0.721294 0.675196
0.763104 0.721126 0.675029
0.17464 0.828443 0.740353
0.230884 0.826337 0.738262
0.310643 0.817121 0.729046
0.415976 0.800366 0.712291
0.520806 0.783368 0.695293
0.610986 0.770138 0.682048
0.675776 0.763851 0.675776
0.721004 0.762997 0.674907
0.763073 0.763073 0.674998
0.0917067 0.0917067 0.703532
0.15053 0.0921798 0.704005
0.234638 0.0872969 0.699123
0.345937 0.076524 0.68835
0.458656 0.0674296 0.67924
0.558587 0.0639353 0.675746
0.634745 0.0690318 0.680842
0.69337 0.0815595 0.69337
0.7505 0.0966964 0.708522
0.0979934 0.156344 0.709804
0.16141 0.16141 0.714885
0.250675 0.1617 0.71516
0.367605 0.156558 0.710033
0.486458 0.153582 0.707042
0.592538 0.156237 0.709697
0.67422 0.166857 0.720317
0.73727 0.18381 0.73727
0.797436 0.201984 0.755444
0.100084 0.247425 0.71191
0.169574 0.258549 0.723033
0.264637 0.264637 0.729122
0.386923 0.264851 0.729335
0.509834 0.265919 0.730404
0.618387 0.271061 0.735561
0.70103 0.282643 0.747127
0.763867 0.299367 0.763867
0.822934 0.316472 0.780957
0.0972763 0.36669 0.709102
0.170306 0.381353 0.723766
0.267231 0.389303 0.731716
0.390143 0.390143 0.73257
0.512413 0.39057 0.732998
0.619532 0.394278 0.73669
0.700511 0.404196 0.746609
0.761212 0.418799 0.761212
0.817731 0.433341 0.775753
0.100572 0.491814 0.712383
0.172641 0.505516 0.726101
0.26804 0.51194 0.732525
0.389029 0.510857 0.731441
0.509026 0.509026 0.72961
0.613397 0.509987 0.730571
0.691325 0.516854 0.737423
0.748287 0.527703 0.748287
0.800443 0.537881 0.758465
0.111864 0.606516 0.723674
0.181369 0.61767 0.734844
0.274037 0.621363 0.738521
0.391714 0.616953 0.734127
0.507851 0.611261 0.728435
0.607782 0.607782 0.724941
0.68072 0.609659 0.726818
0.732357 0.615183 0.732357
0.779095 0.619944 0.737118
0.136248 0.701976 0.748074
0.201648 0.709026 0.755123
0.289845 0.708232 0.75433
0.402426 0.698741 0.744839
0.513039 0.687526 0.733623
0.607614 0.678676 0.724773
0.67541 0.67541 0.721508
0.722484 0.676387 0.722484
0.765438 0.677348 0.723445
0.162844 0.774655 0.774655
0.222904 0.776379 0.776379
0.305684 0.770184 0.770184
0.413184 0.755596 0.755596
0.519448 0.740032 0.740032
0.61059 0.727764 0.727764
0.675761 0.721859 0.721859
0.720989 0.720989 0.720989
0.762768 0.72079 0.72079
0.17496 0.828763 0.78677
0.230961 0.826413 0.784421
0.310491 0.816968 0.77499
0.415686 0.800092 0.758099
0.520409 0.782971 0.740993
0.610651 0.769802 0.72781
0.675456 0.763546 0.721553
0.720653 0.762646 0.720653
0.762875 0.762875 0.720897
0.092958 0.092958 0.746761
0.152102 0.0937514 0.747555
0.236484 0.0891585 0.742962
0.348409 0.0790112 0.732815
0.461784 0.0705425 0.724346
0.562356 0.0677043 0.721508
0.639078 0.0733654 0.727169
0.698268 0.0864424 0.740246
0.755932 0.102129 0.755932
0.100649 0.158999 0.754452
0.16463 0.16463 0.760082
0.254398 0.165408 0.760861
0.372244 0.161196 0.756649
0.491676 0.158785 0.754238
0.598169 0.161868 0.757321
0.680171 0.172808 0.768261
0.743435 0.189975 0.785428
0.803632 0.208179 0.803632
0.104814 0.252155 0.758618
0.17496 0.263935 0.770413
0.270329 0.270329 0.776806
0.392996 0.270924 0.777401
0.516014 0.272099 0.778576
0.624308 0.276982 0.783459
0.707073 0.288685 0.795148
0.769711 0.305226 0.811688
0.82858 0.322103 0.82858
0.103441 0.372839 0.757244
0.176501 0.387549 0.771939
0.27335 0.395422 0.779812
0.396139 0.396139 0.780529
0.518227 0.396399 0.780804
0.624994 0.399741 0.784131
0.705837 0.409522 0.793912
0.766232 0.423819 0.808209
0.8224 0.437995 0.8224
0.106462 0.497704 0.760266
0.178302 0.511193 0.773754
0.273579 0.517479 0.780041
0.394308 0.516136 0.778698
0.513954 0.513954 0.776516
0.617899 0.514488 0.77705
0.695445 0.520958 0.78352
0.75198 0.531395 0.793957
0.803571 0.541009 0.803571
0.117006 0.611658 0.770809
0.18613 0.622431 0.781582
0.278508 0.625818 0.78497
0.395666 0.620905 0.780056
0.511193 0.614618 0.773754
0.610697 0.610697 0.769848
0.683146 0.612085 0.771237
0.734249 0.617075 0.776226
0.780407 0.621256 0.780407
0.140108 0.705821 0.793912
0.204974 0.712337 0.800412
0.292515 0.710918 0.798993
0.404532 0.700847 0.788937
0.514641 0.689128 0.777218
0.608804 0.679866 0.767956
0.676158 0.676158 0.764248
0.722866 0.676768 0.764858
0.765606 0.677531 0.765606
0.164721 0.776547 0.818524
0.224292 0.777752 0.819745
0.30663 0.771115 0.813107
0.413809 0.756222 0.798215
0.519829 0.740398 0.782391
0.610742 0.727901 0.769894
0.675776 0.721874 0.763867
0.720882 0.720882 0.762875
0.762737 0.72076 0.762737
0.175326 0.829129 0.829129
0.23122 0.826658 0.826658
0.310597 0.817075 0.817075
0.415641 0.800046 0.800046
0.520378 0.78294 0.78294
0.61062 0.769772 0.769772
0.675471 0.763546 0.763546
0.720714 0.762692 0.762692
0.762966 0.762966 0.762966
