bundles/resolve-cinematic-luts/Phantom Luts/DJI/DJI Phntm Film LUTs - G3/WDR Pre-LUT/WDR Mavic 3 Pre-LUT.cube
TITLE "Generated by Resolve"
LUT_3D_SIZE 5
0.109163 0.109163 0.109163
0.247333 0.100008 0.100008
0.4654 0.0741588 0.0741588
0.633616 0.0679026 0.0679026
0.740627 0.0868238 0.0868238
0.0957656 0.243091 0.0957656
0.251728 0.251728 0.104387
0.49131 0.247395 0.100069
0.681147 0.26276 0.115419
0.804669 0.298207 0.150866
0.0810254 0.472267 0.0810254
0.250706 0.494606 0.103365
0.494881 0.494881 0.103639
0.681636 0.507149 0.115908
0.796628 0.534066 0.142824
0.128527 0.694255 0.128527
0.288655 0.707042 0.141329
0.519448 0.693935 0.128206
0.689204 0.689204 0.123476
0.784649 0.696574 0.130846
0.190936 0.844739 0.190936
0.33106 0.837537 0.183734
0.543191 0.805753 0.151949
0.698726 0.786801 0.132998
0.785626 0.785626 0.131823
0.105699 0.105699 0.25304
0.245029 0.0977035 0.245029
0.464637 0.0733959 0.220722
0.635035 0.0693065 0.216648
0.744259 0.0904555 0.237797
0.0978561 0.245197 0.245197
0.256504 0.256504 0.256504
0.498039 0.254124 0.254124
0.688914 0.270527 0.270527
0.811963 0.305486 0.305486
0.0886397 0.479881 0.235966
0.25803 0.50193 0.25803
0.501228 0.501228 0.257313
0.687007 0.51252 0.26862
0.800565 0.538003 0.294087
0.133333 0.699046 0.280659
0.29192 0.710307 0.29192
0.5205 0.694972 0.276585
0.688197 0.688197 0.26981
0.781659 0.693584 0.275196
0.189059 0.842863 0.336385
0.327611 0.834073 0.327611
0.538857 0.801419 0.294957
0.69398 0.782071 0.275593
0.781048 0.781048 0.274571
0.0956436 0.0956436 0.486885
0.236271 0.0889296 0.480171
0.457481 0.0662394 0.457481
0.630091 0.0643778 0.455604
0.741909 0.0881056 0.479347
0.0938277 0.241154 0.485069
0.255085 0.255085 0.498985
0.498268 0.254353 0.498268
0.689754 0.271366 0.515267
0.812329 0.305867 0.549767
0.0893111 0.480552 0.480552
0.258152 0.502052 0.502052
0.500404 0.500404 0.500404
0.684962 0.510475 0.510475
0.796872 0.53431 0.53431
0.130755 0.696468 0.521981
0.287358 0.705745 0.531258
0.513985 0.688457 0.513985
0.679255 0.679255 0.504768
0.771267 0.683192 0.508705
0.179614 0.833417 0.570855
0.316762 0.823224 0.560662
0.527382 0.789944 0.527382
0.682368 0.770443 0.507881
0.769497 0.769497 0.506935
0.0909285 0.0909285 0.656657
0.233051 0.0857252 0.651438
0.456046 0.0648051 0.630518
0.63122 0.0654917 0.63122
0.745434 0.0916304 0.657343
0.0957351 0.243076 0.661463
0.259342 0.259342 0.677729
0.50396 0.26006 0.678447
0.695277 0.27689 0.695277
0.817487 0.311009 0.729412
0.0948806 0.486122 0.660609
0.262745 0.506645 0.681132
0.504326 0.504326 0.678798
0.687282 0.512795 0.687282
0.797498 0.534936 0.709407
0.132601 0.698329 0.698329
0.287251 0.705638 0.705638
0.511543 0.686015 0.686015
0.674891 0.674891 0.674891
0.765454 0.677378 0.677378
0.17464 0.828443 0.740353
0.310643 0.817121 0.729046
0.520806 0.783368 0.695293
0.675776 0.763851 0.675776
0.763073 0.763073 0.674998
0.092958 0.092958 0.746761
0.236484 0.0891585 0.742962
0.461784 0.0705425 0.724346
0.639078 0.0733654 0.727169
0.755932 0.102129 0.755932
0.104814 0.252155 0.758618
0.270329 0.270329 0.776806
0.516014 0.272099 0.778576
0.707073 0.288685 0.795148
0.82858 0.322103 0.82858
0.106462 0.497704 0.760266
0.273579 0.517479 0.780041
0.513954 0.513954 0.776516
0.695445 0.520958 0.78352
0.803571 0.541009 0.803571
0.140108 0.705821 0.793912
0.292515 0.710918 0.798993
0.514641 0.689128 0.777218
0.676158 0.676158 0.764248
0.765606 0.677531 0.765606
0.175326 0.829129 0.829129
0.310597 0.817075 0.817075
0.520378 0.78294 0.78294
0.675471 0.763546 0.763546
0.762966 0.762966 0.762966
