bundles/resolve-cinematic-luts/Gamut/_Conversion/DJI DLog-M/BaseLUTs - DJI D-Log (4D).cube
TITLE "BaseLUTs - DJI D-Log (4D) LUT by Gamut"
# Designed for converting D-Log / D-Gamut to Rec709 Color Space. Version 1.0- 03/29/2023 -  Copyright 2023 Gamut, LLC
LUT_3D_SIZE 5
0.002366 0.001577 0.001577
0.277307 0.001972 0.052968
0.856109 0.009069 0.193093
0.986914 0.082910 0.197581
0.972119 0.399746 0.183728
0.022868 0.183757 0.061637
0.186393 0.163319 0.000197
0.734409 0.188005 0.129532
0.976846 0.301544 0.183025
0.974400 0.502829 0.164804
0.038246 0.733672 0.030755
0.037260 0.697493 0.028586
0.710501 0.628347 0.046934
0.987302 0.654463 0.208996
0.996733 0.750044 0.253994
0.042516 0.929614 0.051020
0.042516 0.929547 0.051020
0.359706 0.915855 0.147359
0.993413 0.907322 0.229892
1.000000 0.938298 0.184739
0.053002 0.927305 0.088291
0.053164 0.927230 0.089489
0.062523 0.928990 0.087894
0.960344 0.971456 0.352548
1.000000 0.975593 0.287366
0.036275 0.003745 0.307218
0.276156 0.000000 0.213783
0.842097 0.013406 0.208095
0.986676 0.060344 0.214363
0.972189 0.396329 0.183513
0.016166 0.147269 0.195313
0.145920 0.141935 0.140753
0.735948 0.124906 0.151482
0.978601 0.276007 0.181343
0.974101 0.501107 0.164563
0.064283 0.700207 0.186603
0.056152 0.681108 0.109608
0.680162 0.614125 0.118552
0.987002 0.653051 0.207924
0.996746 0.748298 0.253769
0.042516 0.929614 0.051020
0.042516 0.929547 0.051020
0.352118 0.915825 0.141133
0.992810 0.906887 0.230687
1.000000 0.938071 0.184529
0.053002 0.927305 0.087961
0.053812 0.927149 0.091425
0.060881 0.928902 0.085895
0.957504 0.971777 0.353308
1.000000 0.975593 0.287366
0.108802 0.012223 0.807556
0.244063 0.039569 0.744238
0.945874 0.000000 0.774765
0.984576 0.061102 0.468919
0.986505 0.260705 0.384571
0.085269 0.025432 0.644815
0.168392 0.045103 0.695835
0.859873 0.022080 0.732104
0.985452 0.184038 0.455410
0.987351 0.354867 0.367006
0.140492 0.562484 0.705169
0.139533 0.572250 0.681356
0.575926 0.569302 0.570613
0.974245 0.568971 0.495291
0.988864 0.654460 0.417330
0.025234 0.940897 0.628246
0.025628 0.942661 0.621796
0.346119 0.893849 0.558788
0.968202 0.912531 0.551887
1.000000 0.941732 0.454186
0.038503 0.963029 0.527780
0.039964 0.961743 0.519928
0.064725 0.947782 0.456989
0.916169 0.986012 0.565060
1.000000 0.980277 0.449362
0.125522 0.013406 0.916721
0.174438 0.012617 0.949615
0.930737 0.000000 0.963655
1.000000 0.000000 0.958625
1.000000 0.037458 0.960134
0.119254 0.013406 0.915783
0.168938 0.013406 0.962596
0.845459 0.000000 0.970915
1.000000 0.000000 0.958213
1.000000 0.162560 0.964862
0.179444 0.339888 0.836013
0.184294 0.362007 0.840883
0.507245 0.413193 0.943638
1.000000 0.408809 0.977579
0.999006 0.531170 0.941477
0.110150 0.900338 0.925180
0.108698 0.905514 0.922416
0.248973 0.879888 0.887377
0.917358 0.918083 0.914810
0.994452 0.941242 0.858661
0.066024 0.962036 0.911436
0.065465 0.961966 0.910160
0.058007 0.960389 0.887392
0.826542 0.988979 0.900203
1.000000 0.993485 0.867077
0.132708 0.014194 0.973844
0.142321 0.014194 0.980090
0.798358 0.000000 0.974989
1.000000 0.000000 0.958625
1.000000 0.000000 0.958625
0.128351 0.014194 0.981248
0.136398 0.014194 0.986074
0.706056 0.000000 0.984585
1.000000 0.000000 0.958625
1.000000 0.040495 0.960205
0.151975 0.227426 0.836341
0.158318 0.252922 0.837400
0.436298 0.304459 0.987268
1.000000 0.285981 0.970627
1.000000 0.404381 0.977088
0.227811 0.849360 0.964438
0.219919 0.857974 0.962895
0.247841 0.827562 0.957882
0.871198 0.856362 0.981390
1.000000 0.885603 1.000000
0.104163 0.965066 0.960495
0.104542 0.965312 0.960701
0.102445 0.964264 0.957915
0.776324 0.990394 0.992150
0.997877 0.997824 1.000000
