bundles/resolve-cinematic-luts/Gamut/_Conversion/DJI DLog-M/BaseLUTs - DJI DLog-M v.cube
TITLE "BaseLUTs - DJI DLog-M v LUT by Gamut"
# Designed for converting DLog-M / D-Gamut to Rec709 Color Space. Version 1.0- 05/28/2021 -  Copyright 2021 Gamut, LLC
LUT_3D_SIZE 5
0.0000000000 0.0102510000 0.0000000000
0.2669380000 0.0268120000 0.0000000000
0.5277810000 0.0586620000 0.0000000000
0.7772480000 0.1223870000 0.0000000000
1.0000000000 0.2231210000 0.0000000000
0.0000000000 0.2900750000 0.0000000000
0.2505250000 0.2590280000 0.0000000000
0.5239450000 0.2375150000 0.0000000000
0.7900480000 0.2575590000 0.0000000000
1.0000000000 0.3095640000 0.0000000000
0.0000000000 0.5309710000 0.0000000000
0.2022610000 0.5037510000 0.0000000000
0.4962330000 0.4903310000 0.0000000000
0.7927510000 0.4726990000 0.0000000000
0.9999730000 0.4766410000 0.0000000000
0.1425710000 0.7640120000 0.0000000000
0.2376770000 0.7554210000 0.0000000000
0.4662030000 0.7446070000 0.0000000000
0.7647000000 0.7495300000 0.0000000000
1.0000000000 0.7560030000 0.0000000000
0.3090880000 1.0000000000 0.0000000000
0.3245690000 1.0000000000 0.0000000000
0.4023500000 0.9999730000 0.0000000000
0.7143030000 1.0000000000 0.0000000000
1.0000000000 1.0000000000 0.0000000000
0.0402170000 0.0047310000 0.2251920000
0.2987710000 0.0220800000 0.1854380000
0.5738000000 0.0268120000 0.1714740000
0.8642790000 0.0482940000 0.1411640000
1.0000000000 0.1330090000 0.1156990000
0.0000000000 0.2833130000 0.3000070000
0.2307800000 0.2350770000 0.2392860000
0.5977950000 0.1677310000 0.1791550000
0.8970340000 0.1693790000 0.1450680000
1.0000000000 0.2340930000 0.1383060000
0.0000000000 0.5985300000 0.1811300000
0.0689340000 0.5878640000 0.1150100000
0.5074570000 0.5111940000 0.1104320000
0.8637250000 0.4545730000 0.0904630000
1.0000000000 0.4412510000 0.1469810000
0.0710600000 0.8653840000 0.0181370000
0.1813480000 0.8523270000 0.0047310000
0.4601050000 0.8156050000 0.0000000000
0.7953690000 0.7872970000 0.0000000000
1.0000000000 0.7427060000 0.0394290000
0.3090880000 1.0000000000 0.0015770000
0.3243440000 1.0000000000 0.0007890000
0.4014850000 1.0000000000 0.0000000000
0.7166360000 1.0000000000 0.0000000000
1.0000000000 1.0000000000 0.0000000000
0.1045420000 0.0307540000 0.4454670000
0.3285800000 0.0276000000 0.4380740000
0.5885080000 0.0086740000 0.4279690000
0.8682040000 0.0432640000 0.4093650000
1.0000000000 0.1146640000 0.3753950000
0.0000000000 0.2196210000 0.5785370000
0.2077880000 0.1523120000 0.6082890000
0.5925640000 0.0975290000 0.4869370000
0.8953280000 0.1249650000 0.4175580000
1.0000000000 0.1937440000 0.3680590000
0.0000000000 0.5591100000 0.5925110000
0.0000000000 0.5430790000 0.5699640000
0.4657710000 0.4611280000 0.4760810000
0.8592160000 0.4033000000 0.4134860000
1.0000000000 0.3759590000 0.3631980000
0.0000000000 0.8963520000 0.4610550000
0.0000000000 0.8981790000 0.4364360000
0.3399560000 0.8583960000 0.3697900000
0.7866350000 0.7892430000 0.3399560000
1.0000000000 0.7025300000 0.3127510000
0.2691880000 1.0000000000 0.0220800000
0.2877550000 1.0000000000 0.0078860000
0.3677700000 1.0000000000 0.0007890000
0.6903630000 1.0000000000 0.0015770000
1.0000000000 1.0000000000 0.0000000000
0.1862870000 0.0386400000 0.6445050000
0.3637860000 0.0276000000 0.6410110000
0.6282150000 0.0000000000 0.6536270000
0.8986120000 0.0299660000 0.6522670000
1.0000000000 0.1336080000 0.6233600000
0.0000000000 0.1330090000 0.8425780000
0.2418350000 0.0950880000 0.8328150000
0.5894720000 0.0461810000 0.7768740000
0.9019720000 0.0741580000 0.7041060000
1.0000000000 0.1817830000 0.6364760000
0.0000000000 0.4918820000 0.9083700000
0.0000000000 0.4715650000 0.9376360000
0.4299660000 0.3823760000 0.8851900000
0.8538500000 0.3326420000 0.7645860000
1.0000000000 0.3330780000 0.6484480000
0.0000000000 0.8595770000 0.8834220000
0.0000000000 0.8589540000 0.8836750000
0.1502030000 0.8213010000 0.8421740000
0.7190010000 0.7370030000 0.7498040000
1.0000000000 0.6353110000 0.6415870000
0.0000000000 0.9999730000 0.7184210000
0.0055200000 1.0000000000 0.7098180000
0.0721040000 1.0000000000 0.6558230000
0.5241940000 1.0000000000 0.4746050000
1.0000000000 1.0000000000 0.5544490000
0.0023660000 0.0568200000 1.0000000000
0.2714170000 0.0417590000 1.0000000000
0.6148210000 0.0055200000 1.0000000000
0.9345610000 0.0000000000 1.0000000000
1.0000000000 0.0746640000 0.9949930000
0.0000000000 0.0574390000 1.0000000000
0.2068470000 0.0454630000 1.0000000000
0.6036430000 0.0070970000 1.0000000000
0.9302930000 0.0000000000 0.9999730000
1.0000000000 0.1086230000 1.0000000000
0.0000000000 0.2927540000 1.0000000000
0.0007890000 0.2486920000 1.0000000000
0.4651940000 0.1648640000 1.0000000000
0.8598720000 0.1499370000 1.0000000000
1.0000000000 0.2392860000 1.0000000000
0.0000000000 0.7404790000 0.9999730000
0.0007890000 0.7256660000 1.0000000000
0.1259190000 0.6546090000 1.0000000000
0.6544220000 0.5210130000 1.0000000000
1.0000000000 0.4550190000 1.0000000000
0.0007890000 1.0000000000 1.0000000000
0.0007890000 1.0000000000 1.0000000000
0.0007890000 1.0000000000 1.0000000000
0.2072240000 1.0000000000 1.0000000000
1.0000000000 1.0000000000 1.0000000000
