bundles/resolve-cinematic-luts/Gamut/_Conversion/DJI DLog-M/BaseLUTs - DJI DLog-M v.cube
TITLE "BaseLUTs - DJI DLog-M v LUT by Gamut"
# Designed for converting DLog-M / D-Gamut to Rec709 Color Space. Version 1.0- 05/28/2021 -  Copyright 2021 Gamut, LLC
LUT_3D_SIZE 33
0.0000000000 0.0102510000 0.0000000000
0.0000000000 0.0118290000 0.0000000000
0.0283890000 0.0102510000 0.0000000000
0.0700030000 0.0039430000 0.0000000000
0.1125670000 0.0000000000 0.0000000000
0.1546500000 0.0023660000 0.0000000000
0.1947550000 0.0134060000 0.0000000000
0.2321110000 0.0220800000 0.0000000000
0.2669380000 0.0268120000 0.0000000000
0.3037990000 0.0299660000 0.0000000000
0.3387860000 0.0339090000 0.0000000000
0.3741690000 0.0362740000 0.0000000000
0.4053630000 0.0386400000 0.0000000000
0.4347120000 0.0447380000 0.0000000000
0.4661310000 0.0496690000 0.0000000000
0.4964330000 0.0542950000 0.0000000000
0.5277810000 0.0586620000 0.0000000000
0.5564120000 0.0650850000 0.0000000000
0.5839830000 0.0726220000 0.0000000000
0.6141620000 0.0776460000 0.0000000000
0.6445530000 0.0842610000 0.0000000000
0.6766150000 0.0917450000 0.0000000000
0.7096490000 0.1018670000 0.0000000000
0.7430230000 0.1125670000 0.0000000000
0.7772480000 0.1223870000 0.0000000000
0.8132480000 0.1305860000 0.0000000000
0.8488720000 0.1394560000 0.0000000000
0.8828210000 0.1525740000 0.0000000000
0.9155540000 0.1682030000 0.0000000000
0.9472710000 0.1835130000 0.0000000000
0.9789120000 0.1971590000 0.0000000000
0.9999730000 0.2102140000 0.0000000000
1.0000000000 0.2231210000 0.0000000000
0.0000000000 0.0276000000 0.0000000000
0.0086740000 0.0252340000 0.0000000000
0.0378520000 0.0205030000 0.0000000000
0.0741580000 0.0157710000 0.0000000000
0.1146640000 0.0126170000 0.0000000000
0.1564430000 0.0157710000 0.0000000000
0.1941490000 0.0205030000 0.0000000000
0.2319450000 0.0283890000 0.0000000000
0.2667960000 0.0315430000 0.0000000000
0.3039210000 0.0339090000 0.0000000000
0.3378250000 0.0378520000 0.0000000000
0.3738850000 0.0394290000 0.0000000000
0.4052770000 0.0409940000 0.0000000000
0.4343190000 0.0475960000 0.0000000000
0.4660590000 0.0530020000 0.0000000000
0.4965000000 0.0568200000 0.0000000000
0.5275960000 0.0610560000 0.0000000000
0.5560080000 0.0678520000 0.0000000000
0.5841450000 0.0746640000 0.0000000000
0.6138060000 0.0800600000 0.0000000000
0.6444570000 0.0865200000 0.0000000000
0.6763010000 0.0942620000 0.0000000000
0.7096920000 0.1045420000 0.0000000000
0.7429040000 0.1153550000 0.0000000000
0.7770610000 0.1252840000 0.0000000000
0.8131420000 0.1333080000 0.0000000000
0.8484720000 0.1428500000 0.0000000000
0.8825680000 0.1566970000 0.0000000000
0.9152220000 0.1721670000 0.0000000000
0.9468960000 0.1875520000 0.0000000000
0.9785540000 0.2014850000 0.0000000000
1.0000000000 0.2146130000 0.0007890000
1.0000000000 0.2277510000 0.0000000000
0.0000000000 0.0628060000 0.0000000000
0.0000000000 0.0610560000 0.0000000000
0.0432640000 0.0549340000 0.0000000000
0.0805360000 0.0482940000 0.0000000000
0.1214060000 0.0432640000 0.0000000000
0.1577100000 0.0432640000 0.0000000000
0.1914990000 0.0447380000 0.0000000000
0.2289340000 0.0468920000 0.0000000000
0.2673610000 0.0468920000 0.0000000000
0.3030700000 0.0496690000 0.0000000000
0.3376110000 0.0510200000 0.0000000000
0.3742630000 0.0496690000 0.0000000000
0.4051910000 0.0523470000 0.0000000000
0.4337680000 0.0586620000 0.0000000000
0.4648330000 0.0622270000 0.0000000000
0.4966330000 0.0645210000 0.0000000000
0.5269180000 0.0694700000 0.0000000000
0.5553740000 0.0756690000 0.0000000000
0.5833870000 0.0824160000 0.0000000000
0.6131960000 0.0874090000 0.0000000000
0.6438370000 0.0934290000 0.0000000000
0.6757180000 0.1022530000 0.0000000000
0.7091020000 0.1118590000 0.0000000000
0.7420710000 0.1220610000 0.0000000000
0.7766120000 0.1314990000 0.0000000000
0.8127890000 0.1397420000 0.0000000000
0.8481390000 0.1502030000 0.0000000000
0.8820610000 0.1636540000 0.0000000000
0.9146180000 0.1789340000 0.0000000000
0.9464920000 0.1939470000 0.0000000000
0.9782220000 0.2074120000 0.0000000000
1.0000000000 0.2205020000 0.0000000000
0.9999460000 0.2334350000 0.0000000000
0.0000000000 0.0959080000 0.0000000000
0.0023660000 0.0954990000 0.0000000000
0.0425160000 0.0900320000 0.0000000000
0.0761670000 0.0842610000 0.0000000000
0.1153550000 0.0791020000 0.0000000000
0.1577100000 0.0746640000 0.0000000000
0.1969600000 0.0705330000 0.0000000000
0.2316130000 0.0700030000 0.0000000000
0.2676430000 0.0700030000 0.0000000000
0.3031910000 0.0715840000 0.0000000000
0.3396380000 0.0705330000 0.0000000000
0.3738850000 0.0705330000 0.0000000000
0.4033000000 0.0731370000 0.0000000000
0.4327420000 0.0766620000 0.0000000000
0.4643270000 0.0786190000 0.0000000000
0.4957670000 0.0819500000 0.0000000000
0.5262380000 0.0856220000 0.0000000000
0.5542760000 0.0908920000 0.0000000000
0.5823560000 0.0963150000 0.0000000000
0.6121270000 0.1014790000 0.0000000000
0.6424980000 0.1086230000 0.0000000000
0.6750000000 0.1163850000 0.0000000000
0.7083000000 0.1249650000 0.0000000000
0.7411960000 0.1342040000 0.0000000000
0.7763870000 0.1431290000 0.0000000000
0.8127190000 0.1517880000 0.0000000000
0.8476720000 0.1626790000 0.0000000000
0.8813960000 0.1755850000 0.0000000000
0.9139540000 0.1896400000 0.0000000000
0.9460590000 0.2032250000 0.0000000000
0.9781120000 0.2162370000 0.0000000000
1.0000000000 0.2285970000 0.0000000000
1.0000000000 0.2412010000 0.0000000000
0.0000000000 0.1330090000 0.0000000000
0.0031540000 0.1324070000 0.0000000000
0.0323320000 0.1281180000 0.0000000000
0.0731370000 0.1207480000 0.0000000000
0.1086230000 0.1163850000 0.0000000000
0.1477940000 0.1118590000 0.0000000000
0.1912930000 0.1052950000 0.0000000000
0.2326090000 0.0999160000 0.0000000000
0.2715560000 0.0971260000 0.0000000000
0.3053730000 0.0979300000 0.0000000000
0.3397440000 0.0979300000 0.0000000000
0.3725580000 0.0979300000 0.0000000000
0.4030410000 0.0991260000 0.0000000000
0.4334530000 0.1014790000 0.0000000000
0.4631670000 0.1034030000 0.0000000000
0.4942980000 0.1049190000 0.0000000000
0.5241310000 0.1078920000 0.0000000000
0.5525360000 0.1122140000 0.0000000000
0.5812680000 0.1180810000 0.0000000000
0.6108520000 0.1240050000 0.0000000000
0.6411550000 0.1296660000 0.0000000000
0.6736500000 0.1359770000 0.0000000000
0.7069480000 0.1436860000 0.0000000000
0.7411160000 0.1515250000 0.0000000000
0.7770980000 0.1602150000 0.0000000000
0.8129660000 0.1693790000 0.0000000000
0.8473040000 0.1795960000 0.0000000000
0.8808250000 0.1914990000 0.0000000000
0.9136820000 0.2038020000 0.0000000000
0.9461460000 0.2158770000 0.0000000000
0.9784980000 0.2277510000 0.0000000000
1.0000000000 0.2394460000 0.0000000000
1.0000000000 0.2511320000 0.0000000000
0.0000000000 0.1723970000 0.0000000000
0.0031540000 0.1721670000 0.0000000000
0.0228690000 0.1684390000 0.0000000000
0.0568200000 0.1614520000 0.0000000000
0.1034030000 0.1549070000 0.0000000000
0.1408800000 0.1507330000 0.0000000000
0.1769330000 0.1472530000 0.0000000000
0.2217290000 0.1403120000 0.0000000000
0.2652350000 0.1353890000 0.0000000000
0.3044060000 0.1321050000 0.0000000000
0.3410160000 0.1293570000 0.0000000000
0.3742630000 0.1278060000 0.0000000000
0.4043330000 0.1281180000 0.0000000000
0.4325840000 0.1299730000 0.0000000000
0.4613470000 0.1327080000 0.0000000000
0.4927560000 0.1342040000 0.0000000000
0.5230120000 0.1374370000 0.0000000000
0.5517800000 0.1411640000 0.0000000000
0.5805600000 0.1456180000 0.0000000000
0.6096750000 0.1499370000 0.0000000000
0.6400980000 0.1546500000 0.0000000000
0.6730190000 0.1602150000 0.0000000000
0.7073710000 0.1665430000 0.0000000000
0.7425870000 0.1739990000 0.0000000000
0.7785180000 0.1822170000 0.0000000000
0.8134240000 0.1908820000 0.0000000000
0.8471710000 0.2001200000 0.0000000000
0.8808880000 0.2102140000 0.0000000000
0.9142560000 0.2205020000 0.0000000000
0.9472710000 0.2309470000 0.0000000000
0.9794370000 0.2415180000 0.0000000000
1.0000000000 0.2524930000 0.0007890000
1.0000000000 0.2633760000 0.0000000000
0.0000000000 0.2122430000 0.0000000000
0.0015770000 0.2107700000 0.0000000000
0.0205030000 0.2066580000 0.0000000000
0.0604640000 0.1985470000 0.0000000000
0.1003090000 0.1919090000 0.0000000000
0.1385950000 0.1875520000 0.0015770000
0.1789340000 0.1854380000 0.0000000000
0.2176690000 0.1817830000 0.0000000000
0.2603410000 0.1762600000 0.0000000000
0.2998830000 0.1719360000 0.0000000000
0.3358930000 0.1684390000 0.0000000000
0.3700770000 0.1658250000 0.0000000000
0.4021770000 0.1651050000 0.0000000000
0.4326630000 0.1660650000 0.0000000000
0.4632390000 0.1667810000 0.0000000000
0.4939630000 0.1672560000 0.0000000000
0.5235100000 0.1686750000 0.0000000000
0.5519550000 0.1714740000 0.0000000000
0.5803410000 0.1749070000 0.0000000000
0.6101360000 0.1787130000 0.0000000000
0.6424500000 0.1826500000 0.0000000000
0.6763460000 0.1877620000 0.0000000000
0.7106590000 0.1933380000 0.0000000000
0.7451210000 0.2001200000 0.0000000000
0.7800830000 0.2074120000 0.0000000000
0.8144450000 0.2146130000 0.0000000000
0.8485050000 0.2222520000 0.0000000000
0.8828840000 0.2302780000 0.0000000000
0.9167890000 0.2388050000 0.0000000000
0.9495160000 0.2479240000 0.0000000000
0.9812270000 0.2574120000 0.0000000000
1.0000000000 0.2673610000 0.0000000000
0.9999730000 0.2774390000 0.0000000000
0.0000000000 0.2506770000 0.0000000000
0.0000000000 0.2499160000 0.0000000000
0.0015770000 0.2480780000 0.0000000000
0.0291770000 0.2419940000 0.0000000000
0.0678520000 0.2349130000 0.0000000000
0.1170660000 0.2292710000 0.0000000000
0.1714740000 0.2251920000 0.0015770000
0.2140690000 0.2224260000 0.0015770000
0.2515870000 0.2199740000 0.0000000000
0.2918640000 0.2155170000 0.0000000000
0.3317690000 0.2094710000 0.0000000000
0.3683480000 0.2041850000 0.0000000000
0.4013110000 0.2022610000 0.0000000000
0.4318720000 0.2018730000 0.0000000000
0.4628760000 0.2014850000 0.0000000000
0.4942980000 0.2012910000 0.0000000000
0.5247520000 0.2020670000 0.0000000000
0.5549700000 0.2038020000 0.0000000000
0.5849570000 0.2062800000 0.0000000000
0.6155300000 0.2094710000 0.0000000000
0.6472640000 0.2131580000 0.0000000000
0.6803190000 0.2171330000 0.0000000000
0.7136770000 0.2219030000 0.0000000000
0.7481560000 0.2272420000 0.0000000000
0.7833120000 0.2327740000 0.0000000000
0.8182320000 0.2384830000 0.0000000000
0.8529900000 0.2443540000 0.0000000000
0.8873620000 0.2509810000 0.0000000000
0.9207210000 0.2581480000 0.0000000000
0.9528700000 0.2660880000 0.0000000000
0.9837270000 0.2745840000 0.0000000000
1.0000000000 0.2837080000 0.0007890000
1.0000000000 0.2928810000 0.0007890000
0.0000000000 0.2900750000 0.0000000000
0.0000000000 0.2899460000 0.0000000000
0.0000000000 0.2861960000 0.0000000000
0.0236570000 0.2809270000 0.0000000000
0.0662020000 0.2738990000 0.0000000000
0.1190880000 0.2673610000 0.0000000000
0.1646230000 0.2632330000 0.0000000000
0.2090980000 0.2606320000 0.0000000000
0.2505250000 0.2590280000 0.0000000000
0.2877550000 0.2568220000 0.0000000000
0.3252410000 0.2523420000 0.0000000000
0.3626100000 0.2474610000 0.0000000000
0.3966810000 0.2440410000 0.0000000000
0.4281290000 0.2419940000 0.0000000000
0.4595920000 0.2399260000 0.0000000000
0.4916130000 0.2386440000 0.0000000000
0.5239450000 0.2375150000 0.0000000000
0.5556050000 0.2378390000 0.0000000000
0.5871660000 0.2392860000 0.0000000000
0.6189090000 0.2410420000 0.0000000000
0.6514680000 0.2434130000 0.0000000000
0.6847480000 0.2460690000 0.0000000000
0.7188760000 0.2496100000 0.0000000000
0.7543330000 0.2533960000 0.0000000000
0.7900480000 0.2575590000 0.0000000000
0.8250130000 0.2617920000 0.0000000000
0.8592490000 0.2665130000 0.0000000000
0.8927760000 0.2719710000 0.0000000000
0.9253750000 0.2782490000 0.0000000000
0.9567780000 0.2851520000 0.0000000000
0.9869830000 0.2927540000 0.0000000000
1.0000000000 0.3009910000 0.0000000000
1.0000000000 0.3095640000 0.0000000000
0.0000000000 0.3206110000 0.0000000000
0.0015770000 0.3201550000 0.0000000000
0.0094630000 0.3179790000 0.0000000000
0.0299660000 0.3141550000 0.0000000000
0.0561960000 0.3096830000 0.0000000000
0.0925900000 0.3047690000 0.0000000000
0.1385950000 0.3004990000 0.0000000000
0.1906750000 0.2967810000 0.0000000000
0.2437270000 0.2938930000 0.0000000000
0.2852830000 0.2925000000 0.0000000000
0.3192410000 0.2912260000 0.0000000000
0.3532320000 0.2887890000 0.0000000000
0.3873970000 0.2852830000 0.0000000000
0.4201090000 0.2822550000 0.0000000000
0.4531590000 0.2786520000 0.0000000000
0.4861860000 0.2756760000 0.0000000000
0.5198220000 0.2732130000 0.0000000000
0.5533490000 0.2719710000 0.0000000000
0.5866280000 0.2718330000 0.0000000000
0.6205140000 0.2721090000 0.0000000000
0.6553100000 0.2727990000 0.0000000000
0.6904070000 0.2741740000 0.0000000000
0.7257070000 0.2760840000 0.0000000000
0.7617900000 0.2786520000 0.0000000000
0.7972170000 0.2815920000 0.0000000000
0.8317900000 0.2848900000 0.0000000000
0.8655460000 0.2887890000 0.0000000000
0.8985500000 0.2933870000 0.0000000000
0.9305290000 0.2987710000 0.0000000000
0.9613160000 0.3047690000 0.0000000000
0.9907400000 0.3116930000 0.0000000000
1.0000000000 0.3191260000 0.0000000000
1.0000000000 0.3270270000 0.0000000000
0.0000000000 0.3578590000 0.0000000000
0.0000000000 0.3577590000 0.0000000000
0.0000000000 0.3560570000 0.0000000000
0.0000000000 0.3528270000 0.0000000000
0.0236570000 0.3479130000 0.0000000000
0.0604640000 0.3424930000 0.0000000000
0.1160420000 0.3365380000 0.0000000000
0.1815660000 0.3311120000 0.0000000000
0.2405640000 0.3278040000 0.0000000000
0.2834440000 0.3262470000 0.0000000000
0.3192410000 0.3251290000 0.0000000000
0.3519120000 0.3238940000 0.0000000000
0.3820990000 0.3218610000 0.0000000000
0.4148210000 0.3186680000 0.0000000000
0.4485030000 0.3147380000 0.0000000000
0.4812360000 0.3113390000 0.0000000000
0.5147690000 0.3081350000 0.0000000000
0.5492710000 0.3054940000 0.0000000000
0.5850110000 0.3036780000 0.0000000000
0.6213150000 0.3019710000 0.0000000000
0.6577780000 0.3013590000 0.0000000000
0.6945790000 0.3013590000 0.0000000000
0.7310390000 0.3022160000 0.0000000000
0.7672160000 0.3037990000 0.0000000000
0.8029060000 0.3058560000 0.0000000000
0.8374440000 0.3083730000 0.0000000000
0.8712040000 0.3115750000 0.0000000000
0.9039990000 0.3153200000 0.0000000000
0.9356170000 0.3196980000 0.0000000000
0.9659090000 0.3250170000 0.0000000000
0.9946960000 0.3312220000 0.0000000000
1.0000000000 0.3381460000 0.0007890000
1.0000000000 0.3454240000 0.0015770000
0.0000000000 0.3903730000 0.0000000000
0.0000000000 0.3898340000 0.0000000000
0.0000000000 0.3879410000 0.0000000000
0.0000000000 0.3845770000 0.0000000000
0.0126170000 0.3796020000 0.0000000000
0.0610560000 0.3730320000 0.0000000000
0.1249650000 0.3664150000 0.0000000000
0.1937440000 0.3612320000 0.0000000000
0.2432560000 0.3581580000 0.0000000000
0.2843650000 0.3557560000 0.0000000000
0.3211800000 0.3543450000 0.0000000000
0.3544460000 0.3531310000 0.0000000000
0.3840280000 0.3524200000 0.0000000000
0.4134860000 0.3504820000 0.0000000000
0.4459240000 0.3470860000 0.0000000000
0.4780400000 0.3436480000 0.0000000000
0.5112580000 0.3402750000 0.0000000000
0.5463340000 0.3369680000 0.0000000000
0.5831160000 0.3339470000 0.0000000000
0.6203140000 0.3314410000 0.0000000000
0.6574070000 0.3297940000 0.0000000000
0.6944060000 0.3291320000 0.0000000000
0.7317270000 0.3292430000 0.0000000000
0.7689630000 0.3299040000 0.0000000000
0.8055170000 0.3311120000 0.0000000000
0.8409610000 0.3327510000 0.0000000000
0.8753450000 0.3349210000 0.0000000000
0.9085530000 0.3377180000 0.0000000000
0.9403770000 0.3414390000 0.0000000000
0.9704460000 0.3459440000 0.0000000000
0.9986300000 0.3515040000 0.0000000000
1.0000000000 0.3578590000 0.0000000000
1.0000000000 0.3645670000 0.0047310000
0.0000000000 0.4153210000 0.0000000000
0.0000000000 0.4149880000 0.0000000000
0.0000000000 0.4132360000 0.0000000000
0.0000000000 0.4100410000 0.0000000000
0.0354860000 0.4047620000 0.0000000000
0.0842610000 0.3987860000 0.0000000000
0.1445170000 0.3933200000 0.0000000000
0.1933380000 0.3895640000 0.0000000000
0.2380000000 0.3863090000 0.0000000000
0.2793240000 0.3833860000 0.0000000000
0.3174030000 0.3817310000 0.0000000000
0.3519120000 0.3808070000 0.0000000000
0.3833860000 0.3803440000 0.0000000000
0.4127330000 0.3793230000 0.0000000000
0.4414820000 0.3774590000 0.0000000000
0.4724160000 0.3748300000 0.0000000000
0.5056410000 0.3716060000 0.0000000000
0.5404580000 0.3684440000 0.0000000000
0.5770000000 0.3652490000 0.0000000000
0.6141620000 0.3624130000 0.0000000000
0.6518440000 0.3602440000 0.0000000000
0.6900140000 0.3586560000 0.0000000000
0.7288470000 0.3576590000 0.0000000000
0.7676720000 0.3572590000 0.0000000000
0.8056240000 0.3573590000 0.0000000000
0.8425110000 0.3579580000 0.0000000000
0.8779950000 0.3591530000 0.0000000000
0.9119560000 0.3610350000 0.0000000000
0.9441220000 0.3637860000 0.0000000000
0.9742610000 0.3676730000 0.0000000000
1.0000000000 0.3725580000 0.0000000000
0.9999730000 0.3782060000 0.0000000000
1.0000000000 0.3845770000 0.0070970000
0.0000000000 0.4430200000 0.0000000000
0.0000000000 0.4424830000 0.0000000000
0.0000000000 0.4411740000 0.0000000000
0.0000000000 0.4390070000 0.0000000000
0.0181370000 0.4353400000 0.0000000000
0.0496690000 0.4308410000 0.0000000000
0.0942620000 0.4260410000 0.0000000000
0.1480630000 0.4207640000 0.0000000000
0.2022610000 0.4165650000 0.0000000000
0.2550410000 0.4127330000 0.0000000000
0.3028260000 0.4102100000 0.0000000000
0.3436480000 0.4090260000 0.0000000000
0.3782990000 0.4080930000 0.0000000000
0.4094490000 0.4072420000 0.0000000000
0.4385410000 0.4064740000 0.0000000000
0.4680710000 0.4051050000 0.0000000000
0.5004710000 0.4027820000 0.0000000000
0.5354090000 0.3997460000 0.0000000000
0.5714690000 0.3966810000 0.0000000000
0.6083410000 0.3935870000 0.0000000000
0.6463620000 0.3908210000 0.0000000000
0.6854090000 0.3885730000 0.0000000000
0.7252160000 0.3867630000 0.0000000000
0.7651200000 0.3853980000 0.0000000000
0.8043020000 0.3845770000 0.0000000000
0.8422750000 0.3842110000 0.0000000000
0.8789180000 0.3844850000 0.0000000000
0.9138330000 0.3853980000 0.0000000000
0.9466370000 0.3873070000 0.0000000000
0.9770060000 0.3903730000 0.0000000000
1.0000000000 0.3945630000 0.0007890000
1.0000000000 0.3997460000 0.0000000000
1.0000000000 0.4054480000 0.0063090000
0.0000000000 0.4758700000 0.0000000000
0.0000000000 0.4757300000 0.0000000000
0.0000000000 0.4747460000 0.0000000000
0.0000000000 0.4720620000 0.0000000000
0.0000000000 0.4682860000 0.0000000000
0.0212920000 0.4638200000 0.0000000000
0.0628060000 0.4584910000 0.0000000000
0.1184180000 0.4527110000 0.0000000000
0.1798160000 0.4471400000 0.0000000000
0.2415180000 0.4427130000 0.0000000000
0.2956550000 0.4397050000 0.0000000000
0.3388930000 0.4376850000 0.0000000000
0.3736960000 0.4364360000 0.0000000000
0.4057050000 0.4356540000 0.0000000000
0.4362800000 0.4352620000 0.0000000000
0.4667070000 0.4344760000 0.0000000000
0.4983580000 0.4329790000 0.0000000000
0.5320090000 0.4306820000 0.0000000000
0.5672750000 0.4276480000 0.0000000000
0.6039020000 0.4245880000 0.0000000000
0.6419230000 0.4215810000 0.0000000000
0.6812080000 0.4189590000 0.0000000000
0.7213550000 0.4165650000 0.0000000000
0.7616750000 0.4144880000 0.0000000000
0.8016140000 0.4129010000 0.0000000000
0.8404890000 0.4117260000 0.0000000000
0.8780900000 0.4109690000 0.0000000000
0.9139240000 0.4110530000 0.0000000000
0.9475020000 0.4121460000 0.0000000000
0.9782770000 0.4144050000 0.0000000000
1.0000000000 0.4178880000 0.0000000000
0.9999730000 0.4224780000 0.0000000000
1.0000000000 0.4277280000 0.0031540000
0.0000000000 0.5056410000 0.0000000000
0.0000000000 0.5051850000 0.0000000000
0.0000000000 0.5037510000 0.0000000000
0.0000000000 0.5011950000 0.0000000000
0.0000000000 0.4977620000 0.0000000000
0.0260230000 0.4932260000 0.0000000000
0.0689340000 0.4875500000 0.0000000000
0.1227120000 0.4817890000 0.0000000000
0.1839420000 0.4760810000 0.0000000000
0.2446670000 0.4714940000 0.0000000000
0.2960310000 0.4682860000 0.0000000000
0.3349210000 0.4660590000 0.0000000000
0.3689260000 0.4646160000 0.0000000000
0.4011380000 0.4638200000 0.0000000000
0.4329790000 0.4635300000 0.0000000000
0.4649050000 0.4629490000 0.0000000000
0.4973630000 0.4619310000 0.0000000000
0.5299920000 0.4603980000 0.0000000000
0.5642870000 0.4580500000 0.0000000000
0.6004140000 0.4552420000 0.0000000000
0.6380730000 0.4523370000 0.0000000000
0.6771970000 0.4496350000 0.0000000000
0.7171760000 0.4469890000 0.0000000000
0.7575130000 0.4445520000 0.0000000000
0.7976510000 0.4422520000 0.0000000000
0.8371730000 0.4404010000 0.0000000000
0.8755370000 0.4389290000 0.0000000000
0.9122590000 0.4381520000 0.0000000000
0.9465790000 0.4383860000 0.0000000000
0.9779730000 0.4398600000 0.0000000000
1.0000000000 0.4427130000 0.0000000000
0.9999730000 0.4466850000 0.0000000000
1.0000000000 0.4513640000 0.0000000000
0.0000000000 0.5309710000 0.0000000000
0.0000000000 0.5303590000 0.0000000000
0.0000000000 0.5290720000 0.0000000000
0.0039430000 0.5267940000 0.0000000000
0.0228690000 0.5237590000 0.0000000000
0.0530020000 0.5190680000 0.0000000000
0.0950880000 0.5140690000 0.0000000000
0.1447930000 0.5088140000 0.0000000000
0.2022610000 0.5037510000 0.0000000000
0.2544440000 0.4996800000 0.0000000000
0.2959060000 0.4967660000 0.0000000000
0.3314410000 0.4945650000 0.0000000000
0.3647620000 0.4928900000 0.0000000000
0.3972960000 0.4918820000 0.0000000000
0.4300450000 0.4913430000 0.0000000000
0.4631670000 0.4909380000 0.0000000000
0.4962330000 0.4903310000 0.0000000000
0.5289490000 0.4893160000 0.0000000000
0.5625300000 0.4878220000 0.0000000000
0.5977420000 0.4857070000 0.0000000000
0.6346790000 0.4832370000 0.0000000000
0.6730190000 0.4806130000 0.0000000000
0.7124210000 0.4780400000 0.0000000000
0.7526190000 0.4753080000 0.0000000000
0.7927510000 0.4726990000 0.0000000000
0.8325760000 0.4703560000 0.0000000000
0.8714300000 0.4682860000 0.0000000000
0.9088880000 0.4668510000 0.0000000000
0.9439480000 0.4663470000 0.0000000000
0.9760640000 0.4670660000 0.0000000000
1.0000000000 0.4692150000 0.0000000000
1.0000000000 0.4725580000 0.0000000000
0.9999730000 0.4766410000 0.0000000000
0.0157710000 0.5541020000 0.0000000000
0.0189260000 0.5536390000 0.0000000000
0.0252340000 0.5527110000 0.0000000000
0.0386400000 0.5506150000 0.0000000000
0.0592670000 0.5476280000 0.0000000000
0.0878510000 0.5438510000 0.0000000000
0.1252840000 0.5396210000 0.0000000000
0.1719360000 0.5351670000 0.0000000000
0.2180250000 0.5312150000 0.0000000000
0.2568220000 0.5280270000 0.0000000000
0.2921180000 0.5253100000 0.0000000000
0.3260240000 0.5231360000 0.0000000000
0.3594510000 0.5214510000 0.0000000000
0.3927860000 0.5200730000 0.0000000000
0.4263630000 0.5193200000 0.0000000000
0.4603980000 0.5188790000 0.0000000000
0.4938960000 0.5186280000 0.0000000000
0.5269800000 0.5181870000 0.0000000000
0.5603670000 0.5172400000 0.0000000000
0.5950020000 0.5158480000 0.0000000000
0.6311640000 0.5141330000 0.0000000000
0.6688530000 0.5120260000 0.0000000000
0.7077090000 0.5096520000 0.0000000000
0.7474090000 0.5070040000 0.0000000000
0.7873700000 0.5043380000 0.0000000000
0.8272570000 0.5016550000 0.0000000000
0.8664550000 0.4991520000 0.0000000000
0.9044280000 0.4971640000 0.0000000000
0.9401730000 0.4960340000 0.0000000000
0.9729550000 0.4960340000 0.0000000000
0.9999730000 0.4974960000 0.0000000000
0.9999730000 0.5001420000 0.0000000000
1.0000000000 0.5037510000 0.0000000000
0.0475960000 0.5778790000 0.0000000000
0.0503480000 0.5775500000 0.0000000000
0.0561960000 0.5768350000 0.0000000000
0.0673050000 0.5755130000 0.0000000000
0.0847170000 0.5732460000 0.0000000000
0.1107910000 0.5701870000 0.0000000000
0.1439640000 0.5668820000 0.0000000000
0.1800360000 0.5633810000 0.0000000000
0.2147940000 0.5602530000 0.0000000000
0.2491520000 0.5573900000 0.0000000000
0.2834440000 0.5549120000 0.0000000000
0.3179790000 0.5525940000 0.0000000000
0.3527250000 0.5506730000 0.0000000000
0.3873070000 0.5491530000 0.0000000000
0.4222330000 0.5480980000 0.0000000000
0.4568700000 0.5475700000 0.0000000000
