bundles/resolve-cinematic-luts/Gamut/_Conversion/DJI DLog-M/BaseLUTs - DJI D-Log (4D).cube
TITLE "BaseLUTs - DJI D-Log (4D) LUT by Gamut"
# Designed for converting D-Log / D-Gamut to Rec709 Color Space. Version 1.0- 03/29/2023 -  Copyright 2023 Gamut, LLC
LUT_3D_SIZE 33
0.002366 0.001577 0.001577
0.002366 0.001577 0.001577
0.002267 0.001577 0.001626
0.024470 0.001577 0.005224
0.081626 0.000888 0.015771
0.138971 0.000123 0.028191
0.189186 0.000000 0.037753
0.226362 0.000000 0.043919
0.277307 0.001972 0.052968
0.335950 0.004509 0.064986
0.405961 0.003943 0.077077
0.477910 0.003154 0.091447
0.552030 0.004436 0.109789
0.630247 0.007713 0.132629
0.707494 0.011927 0.156020
0.782935 0.011410 0.176488
0.856109 0.009069 0.193093
0.922713 0.004781 0.206649
0.971101 0.003499 0.215644
0.985997 0.006801 0.220896
0.986487 0.015969 0.222078
0.986464 0.027945 0.220950
0.986590 0.045173 0.216175
0.986755 0.062718 0.208841
0.986914 0.082910 0.197581
0.987258 0.102837 0.183516
0.987333 0.133417 0.174382
0.985836 0.174734 0.173792
0.985339 0.212145 0.177629
0.981185 0.250702 0.181333
0.977049 0.304706 0.185078
0.974275 0.354953 0.186042
0.972119 0.399746 0.183728
0.002366 0.001577 0.001577
0.002366 0.001577 0.001577
0.002267 0.001577 0.001626
0.024470 0.001577 0.005224
0.081626 0.000888 0.015771
0.138971 0.000123 0.028191
0.189040 0.000000 0.037753
0.226362 0.000000 0.043919
0.277307 0.001972 0.052968
0.335954 0.004509 0.065005
0.405961 0.003943 0.077077
0.477910 0.003154 0.091447
0.552030 0.004436 0.109789
0.630248 0.007713 0.132629
0.707404 0.011927 0.156020
0.782937 0.011410 0.176488
0.856114 0.009069 0.193093
0.922637 0.004781 0.206649
0.971106 0.003499 0.215644
0.985997 0.006801 0.220896
0.986488 0.015968 0.222078
0.986465 0.027945 0.220950
0.986590 0.045173 0.216175
0.986755 0.062718 0.208841
0.986915 0.082910 0.197587
0.987259 0.102837 0.183516
0.987335 0.133417 0.174382
0.985834 0.174734 0.173792
0.985340 0.212145 0.177630
0.981186 0.250702 0.181333
0.977046 0.304706 0.185078
0.974274 0.354950 0.186042
0.972119 0.399746 0.183728
0.002366 0.001577 0.001577
0.002366 0.001577 0.001577
0.002267 0.001577 0.001626
0.021588 0.001577 0.004559
0.079344 0.000838 0.015032
0.137616 0.000074 0.027453
0.186411 0.000000 0.037113
0.225476 0.000616 0.043346
0.275854 0.002710 0.053010
0.335015 0.005200 0.065060
0.404765 0.004140 0.076314
0.476688 0.003105 0.090674
0.550687 0.004929 0.109135
0.629245 0.007984 0.131975
0.706531 0.012667 0.155558
0.781864 0.012888 0.176307
0.855352 0.009808 0.192827
0.921880 0.004731 0.206306
0.970714 0.004238 0.215250
0.986002 0.007541 0.220484
0.986566 0.016659 0.221707
0.986417 0.028635 0.220467
0.986568 0.046008 0.215634
0.986732 0.063758 0.208162
0.986995 0.083745 0.196994
0.987118 0.103681 0.182830
0.987339 0.135101 0.174425
0.985905 0.176203 0.174005
0.985214 0.213481 0.177811
0.981063 0.251826 0.181517
0.976948 0.305921 0.185078
0.974197 0.355780 0.186035
0.972121 0.400540 0.183526
0.003080 0.005003 0.003721
0.003080 0.005003 0.003721
0.003031 0.005003 0.003770
0.014170 0.008009 0.003006
0.061243 0.011065 0.007713
0.111641 0.008255 0.017792
0.155216 0.008798 0.029449
0.203229 0.010276 0.036028
0.258284 0.012543 0.042242
0.322324 0.012173 0.051507
0.387394 0.011632 0.063264
0.458582 0.010868 0.078959
0.536387 0.011163 0.100124
0.614256 0.015229 0.123284
0.693086 0.018654 0.147902
0.769124 0.020429 0.168856
0.843754 0.017299 0.186010
0.912085 0.013011 0.199516
0.962953 0.012075 0.208956
0.985612 0.016855 0.213940
0.986705 0.026294 0.215028
0.986588 0.040737 0.212904
0.986744 0.058298 0.207508
0.986883 0.076177 0.199314
0.987070 0.095548 0.187181
0.987321 0.117494 0.173500
0.987426 0.157733 0.176078
0.985738 0.196818 0.176140
0.983125 0.231727 0.179684
0.979632 0.268122 0.182750
0.976157 0.320104 0.185836
0.973586 0.367777 0.185623
0.971614 0.411298 0.182691
0.006112 0.042934 0.018728
0.006112 0.042934 0.018728
0.006063 0.042152 0.018630
0.009857 0.039521 0.014342
0.042447 0.039693 0.000591
0.082454 0.036915 0.006974
0.129289 0.033218 0.015032
0.179506 0.030927 0.022894
0.234171 0.031641 0.028389
0.294059 0.029719 0.035387
0.363194 0.024692 0.044598
0.436503 0.022154 0.062580
0.513330 0.022474 0.085267
0.593932 0.025382 0.110401
0.674499 0.030508 0.135751
0.751713 0.032233 0.157513
0.827657 0.029867 0.175400
0.897744 0.025974 0.189427
0.951162 0.025037 0.199113
0.984348 0.030902 0.203907
0.986969 0.041900 0.204747
0.986771 0.057895 0.201251
0.986865 0.074382 0.195177
0.987070 0.093097 0.185550
0.987371 0.113305 0.173812
0.987412 0.150117 0.175013
0.985811 0.188260 0.175231
0.983954 0.223227 0.178787
0.980715 0.255574 0.181809
0.978000 0.289465 0.184384
0.975094 0.339188 0.186432
0.972758 0.384292 0.184391
0.971147 0.425859 0.180856
0.009217 0.071925 0.030680
0.009217 0.071925 0.030680
0.009217 0.070516 0.029941
0.009241 0.068312 0.026245
0.025382 0.070153 0.005988
0.072204 0.067298 0.000123
0.114893 0.063864 0.006063
0.156006 0.065962 0.015969
0.206490 0.065273 0.026664
0.264486 0.065079 0.033145
0.328919 0.061614 0.041182
0.402131 0.053560 0.050232
0.485432 0.042967 0.065497
0.569125 0.043350 0.090355
0.651482 0.047695 0.117528
0.730769 0.050486 0.140935
0.807983 0.049346 0.159818
0.879609 0.045882 0.174780
0.935999 0.046311 0.184186
0.972008 0.052520 0.188906
0.986412 0.064701 0.188646
0.987178 0.079634 0.184583
0.987202 0.097300 0.177468
0.987301 0.119618 0.170984
0.987372 0.154280 0.174275
0.985805 0.189879 0.175168
0.983948 0.223110 0.178508
0.980739 0.254599 0.181747
0.978397 0.283847 0.183908
0.976407 0.315247 0.185590
0.973874 0.361430 0.185876
0.971884 0.404077 0.183101
0.970507 0.443524 0.176264
0.012321 0.100961 0.040878
0.012321 0.100961 0.040878
0.012321 0.101467 0.041395
0.012247 0.099489 0.039182
0.015475 0.100994 0.020996
0.049472 0.102604 0.005692
0.109518 0.097066 0.000296
0.153824 0.091829 0.006186
0.194104 0.096548 0.015574
0.241956 0.100900 0.026861
0.302324 0.101432 0.038295
0.373300 0.098745 0.050361
0.450728 0.092570 0.063834
0.535874 0.085361 0.079714
0.625649 0.079110 0.099572
0.708572 0.075029 0.118323
0.786725 0.074400 0.137966
0.860053 0.073281 0.153241
0.918349 0.073859 0.163107
0.959415 0.081195 0.166930
0.982443 0.092972 0.166251
0.987119 0.111323 0.164474
0.987248 0.140149 0.169022
0.985888 0.171090 0.170339
0.985604 0.202251 0.175116
0.982850 0.232193 0.179033
0.980221 0.261567 0.182133
0.978033 0.289483 0.184303
0.976365 0.316180 0.185610
0.974823 0.344636 0.186227
0.972587 0.387105 0.184237
0.971193 0.426924 0.180646
0.969443 0.464493 0.169095
0.016831 0.138084 0.052982
0.016831 0.138084 0.052982
0.016831 0.139128 0.052982
0.016831 0.140064 0.052960
0.018014 0.136409 0.037505
0.030360 0.141323 0.002193
0.078969 0.134238 0.004731
0.147221 0.127027 0.000345
0.195860 0.123918 0.005397
0.238361 0.131392 0.014243
0.289731 0.139332 0.026762
0.354596 0.141811 0.043975
0.429439 0.139962 0.061741
0.510423 0.135894 0.079722
0.595515 0.131776 0.097682
0.678302 0.129580 0.113528
0.758055 0.125641 0.126127
0.834982 0.121656 0.139489
0.896497 0.123881 0.148124
0.939374 0.133056 0.155103
0.966762 0.150573 0.161703
0.977430 0.173472 0.164215
0.982028 0.198655 0.169962
0.982238 0.224838 0.175230
0.980696 0.251292 0.179555
0.978846 0.277408 0.182937
0.977130 0.302997 0.185064
0.975730 0.327852 0.185969
0.974443 0.351889 0.186419
0.973164 0.376630 0.184931
0.971498 0.415718 0.181900
0.969962 0.452704 0.173382
0.971064 0.483877 0.165179
0.022868 0.183757 0.061637
0.022868 0.183757 0.061487
0.022868 0.184802 0.061637
0.022868 0.185034 0.061749
0.023066 0.179809 0.049277
0.015870 0.180022 0.005520
0.049543 0.177070 0.000148
0.114169 0.166117 0.001355
0.186393 0.163319 0.000197
0.241680 0.166312 0.003055
0.294184 0.172603 0.016314
0.351841 0.180764 0.031001
0.417733 0.187093 0.049915
0.495156 0.186205 0.074327
0.576980 0.184664 0.096672
0.656561 0.185618 0.115120
0.734409 0.188005 0.129532
0.808619 0.188831 0.140416
0.871324 0.192918 0.148981
0.918376 0.202085 0.156346
0.949054 0.216443 0.163155
0.967107 0.235729 0.169533
0.974851 0.256623 0.175052
0.977118 0.278874 0.179591
0.976846 0.301544 0.183025
0.975819 0.324280 0.185318
0.974693 0.346515 0.186022
0.973552 0.368637 0.186048
0.972544 0.388982 0.184450
0.971588 0.411017 0.182394
0.970260 0.446414 0.175202
0.970198 0.478627 0.165798
0.974400 0.502829 0.164804
0.027378 0.240227 0.054796
0.027378 0.240227 0.054796
0.027378 0.241054 0.054284
0.027378 0.239215 0.056063
0.026097 0.232305 0.048722
0.017275 0.229680 0.008403
0.033018 0.225614 0.000567
0.077752 0.217697 0.003598
0.151645 0.207975 0.001133
0.232258 0.210379 0.006777
0.298826 0.215868 0.005717
0.359975 0.219767 0.021218
0.421598 0.228056 0.037507
0.489082 0.236896 0.058094
0.566047 0.239562 0.087360
0.643505 0.242634 0.111719
0.719721 0.247792 0.130198
0.792457 0.252947 0.143254
0.855464 0.258242 0.152635
0.904641 0.267095 0.160377
0.939242 0.279649 0.167222
0.959563 0.295594 0.173242
0.969897 0.313957 0.177974
0.973427 0.332983 0.181592
0.973949 0.352495 0.183734
0.973311 0.371934 0.184611
0.972463 0.391735 0.184416
0.971697 0.409907 0.182583
0.971080 0.427432 0.180080
0.970232 0.446590 0.175260
0.970211 0.477292 0.166115
0.974008 0.500990 0.164585
0.977977 0.522889 0.166274
0.024939 0.304697 0.022573
0.024939 0.304693 0.022573
0.024742 0.305922 0.021834
0.024939 0.305618 0.022745
0.024101 0.297586 0.021686
0.020380 0.291351 0.010449
0.021440 0.280543 0.007048
0.051998 0.276653 0.001035
0.107889 0.269141 0.009118
0.189678 0.262841 0.002267
0.288397 0.264956 0.008477
0.363919 0.270313 0.008600
0.430156 0.271598 0.028881
0.495719 0.279857 0.047013
0.565307 0.290562 0.070792
0.637167 0.300754 0.097077
0.711423 0.306315 0.123223
0.782608 0.313628 0.140311
0.845706 0.320433 0.151837
0.895503 0.328982 0.160717
0.931982 0.340328 0.167430
0.954497 0.354265 0.172774
0.965899 0.370163 0.177015
0.970345 0.386627 0.179146
0.971344 0.403336 0.180399
0.971180 0.419928 0.180036
0.970783 0.436001 0.177889
0.970032 0.452824 0.173519
0.969460 0.467518 0.168449
0.970713 0.480692 0.165959
0.974390 0.502819 0.164758
0.978172 0.523846 0.166459
0.981780 0.544989 0.169037
0.024963 0.373061 0.012371
0.024963 0.373061 0.012371
0.024963 0.374014 0.012371
0.024963 0.374745 0.012371
0.024963 0.367616 0.012371
0.024027 0.359966 0.011533
0.022967 0.347825 0.010646
0.028265 0.336491 0.007319
0.076054 0.335381 0.001232
0.139989 0.329028 0.013455
0.236801 0.323079 0.003622
0.351415 0.322274 0.010202
0.430861 0.326453 0.018433
0.503058 0.325762 0.041053
0.572687 0.334282 0.062032
0.642338 0.347833 0.085767
0.711735 0.361017 0.108696
0.777889 0.373339 0.126618
0.839670 0.380137 0.143209
0.890149 0.388120 0.153891
0.927111 0.398737 0.161206
0.950467 0.410896 0.166049
0.962967 0.424218 0.169711
0.968122 0.438929 0.170750
0.969389 0.453593 0.169293
0.969318 0.467896 0.166553
0.970574 0.479167 0.166019
0.972090 0.488967 0.165451
0.973498 0.498500 0.164577
0.975365 0.508796 0.165187
0.979025 0.528512 0.166994
0.982271 0.548817 0.169814
0.985102 0.569896 0.178848
0.027798 0.439309 0.014392
0.027798 0.439303 0.014392
0.027798 0.440292 0.014392
0.027798 0.442490 0.014392
0.027798 0.436900 0.014392
0.027132 0.429094 0.014392
0.026861 0.417658 0.013603
0.027058 0.402274 0.012247
0.051668 0.398891 0.001085
0.104131 0.396430 0.001602
0.182569 0.388851 0.019320
0.296524 0.382566 0.004411
0.417352 0.379742 0.012715
0.500185 0.383912 0.030680
0.577280 0.383843 0.057323
0.650116 0.393211 0.078789
0.719204 0.407341 0.100235
0.784221 0.420777 0.118226
0.841607 0.431815 0.131182
0.888661 0.442676 0.139261
0.924703 0.453640 0.146075
0.948484 0.464660 0.151257
0.962194 0.474980 0.155594
0.969177 0.484899 0.158722
0.972518 0.494553 0.161108
0.974304 0.503603 0.162831
0.976016 0.512144 0.163957
0.977540 0.520374 0.164802
0.978925 0.528069 0.166628
0.980384 0.537080 0.168151
0.983484 0.556184 0.172790
0.985280 0.576419 0.181849
0.985907 0.597072 0.191975
0.030902 0.507607 0.017496
0.030902 0.507602 0.017496
0.030902 0.508350 0.017496
0.030902 0.510898 0.017496
0.030902 0.507056 0.017496
0.030237 0.499895 0.017496
0.030113 0.489048 0.016708
0.029325 0.473739 0.016092
0.032652 0.460798 0.013406
0.074942 0.462260 0.000912
0.139411 0.458147 0.003819
0.237673 0.449153 0.026762
0.363469 0.442305 0.005224
0.487395 0.440108 0.015279
0.573761 0.445768 0.043592
0.652071 0.448183 0.074417
0.725616 0.454919 0.094995
0.790299 0.466755 0.111567
0.846848 0.478385 0.124857
0.892779 0.487516 0.134823
0.928159 0.496630 0.141808
0.952396 0.505416 0.147728
0.966913 0.514052 0.152990
0.974382 0.522303 0.158049
0.978038 0.530142 0.161858
0.980121 0.537617 0.164822
0.981550 0.545094 0.168756
0.982774 0.552320 0.171576
0.983884 0.559194 0.173144
0.985069 0.567693 0.177917
0.985550 0.586575 0.186778
0.986242 0.606200 0.196834
0.987011 0.627413 0.209014
0.033219 0.580246 0.021045
0.033219 0.580244 0.021045
0.033219 0.581165 0.021045
0.033564 0.583552 0.021390
0.033318 0.581641 0.021143
0.033219 0.574655 0.020602
0.032775 0.564793 0.020405
0.032430 0.550381 0.019640
0.031593 0.534415 0.018876
0.041207 0.526642 0.013110
0.104003 0.530673 0.000690
0.184991 0.523695 0.015352
0.297496 0.514019 0.035387
0.436390 0.505774 0.005717
0.563288 0.504848 0.017891
0.648169 0.512980 0.053665
0.723778 0.514886 0.090463
0.792918 0.515803 0.110048
0.847765 0.524174 0.122493
0.893177 0.532943 0.132943
0.928115 0.541064 0.143131
0.953176 0.547659 0.151556
0.969377 0.553864 0.158413
0.978408 0.560496 0.164962
0.982888 0.567322 0.171249
0.985009 0.573788 0.176398
0.985296 0.580024 0.180367
0.985534 0.586903 0.185688
0.985800 0.593442 0.189929
0.986133 0.600670 0.193729
0.986742 0.619858 0.204854
0.987736 0.639691 0.216589
0.989389 0.660264 0.228871
0.035905 0.657512 0.024914
0.035905 0.657509 0.024914
0.035905 0.658270 0.025333
0.035905 0.660563 0.025333
0.035905 0.660739 0.025333
0.035658 0.653836 0.024914
0.035535 0.644770 0.024692
0.034919 0.631540 0.023510
0.034328 0.616076 0.023165
0.036151 0.602006 0.020774
0.075505 0.603466 0.002735
0.145086 0.601326 0.001725
0.237124 0.592148 0.030385
0.362247 0.581095 0.044232
0.520342 0.568940 0.007418
0.641026 0.569626 0.025998
0.716687 0.578301 0.065161
0.784843 0.578265 0.106410
0.841472 0.577066 0.126260
0.888534 0.579195 0.138321
0.924038 0.585803 0.149691
0.950143 0.593183 0.161489
0.968295 0.598519 0.171471
0.979720 0.603088 0.180188
0.986144 0.607865 0.188068
0.986687 0.613496 0.195318
0.986777 0.619073 0.201701
0.986980 0.624395 0.207057
0.987138 0.630449 0.211058
0.987640 0.637188 0.215070
0.989026 0.655997 0.226131
0.990666 0.675829 0.237045
0.994664 0.703217 0.243826
0.038246 0.733672 0.030755
0.038246 0.733671 0.030755
0.038246 0.734188 0.030755
0.038246 0.736294 0.031149
0.038246 0.738339 0.031543
0.038246 0.732132 0.030755
0.037851 0.724135 0.030114
0.037457 0.712267 0.029350
0.037260 0.697493 0.028586
0.036619 0.681832 0.027255
0.044614 0.669774 0.021292
0.108075 0.672891 0.001479
0.192031 0.667353 0.003746
0.297253 0.655997 0.049076
0.436608 0.642680 0.055619
0.609868 0.625229 0.040659
0.710501 0.628347 0.046934
0.772265 0.637358 0.080073
0.830540 0.637492 0.121065
0.874666 0.637572 0.145206
0.911408 0.639042 0.161127
0.942323 0.641336 0.175438
0.964650 0.645459 0.187943
0.978497 0.650979 0.199068
0.987302 0.654463 0.208996
0.988815 0.657883 0.218029
0.989483 0.661990 0.224385
0.989917 0.666337 0.229704
0.990264 0.670868 0.234274
0.990745 0.676851 0.237394
0.994284 0.701600 0.243376
0.995652 0.726134 0.249119
0.996733 0.750044 0.253994
0.039798 0.799659 0.036595
0.039798 0.799658 0.036595
0.039798 0.800070 0.036595
0.039798 0.801764 0.036964
0.039798 0.803697 0.036964
0.039798 0.799925 0.036595
0.039798 0.793675 0.036324
0.039798 0.783519 0.035387
0.039010 0.770032 0.034007
0.038443 0.754884 0.032652
0.038785 0.736961 0.030434
0.060941 0.727918 0.018877
0.148704 0.731384 0.000838
0.246635 0.721237 0.021661
0.374428 0.707244 0.074650
0.525996 0.691711 0.095820
0.689910 0.673128 0.076881
0.767156 0.680281 0.075035
0.814762 0.691056 0.097407
0.862370 0.693723 0.133421
0.901293 0.694244 0.164043
0.929752 0.697134 0.183874
0.950974 0.701699 0.199653
0.966744 0.706762 0.211866
0.977799 0.712066 0.222589
0.985803 0.714591 0.232916
0.991360 0.716612 0.242089
0.994240 0.719963 0.246103
0.995414 0.724787 0.248341
0.995726 0.731304 0.250356
0.996966 0.752085 0.254261
0.999209 0.772531 0.253367
0.999672 0.792556 0.248730
0.040557 0.851029 0.041987
0.040557 0.851027 0.041987
0.040994 0.851331 0.041987
0.040994 0.852461 0.041987
0.041329 0.853868 0.041987
0.040994 0.852484 0.041987
0.041329 0.847973 0.041369
0.040994 0.840358 0.040621
0.040557 0.828620 0.039424
0.039995 0.814458 0.038320
0.039429 0.796672 0.036570
0.045429 0.778438 0.030804
0.107947 0.779254 0.003746
0.201332 0.773415 0.003918
0.317002 0.760120 0.060056
0.464878 0.745406 0.127756
0.612601 0.730798 0.121241
0.753226 0.717770 0.107143
0.813917 0.726830 0.108008
0.851630 0.737929 0.122915
0.888679 0.743713 0.148334
0.921436 0.745764 0.174716
0.946370 0.748564 0.196164
0.963603 0.753711 0.212045
0.976066 0.759442 0.224947
0.985744 0.765150 0.234901
0.992698 0.769193 0.243699
0.996955 0.772551 0.250171
0.999035 0.775964 0.253046
0.999623 0.780433 0.251837
0.999728 0.797461 0.247000
0.999970 0.815926 0.238419
1.000000 0.833554 0.228531
0.041759 0.887132 0.046044
0.041759 0.887132 0.046044
0.041759 0.887365 0.046044
0.041759 0.888045 0.046044
0.041759 0.888905 0.046044
0.041759 0.888939 0.046044
0.041759 0.886027 0.045749
0.041472 0.880975 0.045049
0.041305 0.871829 0.044343
0.041305 0.859288 0.042884
0.040775 0.843228 0.041086
0.041024 0.822523 0.038443
0.062731 0.809242 0.025506
0.160162 0.813018 0.001577
0.270204 0.802447 0.030481
0.410798 0.788622 0.129976
0.558929 0.776097 0.167235
0.705993 0.760652 0.146947
0.808356 0.757033 0.141746
0.853399 0.767389 0.143000
0.885841 0.777861 0.149884
0.912144 0.787140 0.161568
0.938750 0.790792 0.179860
0.958699 0.795209 0.195072
0.973179 0.801114 0.207591
0.984264 0.807797 0.218882
0.992702 0.813280 0.226299
0.998250 0.818658 0.230620
0.999920 0.822131 0.232771
1.000000 0.826185 0.232264
1.000000 0.839366 0.224410
1.000000 0.852920 0.214577
1.000000 0.866370 0.203842
0.042516 0.909717 0.048553
0.042516 0.909717 0.048553
0.042043 0.909833 0.048553
0.042043 0.910173 0.048553
0.042516 0.910633 0.048553
0.042516 0.911043 0.048810
0.042516 0.909534 0.048553
0.042516 0.906673 0.048270
0.041759 0.900473 0.047594
0.041759 0.890386 0.046201
0.041520 0.876726 0.044781
0.040994 0.857933 0.042584
0.049571 0.838895 0.035486
0.126162 0.842003 0.003524
0.231251 0.835980 0.011089
0.364633 0.824263 0.116071
0.515843 0.812416 0.192001
0.651696 0.804112 0.189550
0.786132 0.789409 0.178370
0.852615 0.793430 0.178073
0.889193 0.803913 0.173835
0.917102 0.813581 0.172546
0.939210 0.822413 0.174385
0.955982 0.829836 0.180350
0.969883 0.835722 0.188197
0.982278 0.841546 0.197232
0.991444 0.847770 0.203807
0.997393 0.854142 0.207403
0.999953 0.859337 0.207628
1.000000 0.862923 0.206817
1.000000 0.872186 0.200093
1.000000 0.880988 0.194740
1.000000 0.888310 0.190846
0.042516 0.921908 0.049902
0.042516 0.921908 0.049902
0.042516 0.921970 0.049902
0.042516 0.922114 0.049902
0.042516 0.922317 0.049902
0.042516 0.922547 0.049902
0.042516 0.922086 0.049902
0.042516 0.920870 0.049902
0.042516 0.917424 0.049391
0.042516 0.910853 0.048726
0.042256 0.900490 0.047594
0.041257 0.885339 0.045957
0.044958 0.866457 0.041075
0.097852 0.863503 0.008970
0.196824 0.863813 0.006801
0.324975 0.854978 0.091333
0.471813 0.845141 0.196402
0.612874 0.837063 0.232844
0.735430 0.830002 0.216372
0.840610 0.819233 0.220541
0.889641 0.826895 0.209611
0.921122 0.836204 0.196338
0.945236 0.844627 0.188035
0.963308 0.852595 0.182486
0.977388 0.859857 0.182155
0.988321 0.865906 0.185613
0.996538 0.871896 0.189113
0.999648 0.877641 0.191692
1.000000 0.883003 0.191790
1.000000 0.887593 0.191301
1.000000 0.892951 0.188584
1.000000 0.898362 0.186238
1.000000 0.903790 0.184274
0.042516 0.927480 0.051020
0.042516 0.927480 0.051020
0.042516 0.927480 0.051020
0.042516 0.927521 0.051020
0.042516 0.927577 0.051020
0.042516 0.927630 0.051020
0.042516 0.927577 0.051020
0.042516 0.927203 0.050705
0.042516 0.925770 0.050558
0.042516 0.922498 0.050072
0.042516 0.915996 0.049412
0.041759 0.905196 0.048054
0.041942 0.888765 0.045768
0.061060 0.875209 0.034155
0.165629 0.884709 0.003499
0.287843 0.880670 0.059491
0.429393 0.873222 0.187417
0.577122 0.865111 0.255265
0.696741 0.861712 0.254790
0.805975 0.852774 0.243599
0.882555 0.847988 0.247383
0.921845 0.856061 0.230424
0.949138 0.864073 0.212112
0.969489 0.871170 0.197085
0.984755 0.878012 0.187935
0.995980 0.884405 0.183276
0.999668 0.890614 0.182771
1.000000 0.895690 0.183483
1.000000 0.900093 0.184368
1.000000 0.903945 0.184600
1.000000 0.908588 0.182593
1.000000 0.913266 0.180877
1.000000 0.917308 0.181075
0.042516 0.929308 0.051020
0.042516 0.929308 0.051020
0.042516 0.929308 0.051020
0.042516 0.929308 0.051020
0.042516 0.929283 0.051020
0.042516 0.929308 0.051020
0.042516 0.929308 0.051020
0.042516 0.929211 0.051020
0.042516 0.928816 0.051020
0.042516 0.927666 0.051020
0.042516 0.924512 0.050348
0.042516 0.917998 0.049412
0.041759 0.905869 0.048508
0.050894 0.892580 0.041071
0.136837 0.900926 0.003672
0.254956 0.901512 0.038187
0.394111 0.896751 0.167290
0.536955 0.890701 0.259073
0.663350 0.885957 0.290743
0.762061 0.884120 0.272196
0.862712 0.873451 0.265731
0.917771 0.873099 0.266046
0.950189 0.880473 0.243929
0.973295 0.887678 0.221948
0.990153 0.893801 0.204697
0.999329 0.899676 0.191898
1.000000 0.905192 0.185160
1.000000 0.910307 0.181918
1.000000 0.914913 0.180460
1.000000 0.918041 0.181020
1.000000 0.921372 0.180659
1.000000 0.924839 0.180926
1.000000 0.928420 0.181749
0.042516 0.929614 0.051020
0.042516 0.929614 0.051020
0.042516 0.929614 0.051020
0.042516 0.929591 0.051020
0.042516 0.929584 0.051020
0.042516 0.929584 0.051020
0.042516 0.929591 0.051020
0.042516 0.929591 0.051020
0.042516 0.929547 0.051020
0.042516 0.929261 0.051020
0.042516 0.928188 0.051020
0.042516 0.925064 0.050348
0.042043 0.917300 0.049839
0.046288 0.906761 0.045097
0.113736 0.912811 0.007442
0.225076 0.918188 0.023085
0.359706 0.915855 0.147359
0.493619 0.912626 0.250983
0.627942 0.907263 0.307039
0.730243 0.906273 0.303795
0.822561 0.901599 0.285976
0.907482 0.891631 0.288045
0.947448 0.894778 0.278957
0.974641 0.901307 0.253898
0.993413 0.907322 0.229892
0.999710 0.913099 0.210704
1.000000 0.918142 0.196996
1.000000 0.922574 0.188356
1.000000 0.926468 0.184556
1.000000 0.929649 0.181578
1.000000 0.932737 0.181263
1.000000 0.935637 0.183356
1.000000 0.938298 0.184739
0.042516 0.929584 0.051020
0.042516 0.929584 0.051020
0.042516 0.929584 0.051020
0.042516 0.929584 0.051020
0.042516 0.929584 0.051020
0.042516 0.929584 0.051020
0.042516 0.929584 0.051020
0.042516 0.929584 0.051020
0.042516 0.929591 0.051020
0.042516 0.929539 0.051020
0.042516 0.929314 0.051020
0.042516 0.928175 0.051020
0.042516 0.924155 0.050348
0.042290 0.916285 0.049578
0.066489 0.911842 0.038720
0.194839 0.928688 0.019887
0.326428 0.930734 0.128824
0.454862 0.929726 0.231916
0.587482 0.926298 0.307406
0.699046 0.923437 0.332174
0.785511 0.923789 0.310553
0.879569 0.914791 0.297190
0.941315 0.909706 0.301812
0.972852 0.913888 0.288508
0.994952 0.919315 0.262516
0.999853 0.924404 0.238138
1.000000 0.929207 0.218010
1.000000 0.933745 0.202428
1.000000 0.937097 0.192050
1.000000 0.939764 0.187360
1.000000 0.942129 0.187889
1.000000 0.944544 0.189637
1.000000 0.947063 0.192154
0.042516 0.929614 0.051020
0.042516 0.929614 0.051020
0.042516 0.929614 0.051020
0.042516 0.929614 0.051020
0.042516 0.929614 0.051020
0.042516 0.929614 0.051020
0.042516 0.929614 0.051020
0.042516 0.929591 0.051020
0.042516 0.929601 0.051020
0.042516 0.929592 0.051020
0.042516 0.929539 0.051020
0.042516 0.929269 0.051020
0.042516 0.927651 0.051020
0.041759 0.923085 0.050872
0.053842 0.919090 0.045524
0.160372 0.936211 0.020725
0.292745 0.942051 0.115526
0.418028 0.943318 0.209232
0.543674 0.942182 0.297683
0.665767 0.938520 0.344060
0.759489 0.938635 0.336599
0.844021 0.935844 0.313860
0.930248 0.925861 0.306733
0.969897 0.925954 0.312334
