bundles/resolve-cinematic-luts/Gamut/_Conversion/DJI DLog-M/BaseLUTs - DJI D-Log (4D).cube
TITLE "BaseLUTs - DJI D-Log (4D) LUT by Gamut"
# Designed for converting D-Log / D-Gamut to Rec709 Color Space. Version 1.0- 03/29/2023 -  Copyright 2023 Gamut, LLC
LUT_3D_SIZE 9
0.002366 0.001577 0.001577
0.081626 0.000888 0.015771
0.277307 0.001972 0.052968
0.552030 0.004436 0.109789
0.856109 0.009069 0.193093
0.986487 0.015969 0.222078
0.986914 0.082910 0.197581
0.985339 0.212145 0.177629
0.972119 0.399746 0.183728
0.006112 0.042934 0.018728
0.042447 0.039693 0.000591
0.234171 0.031641 0.028389
0.513330 0.022474 0.085267
0.827657 0.029867 0.175400
0.986969 0.041900 0.204747
0.987371 0.113305 0.173812
0.980715 0.255574 0.181809
0.971147 0.425859 0.180856
0.022868 0.183757 0.061637
0.023066 0.179809 0.049277
0.186393 0.163319 0.000197
0.417733 0.187093 0.049915
0.734409 0.188005 0.129532
0.949054 0.216443 0.163155
0.976846 0.301544 0.183025
0.972544 0.388982 0.184450
0.974400 0.502829 0.164804
0.027798 0.439309 0.014392
0.027798 0.436900 0.014392
0.051668 0.398891 0.001085
0.417352 0.379742 0.012715
0.719204 0.407341 0.100235
0.924703 0.453640 0.146075
0.972518 0.494553 0.161108
0.978925 0.528069 0.166628
0.985907 0.597072 0.191975
0.038246 0.733672 0.030755
0.038246 0.738339 0.031543
0.037260 0.697493 0.028586
0.192031 0.667353 0.003746
0.710501 0.628347 0.046934
0.911408 0.639042 0.161127
0.987302 0.654463 0.208996
0.990264 0.670868 0.234274
0.996733 0.750044 0.253994
0.042516 0.909717 0.048553
0.042516 0.910633 0.048553
0.041759 0.900473 0.047594
0.049571 0.838895 0.035486
0.515843 0.812416 0.192001
0.889193 0.803913 0.173835
0.969883 0.835722 0.188197
0.999953 0.859337 0.207628
1.000000 0.888310 0.190846
0.042516 0.929614 0.051020
0.042516 0.929584 0.051020
0.042516 0.929547 0.051020
0.042043 0.917300 0.049839
0.359706 0.915855 0.147359
0.822561 0.901599 0.285976
0.993413 0.907322 0.229892
1.000000 0.926468 0.184556
1.000000 0.938298 0.184739
0.043264 0.929488 0.051851
0.043264 0.929488 0.051851
0.043264 0.929495 0.052510
0.043264 0.929388 0.052429
0.219394 0.950575 0.108191
0.698524 0.961614 0.373992
0.992253 0.949855 0.333189
1.000000 0.962409 0.260938
1.000000 0.968667 0.249954
0.053002 0.927305 0.088291
0.053651 0.927245 0.089165
0.053164 0.927230 0.089489
0.051020 0.927720 0.079102
0.062523 0.928990 0.087894
0.567361 0.981973 0.349871
0.960344 0.971456 0.352548
1.000000 0.974931 0.333599
1.000000 0.975593 0.287366
0.011435 0.006013 0.060079
0.073623 0.000197 0.039693
0.268807 0.000789 0.052881
0.548409 0.001972 0.111131
0.855543 0.008773 0.192888
0.986491 0.015476 0.222578
0.986925 0.081978 0.198349
0.985476 0.211063 0.177602
0.972099 0.398994 0.183298
0.004731 0.032824 0.044678
0.033711 0.036866 0.029670
0.231631 0.021883 0.034401
0.511319 0.018827 0.087462
0.826996 0.029177 0.175570
0.986949 0.041143 0.205010
0.987289 0.112520 0.174353
0.980776 0.254646 0.181782
0.971175 0.425305 0.181048
0.021291 0.179466 0.069349
0.021390 0.173085 0.059627
0.175536 0.154718 0.001873
0.415779 0.186150 0.049327
0.733432 0.187069 0.129224
0.949065 0.215255 0.163093
0.976891 0.300442 0.182917
0.972586 0.388272 0.184584
0.974364 0.502371 0.164623
0.027699 0.438302 0.014096
0.027798 0.436524 0.013997
0.049261 0.398007 0.001085
0.415796 0.379078 0.012420
0.718099 0.406830 0.099892
0.924371 0.453164 0.145872
0.972390 0.494185 0.161108
0.978849 0.527777 0.166510
0.985893 0.596664 0.191718
0.038246 0.732869 0.030755
0.038246 0.737950 0.031543
0.037260 0.697491 0.028192
0.190345 0.667066 0.003647
0.709437 0.627915 0.046934
0.911165 0.638663 0.160879
0.987162 0.654160 0.208646
0.990183 0.670574 0.234131
0.996649 0.749642 0.254012
0.042421 0.909618 0.048553
0.042043 0.910500 0.048553
0.042137 0.900596 0.047594
0.049175 0.839018 0.036073
0.513902 0.812377 0.191351
0.888836 0.803658 0.173753
0.969942 0.835492 0.188197
0.999953 0.859157 0.207652
1.000000 0.888156 0.190922
0.042516 0.929614 0.051020
0.042516 0.929584 0.051020
0.042516 0.929547 0.051020
0.042043 0.917533 0.049839
0.357852 0.915863 0.145819
0.821381 0.901645 0.285975
0.993278 0.907230 0.230419
1.000000 0.926375 0.184475
1.000000 0.938298 0.184739
0.043264 0.929488 0.051851
0.043264 0.929488 0.051851
0.042703 0.929551 0.052510
0.042890 0.929429 0.052429
0.217489 0.950373 0.107657
0.697491 0.961547 0.373791
0.992100 0.949805 0.333108
1.000000 0.962359 0.261573
1.000000 0.968663 0.250007
0.053570 0.927253 0.088291
0.053570 0.927245 0.089165
0.053651 0.927186 0.089816
0.050936 0.927720 0.079102
0.062041 0.928979 0.087000
0.566010 0.981939 0.349082
0.959661 0.971499 0.352623
1.000000 0.974907 0.333944
1.000000 0.975593 0.287366
0.036275 0.003745 0.307218
0.066458 0.012223 0.278444
0.276156 0.000000 0.213783
0.549729 0.000394 0.151273
0.842097 0.013406 0.208095
0.986324 0.000887 0.235437
0.986676 0.060344 0.214363
0.985862 0.196058 0.176316
0.972189 0.396329 0.183513
0.029473 0.008871 0.234808
0.040881 0.017349 0.205750
0.254128 0.000986 0.204139
0.510301 0.021587 0.146467
0.818216 0.033120 0.204717
0.986682 0.022376 0.229678
0.987047 0.088114 0.192754
0.981959 0.242889 0.180719
0.971252 0.422865 0.181429
0.016166 0.147269 0.195313
0.016954 0.149181 0.185539
0.145920 0.141935 0.140753
0.399398 0.135849 0.127986
0.735948 0.124906 0.151482
0.956520 0.160573 0.162366
0.978601 0.276007 0.181343
0.972728 0.385397 0.184744
0.974101 0.501107 0.164563
0.015180 0.389990 0.214425
0.016757 0.395562 0.214245
0.048490 0.373998 0.146019
0.382498 0.362476 0.125741
0.690081 0.386440 0.130710
0.917012 0.438100 0.151017
0.971714 0.489642 0.161321
0.978680 0.526724 0.166390
0.985955 0.595399 0.191154
0.064283 0.700207 0.186603
0.063591 0.706825 0.179452
0.056152 0.681108 0.109608
0.198876 0.638616 0.075206
0.680162 0.614125 0.118552
0.907962 0.635418 0.161051
0.987002 0.653051 0.207924
0.990139 0.669645 0.233431
0.996746 0.748298 0.253769
0.042696 0.906903 0.049264
0.042135 0.908174 0.048943
0.042327 0.899019 0.047240
0.048331 0.837299 0.036174
0.507654 0.811901 0.191059
0.887537 0.802950 0.173183
0.969372 0.834952 0.188040
0.999953 0.858513 0.208122
1.000000 0.887764 0.191018
0.042516 0.929614 0.051020
0.042516 0.929610 0.051020
0.042516 0.929547 0.051020
0.042043 0.918138 0.049839
0.352118 0.915825 0.141133
0.817884 0.901768 0.286041
0.992810 0.906887 0.230687
1.000000 0.926179 0.184287
1.000000 0.938071 0.184529
0.042609 0.929488 0.051851
0.043264 0.929488 0.051851
0.043264 0.929495 0.052510
0.043264 0.929425 0.052510
0.211424 0.949652 0.105412
0.694085 0.961533 0.373113
0.991286 0.949672 0.332822
1.000000 0.962261 0.261590
1.000000 0.968555 0.249820
0.053002 0.927305 0.087961
0.053002 0.927245 0.088729
0.053812 0.927149 0.091425
0.051020 0.927720 0.079402
0.060881 0.928902 0.085895
0.561892 0.981863 0.347083
0.957504 0.971777 0.353308
1.000000 0.974851 0.333510
1.000000 0.975593 0.287366
0.084454 0.010251 0.658402
0.082608 0.009068 0.603143
0.255053 0.000592 0.522955
0.563612 0.000789 0.468357
0.905795 0.000000 0.318581
0.985664 0.010054 0.308559
0.986187 0.075402 0.289320
0.986853 0.122054 0.238478
0.977648 0.313899 0.201460
0.060726 0.000986 0.503062
0.059622 0.000493 0.462029
0.247890 0.000591 0.518298
0.545791 0.000493 0.461986
0.879030 0.007393 0.312160
0.985896 0.039273 0.307573
0.986331 0.100809 0.291376
0.987102 0.144070 0.220872
0.975832 0.345043 0.202467
0.053601 0.086502 0.367657
0.054331 0.091584 0.362994
0.149318 0.105788 0.395295
0.458174 0.089696 0.417440
0.766243 0.123534 0.293496
0.979159 0.153519 0.310300
0.987051 0.187120 0.263715
0.981010 0.288967 0.215308
0.970718 0.449463 0.190841
0.057172 0.333003 0.438837
0.058930 0.339528 0.435952
0.086718 0.333242 0.396169
0.335439 0.338062 0.344968
0.677289 0.327387 0.310172
0.926303 0.345615 0.290306
0.974702 0.410256 0.254222
0.970537 0.479850 0.201260
0.984590 0.563753 0.193761
0.016166 0.644025 0.439532
0.016363 0.650539 0.439811
0.015377 0.649802 0.417017
0.200724 0.624287 0.349045
0.637734 0.609289 0.297409
0.894047 0.595400 0.301428
0.982486 0.612749 0.276758
0.987228 0.636083 0.249937
0.995364 0.720565 0.258836
0.051535 0.878711 0.436294
0.053669 0.880232 0.434443
0.066200 0.878582 0.413961
0.070921 0.835058 0.301739
0.472829 0.801883 0.337871
0.851830 0.786639 0.383836
0.958111 0.819464 0.327713
0.998909 0.844863 0.254901
1.000000 0.884035 0.198187
0.074719 0.930487 0.352725
0.075227 0.930398 0.349471
0.076290 0.929261 0.332479
0.075481 0.915039 0.266240
0.366177 0.905661 0.284467
0.792238 0.898471 0.441403
0.979100 0.906204 0.352843
1.000000 0.925558 0.209859
1.000000 0.937837 0.186088
0.073296 0.925839 0.228900
0.072781 0.925776 0.225859
0.072506 0.925464 0.214712
0.072097 0.925185 0.206331
0.225778 0.936728 0.222355
0.689395 0.960302 0.413001
0.989623 0.949521 0.338758
1.000000 0.962035 0.262941
1.000000 0.968327 0.248636
0.054505 0.927130 0.094456
0.053862 0.927123 0.095177
0.055143 0.926953 0.097065
0.051901 0.927512 0.085165
0.060751 0.928540 0.087836
0.553767 0.981798 0.341120
0.953540 0.972226 0.353207
1.000000 0.974858 0.335058
1.000000 0.975593 0.287366
0.108802 0.012223 0.807556
0.105946 0.011829 0.782238
0.244063 0.039569 0.744238
0.581843 0.000000 0.858103
0.945874 0.000000 0.774765
0.985990 0.002760 0.627722
0.984576 0.061102 0.468919
0.985568 0.121578 0.396902
0.986505 0.260705 0.384571
0.094183 0.011139 0.719851
0.091252 0.011040 0.698054
0.245025 0.043403 0.748281
0.561407 0.000000 0.851311
0.931243 0.000296 0.768121
0.985615 0.018630 0.620227
0.984734 0.084712 0.464920
0.985712 0.148749 0.397831
0.986662 0.282836 0.388443
0.085269 0.025432 0.644815
0.085154 0.031740 0.636945
0.168392 0.045103 0.695835
0.459948 0.059540 0.787698
0.859873 0.022080 0.732104
0.984459 0.115706 0.581498
0.985452 0.184038 0.455410
0.986235 0.251897 0.408221
0.987351 0.354867 0.367006
0.119157 0.235126 0.597607
0.120649 0.242686 0.599854
0.148198 0.252611 0.580472
0.323852 0.279966 0.627409
0.732394 0.265489 0.663467
0.982581 0.311474 0.522235
0.986972 0.360294 0.468082
0.987637 0.392554 0.399436
0.981947 0.499167 0.376796
0.140492 0.562484 0.705169
0.142407 0.568533 0.704535
0.139533 0.572250 0.681356
0.233751 0.573231 0.621913
0.575926 0.569302 0.570613
0.880923 0.556321 0.521513
0.974245 0.568971 0.495291
0.986688 0.589526 0.424849
0.988864 0.654460 0.417330
0.036669 0.843794 0.665050
0.035978 0.846352 0.662746
0.032627 0.850251 0.646136
0.034027 0.828446 0.606365
0.473518 0.783743 0.574400
0.827530 0.794868 0.549392
0.963770 0.787422 0.532389
0.995003 0.791227 0.487844
0.998765 0.850280 0.457333
0.025234 0.940897 0.628246
0.025234 0.941544 0.627629
0.025628 0.942661 0.621796
0.025727 0.931370 0.590891
0.346119 0.893849 0.558788
0.756827 0.910510 0.602350
0.968202 0.912531 0.551887
1.000000 0.926718 0.499468
1.000000 0.941732 0.454186
0.027699 0.969251 0.605436
0.028487 0.969230 0.604125
0.028684 0.969170 0.598165
0.034895 0.965750 0.565579
0.161396 0.943812 0.519190
0.675628 0.965708 0.590703
0.960762 0.961690 0.575443
1.000000 0.967591 0.539079
1.000000 0.974586 0.494650
0.038503 0.963029 0.527780
0.038503 0.962811 0.526044
0.039964 0.961743 0.519928
0.045028 0.957734 0.497507
0.064725 0.947782 0.456989
0.577840 0.974110 0.532680
0.916169 0.986012 0.565060
1.000000 0.979895 0.536383
1.000000 0.980277 0.449362
0.118122 0.012617 0.865605
0.118122 0.012617 0.865004
0.207452 0.003351 0.880675
0.513572 0.001479 0.994790
0.989318 0.000000 0.959645
1.000000 0.000000 0.958856
0.999983 0.000296 0.959428
0.999228 0.005815 0.901671
0.989708 0.176864 0.751118
0.114484 0.012617 0.842233
0.111362 0.012617 0.826090
0.230986 0.011336 0.906148
0.499460 0.001971 0.994412
0.978055 0.000000 0.960427
1.000000 0.000000 0.958884
1.000000 0.000493 0.959121
0.999047 0.013307 0.885220
0.988190 0.203131 0.739849
0.106829 0.011335 0.814873
0.106689 0.011631 0.811972
0.178564 0.002957 0.874307
0.434060 0.043292 0.972381
0.917561 0.000197 0.964708
0.999993 0.002070 0.959107
1.000000 0.026023 0.956741
0.997435 0.142511 0.827022
0.985686 0.305308 0.695064
0.120676 0.158960 0.713276
0.121948 0.165532 0.713645
0.142340 0.180170 0.709331
0.313036 0.212027 0.825729
0.738121 0.195457 0.986976
0.999980 0.198400 0.964599
0.999104 0.229938 0.908963
0.986683 0.334749 0.739128
0.987515 0.459198 0.623626
0.164987 0.453650 0.862317
0.162897 0.461580 0.869542
0.156574 0.474668 0.876118
0.270518 0.488277 0.799659
0.542382 0.500554 0.805037
0.919674 0.487614 0.864769
0.988782 0.514136 0.762414
0.989990 0.561963 0.652250
0.991216 0.637516 0.635222
0.201887 0.785761 0.896331
0.198121 0.789450 0.894101
0.184769 0.797199 0.885022
0.154578 0.782371 0.847792
0.436415 0.761255 0.782841
0.782058 0.777641 0.774068
0.952524 0.765767 0.731492
0.993364 0.771031 0.709460
0.994976 0.807832 0.696155
0.050409 0.913732 0.837221
0.049896 0.914544 0.836477
0.050155 0.917464 0.831441
0.050850 0.913193 0.804562
0.317260 0.905066 0.758709
0.714976 0.913112 0.773138
0.950306 0.926153 0.732933
0.996594 0.930930 0.684016
0.999966 0.945143 0.659260
0.051748 0.963696 0.790634
0.051748 0.963861 0.789756
0.050572 0.964646 0.786485
0.046318 0.965757 0.765084
0.183636 0.964379 0.732515
0.626077 0.963426 0.762500
0.901567 0.982569 0.734585
1.000000 0.978555 0.688191
1.000000 0.983097 0.682102
0.041692 0.971151 0.748993
0.041692 0.971220 0.748217
0.041420 0.971388 0.745512
0.036275 0.972440 0.729005
0.045741 0.972795 0.710413
0.531635 0.974910 0.735615
0.874377 0.992233 0.746484
1.000000 0.988070 0.688852
1.000000 0.987832 0.682564
0.125522 0.013406 0.916721
0.125601 0.013406 0.916476
0.174438 0.012617 0.949615
0.470663 0.023657 0.995550
0.930737 0.000000 0.963655
1.000000 0.000000 0.958625
1.000000 0.000000 0.958625
1.000000 0.000000 0.958625
1.000000 0.037458 0.960134
0.125561 0.013406 0.916108
0.125362 0.013406 0.915367
0.198411 0.012223 0.980240
0.459158 0.030120 0.995607
0.913208 0.000000 0.965006
1.000000 0.000000 0.958625
1.000000 0.000000 0.958625
1.000000 0.000000 0.958625
1.000000 0.062490 0.961043
0.119254 0.013406 0.915783
0.119170 0.013406 0.915409
0.168938 0.013406 0.962596
0.409863 0.063116 0.995334
0.845459 0.000000 0.970915
1.000000 0.000000 0.958625
1.000000 0.000000 0.958213
1.000000 0.032036 0.959908
1.000000 0.162560 0.964862
0.117865 0.061890 0.839673
0.118411 0.069143 0.833925
0.129049 0.087392 0.827408
0.296411 0.131499 0.961560
0.679133 0.131071 0.991035
0.999993 0.102910 0.962509
1.000000 0.155929 0.964612
1.000000 0.208654 0.966730
1.000000 0.328599 0.973344
0.179444 0.339888 0.836013
0.181120 0.346347 0.837658
0.184294 0.362007 0.840883
0.256000 0.380076 0.826814
0.507245 0.413193 0.943638
0.940848 0.388366 0.979790
1.000000 0.408809 0.977579
1.000000 0.447484 0.979365
0.999006 0.531170 0.941477
0.202876 0.712762 0.961222
0.204960 0.716584 0.961408
0.209587 0.726593 0.962267
0.206810 0.720455 0.958588
0.420493 0.700696 0.915640
0.734040 0.704765 0.908421
0.971391 0.698612 0.947368
0.994526 0.719030 0.902851
0.995719 0.797231 0.859020
0.110150 0.900338 0.925180
0.109697 0.901547 0.924582
0.108698 0.905514 0.922416
0.107455 0.901654 0.915004
0.248973 0.879888 0.887377
0.660932 0.895840 0.900381
0.917358 0.918083 0.914810
0.990981 0.919367 0.879975
0.994452 0.941242 0.858661
0.081051 0.952015 0.922726
0.080578 0.952286 0.922625
0.079625 0.953066 0.922188
0.076021 0.952261 0.916846
0.155974 0.945387 0.896528
0.554093 0.966208 0.898970
0.864300 0.984338 0.906539
0.999725 0.988038 0.876951
1.000000 0.993414 0.868071
0.066024 0.962036 0.911436
0.066095 0.962015 0.911140
0.065465 0.961966 0.910160
0.061536 0.961528 0.903600
0.058007 0.960389 0.887392
0.454226 0.979953 0.876835
0.826542 0.988979 0.900203
0.999560 0.994111 0.878415
1.000000 0.993485 0.867077
0.132708 0.014194 0.973577
0.132708 0.014194 0.973577
0.161341 0.013603 0.987254
0.426571 0.065911 0.995513
0.842444 0.000000 0.971192
1.000000 0.000000 0.958625
1.000000 0.000000 0.958625
1.000000 0.000000 0.958625
1.000000 0.000000 0.958625
0.132708 0.014194 0.973577
0.132708 0.014194 0.973622
0.167239 0.013603 0.987501
0.418681 0.073065 0.995334
0.822279 0.000000 0.973083
1.000000 0.000000 0.958625
1.000000 0.000000 0.958625
1.000000 0.000000 0.958625
0.999997 0.000690 0.958345
0.127454 0.014194 0.981045
0.127140 0.014194 0.980656
0.155705 0.013701 0.987382
0.372255 0.056589 0.994892
0.746891 0.000000 0.980634
1.000000 0.000000 0.958625
1.000000 0.000000 0.958625
0.999997 0.000000 0.958597
1.000000 0.067203 0.961185
0.123924 0.013800 0.953014
0.123924 0.014588 0.949985
0.125676 0.007097 0.942689
0.280926 0.040731 0.993283
0.626842 0.064741 0.992348
1.000000 0.013701 0.959128
1.000000 0.057824 0.960831
1.000000 0.110680 0.962826
1.000000 0.226135 0.967505
0.155985 0.243691 0.837015
0.157471 0.249724 0.837231
0.161921 0.266654 0.838209
0.214512 0.286297 0.843555
0.466605 0.323176 0.989771
0.921330 0.295825 0.976125
1.000000 0.307441 0.971687
1.000000 0.344303 0.973712
1.000000 0.439029 0.979226
0.173309 0.610780 0.954595
0.174497 0.616511 0.954543
0.179254 0.635047 0.953984
0.180497 0.636725 0.953991
0.393666 0.615935 0.922763
0.698384 0.616268 0.987068
0.986279 0.597048 0.990881
1.000000 0.623640 0.992188
1.000000 0.701134 0.998105
0.215890 0.860912 0.961519
0.213650 0.862926 0.961170
0.205253 0.869735 0.959843
0.202986 0.870035 0.958397
0.256766 0.836650 0.950417
0.653488 0.841307 0.946727
0.888684 0.873912 0.979406
0.999900 0.871747 0.999708
1.000000 0.904935 0.992643
0.107478 0.948228 0.948958
0.107202 0.948631 0.949102
0.106647 0.949709 0.949430
0.106043 0.949252 0.948250
0.103866 0.938696 0.936654
0.493902 0.953677 0.951175
0.828294 0.978703 0.985333
0.982007 0.984768 0.987164
0.998620 0.994412 0.987896
0.100208 0.965168 0.955945
0.099815 0.965221 0.955867
0.099815 0.965249 0.955650
0.098377 0.965000 0.953834
0.093372 0.963743 0.948620
0.423759 0.975280 0.957844
0.799339 0.991626 0.989583
0.979573 0.997531 0.989623
0.998597 0.997679 0.991458
0.132708 0.014194 0.973844
0.132708 0.014194 0.973844
0.142321 0.014194 0.980090
0.372018 0.057555 0.994828
0.798358 0.000000 0.974989
1.000000 0.000000 0.958625
1.000000 0.000000 0.958625
1.000000 0.000000 0.958625
1.000000 0.000000 0.958625
0.132708 0.014194 0.973844
0.132708 0.014194 0.973844
0.141832 0.014194 0.979803
0.385969 0.064648 0.995047
0.780229 0.000000 0.976911
1.000000 0.000000 0.958625
1.000000 0.000000 0.958625
1.000000 0.000000 0.958625
1.000000 0.000000 0.958632
0.128351 0.014194 0.981248
0.128039 0.014194 0.981206
0.136398 0.014194 0.986074
0.341825 0.038706 0.994409
0.706056 0.000000 0.984585
1.000000 0.000000 0.958625
1.000000 0.000000 0.958625
1.000000 0.000000 0.958625
1.000000 0.040495 0.960205
0.124566 0.013701 0.961986
0.124245 0.014194 0.958861
0.123803 0.014588 0.948732
0.253243 0.014786 0.993103
0.595896 0.058677 0.993546
0.999990 0.004830 0.958660
1.000000 0.039144 0.960127
1.000000 0.087831 0.961969
1.000000 0.193996 0.966130
0.151975 0.227426 0.836341
0.153374 0.233000 0.836549
0.158318 0.252922 0.837400
0.196627 0.270675 0.840736
0.436298 0.304459 0.987268
0.900622 0.281081 0.977104
1.000000 0.285981 0.970627
1.000000 0.318281 0.972279
1.000000 0.404381 0.977088
0.169308 0.588495 0.954010
0.170294 0.594096 0.954223
0.173866 0.613507 0.954600
0.174889 0.619560 0.954690
0.369086 0.600445 0.921714
0.678638 0.598567 0.984530
0.985190 0.571709 0.989036
1.000000 0.592739 0.989757
1.000000 0.664633 0.995364
0.227811 0.849360 0.964438
0.226305 0.851194 0.964100
0.219919 0.857974 0.962895
0.217435 0.860043 0.962105
0.247841 0.827562 0.957882
0.621976 0.827410 0.951093
0.871198 0.856362 0.981390
0.999876 0.849906 1.000000
1.000000 0.885603 1.000000
0.110251 0.945621 0.950180
0.110566 0.945997 0.950320
0.109484 0.947363 0.950661
0.109122 0.947453 0.950427
0.107336 0.937914 0.941652
0.444964 0.947184 0.952584
0.806852 0.972539 0.986513
0.977680 0.979564 0.998106
0.997029 0.991913 0.998506
0.104163 0.965066 0.960495
0.104542 0.965140 0.960488
0.104542 0.965312 0.960701
0.103926 0.965274 0.960343
0.102445 0.964264 0.957915
0.375420 0.973163 0.965532
0.776324 0.990394 0.992150
0.979972 0.997743 1.000000
0.997877 0.997824 1.000000
