bundles/resolve-cinematic-luts/Gamut/_Conversion/DJI DLog-M/BaseLUTs - DJI D-Log (Mavic 3).cube
TITLE "BaseLUTs - DJI D-Log (Mavic 3) LUT by Gamut"
# Designed for converting D-Log / D-Gamut to Rec709 Color Space. Version 1.0- 03/29/2023 -  Copyright 2023 Gamut, LLC
LUT_3D_SIZE 33
0.002366 0.001577 0.001577
0.002366 0.001577 0.001577
0.002267 0.001577 0.001626
0.024470 0.001577 0.005224
0.081626 0.000888 0.015771
0.140354 0.000123 0.028191
0.190062 0.000000 0.037753
0.228541 0.000616 0.043919
0.279063 0.002169 0.053618
0.337755 0.004509 0.065547
0.407158 0.003943 0.077238
0.479096 0.003154 0.091872
0.553160 0.004929 0.110367
0.630864 0.008033 0.132931
0.708273 0.011484 0.155764
0.785902 0.010621 0.176380
0.861704 0.007491 0.193900
0.927889 0.003204 0.208125
0.971168 0.002711 0.218713
0.984356 0.005692 0.225168
0.986344 0.013603 0.227603
0.986410 0.023732 0.227173
0.986491 0.037917 0.223637
0.986663 0.053509 0.217040
0.986811 0.070584 0.207442
0.987037 0.088751 0.195585
0.987087 0.110364 0.183947
0.986778 0.138281 0.176652
0.985674 0.173369 0.174794
0.983640 0.216208 0.177567
0.980227 0.266616 0.181661
0.976591 0.319228 0.184391
0.973483 0.369790 0.185438
0.002366 0.001577 0.001577
0.002366 0.001577 0.001577
0.002267 0.001577 0.001626
0.024470 0.001577 0.005224
0.081626 0.000888 0.015771
0.140354 0.000123 0.028191
0.190062 0.000000 0.037778
0.228541 0.000616 0.043919
0.279063 0.002169 0.053618
0.337610 0.004509 0.065547
0.407076 0.003943 0.077238
0.478785 0.003154 0.091872
0.552963 0.004929 0.110150
0.630627 0.008033 0.132639
0.707941 0.011484 0.155625
0.785433 0.010966 0.176162
0.861293 0.007886 0.193704
0.927513 0.003573 0.207943
0.970856 0.002711 0.218470
0.984252 0.006013 0.224835
0.986317 0.013603 0.227375
0.986357 0.024249 0.226837
0.986570 0.038665 0.223183
0.986632 0.054134 0.216642
0.986838 0.071602 0.206937
0.987033 0.089609 0.195040
0.987097 0.111404 0.183572
0.986757 0.139446 0.176652
0.985633 0.174701 0.175013
0.983608 0.217444 0.177783
0.980197 0.267857 0.181661
0.976535 0.320228 0.184391
0.973458 0.370723 0.185438
0.002366 0.001577 0.001577
0.002366 0.001577 0.001577
0.002267 0.001577 0.001626
0.021588 0.001577 0.004559
0.079711 0.000838 0.015130
0.139067 0.000074 0.027576
0.187300 0.000641 0.037162
0.226885 0.000616 0.043967
0.276704 0.003450 0.053010
0.335917 0.005249 0.064662
0.405174 0.004879 0.075849
0.476550 0.004411 0.090273
0.550495 0.005915 0.108795
0.628132 0.009241 0.131213
0.705202 0.012962 0.154062
0.782639 0.012888 0.174872
0.858422 0.009758 0.192237
0.925027 0.005841 0.206414
0.969287 0.004978 0.216753
0.983667 0.008280 0.223103
0.986302 0.016609 0.225406
0.986477 0.027526 0.224702
0.986540 0.041833 0.220892
0.986691 0.057926 0.214035
0.986819 0.075294 0.204191
0.986982 0.094243 0.192582
0.987127 0.117003 0.182237
0.986744 0.146025 0.176547
0.985507 0.181423 0.175669
0.983239 0.223584 0.178408
0.979747 0.273236 0.182081
0.976192 0.324928 0.184391
0.973321 0.374846 0.185225
0.003080 0.005003 0.003721
0.003080 0.005003 0.003721
0.003080 0.005003 0.003770
0.014884 0.008724 0.003721
0.061901 0.011755 0.007713
0.113005 0.009044 0.017792
0.156848 0.009512 0.029449
0.204691 0.010991 0.036028
0.259352 0.012617 0.042242
0.323151 0.012889 0.051507
0.388038 0.012173 0.063212
0.459327 0.011656 0.078959
0.536210 0.012445 0.099730
0.614122 0.016018 0.122743
0.692692 0.019443 0.146643
0.771124 0.020429 0.167898
0.848246 0.017299 0.185981
0.916579 0.013381 0.200534
0.963733 0.012519 0.211099
0.981978 0.016609 0.217191
0.986110 0.025283 0.219325
0.986563 0.037385 0.218192
0.986675 0.052351 0.214029
0.986760 0.068673 0.206716
0.986995 0.086590 0.196981
0.987118 0.107142 0.186695
0.986992 0.132462 0.179166
0.986378 0.163124 0.176674
0.984918 0.197698 0.177009
0.982237 0.238248 0.179698
0.978806 0.285909 0.182893
0.975527 0.336038 0.184585
0.972836 0.384581 0.184625
0.006801 0.043563 0.019419
0.006801 0.043563 0.019419
0.006752 0.042934 0.018728
0.009881 0.039693 0.014342
0.043822 0.040454 0.000591
0.082677 0.037038 0.006974
0.129907 0.033909 0.015032
0.180520 0.031617 0.022894
0.234808 0.033021 0.029079
0.295042 0.030508 0.035954
0.363841 0.026270 0.045327
0.436704 0.024322 0.063158
0.513735 0.024741 0.085391
0.593814 0.026861 0.109833
0.674375 0.031543 0.134245
0.754007 0.032603 0.156374
0.832775 0.029867 0.175198
0.903332 0.026664 0.190337
0.954356 0.026171 0.201154
0.978833 0.030582 0.207203
0.985616 0.040607 0.209018
0.986702 0.053797 0.207238
0.986826 0.069226 0.202650
0.986992 0.086593 0.195560
0.987051 0.106349 0.187243
0.987005 0.130399 0.180420
0.986420 0.158987 0.177407
0.985278 0.189865 0.177205
0.983390 0.222459 0.178933
0.980656 0.260312 0.181361
0.977500 0.305395 0.183701
0.974592 0.353165 0.184351
0.972189 0.399495 0.183190
0.009217 0.072963 0.031346
0.009217 0.072963 0.031346
0.009217 0.071082 0.030656
0.009906 0.068951 0.026245
0.025505 0.070761 0.005988
0.073241 0.068293 0.000123
0.115584 0.064436 0.006063
0.157056 0.066486 0.015969
0.207636 0.065834 0.025999
0.265860 0.065642 0.033145
0.330409 0.062116 0.041182
0.403586 0.055261 0.051442
0.485828 0.046889 0.068041
0.568825 0.047282 0.091934
0.651298 0.050511 0.117341
0.733202 0.051911 0.140329
0.813536 0.049910 0.159736
0.886241 0.046798 0.175478
0.941668 0.047017 0.186441
0.973484 0.052269 0.192687
0.984289 0.063051 0.194302
0.986717 0.077356 0.192565
0.986961 0.094188 0.188578
0.986926 0.114359 0.183797
0.986716 0.137826 0.179645
0.986162 0.165031 0.177693
0.984965 0.194115 0.177693
0.983267 0.222964 0.179120
0.981166 0.252624 0.181095
0.978600 0.287405 0.183027
0.975937 0.329506 0.184110
0.973460 0.374392 0.183169
0.971428 0.418206 0.180494
0.012321 0.101965 0.041494
0.012321 0.101965 0.041494
0.012321 0.102520 0.041494
0.012247 0.100279 0.039256
0.015475 0.101412 0.020947
0.050154 0.103387 0.005692
0.109960 0.097555 0.000296
0.154529 0.092575 0.006186
0.195167 0.096954 0.015574
0.243959 0.101291 0.026147
0.304776 0.101775 0.038049
0.375660 0.098832 0.050249
0.453492 0.093184 0.064403
0.538021 0.087621 0.081863
0.625365 0.083924 0.102268
0.709859 0.081094 0.122565
0.791427 0.079328 0.142072
0.866172 0.077375 0.157677
0.925322 0.077926 0.168643
0.963324 0.084511 0.175281
0.980395 0.096112 0.177993
0.985531 0.112085 0.178207
0.986397 0.131946 0.177438
0.986119 0.155274 0.177049
0.985302 0.180927 0.177226
0.984024 0.207775 0.178339
0.982496 0.234626 0.179952
0.980537 0.260370 0.181673
0.978631 0.286653 0.183176
0.976541 0.318293 0.184117
0.974391 0.357129 0.183728
0.972381 0.399075 0.180889
0.970621 0.440223 0.175822
0.016831 0.139240 0.052982
0.016831 0.139240 0.052982
0.016831 0.140276 0.053133
0.016831 0.140920 0.053024
0.018113 0.137246 0.037408
0.031025 0.141607 0.002193
0.079819 0.134761 0.004707
0.147425 0.127892 0.000345
0.196102 0.125114 0.005397
0.239800 0.132038 0.014810
0.292641 0.139358 0.026762
0.358183 0.141777 0.043504
0.432831 0.140205 0.060796
0.513831 0.136724 0.079257
0.598419 0.133220 0.097681
0.683156 0.130447 0.115675
0.766367 0.126838 0.131889
0.842751 0.124340 0.144798
0.905113 0.125331 0.154898
0.948197 0.132295 0.162542
0.971833 0.145412 0.168070
0.981276 0.162929 0.171609
0.983665 0.183668 0.174011
0.983594 0.206670 0.176539
0.982404 0.230743 0.178918
0.980921 0.254867 0.180985
0.979285 0.278178 0.182703
0.977653 0.300597 0.183955
0.976212 0.323883 0.184491
0.974663 0.352254 0.184123
0.972928 0.387790 0.181917
0.971591 0.426329 0.177034
0.970702 0.464036 0.170405
0.022868 0.185141 0.061199
0.022868 0.185141 0.061199
0.022868 0.186374 0.061199
0.022992 0.186063 0.061161
0.023066 0.181005 0.048588
0.017324 0.181059 0.006185
0.050756 0.177518 0.000296
0.114847 0.166826 0.001355
0.185873 0.164469 0.000197
0.241390 0.167835 0.004435
0.295530 0.174233 0.017102
0.354897 0.181263 0.031789
0.422541 0.186356 0.050105
0.499289 0.186596 0.072673
0.580225 0.186023 0.094316
0.662198 0.186023 0.113481
0.743444 0.185947 0.129313
0.819601 0.185557 0.141667
0.883799 0.187604 0.151493
0.930877 0.194496 0.159356
0.959681 0.206578 0.166088
0.973757 0.223107 0.171476
0.978746 0.242082 0.175708
0.979576 0.262332 0.179200
0.978781 0.283050 0.181726
0.977536 0.303669 0.183552
0.976279 0.323610 0.184424
0.975082 0.342941 0.184552
0.974008 0.363262 0.183995
0.972878 0.388543 0.181998
0.971935 0.420392 0.178002
0.971765 0.454629 0.172637
0.972475 0.487431 0.166840
0.027378 0.241554 0.053339
0.027378 0.241774 0.053339
0.027378 0.242436 0.052856
0.027378 0.240576 0.054155
0.025998 0.233865 0.046007
0.018729 0.230971 0.009734
0.035225 0.226554 0.001133
0.080033 0.218725 0.003549
0.151954 0.209940 0.001331
0.230459 0.212241 0.006777
0.296798 0.217550 0.008378
0.360044 0.222232 0.022055
0.424410 0.229229 0.039002
0.494360 0.235709 0.060165
0.570561 0.239267 0.085313
0.649240 0.242692 0.107994
0.727998 0.246187 0.126799
0.802568 0.249167 0.141106
0.867079 0.252991 0.152111
0.916509 0.259823 0.160681
0.948846 0.270666 0.167729
0.966198 0.284881 0.173523
0.973491 0.301109 0.177969
0.975511 0.318280 0.181095
0.975352 0.335731 0.182974
0.974580 0.353116 0.183694
0.973751 0.370113 0.183519
0.972942 0.386619 0.182506
0.972264 0.404004 0.180675
0.971756 0.425903 0.177492
0.971954 0.453478 0.173202
0.973326 0.482730 0.169026
0.975763 0.510505 0.166409
0.024939 0.306071 0.023903
0.024939 0.306071 0.023903
0.024742 0.306977 0.023115
0.024766 0.306238 0.023903
0.024002 0.299003 0.021834
0.021169 0.292438 0.011237
0.024446 0.282406 0.007196
0.055471 0.277485 0.002366
0.111424 0.270652 0.007787
0.191000 0.265665 0.003622
0.282471 0.267419 0.008477
0.359004 0.271753 0.012790
0.428744 0.275090 0.030016
0.497692 0.281985 0.049427
0.569573 0.289815 0.073341
0.644286 0.297508 0.097832
0.719994 0.304176 0.119980
0.792484 0.310102 0.137136
0.856356 0.315903 0.149950
0.906723 0.323086 0.159823
0.941013 0.332835 0.167206
0.960446 0.345014 0.172774
0.969345 0.358771 0.176861
0.972248 0.373096 0.179381
0.972762 0.387735 0.180431
0.972427 0.402339 0.180099
0.972017 0.416591 0.178776
0.971710 0.430232 0.177058
0.971702 0.444543 0.174814
0.972149 0.462619 0.171973
0.973703 0.485635 0.169319
0.976382 0.510577 0.168549
0.979716 0.534845 0.169507
0.024963 0.373892 0.013948
0.024963 0.373983 0.013948
0.024963 0.374749 0.013948
0.024963 0.374730 0.013948
0.024963 0.368364 0.013258
0.024544 0.360516 0.011804
0.024519 0.349038 0.010646
0.034733 0.338720 0.007319
0.080360 0.335708 0.002982
0.146126 0.330203 0.010054
0.238560 0.325914 0.006309
0.340492 0.325367 0.012051
0.423806 0.327965 0.022104
0.499848 0.331006 0.041694
0.572915 0.338432 0.063648
0.646125 0.348146 0.087652
0.719071 0.357974 0.110180
0.788869 0.366819 0.128953
0.851068 0.374616 0.143232
0.900991 0.382593 0.153880
0.935961 0.391862 0.161452
0.956595 0.402493 0.167072
0.966623 0.413914 0.170931
0.970515 0.425623 0.173221
0.971709 0.437455 0.174103
0.972001 0.449242 0.173470
0.972145 0.460644 0.172138
0.972519 0.471407 0.170693
0.973250 0.482609 0.169369
0.974770 0.497194 0.168704
0.977124 0.516640 0.169311
0.980121 0.538952 0.172382
0.983189 0.561649 0.177383
0.027798 0.440566 0.014687
0.027798 0.440796 0.014687
0.027798 0.441644 0.014687
0.027798 0.442451 0.014687
0.027798 0.437558 0.014490
0.027305 0.429713 0.014392
0.027157 0.418486 0.013603
0.031248 0.405161 0.011459
0.057488 0.400150 0.003844
0.111064 0.396642 0.004239
0.191252 0.390702 0.013110
0.295968 0.385971 0.009980
0.402239 0.384251 0.017447
0.491875 0.386167 0.032652
0.573195 0.390535 0.054674
0.649385 0.398672 0.079019
0.722144 0.408632 0.101266
0.790275 0.418734 0.120122
0.850460 0.428063 0.134372
0.899070 0.436840 0.145202
0.933896 0.445781 0.152956
0.955381 0.455025 0.158904
0.966422 0.464384 0.163100
0.971321 0.473626 0.166038
0.973333 0.482785 0.167846
0.974374 0.491802 0.168401
0.975131 0.500539 0.168380
0.976012 0.508838 0.168424
0.977157 0.517783 0.169055
0.978839 0.530162 0.170795
0.981085 0.547885 0.174947
0.983455 0.569272 0.181807
0.985510 0.591601 0.190455
0.030902 0.509584 0.017496
0.030902 0.509874 0.017496
0.030902 0.510722 0.017496
0.030902 0.511638 0.017496
0.030902 0.508179 0.017496
0.030237 0.500917 0.017496
0.030113 0.490127 0.016708
0.031642 0.476448 0.015303
0.042164 0.465591 0.011804
0.082727 0.463193 0.005101
0.149880 0.458920 0.007861
0.245998 0.452555 0.017152
0.358788 0.447628 0.015969
0.468430 0.445973 0.024890
0.564110 0.448129 0.043740
0.648648 0.453245 0.068450
0.724596 0.460494 0.093123
0.792855 0.468802 0.113165
0.851970 0.477400 0.128052
0.899639 0.485842 0.139085
0.934386 0.493849 0.147692
0.956690 0.501694 0.154563
0.968910 0.509257 0.159993
0.974780 0.516635 0.164210
0.977418 0.523828 0.167466
0.978850 0.530884 0.169986
0.979834 0.537857 0.171793
0.980660 0.544752 0.173576
0.981635 0.552552 0.175935
0.982846 0.564076 0.180028
0.984424 0.581419 0.187042
0.986066 0.602995 0.196938
0.987634 0.626062 0.208079
0.033219 0.582502 0.021390
0.033219 0.582822 0.021390
0.033219 0.583675 0.021390
0.033219 0.584612 0.021390
0.033219 0.582307 0.021390
0.033219 0.575783 0.021045
0.032775 0.565673 0.020405
0.033391 0.552411 0.019640
0.037605 0.539224 0.017496
0.058353 0.531964 0.012124
0.115149 0.530131 0.007541
0.198407 0.524696 0.014318
0.306243 0.517694 0.021735
0.426138 0.512206 0.023608
0.540365 0.510401 0.034648
0.639272 0.512411 0.056194
0.722017 0.516536 0.083125
0.792133 0.521504 0.107243
0.851317 0.527181 0.125415
0.898867 0.533539 0.138573
0.934207 0.540051 0.149120
0.957878 0.546305 0.157827
0.971809 0.552400 0.165022
0.978866 0.558268 0.171109
0.981929 0.564205 0.176159
0.983232 0.570199 0.180370
0.983962 0.576287 0.183859
0.984479 0.582466 0.187053
0.985076 0.589821 0.190546
0.985940 0.601327 0.195969
0.987205 0.619229 0.204569
0.988837 0.642099 0.215434
0.990871 0.666824 0.226708
0.035905 0.658079 0.025703
0.035905 0.658284 0.025703
0.035905 0.659209 0.025703
0.035905 0.660216 0.025703
0.035905 0.658911 0.025703
0.035658 0.653346 0.025703
0.035535 0.644072 0.024914
0.035116 0.631626 0.024125
0.037260 0.618018 0.022573
0.048885 0.607247 0.018334
0.087981 0.602999 0.010670
0.156868 0.598695 0.011114
0.253085 0.591600 0.021464
0.371755 0.583213 0.029103
0.499108 0.576581 0.035535
0.616372 0.573978 0.049472
0.711367 0.575194 0.073178
0.785670 0.577940 0.099872
0.845516 0.580998 0.123465
0.893562 0.584702 0.141570
0.930192 0.589156 0.155745
0.955955 0.593931 0.167528
0.972291 0.598748 0.177267
0.981096 0.603580 0.185636
0.984920 0.608437 0.192778
0.986391 0.613575 0.198728
0.987014 0.618957 0.203354
0.987423 0.624820 0.207114
0.987959 0.632088 0.210839
0.988916 0.644163 0.216350
0.990409 0.663304 0.224036
0.992444 0.687782 0.232770
0.994890 0.714274 0.240859
0.038246 0.731307 0.031149
0.038246 0.731585 0.031149
0.038246 0.732348 0.031149
0.038246 0.733450 0.031149
0.038246 0.732977 0.031149
0.037851 0.728570 0.030878
0.037457 0.720624 0.030360
0.037457 0.709466 0.029572
0.038049 0.696267 0.028192
0.043571 0.683443 0.024717
0.066353 0.674278 0.018581
0.120321 0.669387 0.012888
0.203758 0.663288 0.017940
0.314088 0.654238 0.032134
0.444274 0.643737 0.046610
0.576780 0.635625 0.058831
0.689353 0.632745 0.073408
0.773091 0.634262 0.094368
0.835165 0.637112 0.119674
0.883807 0.639843 0.143346
0.921751 0.642883 0.163071
0.949779 0.646575 0.179038
0.968626 0.650872 0.191965
0.979954 0.655254 0.202828
0.985807 0.659477 0.212024
0.988639 0.663923 0.219359
0.990032 0.668809 0.224598
0.990745 0.674336 0.228245
0.991452 0.681682 0.231169
0.992604 0.694086 0.234472
0.994261 0.713756 0.238791
0.996035 0.738305 0.242308
0.997945 0.764262 0.244274
0.039798 0.796195 0.036595
0.039798 0.796374 0.036595
0.039798 0.797076 0.036964
0.039798 0.798124 0.036964
0.039798 0.798095 0.036964
0.039798 0.795199 0.036595
0.039527 0.788943 0.036176
0.039010 0.779500 0.035560
0.039010 0.767241 0.034007
0.041293 0.753558 0.031888
0.053119 0.740920 0.026491
0.089714 0.732463 0.018334
0.159771 0.726689 0.016585
0.259595 0.718565 0.030582
0.384684 0.707069 0.056985
0.523729 0.695116 0.079667
0.653207 0.687344 0.091035
0.753082 0.686228 0.101164
0.822616 0.689668 0.119002
0.872776 0.693984 0.142335
0.911469 0.697845 0.165120
0.940911 0.701873 0.184680
0.962009 0.706502 0.200558
0.976217 0.711293 0.213937
0.985196 0.715864 0.224805
0.990580 0.720287 0.233082
0.993453 0.724976 0.238353
0.994722 0.730146 0.241254
0.995382 0.737041 0.242437
0.996275 0.748572 0.242586
0.997485 0.766698 0.241538
0.998559 0.788627 0.238610
0.999434 0.811240 0.233894
0.040994 0.848176 0.041987
0.040994 0.848288 0.041987
0.040994 0.848839 0.041987
0.040994 0.849663 0.041987
0.040994 0.849959 0.041987
0.040678 0.848294 0.041987
0.040557 0.843874 0.041223
0.040557 0.836444 0.040621
0.040557 0.825934 0.039670
0.040775 0.812698 0.038098
0.046141 0.798205 0.034254
0.068819 0.786190 0.026220
0.122974 0.778711 0.018334
0.211124 0.771881 0.026343
0.328311 0.761811 0.059050
0.466061 0.749296 0.098190
0.605894 0.738317 0.119665
0.723986 0.733162 0.125238
0.808061 0.735045 0.131748
0.863828 0.740988 0.146022
0.903358 0.747418 0.164023
0.933380 0.753325 0.181989
0.956039 0.759055 0.198247
0.972650 0.764767 0.212251
0.984344 0.770369 0.223698
0.992001 0.775750 0.232180
0.996231 0.780850 0.237016
0.997923 0.785784 0.238731
0.998427 0.791630 0.237946
0.998809 0.801202 0.235335
0.999281 0.815930 0.230036
0.999703 0.833457 0.223075
0.999925 0.851019 0.214964
0.041759 0.885401 0.046044
0.041759 0.885513 0.046044
0.041759 0.885826 0.046044
0.041759 0.886442 0.046044
0.041759 0.886843 0.046044
0.041759 0.886086 0.046044
0.041759 0.883366 0.045613
0.041759 0.878093 0.045049
0.041305 0.869833 0.044343
0.041305 0.858301 0.042884
0.043208 0.843993 0.040089
0.055460 0.829802 0.033982
0.094005 0.819867 0.023436
0.169504 0.813677 0.023287
0.278724 0.806279 0.053725
0.412472 0.795756 0.106912
0.555820 0.784535 0.147409
0.687476 0.776393 0.160025
0.788882 0.774687 0.160757
0.856206 0.779491 0.163806
0.899587 0.787584 0.170726
0.930286 0.795690 0.179961
0.953628 0.802970 0.190361
0.971345 0.809816 0.200856
0.984266 0.816455 0.210209
0.992927 0.822868 0.216971
0.997638 0.828744 0.220973
0.999394 0.833818 0.221843
0.999723 0.838790 0.220560
0.999803 0.845989 0.216993
0.999888 0.856866 0.211181
0.999968 0.869509 0.204131
1.000000 0.881974 0.196917
0.041759 0.908868 0.048553
0.042043 0.908921 0.048553
0.042043 0.909111 0.048553
0.042043 0.909477 0.048553
0.042043 0.909834 0.048553
0.042043 0.909593 0.048553
0.042043 0.908151 0.048553
0.042043 0.904913 0.048117
0.041759 0.899173 0.047418
0.041759 0.890376 0.046201
0.042279 0.878124 0.044549
0.048026 0.863910 0.040373
0.073651 0.852305 0.030557
0.135338 0.846035 0.024249
0.236201 0.841434 0.047700
0.365777 0.834208 0.106453
0.508670 0.824917 0.165698
0.647014 0.816281 0.194264
0.762691 0.811379 0.198293
0.845230 0.812633 0.195362
0.897799 0.819393 0.192044
0.931739 0.828274 0.189367
0.955854 0.836729 0.189205
0.973754 0.844503 0.191697
0.986438 0.851906 0.195751
0.994384 0.858859 0.199608
0.998397 0.865125 0.201879
0.999775 0.870358 0.202379
1.000000 0.874892 0.200875
1.000000 0.880256 0.198467
1.000000 0.887705 0.194577
1.000000 0.896319 0.190465
1.000000 0.904899 0.186782
0.042516 0.921518 0.049902
0.042516 0.921558 0.049902
0.042516 0.921643 0.049902
0.042516 0.921835 0.049902
0.042516 0.922008 0.049902
0.042516 0.921995 0.049902
0.042516 0.921403 0.049902
0.042516 0.919783 0.049902
0.042516 0.916436 0.049391
0.042516 0.910649 0.048726
0.042279 0.901636 0.047594
0.044425 0.889535 0.044776
0.060350 0.877857 0.037556
0.108970 0.871357 0.028931
0.200466 0.869110 0.043360
0.325062 0.865610 0.100384
0.465531 0.859188 0.172952
0.605579 0.851956 0.220544
0.729856 0.846006 0.234472
0.826712 0.843603 0.231613
0.892548 0.846690 0.223249
0.933880 0.853884 0.212166
0.960753 0.862316 0.201514
0.979042 0.870372 0.194010
0.990677 0.877866 0.190578
0.996780 0.884781 0.189118
0.999234 0.890908 0.189408
0.999902 0.896055 0.189038
1.000000 0.900366 0.188060
1.000000 0.904703 0.186701
1.000000 0.909917 0.185286
1.000000 0.915784 0.183720
1.000000 0.921686 0.182285
0.042516 0.927143 0.050558
0.042516 0.927143 0.050558
0.042516 0.927162 0.050558
0.042516 0.927244 0.050558
0.042516 0.927332 0.050936
0.042516 0.927343 0.051020
0.042516 0.927171 0.050558
0.042516 0.926511 0.050558
0.042516 0.924963 0.050348
0.042516 0.921816 0.050072
0.042516 0.916204 0.049412
0.043262 0.907362 0.047812
0.052300 0.897324 0.042356
0.089889 0.891245 0.033786
0.170700 0.890793 0.040941
0.288707 0.890678 0.090478
0.425545 0.887390 0.170100
0.564875 0.882361 0.235293
0.693122 0.877180 0.262913
0.800167 0.873080 0.264217
0.879856 0.872186 0.255518
0.932157 0.876008 0.242147
0.964464 0.882864 0.225467
0.984068 0.890459 0.209572
0.994581 0.897597 0.197570
0.998730 0.904111 0.190387
0.999780 0.909830 0.186471
1.000000 0.914596 0.184190
1.000000 0.918508 0.183378
1.000000 0.922206 0.182616
1.000000 0.926165 0.182542
1.000000 0.930429 0.182718
1.000000 0.934726 0.183298
0.042516 0.929015 0.051020
0.042516 0.929015 0.051020
0.042516 0.929074 0.051020
0.042516 0.929079 0.051020
0.042516 0.929079 0.051020
0.042516 0.929101 0.051020
0.042516 0.929085 0.051020
0.042516 0.928858 0.051020
0.042516 0.928304 0.051020
0.042516 0.926953 0.050726
0.042516 0.924054 0.050348
0.042797 0.918592 0.049412
0.048092 0.911243 0.046216
0.075405 0.906263 0.038221
0.144125 0.906937 0.040139
0.254510 0.909777 0.080831
0.387567 0.909932 0.160675
0.525048 0.907312 0.239041
0.654648 0.903696 0.282064
0.768080 0.899799 0.290777
0.859383 0.896537 0.283906
0.924371 0.896573 0.272173
0.964659 0.900794 0.255418
0.986826 0.907161 0.234927
0.996677 0.913764 0.216320
0.999533 0.919710 0.201612
0.999961 0.924914 0.192393
1.000000 0.929206 0.186775
1.000000 0.932651 0.184804
1.000000 0.935683 0.183370
1.000000 0.938865 0.184249
1.000000 0.942190 0.185430
1.000000 0.945579 0.186327
0.042516 0.929517 0.051020
0.042516 0.929517 0.051020
0.042516 0.929517 0.051020
0.042516 0.929517 0.051020
0.042516 0.929517 0.051020
0.042516 0.929517 0.051020
0.042516 0.929517 0.051020
0.042516 0.929502 0.051020
0.042516 0.929340 0.051020
0.042516 0.928864 0.051020
0.042516 0.927655 0.051020
0.042516 0.924772 0.050579
0.045174 0.920132 0.048721
0.063653 0.916452 0.043233
0.119512 0.917978 0.043180
0.221471 0.923547 0.075093
0.350596 0.927347 0.149142
0.485798 0.927387 0.234188
0.615749 0.925398 0.291827
0.733135 0.922530 0.311498
0.832955 0.918901 0.307945
0.910054 0.916275 0.298054
0.960613 0.917390 0.284962
0.987224 0.921950 0.265991
0.997439 0.927701 0.244150
0.999771 0.933125 0.223295
1.000000 0.937710 0.207932
1.000000 0.941428 0.197370
1.000000 0.944381 0.190872
1.000000 0.946907 0.188622
1.000000 0.949507 0.189218
1.000000 0.952198 0.190329
1.000000 0.955024 0.192665
0.042516 0.929584 0.051020
0.042516 0.929584 0.051020
0.042516 0.929584 0.051020
0.042516 0.929584 0.051020
0.042516 0.929584 0.051020
0.042516 0.929584 0.051020
0.042516 0.929584 0.051166
0.042516 0.929584 0.051166
0.042516 0.929537 0.051166
0.042516 0.929436 0.051166
0.042516 0.928992 0.051166
0.042516 0.927736 0.051166
0.043744 0.925205 0.050471
0.055226 0.922999 0.047919
0.098694 0.925320 0.047953
0.189686 0.932845 0.073183
0.313644 0.939982 0.139006
0.446637 0.943010 0.224021
0.576759 0.942824 0.292931
0.697344 0.941201 0.326255
0.803287 0.938315 0.328581
0.890479 0.934769 0.319368
0.952183 0.933228 0.309369
0.985508 0.935477 0.295892
0.997493 0.940031 0.275792
0.999811 0.944825 0.252753
1.000000 0.948904 0.231566
1.000000 0.952093 0.215370
1.000000 0.954524 0.203676
1.000000 0.956652 0.199412
1.000000 0.958690 0.198558
1.000000 0.960904 0.200622
1.000000 0.963156 0.205648
0.042656 0.929567 0.051810
0.042656 0.929567 0.051810
0.042656 0.929567 0.051810
0.043264 0.929567 0.051810
0.043264 0.929567 0.051810
0.043264 0.929567 0.051810
0.043264 0.929495 0.051810
0.043264 0.929567 0.051933
0.043264 0.929517 0.051933
0.043264 0.929495 0.051933
0.043264 0.929375 0.052263
0.043264 0.928911 0.052470
0.043447 0.927786 0.051933
0.049831 0.926791 0.050996
0.081158 0.929300 0.052745
0.158212 0.937475 0.074997
0.275232 0.947442 0.132363
0.406814 0.954136 0.211934
0.537600 0.956334 0.287103
0.661505 0.955974 0.334319
0.772659 0.954220 0.346162
0.867465 0.950993 0.338107
0.939676 0.947919 0.328604
0.981478 0.947881 0.319726
