bundles/resolve-cinematic-luts/Gamut/_Conversion/DJI DLog-M/BaseLUTs - DJI D-Log (Mavic 3).cube
TITLE "BaseLUTs - DJI D-Log (Mavic 3) LUT by Gamut"
# Designed for converting D-Log / D-Gamut to Rec709 Color Space. Version 1.0- 03/29/2023 -  Copyright 2023 Gamut, LLC
LUT_3D_SIZE 9
0.002366 0.001577 0.001577
0.081626 0.000888 0.015771
0.279063 0.002169 0.053618
0.553160 0.004929 0.110367
0.861704 0.007491 0.193900
0.986344 0.013603 0.227603
0.986811 0.070584 0.207442
0.985674 0.173369 0.174794
0.973483 0.369790 0.185438
0.006801 0.043563 0.019419
0.043822 0.040454 0.000591
0.234808 0.033021 0.029079
0.513735 0.024741 0.085391
0.832775 0.029867 0.175198
0.985616 0.040607 0.209018
0.987051 0.106349 0.187243
0.983390 0.222459 0.178933
0.972189 0.399495 0.183190
0.022868 0.185141 0.061199
0.023066 0.181005 0.048588
0.185873 0.164469 0.000197
0.422541 0.186356 0.050105
0.743444 0.185947 0.129313
0.959681 0.206578 0.166088
0.978781 0.283050 0.181726
0.974008 0.363262 0.183995
0.972475 0.487431 0.166840
0.027798 0.440566 0.014687
0.027798 0.437558 0.014490
0.057488 0.400150 0.003844
0.402239 0.384251 0.017447
0.722144 0.408632 0.101266
0.933896 0.445781 0.152956
0.973333 0.482785 0.167846
0.977157 0.517783 0.169055
0.985510 0.591601 0.190455
0.038246 0.731307 0.031149
0.038246 0.732977 0.031149
0.038049 0.696267 0.028192
0.203758 0.663288 0.017940
0.689353 0.632745 0.073408
0.921751 0.642883 0.163071
0.985807 0.659477 0.212024
0.991452 0.681682 0.231169
0.997945 0.764262 0.244274
0.041759 0.908868 0.048553
0.042043 0.909834 0.048553
0.041759 0.899173 0.047418
0.073651 0.852305 0.030557
0.508670 0.824917 0.165698
0.897799 0.819393 0.192044
0.986438 0.851906 0.195751
1.000000 0.874892 0.200875
1.000000 0.904899 0.186782
0.042516 0.929517 0.051020
0.042516 0.929517 0.051020
0.042516 0.929340 0.051020
0.045174 0.920132 0.048721
0.350596 0.927347 0.149142
0.832955 0.918901 0.307945
0.997439 0.927701 0.244150
1.000000 0.944381 0.190872
1.000000 0.955024 0.192665
0.045642 0.928985 0.059924
0.045642 0.928985 0.060520
0.045100 0.929011 0.060003
0.044829 0.928930 0.058502
0.199986 0.948261 0.128055
0.709662 0.974431 0.368384
0.992896 0.967662 0.348969
1.000000 0.974612 0.295548
1.000000 0.975742 0.297505
0.068934 0.924601 0.166304
0.069403 0.924546 0.166781
0.069068 0.924586 0.166721
0.067852 0.924680 0.158340
0.103502 0.930688 0.151863
0.606455 0.981591 0.367886
0.983695 0.978588 0.397867
1.000000 0.978909 0.394418
1.000000 0.977780 0.358954
0.011435 0.006013 0.060679
0.075317 0.000197 0.041010
0.270532 0.000789 0.053446
0.549355 0.002169 0.111844
0.860948 0.006407 0.193495
0.986354 0.012814 0.228026
0.986812 0.069713 0.208031
0.986395 0.171736 0.176513
0.973542 0.368853 0.185438
0.005421 0.033613 0.046003
0.034303 0.037556 0.030262
0.231810 0.022671 0.034993
0.511646 0.020799 0.087848
0.832080 0.028389 0.175988
0.985650 0.039448 0.209554
0.987013 0.105567 0.187610
0.983455 0.221130 0.178767
0.972241 0.398731 0.183190
0.021291 0.180568 0.069490
0.021488 0.174165 0.059180
0.175599 0.155679 0.003154
0.419278 0.184372 0.050514
0.742171 0.184151 0.129083
0.959547 0.205324 0.165939
0.978819 0.282061 0.181726
0.974063 0.362478 0.183995
0.972433 0.486844 0.166899
0.028487 0.438099 0.019123
0.028487 0.436038 0.017644
0.056260 0.398342 0.003943
0.399844 0.383106 0.018630
0.720830 0.407931 0.100928
0.933539 0.445171 0.152956
0.973281 0.482319 0.167846
0.977088 0.517373 0.169026
0.985465 0.591135 0.190249
0.037851 0.730439 0.031050
0.038246 0.732497 0.031149
0.038049 0.696115 0.028192
0.202077 0.662954 0.017940
0.687896 0.632397 0.072892
0.921411 0.642433 0.162858
0.985759 0.659066 0.211839
0.991398 0.681249 0.230856
0.997891 0.763722 0.244254
0.042516 0.908723 0.048553
0.042043 0.909701 0.048553
0.042043 0.899354 0.047418
0.073135 0.852475 0.030557
0.506521 0.824865 0.164680
0.897311 0.819144 0.191839
0.986332 0.851628 0.195675
1.000000 0.874707 0.201022
1.000000 0.904730 0.186467
0.042516 0.929517 0.051020
0.042516 0.929517 0.051020
0.042516 0.929340 0.051020
0.045174 0.920245 0.048721
0.348522 0.927262 0.147521
0.832036 0.918833 0.307990
0.997378 0.927612 0.244385
1.000000 0.944334 0.191439
1.000000 0.954967 0.193326
0.045642 0.928985 0.059924
0.045642 0.928985 0.060520
0.045100 0.929011 0.060003
0.044829 0.928930 0.058502
0.198515 0.948063 0.127432
0.708446 0.974389 0.368106
0.992794 0.967644 0.348917
1.000000 0.974556 0.295180
1.000000 0.975742 0.297505
0.069470 0.924572 0.166304
0.069470 0.924546 0.166781
0.069068 0.924565 0.166721
0.067852 0.924680 0.158340
0.102050 0.930445 0.151600
0.604514 0.981564 0.366996
0.983297 0.978650 0.398009
1.000000 0.978909 0.395289
1.000000 0.977780 0.358954
0.036866 0.003745 0.308368
0.066928 0.012125 0.279853
0.278718 0.000000 0.215602
0.551229 0.000887 0.154929
0.849722 0.010448 0.209958
0.986132 0.002168 0.238356
0.986566 0.050417 0.222756
0.986668 0.151903 0.178297
0.973823 0.363024 0.185650
0.029572 0.008871 0.235230
0.042106 0.017349 0.208712
0.254578 0.001676 0.204906
0.511472 0.022573 0.149612
0.824648 0.031839 0.205828
0.985568 0.024051 0.232330
0.986832 0.082341 0.203372
0.984456 0.201981 0.178297
0.972443 0.393989 0.183781
0.016166 0.148204 0.196007
0.017645 0.149716 0.186023
0.146394 0.142421 0.141243
0.405046 0.139417 0.129744
0.740450 0.136366 0.160583
0.965503 0.159244 0.178983
0.980904 0.252049 0.181835
0.974681 0.351505 0.184130
0.972182 0.484428 0.167136
0.017841 0.391039 0.215386
0.018827 0.395992 0.213668
0.055884 0.375868 0.146156
0.372187 0.365931 0.129285
0.696255 0.384927 0.138568
0.928247 0.424745 0.163126
0.972840 0.472512 0.170019
0.976673 0.513897 0.168938
0.985373 0.589555 0.189472
0.054283 0.698956 0.178159
0.053801 0.704026 0.172317
0.051670 0.679593 0.116797
0.204670 0.640294 0.090460
0.663563 0.620251 0.135952
0.915988 0.636752 0.172050
0.985410 0.656079 0.211193
0.991283 0.679663 0.230309
0.997837 0.762261 0.244470
0.047584 0.903515 0.075847
0.047324 0.904976 0.074183
0.045368 0.896614 0.063900
0.074895 0.847973 0.045107
0.498214 0.821837 0.180935
0.893784 0.817601 0.200546
0.985775 0.850877 0.196352
1.000000 0.874142 0.201124
1.000000 0.904274 0.186808
0.043820 0.929266 0.055533
0.043820 0.929311 0.055065
0.043077 0.929192 0.053635
0.045267 0.920312 0.050346
0.343136 0.926865 0.145396
0.829158 0.918675 0.308602
0.997129 0.927279 0.244465
1.000000 0.944114 0.191208
1.000000 0.954768 0.192665
0.044918 0.928992 0.059772
0.045642 0.928985 0.060299
0.044918 0.928981 0.059853
0.044829 0.928959 0.058502
0.192952 0.947206 0.126044
0.704738 0.974341 0.367305
0.992354 0.967529 0.349151
1.000000 0.974556 0.295180
1.000000 0.975739 0.297125
0.068934 0.924594 0.166065
0.069470 0.924572 0.166543
0.069068 0.924565 0.166721
0.067852 0.924680 0.158308
0.093129 0.928865 0.152125
0.598956 0.981468 0.364719
0.982293 0.978705 0.398326
1.000000 0.978909 0.395468
1.000000 0.977780 0.358954
0.084454 0.010251 0.658448
0.083472 0.008576 0.603630
0.258014 0.001085 0.524682
0.568164 0.000789 0.470018
0.901593 0.000000 0.333880
0.985664 0.010054 0.312136
0.986105 0.057985 0.288097
0.986713 0.105194 0.240475
0.980088 0.282020 0.198689
0.061091 0.001478 0.505440
0.060814 0.000986 0.464683
0.249482 0.001774 0.518779
0.548837 0.000789 0.463028
0.875997 0.012026 0.327314
0.985602 0.035387 0.311164
0.986262 0.085339 0.287439
0.986781 0.133293 0.228121
0.977669 0.317447 0.199914
0.054246 0.087270 0.369678
0.054331 0.092107 0.364536
0.151916 0.106701 0.396391
0.458394 0.093137 0.416478
0.772527 0.123270 0.308742
0.978022 0.144701 0.307391
0.986361 0.185237 0.265335
0.982162 0.263773 0.212482
0.972255 0.426713 0.193293
0.054525 0.333591 0.437105
0.054909 0.340167 0.434117
0.088797 0.335803 0.394620
0.336455 0.338811 0.345743
0.687976 0.332758 0.309311
0.937504 0.344747 0.289569
0.976981 0.397147 0.251110
0.974011 0.459102 0.205271
0.981987 0.556688 0.194802
0.023066 0.642740 0.443818
0.023066 0.648890 0.442842
0.024741 0.647942 0.415560
0.196063 0.626119 0.344330
0.621488 0.608155 0.313158
0.901658 0.599217 0.305295
0.982529 0.615854 0.279350
0.988530 0.643378 0.250028
0.995047 0.734766 0.258146
0.051881 0.879338 0.427899
0.052950 0.881380 0.425504
0.057638 0.880298 0.399459
0.085330 0.841553 0.312655
0.477267 0.810749 0.345353
0.864306 0.806196 0.389852
0.974827 0.837664 0.325311
0.999467 0.862413 0.249483
1.000000 0.899881 0.205836
0.069465 0.932708 0.348369
0.069598 0.932701 0.345033
0.070862 0.931557 0.328457
0.072678 0.919199 0.280537
0.351499 0.914533 0.318755
0.809984 0.917767 0.448254
0.992307 0.927999 0.358173
1.000000 0.944786 0.235787
1.000000 0.954892 0.207610
0.068925 0.929262 0.245503
0.068244 0.929247 0.240574
0.067969 0.928829 0.229200
0.066874 0.927938 0.213715
0.198055 0.939940 0.242513
0.703753 0.973826 0.426198
0.989935 0.968775 0.386888
1.000000 0.975041 0.313250
1.000000 0.975839 0.300675
0.070664 0.925382 0.195509
0.070862 0.925334 0.195148
0.070796 0.925181 0.192644
0.070134 0.925107 0.182914
0.090021 0.928222 0.174912
0.591400 0.981144 0.368060
0.980457 0.978964 0.402309
1.000000 0.979019 0.396956
1.000000 0.977780 0.358618
0.109707 0.012223 0.812211
0.107197 0.011829 0.787585
0.245437 0.037257 0.752690
0.579448 0.000000 0.857861
0.937210 0.000789 0.779411
0.988890 0.006407 0.633264
0.985493 0.043597 0.485230
0.985534 0.103738 0.394442
0.986422 0.229438 0.363845
0.095323 0.011139 0.727815
0.093050 0.011040 0.706430
0.245628 0.040539 0.755975
0.559722 0.000197 0.850830
0.924947 0.000789 0.773492
0.988710 0.018531 0.626096
0.985507 0.068719 0.481179
0.985633 0.131360 0.394426
0.986471 0.253685 0.362750
0.086276 0.025629 0.650060
0.085999 0.031839 0.642609
0.171240 0.047868 0.699103
0.465367 0.060811 0.788455
0.861913 0.036616 0.739552
0.987268 0.101014 0.593669
0.985685 0.170952 0.470055
0.986170 0.228325 0.395107
0.985301 0.342596 0.354979
0.116244 0.236659 0.604892
0.117477 0.244343 0.607153
0.147055 0.255509 0.589787
0.336363 0.280513 0.635404
0.735206 0.267061 0.665775
0.972999 0.299023 0.549280
0.986566 0.344526 0.462861
0.985336 0.384561 0.388685
0.981450 0.491843 0.357090
0.114927 0.564447 0.703940
0.113761 0.571167 0.703254
0.110099 0.575568 0.681946
0.227596 0.574955 0.623795
0.579961 0.572470 0.574159
0.898173 0.558382 0.528250
0.981893 0.568914 0.481940
0.986825 0.590825 0.419047
0.989490 0.669399 0.414812
0.039000 0.845108 0.669206
0.038128 0.848110 0.667303
0.035584 0.851920 0.653367
0.062783 0.833455 0.611683
0.457088 0.802375 0.575549
0.836913 0.808623 0.565502
0.976146 0.808232 0.537726
0.996120 0.820426 0.482066
0.999158 0.876893 0.439200
0.028783 0.947778 0.633087
0.029079 0.948372 0.632201
0.029177 0.949476 0.624671
0.032923 0.939625 0.592396
0.330797 0.913466 0.573447
0.772502 0.930011 0.609531
0.984739 0.935001 0.567546
1.000000 0.948893 0.499575
1.000000 0.961785 0.462391
0.032430 0.968173 0.605200
0.032430 0.968117 0.603826
0.033317 0.967630 0.597127
0.036570 0.964523 0.571431
0.166459 0.954140 0.544306
0.691759 0.974449 0.620666
0.977053 0.979353 0.605221
1.000000 0.983016 0.584706
1.000000 0.984008 0.563842
0.042052 0.962017 0.542641
0.042321 0.961809 0.540970
0.043161 0.961014 0.535229
0.048010 0.958126 0.515326
0.076189 0.953823 0.492254
0.623591 0.976392 0.597315
0.974596 0.988373 0.621334
1.000000 0.985407 0.604691
1.000000 0.983219 0.533219
0.120788 0.012913 0.880911
0.120747 0.013011 0.879573
0.213185 0.007984 0.902890
0.515907 0.006111 0.991890
0.954500 0.000000 0.962353
1.000000 0.000296 0.958014
0.999755 0.000493 0.944250
0.997312 0.018433 0.870095
0.992459 0.131976 0.767308
0.116890 0.012617 0.859126
0.114788 0.012617 0.846038
0.232125 0.011829 0.922926
0.501256 0.008280 0.991224
0.942882 0.000000 0.963298
0.999987 0.000000 0.957730
0.999671 0.001577 0.942068
0.996894 0.029473 0.862020
0.991730 0.160838 0.756846
0.109164 0.012026 0.832539
0.109030 0.011335 0.830073
0.182416 0.005224 0.891717
0.437665 0.048322 0.976754
0.891067 0.006111 0.967535
1.000000 0.006998 0.955797
0.999242 0.035670 0.929037
0.995165 0.114539 0.828660
0.990027 0.265783 0.718374
0.121213 0.149676 0.731654
0.122679 0.156548 0.731372
0.144945 0.171163 0.730710
0.322864 0.207352 0.844575
0.739748 0.189392 0.969189
0.997880 0.180043 0.948131
0.996868 0.225790 0.891151
0.991429 0.302637 0.762422
0.988663 0.432927 0.657204
0.167985 0.445066 0.852483
0.167778 0.452861 0.856437
0.168395 0.465406 0.855969
0.272201 0.480843 0.804677
0.561478 0.491890 0.836048
0.930948 0.476360 0.881862
0.990489 0.502855 0.789319
0.990197 0.551049 0.683505
0.991107 0.646711 0.650087
0.170283 0.784366 0.900375
0.167907 0.788296 0.898739
0.161912 0.795883 0.891033
0.161749 0.785327 0.859470
0.436825 0.770528 0.801180
0.803787 0.799063 0.795605
0.970868 0.787993 0.754663
0.993766 0.795530 0.718406
0.995796 0.844963 0.697678
0.060658 0.925153 0.842095
0.060210 0.926060 0.841281
0.058330 0.928388 0.836473
0.055929 0.925063 0.814113
0.300934 0.920289 0.779424
0.719695 0.938674 0.787428
0.969130 0.949767 0.751064
0.999245 0.953416 0.708639
0.999929 0.967529 0.696922
0.050673 0.964200 0.808635
0.050246 0.964380 0.807765
0.050163 0.964967 0.803807
0.047224 0.965951 0.785624
0.169957 0.969090 0.760160
0.628358 0.977661 0.782826
0.948413 0.991242 0.764589
1.000000 0.989894 0.767708
1.000000 0.990828 0.781942
0.044624 0.969230 0.768863
0.044250 0.969293 0.768043
0.043890 0.969471 0.765037
0.041440 0.970373 0.749041
0.086768 0.972614 0.736730
0.591313 0.982048 0.790965
0.958238 0.995486 0.813752
1.000000 0.991158 0.791412
1.000000 0.990917 0.783192
0.129588 0.014194 0.945115
0.129588 0.014194 0.944993
0.181096 0.012814 0.975670
0.468382 0.033391 0.995209
0.897275 0.000000 0.966931
1.000000 0.000000 0.958625
1.000000 0.000000 0.958625
1.000000 0.000000 0.958625
1.000000 0.009857 0.959029
0.129395 0.014194 0.943814
0.129125 0.013701 0.942968
0.201819 0.012223 0.986574
0.457135 0.037632 0.995212
0.882642 0.000000 0.968227
1.000000 0.000000 0.958625
1.000000 0.000000 0.958625
1.000000 0.000000 0.958625
1.000000 0.029867 0.959798
0.122304 0.014194 0.942679
0.122222 0.014194 0.942330
0.172198 0.013406 0.983278
0.409103 0.057968 0.995081
0.826861 0.000789 0.973111
1.000000 0.000000 0.958625
1.000000 0.001775 0.958654
1.000000 0.016166 0.959228
1.000000 0.124172 0.963327
0.119752 0.040718 0.878945
0.119959 0.047039 0.873827
0.131845 0.063440 0.870447
0.303216 0.116799 0.975102
0.688084 0.115371 0.987227
0.997256 0.086117 0.962107
1.000000 0.123933 0.963418
1.000000 0.174677 0.965463
0.999930 0.298833 0.968362
0.171275 0.322867 0.841339
0.172403 0.329812 0.843130
0.175626 0.344631 0.846426
0.253005 0.365772 0.844455
0.517841 0.393327 0.943386
0.933162 0.372667 0.979643
0.999966 0.390056 0.975419
0.999664 0.430762 0.969597
0.998160 0.543658 0.944736
0.202736 0.699030 0.958286
0.203818 0.704091 0.958567
0.206726 0.716295 0.959103
0.217750 0.715201 0.954379
0.419307 0.700397 0.916690
0.759711 0.711990 0.933737
0.983213 0.711998 0.965461
0.997433 0.740952 0.931272
0.996059 0.823207 0.895404
0.126053 0.906733 0.934179
0.124583 0.908038 0.933811
0.119736 0.911528 0.932605
0.116156 0.909317 0.926356
0.245468 0.894938 0.907357
0.669292 0.917511 0.925978
0.944089 0.945977 0.946003
0.994402 0.952746 0.916861
0.998301 0.975825 0.910834
0.085719 0.958110 0.933272
0.085665 0.958267 0.933165
0.084814 0.958734 0.932617
0.081815 0.958348 0.928265
0.151622 0.956835 0.915453
0.565395 0.976962 0.928961
0.908046 0.993614 0.950135
1.000000 0.996517 0.964034
1.000000 0.996396 0.960045
0.076013 0.963221 0.924576
0.076013 0.963221 0.924338
0.075514 0.963207 0.923369
0.072657 0.962929 0.917798
0.100031 0.963968 0.912406
0.541804 0.982240 0.939504
0.930531 0.996086 0.974407
1.000000 0.996308 0.957725
1.000000 0.995688 0.938121
0.134501 0.014194 0.985562
0.134501 0.014194 0.985562
0.165887 0.013603 0.987961
0.418443 0.059638 0.995189
0.820242 0.000000 0.973642
1.000000 0.000000 0.958625
1.000000 0.000000 0.958625
1.000000 0.000000 0.958625
1.000000 0.000000 0.958625
0.134501 0.014194 0.985562
0.134501 0.014194 0.985562
0.171359 0.013504 0.988240
0.411076 0.062223 0.995077
0.802512 0.000000 0.975037
0.999933 0.000000 0.958607
1.000000 0.000000 0.958625
1.000000 0.000000 0.958625
1.000000 0.000000 0.958575
0.127454 0.014194 0.982608
0.127336 0.014194 0.982299
0.155395 0.013701 0.987341
0.366089 0.046110 0.994747
0.738173 0.000394 0.980951
0.999762 0.000000 0.958643
1.000000 0.000000 0.958625
1.000000 0.000000 0.958625
1.000000 0.027403 0.959642
0.124885 0.013702 0.965730
0.124885 0.014096 0.963965
0.127527 0.014884 0.959342
0.282422 0.030459 0.992148
0.629917 0.055653 0.989829
0.993953 0.018531 0.959791
1.000000 0.034481 0.959933
1.000000 0.071165 0.961344
1.000000 0.184048 0.965832
0.149576 0.214188 0.839805
0.151100 0.220635 0.839603
0.155294 0.238457 0.839547
0.210902 0.259677 0.855589
0.471466 0.297267 0.971812
0.919754 0.269395 0.975693
1.000000 0.278190 0.970320
1.000000 0.318822 0.972477
1.000000 0.427696 0.978718
0.182821 0.589578 0.940800
0.183384 0.595870 0.942608
0.185081 0.613698 0.947352
0.197580 0.621565 0.946686
0.379558 0.615080 0.922485
0.726345 0.614262 0.969961
0.984371 0.608009 0.991401
1.000000 0.639423 0.992950
1.000000 0.726386 0.997366
0.187849 0.870296 0.960728
0.185999 0.872274 0.960381
0.179814 0.878273 0.959408
0.177135 0.879864 0.958202
0.240429 0.859082 0.951341
0.633447 0.870276 0.958220
0.920440 0.906810 0.992939
0.999900 0.914053 0.999836
0.999701 0.960010 0.999138
0.107110 0.955180 0.954977
0.106740 0.955475 0.955112
0.106508 0.956286 0.955411
0.106043 0.956483 0.955101
0.121163 0.951739 0.949526
0.500790 0.968951 0.968089
0.886970 0.993329 0.998936
0.998375 0.997877 1.000000
0.998953 0.997797 1.000000
0.104305 0.966033 0.961096
0.104305 0.966029 0.961044
0.103926 0.966012 0.960962
0.103354 0.965976 0.960219
0.114996 0.966411 0.959720
0.511117 0.981543 0.977315
0.906010 0.996622 0.999638
0.998617 0.997867 1.000000
0.998899 0.997821 0.999953
0.134501 0.014194 0.985562
0.134501 0.014194 0.985562
0.146458 0.014194 0.986819
0.371009 0.046082 0.994676
0.777452 0.000000 0.977277
0.999933 0.000000 0.958625
1.000000 0.000000 0.958625
1.000000 0.000000 0.958625
1.000000 0.000000 0.958625
0.134501 0.014194 0.985562
0.134501 0.014194 0.985562
0.146185 0.014194 0.986812
0.377288 0.051624 0.994851
0.760854 0.000394 0.978835
0.999852 0.000000 0.958618
1.000000 0.000000 0.958625
1.000000 0.000000 0.958625
1.000000 0.000000 0.958625
0.128428 0.014194 0.983343
0.128039 0.014194 0.982962
0.137489 0.014194 0.985992
0.335901 0.033416 0.994362
0.698346 0.001183 0.984175
0.998953 0.000000 0.958721
1.000000 0.000000 0.958625
1.000000 0.000000 0.958625
1.000000 0.006703 0.958866
0.125204 0.013012 0.971030
0.125204 0.013012 0.969384
0.125323 0.014194 0.964208
0.254364 0.012124 0.991772
0.595110 0.049793 0.991541
0.990031 0.011138 0.959784
1.000000 0.018236 0.959309
1.000000 0.044814 0.960332
1.000000 0.144377 0.964208
0.145284 0.194102 0.840689
0.146476 0.199678 0.840332
0.150732 0.219388 0.839425
0.192187 0.239362 0.851402
0.441378 0.276053 0.970012
0.901614 0.246211 0.975980
1.000000 0.247913 0.968782
1.000000 0.283987 0.970630
1.000000 0.384958 0.976133
0.180165 0.559282 0.931789
0.180657 0.565506 0.933767
0.181765 0.585012 0.940316
0.190508 0.596044 0.941546
0.355248 0.591975 0.918922
0.702670 0.588608 0.969104
0.982108 0.575616 0.989427
1.000000 0.602941 0.990552
1.000000 0.686454 0.995836
0.201156 0.856950 0.963368
0.199386 0.859005 0.963055
0.193730 0.865652 0.961936
0.190171 0.869034 0.961152
0.232649 0.848731 0.956499
0.605620 0.852079 0.957746
0.903755 0.888373 0.991974
0.999852 0.895639 1.000000
0.999758 0.946895 1.000000
0.108486 0.952858 0.954966
0.108486 0.953173 0.955080
0.108120 0.954095 0.955482
0.108120 0.954569 0.955653
0.112780 0.949482 0.951044
0.448853 0.963032 0.966375
0.866700 0.990640 0.997433
0.998499 0.997867 1.000000
0.998953 0.997797 1.000000
0.106415 0.966190 0.963489
0.106415 0.966190 0.963489
0.106415 0.966162 0.963546
0.106415 0.966162 0.963546
0.113183 0.966443 0.963292
0.471975 0.980128 0.977633
0.886266 0.995742 0.999396
0.998443 0.997797 1.000000
0.998953 0.997797 1.000000
