bundles/resolve-cinematic-luts/Gamut/_Conversion/DJI DLog-M/BaseLUTs - DJI D-Log+ (Mavic 3).cube
TITLE "BaseLUTs - DJI D-Log+ (Mavic 3) LUT by Gamut"
# Designed for converting D-Log / D-Gamut to Rec709 Color Space. Version 1.0- 03/29/2023 -  Copyright 2023 Gamut, LLC
LUT_3D_SIZE 9
0.000789 0.000789 0.000789
0.065253 0.000789 0.012716
0.254970 0.000000 0.034106
0.533714 0.000000 0.066535
0.842533 0.000000 0.147860
0.969332 0.001084 0.188520
0.983342 0.052578 0.180081
0.998923 0.162801 0.162952
0.980126 0.374074 0.166304
0.004534 0.034204 0.014982
0.034204 0.031543 0.000394
0.208241 0.020306 0.016954
0.496266 0.002070 0.047857
0.817675 0.007689 0.132525
0.974811 0.021587 0.174590
0.991072 0.090311 0.166208
0.998392 0.216866 0.169144
0.976314 0.404160 0.161389
0.013209 0.154859 0.044005
0.013406 0.150765 0.033810
0.159361 0.136566 0.000000
0.419892 0.158365 0.036274
0.751354 0.168760 0.110803
0.973259 0.198793 0.153275
0.992340 0.282626 0.170022
0.981852 0.366976 0.166179
0.975101 0.492622 0.143128
0.012715 0.433843 0.003056
0.012715 0.430377 0.002859
0.035550 0.390257 0.001084
0.398978 0.380730 0.012420
0.728048 0.412206 0.084612
0.937927 0.450550 0.130304
0.976144 0.487858 0.144271
0.979925 0.522792 0.145512
0.988186 0.596572 0.168123
0.033515 0.736765 0.027994
0.033515 0.738435 0.027994
0.033317 0.701719 0.025037
0.190872 0.670714 0.017447
0.693161 0.636537 0.059970
0.925373 0.647695 0.139992
0.988455 0.664431 0.191291
0.993709 0.686461 0.212084
0.999181 0.769060 0.226729
0.037359 0.914240 0.042797
0.037359 0.915233 0.042797
0.037359 0.904743 0.041756
0.064789 0.858571 0.027403
0.510707 0.829862 0.146547
0.901746 0.824148 0.170109
0.988724 0.856570 0.173559
1.000000 0.879299 0.179235
1.000000 0.909058 0.164128
0.038640 0.934972 0.044738
0.038640 0.935016 0.044738
0.038640 0.934774 0.044738
0.040398 0.925696 0.042700
0.347577 0.933223 0.136825
0.836552 0.921840 0.298690
0.998112 0.931093 0.226551
1.000000 0.947954 0.169102
1.000000 0.958410 0.171174
0.040410 0.934741 0.052250
0.040410 0.934715 0.052250
0.040410 0.934752 0.052171
0.040314 0.934605 0.051013
0.192071 0.955711 0.114014
0.713487 0.976185 0.366999
0.993384 0.969286 0.345371
1.000000 0.976666 0.284397
1.000000 0.977794 0.287236
0.061643 0.932445 0.146981
0.061643 0.932445 0.147523
0.061643 0.932438 0.147456
0.060464 0.932427 0.138918
0.094214 0.938887 0.133842
0.610091 0.983668 0.365928
0.984128 0.979499 0.399528
1.000000 0.979829 0.395731
1.000000 0.979133 0.356559
0.008378 0.004534 0.046003
0.059180 0.000099 0.032233
0.246123 0.000000 0.034204
0.529604 0.000000 0.067563
0.841359 0.000000 0.147118
0.969080 0.001084 0.188728
0.983191 0.051490 0.180548
0.998869 0.161115 0.164742
0.980305 0.372961 0.166543
0.003943 0.026910 0.036078
0.027502 0.029374 0.023559
0.205024 0.012124 0.022179
0.494006 0.001380 0.049755
0.816774 0.006900 0.132906
0.974631 0.020798 0.174817
0.990831 0.088970 0.166386
0.998442 0.215610 0.168968
0.976428 0.403483 0.161636
0.011730 0.150426 0.050746
0.012518 0.144177 0.042980
0.148681 0.128289 0.001972
0.416454 0.156396 0.036176
0.749911 0.166823 0.110491
0.973082 0.197415 0.153015
0.992449 0.281468 0.169876
0.981975 0.366128 0.166179
0.975059 0.491976 0.143198
0.013406 0.431297 0.006013
0.013504 0.428960 0.005126
0.034086 0.388200 0.001084
0.396429 0.379398 0.013307
0.726648 0.411409 0.084552
0.937569 0.449987 0.130304
0.976081 0.487347 0.144373
0.979839 0.522403 0.145512
0.988179 0.596065 0.167741
0.033515 0.736002 0.027994
0.033515 0.737925 0.027994
0.033317 0.701590 0.025037
0.189131 0.670436 0.017151
0.691659 0.636156 0.059690
0.924994 0.647288 0.139779
0.988414 0.664006 0.191061
0.993709 0.686088 0.212064
0.999181 0.768509 0.226516
0.037852 0.914074 0.042797
0.037852 0.915112 0.042797
0.037359 0.904858 0.041756
0.064330 0.858686 0.027403
0.508487 0.829880 0.145423
0.901199 0.823905 0.170025
0.988635 0.856355 0.173675
1.000000 0.879120 0.179374
1.000000 0.908879 0.163585
0.038640 0.934972 0.044738
0.038640 0.935008 0.044738
0.038640 0.934774 0.044738
0.040398 0.925804 0.043261
0.345399 0.933132 0.135483
0.835647 0.921795 0.298706
0.998018 0.931001 0.226865
1.000000 0.947893 0.168396
1.000000 0.958339 0.170699
0.040410 0.934741 0.052250
0.040410 0.934719 0.052250
0.040410 0.934752 0.052171
0.040314 0.934649 0.051013
0.190574 0.955497 0.113504
0.712276 0.976139 0.366853
0.993268 0.969229 0.345070
1.000000 0.976666 0.284397
1.000000 0.977794 0.287366
0.061643 0.932445 0.146981
0.061643 0.932445 0.147523
0.061643 0.932438 0.147456
0.060686 0.932427 0.138918
0.092872 0.938673 0.133397
0.608143 0.983668 0.364949
0.983712 0.979561 0.399648
1.000000 0.979829 0.395919
1.000000 0.979133 0.356559
0.025629 0.000394 0.293247
0.050617 0.006703 0.261444
0.252918 0.000000 0.182346
0.530992 0.000000 0.106324
0.830695 0.000000 0.165298
0.965843 0.000000 0.197123
0.978173 0.031938 0.191744
0.997116 0.139654 0.163836
0.981042 0.366945 0.167197
0.021784 0.004928 0.213028
0.032331 0.012715 0.182834
0.227478 0.000690 0.172799
0.494009 0.002267 0.103753
0.809797 0.010054 0.164836
0.970805 0.008083 0.196068
0.985776 0.064690 0.178147
0.998335 0.194456 0.167433
0.977005 0.398646 0.162495
0.009660 0.120160 0.168863
0.010942 0.121750 0.158421
0.120968 0.117436 0.116354
0.399061 0.109264 0.100322
0.743561 0.113595 0.135551
0.975536 0.147104 0.162866
0.994655 0.248846 0.170428
0.983496 0.354740 0.167194
0.974810 0.489558 0.143476
0.005027 0.380992 0.183172
0.006604 0.386868 0.181901
0.036536 0.365730 0.114754
0.367533 0.362584 0.106627
0.703181 0.387290 0.119215
0.933326 0.429184 0.141574
0.975825 0.477521 0.146738
0.979415 0.518899 0.145547
0.988101 0.594475 0.167091
0.047591 0.705930 0.165500
0.047236 0.711016 0.159587
0.045630 0.686439 0.104697
0.192315 0.648802 0.080045
0.667780 0.624517 0.115766
0.919569 0.641537 0.149101
0.988039 0.660926 0.190310
0.993594 0.684505 0.211302
0.999154 0.767009 0.226602
0.042222 0.909446 0.067696
0.042222 0.910849 0.066000
0.040603 0.902389 0.056236
0.066039 0.854471 0.039987
0.500034 0.826780 0.162348
0.897623 0.822303 0.179266
0.988141 0.855560 0.174297
1.000000 0.878583 0.179783
1.000000 0.908442 0.164008
0.039232 0.934840 0.048786
0.039232 0.934876 0.048274
0.039034 0.934730 0.047236
0.040398 0.925945 0.044185
0.339688 0.932775 0.133339
0.832824 0.921627 0.299402
0.997796 0.930688 0.227443
1.000000 0.947691 0.168775
1.000000 0.958175 0.169772
0.040410 0.934752 0.052250
0.040410 0.934722 0.052250
0.040410 0.934752 0.052171
0.040314 0.934649 0.050845
0.184900 0.954638 0.112120
0.708573 0.976129 0.366012
0.992821 0.969139 0.345175
1.000000 0.976587 0.283871
1.000000 0.977784 0.285895
0.061643 0.932445 0.146778
0.061643 0.932445 0.147253
0.061643 0.932438 0.147658
0.060612 0.932427 0.138918
0.084317 0.937005 0.133986
0.602495 0.983583 0.362318
0.982712 0.979623 0.400029
1.000000 0.979847 0.396544
1.000000 0.979133 0.356559
0.057264 0.000000 0.651010
0.057181 0.000000 0.597389
0.224689 0.000000 0.512349
0.544300 0.000000 0.446339
0.879435 0.000000 0.300366
0.967250 0.001380 0.282946
0.979605 0.039459 0.267261
0.991311 0.088883 0.224941
0.994834 0.282308 0.189225
0.041167 0.000000 0.500767
0.041457 0.000000 0.461115
0.215844 0.000000 0.507213
0.525019 0.000000 0.439346
0.857735 0.002169 0.296174
0.973517 0.018926 0.288156
0.986415 0.068044 0.273353
0.996011 0.119095 0.216381
0.989618 0.319608 0.187395
0.038049 0.064502 0.361846
0.038739 0.068783 0.356838
0.121878 0.081210 0.392291
0.449000 0.062353 0.404976
0.775348 0.101624 0.296970
0.988607 0.131622 0.307001
0.999275 0.176137 0.263455
0.995634 0.261802 0.204011
0.975756 0.431573 0.171790
0.036472 0.319123 0.432768
0.036768 0.326550 0.429656
0.066339 0.323373 0.389562
0.329863 0.332558 0.340451
0.696769 0.330970 0.304694
0.946761 0.346300 0.284522
0.982292 0.400744 0.237678
0.977068 0.463878 0.184404
0.984730 0.561553 0.172784
0.019912 0.646957 0.447575
0.019912 0.653184 0.446562
0.021587 0.652386 0.417820
0.184048 0.633749 0.342677
0.624725 0.611572 0.303859
0.904424 0.602950 0.295205
0.984613 0.620135 0.266401
0.990818 0.647923 0.233312
0.996662 0.739391 0.242116
0.044874 0.884652 0.431397
0.045599 0.886756 0.428925
0.049636 0.886022 0.401275
0.074984 0.848761 0.306975
0.478083 0.814672 0.340442
0.866755 0.809180 0.389033
0.976477 0.841257 0.317877
0.999691 0.866496 0.232970
1.000000 0.903900 0.184421
0.060605 0.939159 0.347016
0.060831 0.939145 0.343465
0.062008 0.938201 0.325735
0.063661 0.926287 0.273232
0.348202 0.919769 0.313250
0.812806 0.919715 0.450394
0.992765 0.930303 0.353399
1.000000 0.947903 0.217966
1.000000 0.958196 0.186766
0.060679 0.936242 0.236798
0.060158 0.936176 0.232063
0.059856 0.935803 0.220211
0.059023 0.934873 0.204103
0.189394 0.947131 0.233123
0.707336 0.975322 0.427538
0.990364 0.970089 0.385788
1.000000 0.976926 0.304167
1.000000 0.977856 0.290695
0.063166 0.933103 0.178913
0.063166 0.933048 0.178295
0.063166 0.932908 0.175540
0.062008 0.932839 0.165451
0.081205 0.936106 0.158062
0.594941 0.983346 0.365776
0.980933 0.979860 0.403915
1.000000 0.979878 0.397950
1.000000 0.979133 0.356183
0.075915 0.000000 0.802677
0.074409 0.000000 0.778380
0.211041 0.016166 0.740247
0.555015 0.000000 0.833503
0.920616 0.000000 0.763163
0.972796 0.000296 0.618434
0.976230 0.026220 0.476780
0.990084 0.087512 0.397395
1.000000 0.224847 0.377113
0.065208 0.000000 0.719191
0.063731 0.000000 0.697927
0.211697 0.018926 0.743969
0.535564 0.000000 0.826892
0.908126 0.000000 0.756918
0.975252 0.007787 0.613934
0.982549 0.052077 0.479359
0.995229 0.117413 0.402842
0.999980 0.251177 0.374810
0.058951 0.011040 0.643288
0.058951 0.015574 0.635601
0.134502 0.026614 0.691673
0.450652 0.033698 0.775698
0.851241 0.022474 0.729066
0.991967 0.088301 0.600352
0.998657 0.160926 0.486223
0.999909 0.223273 0.410252
0.993302 0.344297 0.357318
0.092952 0.214839 0.605641
0.094046 0.223380 0.607852
0.122322 0.237120 0.591679
0.330547 0.268358 0.640427
0.747605 0.261430 0.678279
0.983139 0.297954 0.562761
0.993817 0.345544 0.472019
0.989684 0.386956 0.390816
0.982481 0.495405 0.352847
0.098849 0.572035 0.711561
0.098049 0.578642 0.710804
0.095131 0.582893 0.689305
0.214705 0.581958 0.630718
0.582466 0.574989 0.576641
0.899850 0.561087 0.531027
0.982648 0.571925 0.484679
0.987743 0.594016 0.419907
0.990387 0.672705 0.415834
0.033811 0.849703 0.674192
0.033219 0.852680 0.672279
0.030458 0.856397 0.658256
0.054860 0.838680 0.617182
0.456905 0.805775 0.578981
0.839243 0.811264 0.568175
0.976919 0.811043 0.540793
0.996520 0.823201 0.484857
0.999262 0.879253 0.440385
0.026023 0.951735 0.638691
0.026023 0.952394 0.637846
0.026220 0.953431 0.630286
0.029177 0.943780 0.598095
0.325814 0.918117 0.579212
0.775290 0.931652 0.612392
0.985252 0.936437 0.570387
1.000000 0.950122 0.502226
1.000000 0.962851 0.464374
0.029572 0.972279 0.611258
0.029276 0.972171 0.609876
0.030065 0.971746 0.603230
0.032923 0.968743 0.577588
0.157949 0.959641 0.551640
0.695030 0.975607 0.623962
0.977596 0.979980 0.607907
1.000000 0.983500 0.587733
1.000000 0.984521 0.566513
0.037457 0.966523 0.548862
0.037748 0.966319 0.547125
0.038622 0.965617 0.541389
0.042625 0.962956 0.521455
0.068398 0.959230 0.498899
0.626403 0.977856 0.600902
0.975159 0.988864 0.624254
1.000000 0.985872 0.607503
1.000000 0.983823 0.535459
0.084602 0.000000 0.870036
0.084602 0.000000 0.868935
0.173674 0.002070 0.888255
0.492658 0.001084 0.967060
0.943481 0.000000 0.946243
0.996305 0.000000 0.943622
0.995324 0.000000 0.930147
0.992822 0.013800 0.860047
1.000000 0.122708 0.780045
0.081476 0.000000 0.848659
0.079696 0.000000 0.835342
0.194078 0.002070 0.907624
0.478514 0.001873 0.966975
0.930379 0.000000 0.946701
0.996312 0.000000 0.943401
0.995280 0.000887 0.928119
0.994797 0.023164 0.854820
1.000000 0.153538 0.772785
0.075354 0.000000 0.822938
0.075228 0.000000 0.820299
0.142033 0.000296 0.878872
0.421231 0.022770 0.960771
0.878526 0.002859 0.950839
0.996481 0.004238 0.942699
0.998177 0.027502 0.923551
0.999758 0.105326 0.838300
0.998052 0.263831 0.734670
0.095400 0.122637 0.731097
0.096978 0.129822 0.731326
0.118634 0.145777 0.731604
0.315574 0.187435 0.849658
0.752330 0.179099 0.978933
0.998959 0.174460 0.964403
0.999168 0.222234 0.908083
0.996066 0.301994 0.775237
0.989786 0.435568 0.661018
0.147474 0.450076 0.859494
0.147237 0.458356 0.863590
0.148008 0.471437 0.863311
0.260579 0.486476 0.811056
0.564618 0.494446 0.838701
0.932423 0.478878 0.884524
0.991011 0.505729 0.792287
0.990778 0.554040 0.686458
0.991894 0.649894 0.653243
0.153841 0.792099 0.907196
0.151721 0.795970 0.905511
0.145856 0.803520 0.897882
0.146288 0.792765 0.866405
0.436436 0.773957 0.804495
0.806359 0.801726 0.798153
0.971691 0.790848 0.757537
0.994233 0.798391 0.721367
0.996127 0.847431 0.700502
0.052403 0.930645 0.848580
0.052163 0.931504 0.847770
0.050495 0.933726 0.842897
0.048619 0.930368 0.820554
0.293887 0.925455 0.785769
0.722857 0.940151 0.790487
0.969903 0.950758 0.753760
0.999312 0.954291 0.711350
0.999929 0.968142 0.699447
0.044358 0.969108 0.815398
0.044268 0.969269 0.814475
0.044268 0.969810 0.810511
0.041836 0.970693 0.792301
0.159423 0.975146 0.768266
0.631548 0.978856 0.786204
0.949504 0.991534 0.767100
1.000000 0.990061 0.770090
1.000000 0.990944 0.784747
0.039810 0.973862 0.775504
0.039317 0.973903 0.774669
0.039030 0.974091 0.771745
0.036669 0.974865 0.755604
0.078946 0.978025 0.744238
0.594113 0.983383 0.794502
0.959240 0.995627 0.816404
1.000000 0.991236 0.793996
1.000000 0.990999 0.785903
0.091531 0.000000 0.932441
0.091531 0.000000 0.932175
0.139726 0.000000 0.960854
0.450175 0.011237 0.974881
0.883226 0.000000 0.948552
0.996386 0.000000 0.944220
0.996369 0.000000 0.944281
0.996369 0.000000 0.944245
0.997629 0.003352 0.946917
0.091531 0.000000 0.931192
0.091264 0.000000 0.930408
0.161476 0.000000 0.970855
0.439805 0.014983 0.975852
0.867982 0.000000 0.949328
0.996393 0.000000 0.944213
0.996369 0.000000 0.944296
0.996369 0.000000 0.944238
0.999346 0.018827 0.953248
0.085169 0.000000 0.930012
0.085169 0.000000 0.929732
0.131174 0.000000 0.969082
0.393955 0.032923 0.979785
0.809162 0.000000 0.952918
0.996376 0.000000 0.944227
0.996301 0.000986 0.944383
0.997625 0.010547 0.948811
1.000000 0.115938 0.977129
0.084594 0.021193 0.869379
0.085217 0.026319 0.864479
0.096666 0.040469 0.861970
0.286049 0.090689 0.972353
0.691292 0.097878 0.987547
0.997435 0.077329 0.967230
0.999936 0.115901 0.975143
1.000000 0.168996 0.982106
0.999930 0.298122 0.980296
0.149569 0.316822 0.847168
0.150734 0.324577 0.848867
0.154304 0.341303 0.852506
0.238962 0.365190 0.850884
0.523586 0.394444 0.946885
0.936368 0.373769 0.985671
0.999966 0.391743 0.980325
0.999692 0.433150 0.972494
0.998455 0.546862 0.946132
0.184598 0.707302 0.964692
0.185931 0.712324 0.964963
0.188984 0.724482 0.965434
0.200717 0.723213 0.960550
0.418814 0.703808 0.918955
0.762301 0.714828 0.934908
0.983858 0.715114 0.966607
0.997753 0.744030 0.932875
0.996281 0.825926 0.897247
0.110405 0.914402 0.941452
0.108829 0.915704 0.941114
0.104240 0.919084 0.939873
0.101028 0.916826 0.933626
0.234755 0.901248 0.913501
0.672269 0.919374 0.927678
0.945030 0.946959 0.946984
0.994520 0.953530 0.918170
0.998321 0.976311 0.912362
0.074018 0.964601 0.940187
0.073956 0.964781 0.940063
0.073445 0.965245 0.939498
0.070650 0.964682 0.935057
0.139387 0.963425 0.922702
0.568654 0.978331 0.931130
0.909563 0.993810 0.951022
1.000000 0.996551 0.964587
1.000000 0.996376 0.960736
0.066181 0.969308 0.931263
0.065829 0.969311 0.931016
0.065624 0.969210 0.930045
0.063002 0.968832 0.924419
0.088829 0.970341 0.919608
0.544497 0.983723 0.941708
0.931623 0.996127 0.974803
1.000000 0.996366 0.958479
1.000000 0.995749 0.939070
0.095499 0.000000 0.971451
0.095499 0.000000 0.971451
0.124994 0.000000 0.973257
0.404696 0.035092 0.980415
0.801988 0.000000 0.953226
0.996352 0.000000 0.944209
0.996369 0.000000 0.944238
0.996369 0.000000 0.944238
0.996369 0.000000 0.944245
0.095499 0.000000 0.971500
0.095499 0.000000 0.971792
0.130387 0.000000 0.973302
0.397271 0.037063 0.980794
0.782779 0.000000 0.953157
0.996389 0.000000 0.944278
0.996369 0.000000 0.944238
0.996369 0.000000 0.944245
0.996123 0.000000 0.943970
0.089382 0.000000 0.968930
0.089274 0.000000 0.968594
0.114727 0.000000 0.973073
0.345235 0.022573 0.977666
0.717606 0.000000 0.958577
0.996076 0.000000 0.944227
0.996369 0.000000 0.944238
0.996258 0.000000 0.944176
0.998543 0.019123 0.952286
0.087187 0.000000 0.952874
0.087132 0.000000 0.951232
0.089323 0.000394 0.946389
0.250054 0.009660 0.974823
0.619218 0.034769 0.977474
0.991076 0.013899 0.949891
0.998567 0.026812 0.954224
0.999503 0.061993 0.964006
1.000000 0.178809 0.983455
0.125513 0.193470 0.843087
0.127167 0.200626 0.843204
0.131677 0.220675 0.843783
0.191225 0.246061 0.860884
0.479162 0.291747 0.977353
0.927131 0.267230 0.988441
1.000000 0.276635 0.983483
1.000000 0.318601 0.982615
1.000000 0.430120 0.981461
0.163693 0.598069 0.947781
0.164172 0.604378 0.949592
0.166141 0.622241 0.954262
0.179368 0.629932 0.953432
0.377190 0.619048 0.925196
0.728947 0.617043 0.970530
0.984833 0.611197 0.992080
1.000000 0.642551 0.993637
1.000000 0.729489 0.997736
0.171049 0.878331 0.967491
0.169065 0.880312 0.967196
0.162866 0.886362 0.966309
0.160106 0.887961 0.965178
0.228035 0.865887 0.956905
0.636394 0.872687 0.959401
0.921720 0.908313 0.992996
0.999900 0.915444 0.999842
0.999695 0.960730 0.999148
0.092537 0.962526 0.962375
0.092168 0.962822 0.962442
0.092115 0.963626 0.962795
0.091745 0.963796 0.962421
0.106468 0.959071 0.956895
0.502919 0.971001 0.970160
0.888782 0.993552 0.998976
0.998321 0.997821 1.000000
0.998909 0.997743 1.000000
0.090139 0.973194 0.968471
0.090139 0.973170 0.968415
0.089761 0.973222 0.968314
0.089327 0.973104 0.967558
0.100893 0.973587 0.967158
0.513071 0.983404 0.979287
0.907709 0.996723 0.999638
0.998540 0.997797 1.000000
0.998845 0.997767 0.999953
0.095499 0.000000 0.971451
0.095499 0.000000 0.971451
0.106271 0.000000 0.972537
0.350429 0.024446 0.977811
0.756954 0.000000 0.954711
0.996319 0.000000 0.944227
0.996369 0.000000 0.944238
0.996369 0.000000 0.944238
0.996369 0.000000 0.944238
0.095499 0.000000 0.971451
0.095499 0.000000 0.971451
0.105898 0.000000 0.972499
0.358863 0.028586 0.978801
0.740494 0.000000 0.956299
0.996312 0.000000 0.944252
0.996369 0.000000 0.944238
0.996369 0.000000 0.944238
0.996369 0.000000 0.944238
0.090247 0.000000 0.969657
0.089816 0.000000 0.969332
0.097910 0.000000 0.971994
0.309754 0.010646 0.975596
0.676811 0.000000 0.961009
0.994776 0.000000 0.944260
0.996369 0.000000 0.944253
0.996369 0.000000 0.944253
0.997110 0.003155 0.946131
0.087575 0.000000 0.957818
0.087575 0.000000 0.956191
0.087519 0.000000 0.951207
0.217134 0.003943 0.973379
0.582400 0.028093 0.977194
0.986309 0.007097 0.947548
0.997582 0.013899 0.949643
0.998848 0.036462 0.957171
1.000000 0.137234 0.979769
0.120650 0.171700 0.843251
0.121924 0.177792 0.843104
0.126768 0.199812 0.842923
0.170347 0.222927 0.855941
0.447832 0.267778 0.975952
0.911151 0.242847 0.989371
1.000000 0.245252 0.983877
1.000000 0.282735 0.983545
1.000000 0.386662 0.980952
0.160764 0.567489 0.938817
0.161318 0.573922 0.940787
0.162474 0.593544 0.947370
0.171919 0.604500 0.948541
0.351239 0.596489 0.922164
0.705325 0.591326 0.969688
0.982634 0.578774 0.990121
1.000000 0.606097 0.991306
1.000000 0.689659 0.996389
0.184381 0.865035 0.969957
0.182492 0.867069 0.969639
0.176755 0.873695 0.968657
0.173193 0.877052 0.967932
0.218917 0.855888 0.962282
0.608383 0.854685 0.958881
0.905296 0.890240 0.991995
0.999852 0.897275 1.000000
0.999738 0.947835 1.000000
0.093689 0.960257 0.962273
0.093689 0.960558 0.962414
0.093324 0.961544 0.962873
0.093324 0.961947 0.963035
0.097978 0.956948 0.958444
0.449161 0.965712 0.969000
0.868678 0.990850 0.997541
0.998422 0.997790 1.000000
0.998899 0.997743 1.000000
0.092168 0.973427 0.970921
0.092168 0.973427 0.970921
0.092168 0.973455 0.970949
0.092168 0.973455 0.970976
0.098832 0.973706 0.970767
0.472715 0.982443 0.979949
0.888139 0.995783 0.999456
0.998388 0.997743 1.000000
0.998899 0.997743 1.000000
