bundles/resolve-cinematic-luts/Gamut/_Conversion/DJI DLog-M/BaseLUTs - DJI D-Log (Mavic 3).cube
TITLE "BaseLUTs - DJI D-Log (Mavic 3) LUT by Gamut"
# Designed for converting D-Log / D-Gamut to Rec709 Color Space. Version 1.0- 03/29/2023 -  Copyright 2023 Gamut, LLC
LUT_3D_SIZE 5
0.002366 0.001577 0.001577
0.279063 0.002169 0.053618
0.861704 0.007491 0.193900
0.986811 0.070584 0.207442
0.973483 0.369790 0.185438
0.022868 0.185141 0.061199
0.185873 0.164469 0.000197
0.743444 0.185947 0.129313
0.978781 0.283050 0.181726
0.972475 0.487431 0.166840
0.038246 0.731307 0.031149
0.038049 0.696267 0.028192
0.689353 0.632745 0.073408
0.985807 0.659477 0.212024
0.997945 0.764262 0.244274
0.042516 0.929517 0.051020
0.042516 0.929340 0.051020
0.350596 0.927347 0.149142
0.997439 0.927701 0.244150
1.000000 0.955024 0.192665
0.068934 0.924601 0.166304
0.069068 0.924586 0.166721
0.103502 0.930688 0.151863
0.983695 0.978588 0.397867
1.000000 0.977780 0.358954
0.036866 0.003745 0.308368
0.278718 0.000000 0.215602
0.849722 0.010448 0.209958
0.986566 0.050417 0.222756
0.973823 0.363024 0.185650
0.016166 0.148204 0.196007
0.146394 0.142421 0.141243
0.740450 0.136366 0.160583
0.980904 0.252049 0.181835
0.972182 0.484428 0.167136
0.054283 0.698956 0.178159
0.051670 0.679593 0.116797
0.663563 0.620251 0.135952
0.985410 0.656079 0.211193
0.997837 0.762261 0.244470
0.043820 0.929266 0.055533
0.043077 0.929192 0.053635
0.343136 0.926865 0.145396
0.997129 0.927279 0.244465
1.000000 0.954768 0.192665
0.068934 0.924594 0.166065
0.069068 0.924565 0.166721
0.093129 0.928865 0.152125
0.982293 0.978705 0.398326
1.000000 0.977780 0.358954
0.109707 0.012223 0.812211
0.245437 0.037257 0.752690
0.937210 0.000789 0.779411
0.985493 0.043597 0.485230
0.986422 0.229438 0.363845
0.086276 0.025629 0.650060
0.171240 0.047868 0.699103
0.861913 0.036616 0.739552
0.985685 0.170952 0.470055
0.985301 0.342596 0.354979
0.114927 0.564447 0.703940
0.110099 0.575568 0.681946
0.579961 0.572470 0.574159
0.981893 0.568914 0.481940
0.989490 0.669399 0.414812
0.028783 0.947778 0.633087
0.029177 0.949476 0.624671
0.330797 0.913466 0.573447
0.984739 0.935001 0.567546
1.000000 0.961785 0.462391
0.042052 0.962017 0.542641
0.043161 0.961014 0.535229
0.076189 0.953823 0.492254
0.974596 0.988373 0.621334
1.000000 0.983219 0.533219
0.129588 0.014194 0.945115
0.181096 0.012814 0.975670
0.897275 0.000000 0.966931
1.000000 0.000000 0.958625
1.000000 0.009857 0.959029
0.122304 0.014194 0.942679
0.172198 0.013406 0.983278
0.826861 0.000789 0.973111
1.000000 0.001775 0.958654
1.000000 0.124172 0.963327
0.171275 0.322867 0.841339
0.175626 0.344631 0.846426
0.517841 0.393327 0.943386
0.999966 0.390056 0.975419
0.998160 0.543658 0.944736
0.126053 0.906733 0.934179
0.119736 0.911528 0.932605
0.245468 0.894938 0.907357
0.944089 0.945977 0.946003
0.998301 0.975825 0.910834
0.076013 0.963221 0.924576
0.075514 0.963207 0.923369
0.100031 0.963968 0.912406
0.930531 0.996086 0.974407
1.000000 0.995688 0.938121
0.134501 0.014194 0.985562
0.146458 0.014194 0.986819
0.777452 0.000000 0.977277
1.000000 0.000000 0.958625
1.000000 0.000000 0.958625
0.128428 0.014194 0.983343
0.137489 0.014194 0.985992
0.698346 0.001183 0.984175
1.000000 0.000000 0.958625
1.000000 0.006703 0.958866
0.145284 0.194102 0.840689
0.150732 0.219388 0.839425
0.441378 0.276053 0.970012
1.000000 0.247913 0.968782
1.000000 0.384958 0.976133
0.201156 0.856950 0.963368
0.193730 0.865652 0.961936
0.232649 0.848731 0.956499
0.903755 0.888373 0.991974
0.999758 0.946895 1.000000
0.106415 0.966190 0.963489
0.106415 0.966162 0.963546
0.113183 0.966443 0.963292
0.886266 0.995742 0.999396
0.998953 0.997797 1.000000
