bundles/resolve-cinematic-luts/Gamut/_Conversion/DJI DLog-M/BaseLUTs - DJI D-Log+ (Mavic 3).cube
TITLE "BaseLUTs - DJI D-Log+ (Mavic 3) LUT by Gamut"
# Designed for converting D-Log / D-Gamut to Rec709 Color Space. Version 1.0- 03/29/2023 -  Copyright 2023 Gamut, LLC
LUT_3D_SIZE 33
0.000789 0.000789 0.000789
0.000789 0.000789 0.000789
0.001528 0.000789 0.000789
0.020749 0.000789 0.003721
0.065253 0.000789 0.012716
0.114665 0.000000 0.022130
0.162503 0.000000 0.027304
0.201534 0.000000 0.030409
0.254970 0.000000 0.034106
0.317930 0.000000 0.038764
0.390785 0.000000 0.043807
0.461519 0.000000 0.052889
0.533714 0.000000 0.066535
0.610645 0.000000 0.085787
0.688390 0.000000 0.107716
0.766536 0.000000 0.129114
0.842533 0.000000 0.147860
0.908637 0.000000 0.163627
0.952420 0.000000 0.176030
0.965820 0.000000 0.184084
0.969332 0.001084 0.188520
0.971717 0.005841 0.190333
0.975066 0.018778 0.189665
0.978970 0.034768 0.186203
0.983342 0.052578 0.180081
0.987796 0.071263 0.171480
0.992546 0.094356 0.163727
0.996690 0.124271 0.161035
0.998923 0.162801 0.162952
0.998325 0.209975 0.167455
0.994505 0.265014 0.170793
0.987910 0.321103 0.170248
0.980126 0.374074 0.166304
0.000789 0.000789 0.000789
0.000789 0.000789 0.000789
0.001528 0.000789 0.000789
0.020749 0.000789 0.003721
0.065183 0.000789 0.012716
0.114665 0.000000 0.022130
0.162503 0.000000 0.027304
0.201534 0.000000 0.030409
0.254970 0.000000 0.034106
0.317930 0.000000 0.038764
0.390798 0.000000 0.043807
0.461519 0.000000 0.052889
0.533442 0.000000 0.066333
0.610397 0.000000 0.085787
0.688104 0.000000 0.107716
0.766204 0.000000 0.128956
0.842157 0.000000 0.147729
0.908342 0.000000 0.163515
0.952228 0.000000 0.175812
0.965837 0.000000 0.183876
0.969440 0.001380 0.188317
0.971815 0.006358 0.190133
0.975181 0.019024 0.189321
0.979148 0.035525 0.185937
0.983494 0.053360 0.179704
0.988026 0.072290 0.171204
0.992601 0.095225 0.163727
0.996811 0.125828 0.161035
0.998968 0.164259 0.163196
0.998273 0.211422 0.167663
0.994376 0.266271 0.170793
0.987802 0.322103 0.170022
0.980019 0.374900 0.166304
0.000838 0.000789 0.000789
0.000838 0.000789 0.000789
0.001528 0.000789 0.000838
0.017151 0.000789 0.003770
0.064778 0.000740 0.012075
0.113398 0.000000 0.021513
0.159252 0.000000 0.027206
0.199778 0.000000 0.029670
0.253070 0.000000 0.033515
0.316452 0.000000 0.038813
0.388975 0.000000 0.043112
0.459418 0.000000 0.051853
0.531325 0.000000 0.065494
0.608260 0.000000 0.084515
0.685764 0.000000 0.106679
0.763736 0.000000 0.127931
0.839898 0.000000 0.146696
0.906395 0.000000 0.162357
0.951214 0.000000 0.174519
0.965785 0.000321 0.182428
0.969943 0.002415 0.186906
0.972617 0.008896 0.188664
0.976085 0.022819 0.187852
0.980055 0.039228 0.184092
0.984403 0.057169 0.177635
0.988920 0.076967 0.169562
0.993482 0.101268 0.163151
0.997307 0.132872 0.161820
0.999077 0.171626 0.164334
0.998023 0.218097 0.168542
0.993797 0.272093 0.170996
0.987121 0.327090 0.169796
0.979380 0.379148 0.165616
0.001429 0.003573 0.002144
0.001429 0.003573 0.002144
0.001528 0.003573 0.002193
0.011164 0.006506 0.002218
0.049464 0.009536 0.006161
0.090949 0.006826 0.014022
0.130145 0.005939 0.022499
0.177287 0.004534 0.025357
0.234278 0.003056 0.026195
0.302713 0.000863 0.029177
0.371302 0.000173 0.033515
0.442964 0.000000 0.043145
0.517668 0.000000 0.058761
0.594923 0.000000 0.077911
0.674039 0.000715 0.100276
0.753196 0.001429 0.121973
0.830911 0.001429 0.141389
0.899461 0.000715 0.157460
0.947219 0.001429 0.169770
0.965952 0.002859 0.177797
0.971741 0.008206 0.182316
0.975032 0.018482 0.183793
0.978703 0.033416 0.182673
0.982759 0.050253 0.178711
0.987077 0.069193 0.172494
0.991413 0.090750 0.165738
0.995490 0.118328 0.162457
0.998290 0.151728 0.163729
0.999074 0.189645 0.166638
0.997212 0.234114 0.169656
0.992376 0.285680 0.170967
0.985490 0.338728 0.168873
0.978099 0.389101 0.163988
0.004534 0.034204 0.014982
0.004534 0.034204 0.014982
0.004534 0.034253 0.014982
0.007566 0.032135 0.011385
0.034204 0.031543 0.000394
0.066476 0.030114 0.005421
0.105040 0.026467 0.011286
0.152732 0.022696 0.015328
0.208241 0.020306 0.016954
0.271899 0.014022 0.018408
0.345931 0.006408 0.021144
0.421185 0.002415 0.031642
0.496266 0.002070 0.047857
0.575735 0.002538 0.067784
0.657269 0.006358 0.090391
0.738168 0.008502 0.112709
0.817675 0.007689 0.132525
0.888738 0.006136 0.148927
0.940562 0.007294 0.161786
0.966106 0.012740 0.170085
0.974811 0.021587 0.174590
0.979050 0.035162 0.175839
0.982841 0.051009 0.174515
0.986997 0.069228 0.170869
0.991072 0.090311 0.166208
0.994833 0.115874 0.162915
0.997707 0.147056 0.163789
0.999004 0.181164 0.166525
0.998392 0.216866 0.169144
0.995431 0.258284 0.171004
0.989949 0.306468 0.170488
0.983114 0.356405 0.167040
0.976314 0.404160 0.161389
0.007640 0.058562 0.025284
0.007640 0.058584 0.025284
0.006974 0.056977 0.024544
0.007664 0.055045 0.020848
0.020824 0.056712 0.004337
0.058120 0.054406 0.000000
0.093187 0.050754 0.003869
0.130020 0.051429 0.011459
0.179960 0.048583 0.016881
0.241060 0.045002 0.019369
0.311070 0.037934 0.021587
0.388510 0.028364 0.025333
0.470842 0.019468 0.035806
0.553293 0.019123 0.055011
0.637180 0.023263 0.078175
0.720634 0.026294 0.100477
0.802171 0.025481 0.120667
0.875690 0.024298 0.137661
0.932310 0.026122 0.150649
0.965748 0.032726 0.159422
0.978816 0.044565 0.163884
0.984362 0.059457 0.165318
0.988282 0.077041 0.164898
0.991983 0.098476 0.163557
0.995298 0.124289 0.163197
0.997634 0.153801 0.164455
0.998673 0.185797 0.166742
0.998328 0.217645 0.169502
0.996424 0.250114 0.171293
0.992506 0.287474 0.171409
0.986675 0.331866 0.169158
0.980268 0.378379 0.164288
0.974609 0.423077 0.157559
0.009315 0.081315 0.033022
0.009315 0.081348 0.033046
0.009315 0.081315 0.032381
0.009241 0.080266 0.030878
0.011730 0.081249 0.016363
0.039707 0.082776 0.004140
0.088006 0.077383 0.000148
0.128017 0.072825 0.003253
0.167957 0.074986 0.009562
0.218959 0.076323 0.016264
0.285245 0.073920 0.022819
0.363192 0.069165 0.029892
0.443985 0.062826 0.039111
0.528424 0.058006 0.052723
0.616603 0.055357 0.070502
0.702404 0.054383 0.088935
0.785623 0.054709 0.108707
0.861731 0.054994 0.125377
0.922320 0.057614 0.138422
0.962279 0.065979 0.147625
0.981812 0.078986 0.153540
0.989704 0.096361 0.156866
0.993750 0.117582 0.159231
0.996353 0.143089 0.161980
0.997820 0.171368 0.164816
0.998140 0.200922 0.167772
0.997406 0.230302 0.170093
0.995591 0.258378 0.171380
0.992698 0.286873 0.171849
0.988323 0.320231 0.170335
0.982783 0.360621 0.166420
0.977480 0.403610 0.160046
0.973292 0.445324 0.152325
0.011484 0.112168 0.040307
0.011508 0.112168 0.040307
0.011656 0.113203 0.040307
0.011656 0.114021 0.040282
0.012247 0.110782 0.028266
0.022179 0.114530 0.001651
0.062480 0.109150 0.002661
0.121652 0.102716 0.000173
0.169397 0.098933 0.001700
0.215776 0.104250 0.008428
0.274090 0.109880 0.016733
0.347526 0.111147 0.028832
0.428222 0.109488 0.042032
0.510734 0.107663 0.057845
0.596678 0.106298 0.074379
0.683396 0.105811 0.091007
0.768272 0.104505 0.106929
0.846219 0.104257 0.120496
0.910157 0.107645 0.132375
0.954984 0.117017 0.142442
0.980705 0.132005 0.150641
0.992016 0.151593 0.156635
0.996028 0.174337 0.161021
0.997239 0.199700 0.165152
0.996945 0.225935 0.168318
0.995584 0.252236 0.170574
0.993436 0.277560 0.171423
0.990771 0.301598 0.171503
0.987469 0.326057 0.170189
0.983461 0.355571 0.167208
0.978941 0.392020 0.162014
0.975377 0.431151 0.154804
0.973206 0.469200 0.146698
0.013209 0.154859 0.044005
0.013209 0.154859 0.043449
0.013209 0.155908 0.043449
0.013209 0.155850 0.043333
0.013406 0.150765 0.033810
0.008181 0.150082 0.002095
0.035442 0.147541 0.000099
0.090838 0.138865 0.000173
0.159361 0.136566 0.000000
0.218700 0.139014 0.001528
0.278722 0.144879 0.009561
0.345689 0.152043 0.020897
0.419892 0.158365 0.036274
0.499971 0.160620 0.056287
0.583303 0.162856 0.076291
0.667666 0.165943 0.094646
0.751354 0.168760 0.110803
0.829468 0.170947 0.124232
0.895113 0.175391 0.135388
0.943432 0.184509 0.144975
0.973259 0.198793 0.153275
0.987924 0.217256 0.159778
0.993055 0.238027 0.164376
0.993668 0.260247 0.167825
0.992340 0.282626 0.170022
0.990126 0.304613 0.170670
0.987457 0.325728 0.170006
0.984691 0.345941 0.168487
0.981852 0.366976 0.166179
0.978820 0.392815 0.162150
0.976000 0.425096 0.156227
0.974750 0.459605 0.149423
0.975101 0.492622 0.143128
0.013061 0.212762 0.033983
0.013036 0.212749 0.033983
0.012839 0.213595 0.033415
0.013061 0.211471 0.034768
0.012248 0.204211 0.028685
0.005199 0.200070 0.002218
0.019271 0.196039 0.000000
0.057426 0.190206 0.000000
0.124230 0.182992 0.000567
0.207073 0.185689 0.002710
0.281409 0.191288 0.003105
0.352600 0.196340 0.013702
0.423244 0.205353 0.028118
0.496444 0.215253 0.047199
0.575569 0.222180 0.070741
0.657071 0.229002 0.092599
0.738377 0.235627 0.111128
0.814869 0.241298 0.126063
0.880533 0.247224 0.137998
0.930392 0.255954 0.147381
0.962689 0.268471 0.154955
0.979562 0.284085 0.160623
0.985960 0.301627 0.164554
0.986887 0.319892 0.166735
0.985522 0.338278 0.167380
0.983328 0.356349 0.166708
0.981069 0.373927 0.165029
0.978990 0.390870 0.162669
0.977097 0.408620 0.159510
0.975560 0.430757 0.155152
0.975008 0.458515 0.150087
0.976082 0.487812 0.145676
0.978602 0.515603 0.142692
0.007048 0.282262 0.006604
0.007048 0.282349 0.006604
0.007048 0.283592 0.006062
0.007048 0.282669 0.006851
0.007048 0.274382 0.005619
0.004189 0.266823 0.000862
0.007245 0.255654 0.000000
0.033334 0.252043 0.000000
0.083625 0.247694 0.001380
0.163246 0.244026 0.001577
0.265677 0.246872 0.003450
0.351988 0.252106 0.006506
0.428256 0.257022 0.021390
0.500453 0.267449 0.039611
0.574953 0.279372 0.061141
0.652181 0.290729 0.084035
0.729900 0.300204 0.104760
0.803647 0.308361 0.121442
0.867990 0.315708 0.134408
0.918103 0.324036 0.143910
0.951608 0.334754 0.150958
0.970005 0.347674 0.155957
0.977762 0.361990 0.159194
0.979570 0.376879 0.160694
0.978975 0.391890 0.160651
0.977607 0.406821 0.159312
0.976323 0.421289 0.157156
0.975421 0.435125 0.154650
0.974882 0.449535 0.151758
0.975013 0.467669 0.148585
0.976376 0.490680 0.145838
0.979111 0.515645 0.144922
0.982560 0.539845 0.146125
0.007344 0.358774 0.000789
0.007344 0.358870 0.000789
0.007344 0.359843 0.000789
0.007344 0.359802 0.000789
0.006826 0.352513 0.000271
0.005890 0.343516 0.000000
0.005742 0.330379 0.000000
0.014219 0.319074 0.000000
0.054480 0.318900 0.000666
0.116603 0.316241 0.004238
0.215529 0.312972 0.002883
0.331194 0.313167 0.006531
0.422666 0.317481 0.015525
0.502416 0.323124 0.033194
0.577832 0.333895 0.053013
0.652908 0.346772 0.074270
0.727009 0.358929 0.094262
0.797270 0.369172 0.111115
0.859265 0.377756 0.124396
0.908512 0.386316 0.134251
0.942557 0.395923 0.141323
0.962207 0.406822 0.146224
0.971382 0.418479 0.149503
0.974631 0.430378 0.151269
0.975337 0.442366 0.151491
0.975246 0.454226 0.150470
0.975133 0.465720 0.148924
0.975333 0.476504 0.147329
0.975972 0.487687 0.145785
0.977394 0.502190 0.145102
0.979839 0.521650 0.145890
0.982881 0.543961 0.149194
0.985919 0.566590 0.154313
0.012715 0.433843 0.003056
0.013480 0.434043 0.003056
0.013504 0.435052 0.003056
0.013504 0.436000 0.003548
0.012715 0.430377 0.002859
0.011927 0.421679 0.001775
0.010646 0.409042 0.001479
0.013356 0.394179 0.000986
0.035550 0.390257 0.001084
0.084217 0.389713 0.002218
0.165597 0.386127 0.008379
0.281188 0.381791 0.007023
0.398978 0.380730 0.012420
0.493685 0.384477 0.026073
0.577351 0.390819 0.045475
0.654704 0.400821 0.065889
0.728048 0.412206 0.084612
0.796058 0.422981 0.100649
0.855771 0.432546 0.113339
0.903817 0.441550 0.122992
0.937927 0.450550 0.130304
0.958824 0.459964 0.135782
0.969536 0.469373 0.139857
0.974219 0.478678 0.142738
0.976144 0.487858 0.144271
0.977100 0.496893 0.144920
0.977862 0.505621 0.144775
0.978687 0.513904 0.144904
0.979925 0.522792 0.145512
0.981566 0.535097 0.147515
0.983837 0.552870 0.151898
0.986197 0.574188 0.159010
0.988186 0.596572 0.168123
0.021735 0.509490 0.011484
0.022031 0.509714 0.011484
0.022055 0.510726 0.011484
0.022055 0.511796 0.011484
0.021366 0.507973 0.011015
0.020601 0.500159 0.010227
0.019518 0.488379 0.009266
0.019518 0.473435 0.007245
0.027108 0.462057 0.005225
0.063051 0.462006 0.003080
0.127732 0.460449 0.005644
0.229402 0.455147 0.014465
0.352617 0.449649 0.013258
0.469052 0.448253 0.020478
0.567452 0.451131 0.035659
0.652978 0.457018 0.056343
0.729118 0.464848 0.076480
0.797318 0.473371 0.093265
0.856107 0.482128 0.106336
0.903293 0.490622 0.116414
0.937640 0.498795 0.124487
0.959618 0.506656 0.131085
0.971706 0.514312 0.136503
0.977500 0.521627 0.140805
0.980216 0.528831 0.144138
0.981590 0.535915 0.146596
0.982580 0.542827 0.148604
0.983374 0.549698 0.150415
0.984351 0.557514 0.152927
0.985624 0.569021 0.157097
0.987171 0.586341 0.164554
0.988761 0.607956 0.175036
0.990216 0.630949 0.186954
0.028142 0.586665 0.018334
0.028142 0.586875 0.018334
0.028142 0.587793 0.018334
0.028142 0.588770 0.018334
0.028142 0.586409 0.018334
0.027920 0.579648 0.017669
0.027157 0.569060 0.016905
0.026392 0.555068 0.015796
0.029226 0.541418 0.013455
0.047202 0.534770 0.009980
0.099252 0.535307 0.006506
0.182960 0.531169 0.013973
0.297724 0.523332 0.019961
0.424903 0.516525 0.020306
0.542874 0.514196 0.028684
0.642891 0.516179 0.046159
0.726006 0.520632 0.068046
0.796226 0.525856 0.087950
0.855309 0.531727 0.103758
0.902520 0.538289 0.115824
0.937533 0.544927 0.125999
0.960907 0.551262 0.134397
0.974725 0.557366 0.141702
0.981687 0.563264 0.147916
0.984749 0.569201 0.153253
0.986037 0.575171 0.157610
0.986721 0.581209 0.161293
0.987232 0.587407 0.164566
0.987847 0.594756 0.168358
0.988647 0.606244 0.174049
0.989841 0.624140 0.183150
0.991408 0.646959 0.194842
0.993220 0.671721 0.207189
0.031592 0.663381 0.023337
0.031592 0.663674 0.023337
0.031592 0.664547 0.023337
0.031592 0.665538 0.023337
0.031173 0.664291 0.023337
0.031173 0.658614 0.023337
0.030804 0.649292 0.022548
0.030804 0.636680 0.021760
0.032159 0.623008 0.020207
0.042239 0.612580 0.016536
0.076631 0.609549 0.009881
0.142746 0.606350 0.011114
0.242034 0.598763 0.020183
0.367573 0.588644 0.025481
0.500102 0.580655 0.029498
0.619581 0.577540 0.040771
0.715186 0.578935 0.059701
0.789741 0.582066 0.082107
0.849624 0.585435 0.102452
0.897411 0.589397 0.118924
0.933673 0.594003 0.132623
0.959155 0.598874 0.144476
0.975208 0.603726 0.154402
0.983898 0.608505 0.163172
0.987670 0.613374 0.170686
0.989087 0.618501 0.177014
0.989688 0.623887 0.181933
0.990102 0.629731 0.186239
0.990562 0.637015 0.190206
0.991476 0.649046 0.195966
0.992811 0.668185 0.204319
0.994636 0.692616 0.213966
0.996809 0.719103 0.222754
0.033515 0.736765 0.027994
0.033515 0.737038 0.027994
0.033515 0.737799 0.027994
0.033515 0.738907 0.027994
0.033515 0.738435 0.027994
0.032726 0.734052 0.027601
0.032726 0.726072 0.027206
0.032726 0.714961 0.026417
0.033317 0.701719 0.025037
0.038268 0.689131 0.022745
0.057787 0.680635 0.017151
0.107543 0.676713 0.012618
0.190872 0.670714 0.017447
0.306539 0.660389 0.028438
0.443263 0.648382 0.039203
0.579516 0.639462 0.048564
0.693161 0.636537 0.059970
0.777133 0.638323 0.077463
0.839279 0.641500 0.099311
0.887707 0.644476 0.120941
0.925373 0.647695 0.139992
0.952992 0.651537 0.156211
0.971594 0.655830 0.169756
0.982736 0.660192 0.181374
0.988455 0.664431 0.191291
0.991129 0.668820 0.199325
0.992459 0.673688 0.205045
0.993123 0.679148 0.208975
0.993709 0.686461 0.212084
0.994718 0.698905 0.215909
0.996101 0.718563 0.220558
0.997578 0.743109 0.224421
0.999181 0.769060 0.226729
0.035067 0.801685 0.032652
0.035067 0.801881 0.032652
0.034697 0.802508 0.032652
0.034278 0.803548 0.032652
0.034599 0.803526 0.032652
0.034278 0.800651 0.031986
0.034278 0.794374 0.031863
0.034278 0.784938 0.031075
0.034278 0.772724 0.030286
0.036028 0.759075 0.028364
0.046337 0.746798 0.024125
0.078936 0.739108 0.016905
0.146617 0.733948 0.015303
0.249227 0.725359 0.027181
0.380979 0.712489 0.048042
0.525450 0.699457 0.065971
0.656987 0.691376 0.074812
0.757184 0.690392 0.083191
0.826789 0.694085 0.098887
0.876850 0.698687 0.120074
0.915217 0.702713 0.142240
0.944271 0.706847 0.161957
0.965074 0.711462 0.178963
0.979002 0.716250 0.193128
0.987723 0.720738 0.204910
0.992814 0.725153 0.214130
0.995414 0.729779 0.219976
0.996463 0.734899 0.223191
0.996982 0.741748 0.224265
0.997673 0.753272 0.224612
0.998595 0.771383 0.223316
0.999345 0.793319 0.220456
0.999929 0.815904 0.214930
0.035831 0.853639 0.036521
0.035831 0.853786 0.036521
0.035831 0.854317 0.036521
0.035831 0.855131 0.036964
0.035831 0.855411 0.036964
0.035831 0.853727 0.036521
0.035831 0.849385 0.036521
0.035831 0.841932 0.035732
0.035486 0.831414 0.034599
0.035609 0.818143 0.033588
0.039993 0.803837 0.030163
0.060019 0.792401 0.023238
0.110692 0.785693 0.016412
0.198963 0.778930 0.023041
0.321740 0.767943 0.050231
0.466245 0.754283 0.082633
0.609493 0.742792 0.100363
0.728324 0.737584 0.104808
0.812394 0.739613 0.110693
0.867977 0.745737 0.123604
0.907221 0.752381 0.141063
0.936845 0.758305 0.159362
0.959174 0.764044 0.176353
0.975465 0.769660 0.191332
0.986838 0.775195 0.203649
0.994004 0.780486 0.213130
0.997575 0.785555 0.218420
0.998798 0.790465 0.220395
0.999116 0.796309 0.219674
0.999365 0.805806 0.216629
0.999705 0.820566 0.211212
0.999894 0.838031 0.203148
1.000000 0.855548 0.194234
0.037063 0.890826 0.040065
0.037063 0.890935 0.040065
0.037063 0.891287 0.040065
0.037063 0.891906 0.040065
0.037063 0.892282 0.040065
0.037063 0.891544 0.040065
0.037063 0.888839 0.040065
0.036595 0.883602 0.039453
0.036595 0.875335 0.038690
0.036274 0.863793 0.037457
0.037581 0.849554 0.035363
0.048346 0.835666 0.029965
0.083495 0.826460 0.021070
0.156987 0.820753 0.021094
0.269851 0.812889 0.046693
0.410663 0.801279 0.091682
0.558782 0.789280 0.126857
0.691867 0.780967 0.138287
0.793342 0.779288 0.138801
0.860488 0.784271 0.141339
0.903515 0.792509 0.147902
0.933851 0.800635 0.157095
0.956826 0.807910 0.168028
0.974208 0.814674 0.179158
0.986762 0.821240 0.189334
0.994725 0.827577 0.196925
0.998523 0.833418 0.201034
0.999698 0.838392 0.201993
0.999888 0.843359 0.200780
0.999920 0.850481 0.196511
0.999968 0.861331 0.190182
1.000000 0.873968 0.182597
1.000000 0.886369 0.175358
0.037359 0.914240 0.042797
0.037359 0.914347 0.042797
0.037852 0.914482 0.042797
0.037852 0.914864 0.042797
0.037359 0.915233 0.042797
0.037359 0.914985 0.042797
0.037359 0.913597 0.042797
0.037359 0.910384 0.042043
0.037359 0.904743 0.041756
0.037063 0.895894 0.041014
0.037605 0.883649 0.039232
0.042284 0.869649 0.035387
0.064789 0.858571 0.027403
0.123605 0.852975 0.022203
0.225931 0.848337 0.041822
0.361940 0.840152 0.092961
0.510707 0.829862 0.146547
0.651305 0.820812 0.173303
0.767166 0.815904 0.177148
0.849514 0.817287 0.173934
0.901746 0.824148 0.170109
0.935181 0.833017 0.167149
0.959054 0.841574 0.166818
0.976526 0.849286 0.169393
0.988724 0.856570 0.173559
0.995896 0.863404 0.177845
0.999019 0.869612 0.180378
0.999853 0.874830 0.180666
1.000000 0.879299 0.179235
1.000000 0.884605 0.176651
1.000000 0.892025 0.172484
1.000000 0.900583 0.168106
1.000000 0.909058 0.164128
0.037852 0.926910 0.044005
0.037852 0.926928 0.044005
0.037852 0.927013 0.044005
0.037852 0.927194 0.044005
0.037852 0.927433 0.044005
0.037852 0.927407 0.044005
0.037852 0.926824 0.044005
0.037852 0.925214 0.043681
0.037852 0.921903 0.043519
0.037852 0.916130 0.042773
0.037605 0.907132 0.041756
0.039376 0.895141 0.039478
0.053039 0.883815 0.033046
0.098514 0.878003 0.026368
0.189520 0.876111 0.038684
0.319442 0.871865 0.088768
0.466454 0.864302 0.155825
0.609653 0.856354 0.201814
0.734341 0.850228 0.216079
0.830919 0.847870 0.212953
0.896328 0.851013 0.203742
0.937279 0.858375 0.191747
0.963770 0.866856 0.179983
0.981596 0.874902 0.171928
0.992461 0.882361 0.167745
0.997754 0.889159 0.166763
0.999526 0.895254 0.167154
0.999954 0.900293 0.166375
1.000000 0.904545 0.165657
1.000000 0.908853 0.164556
1.000000 0.913996 0.162840
1.000000 0.919799 0.161601
1.000000 0.925630 0.159966
0.038098 0.932491 0.044738
0.038098 0.932557 0.044738
0.038098 0.932559 0.044738
0.038098 0.932655 0.044738
0.038098 0.932737 0.044738
0.038098 0.932757 0.044738
0.038098 0.932568 0.044738
0.038098 0.931932 0.044738
0.037852 0.930386 0.044417
0.037852 0.927316 0.044005
0.037852 0.921652 0.043496
0.038640 0.912883 0.041993
0.046477 0.903125 0.037704
0.080645 0.897714 0.030310
0.159616 0.897803 0.037134
0.281606 0.897212 0.081172
0.425309 0.892655 0.155175
0.568596 0.886606 0.219123
0.697496 0.881068 0.247878
0.804299 0.876940 0.249136
0.883514 0.876149 0.239446
0.935343 0.880029 0.224598
0.967245 0.887051 0.206259
0.986243 0.894679 0.188691
0.995801 0.901796 0.175740
0.999156 0.908259 0.167820
0.999901 0.913935 0.164016
1.000000 0.918642 0.161828
1.000000 0.922517 0.160941
1.000000 0.926145 0.160144
1.000000 0.930032 0.159639
1.000000 0.934252 0.160089
1.000000 0.938472 0.160772
0.038640 0.934501 0.044738
0.038640 0.934501 0.044738
0.038640 0.934501 0.044738
0.038640 0.934501 0.044738
0.038640 0.934568 0.044738
0.038640 0.934568 0.044738
0.038640 0.934512 0.044738
0.038640 0.934337 0.044738
0.038640 0.933775 0.044738
0.038074 0.932441 0.044738
0.037852 0.929518 0.044440
0.038369 0.924074 0.043727
0.042582 0.916897 0.040743
0.067232 0.912496 0.034747
0.133706 0.913858 0.037204
0.246318 0.916507 0.073553
0.385955 0.915438 0.147396
0.528212 0.911522 0.224636
0.658973 0.907240 0.269790
0.772144 0.903144 0.279202
0.862992 0.899975 0.271355
0.927446 0.900107 0.258157
0.967218 0.904474 0.239562
0.988614 0.910984 0.217048
0.997508 0.917597 0.195972
0.999718 0.923601 0.180480
1.000000 0.928776 0.170250
1.000000 0.933015 0.164481
1.000000 0.936396 0.161478
1.000000 0.939452 0.161350
1.000000 0.942542 0.161379
1.000000 0.945815 0.162921
1.000000 0.949208 0.164157
0.038640 0.934972 0.044738
0.038640 0.934972 0.044738
0.038640 0.934971 0.044738
0.038640 0.934972 0.044738
0.038640 0.935016 0.044738
0.038640 0.935016 0.044738
0.038640 0.934983 0.044738
0.038640 0.934926 0.044738
0.038640 0.934774 0.044738
0.038640 0.934341 0.044738
0.038295 0.933112 0.044738
0.038369 0.930255 0.044440
0.040398 0.925696 0.042700
0.056615 0.922485 0.039084
0.110094 0.924697 0.039972
0.212766 0.930445 0.068365
0.347577 0.933223 0.136825
0.488160 0.931685 0.220511
0.619980 0.928724 0.281251
0.737235 0.925497 0.302813
0.836552 0.921840 0.298690
0.913057 0.919334 0.287385
0.962910 0.920569 0.272604
0.988791 0.925275 0.251521
0.998112 0.931093 0.226551
0.999895 0.936607 0.203984
1.000000 0.941264 0.186377
1.000000 0.944998 0.175424
1.000000 0.947954 0.169102
1.000000 0.950481 0.166205
1.000000 0.953008 0.167127
1.000000 0.955661 0.168274
1.000000 0.958410 0.171174
0.038640 0.935060 0.044897
0.038640 0.935060 0.044897
0.038640 0.935060 0.044897
0.038640 0.935060 0.044897
0.038640 0.935060 0.044897
0.038640 0.935060 0.044897
0.038640 0.935060 0.044897
0.038640 0.935060 0.044897
0.038640 0.935029 0.045282
0.038640 0.934882 0.045463
0.038640 0.934477 0.045463
0.038640 0.933226 0.044897
0.039158 0.930745 0.044440
0.049097 0.928808 0.042396
0.090221 0.931857 0.043820
0.180714 0.939843 0.066557
0.309241 0.946223 0.126928
0.448114 0.947590 0.210427
0.580799 0.946056 0.283039
0.701490 0.943797 0.319756
0.806930 0.940840 0.322161
0.893442 0.937374 0.311639
0.954356 0.935934 0.300372
0.986831 0.938298 0.285015
0.998032 0.942917 0.262440
0.999895 0.947847 0.236497
1.000000 0.952039 0.212825
1.000000 0.955355 0.194460
1.000000 0.957857 0.182879
1.000000 0.959980 0.177671
1.000000 0.962017 0.176489
1.000000 0.964135 0.179750
1.000000 0.966333 0.183694
0.038640 0.935049 0.045598
0.038640 0.935049 0.045598
0.038640 0.935049 0.045598
0.038640 0.935049 0.045598
0.038640 0.935049 0.045598
0.038640 0.935001 0.045598
0.038640 0.935001 0.045598
0.038640 0.935049 0.045598
0.038640 0.935049 0.045598
0.038640 0.935001 0.045598
0.038640 0.934855 0.045598
0.038640 0.934418 0.045598
0.039133 0.933276 0.045598
0.044514 0.932482 0.045009
0.073716 0.935681 0.047508
0.149294 0.944530 0.067310
0.269655 0.954055 0.119714
0.407068 0.959073 0.197713
0.541283 0.959691 0.277009
0.665652 0.958401 0.329086
0.776301 0.956298 0.342091
0.870529 0.953124 0.332943
0.941841 0.950157 0.322158
0.982715 0.950236 0.312328
