bundles/resolve-cinematic-luts/Gamut/_Conversion/DJI DLog-M/BaseLUTs - DJI D-Log+ (Mavic 3).cube
TITLE "BaseLUTs - DJI D-Log+ (Mavic 3) LUT by Gamut"
# Designed for converting D-Log / D-Gamut to Rec709 Color Space. Version 1.0- 03/29/2023 -  Copyright 2023 Gamut, LLC
LUT_3D_SIZE 5
0.000789 0.000789 0.000789
0.254970 0.000000 0.034106
0.842533 0.000000 0.147860
0.983342 0.052578 0.180081
0.980126 0.374074 0.166304
0.013209 0.154859 0.044005
0.159361 0.136566 0.000000
0.751354 0.168760 0.110803
0.992340 0.282626 0.170022
0.975101 0.492622 0.143128
0.033515 0.736765 0.027994
0.033317 0.701719 0.025037
0.693161 0.636537 0.059970
0.988455 0.664431 0.191291
0.999181 0.769060 0.226729
0.038640 0.934972 0.044738
0.038640 0.934774 0.044738
0.347577 0.933223 0.136825
0.998112 0.931093 0.226551
1.000000 0.958410 0.171174
0.061643 0.932445 0.146981
0.061643 0.932438 0.147456
0.094214 0.938887 0.133842
0.984128 0.979499 0.399528
1.000000 0.979133 0.356559
0.025629 0.000394 0.293247
0.252918 0.000000 0.182346
0.830695 0.000000 0.165298
0.978173 0.031938 0.191744
0.981042 0.366945 0.167197
0.009660 0.120160 0.168863
0.120968 0.117436 0.116354
0.743561 0.113595 0.135551
0.994655 0.248846 0.170428
0.974810 0.489558 0.143476
0.047591 0.705930 0.165500
0.045630 0.686439 0.104697
0.667780 0.624517 0.115766
0.988039 0.660926 0.190310
0.999154 0.767009 0.226602
0.039232 0.934840 0.048786
0.039034 0.934730 0.047236
0.339688 0.932775 0.133339
0.997796 0.930688 0.227443
1.000000 0.958175 0.169772
0.061643 0.932445 0.146778
0.061643 0.932438 0.147658
0.084317 0.937005 0.133986
0.982712 0.979623 0.400029
1.000000 0.979133 0.356559
0.075915 0.000000 0.802677
0.211041 0.016166 0.740247
0.920616 0.000000 0.763163
0.976230 0.026220 0.476780
1.000000 0.224847 0.377113
0.058951 0.011040 0.643288
0.134502 0.026614 0.691673
0.851241 0.022474 0.729066
0.998657 0.160926 0.486223
0.993302 0.344297 0.357318
0.098849 0.572035 0.711561
0.095131 0.582893 0.689305
0.582466 0.574989 0.576641
0.982648 0.571925 0.484679
0.990387 0.672705 0.415834
0.026023 0.951735 0.638691
0.026220 0.953431 0.630286
0.325814 0.918117 0.579212
0.985252 0.936437 0.570387
1.000000 0.962851 0.464374
0.037457 0.966523 0.548862
0.038622 0.965617 0.541389
0.068398 0.959230 0.498899
0.975159 0.988864 0.624254
1.000000 0.983823 0.535459
0.091531 0.000000 0.932441
0.139726 0.000000 0.960854
0.883226 0.000000 0.948552
0.996369 0.000000 0.944281
0.997629 0.003352 0.946917
0.085169 0.000000 0.930012
0.131174 0.000000 0.969082
0.809162 0.000000 0.952918
0.996301 0.000986 0.944383
1.000000 0.115938 0.977129
0.149569 0.316822 0.847168
0.154304 0.341303 0.852506
0.523586 0.394444 0.946885
0.999966 0.391743 0.980325
0.998455 0.546862 0.946132
0.110405 0.914402 0.941452
0.104240 0.919084 0.939873
0.234755 0.901248 0.913501
0.945030 0.946959 0.946984
0.998321 0.976311 0.912362
0.066181 0.969308 0.931263
0.065624 0.969210 0.930045
0.088829 0.970341 0.919608
0.931623 0.996127 0.974803
1.000000 0.995749 0.939070
0.095499 0.000000 0.971451
0.106271 0.000000 0.972537
0.756954 0.000000 0.954711
0.996369 0.000000 0.944238
0.996369 0.000000 0.944238
0.090247 0.000000 0.969657
0.097910 0.000000 0.971994
0.676811 0.000000 0.961009
0.996369 0.000000 0.944253
0.997110 0.003155 0.946131
0.120650 0.171700 0.843251
0.126768 0.199812 0.842923
0.447832 0.267778 0.975952
1.000000 0.245252 0.983877
1.000000 0.386662 0.980952
0.184381 0.865035 0.969957
0.176755 0.873695 0.968657
0.218917 0.855888 0.962282
0.905296 0.890240 0.991995
0.999738 0.947835 1.000000
0.092168 0.973427 0.970921
0.092168 0.973455 0.970949
0.098832 0.973706 0.970767
0.888139 0.995783 0.999456
0.998899 0.997743 1.000000
