bundles/resolve-cinematic-luts/Gamut/_Conversion/Sony/Sony FX3 BaseLUTs/BaseLUT - Sony FX3 - S-Log3 to Rec709 (Bold).cube
TITLE "BaseLUT - Sony FX3 - S-Log3 to Rec709 (Bold)"
# Developed for converting S-Log3 / S-Gamut3.Cine to Rec.709. Version 1.0 - 05/01/2025 - Copyright 2025 Gamut, LLC.
LUT_3D_SIZE 33
0.0000000000 0.0000000000 0.0000000000
0.0000000000 0.0000000000 0.0000000000
0.0000000000 0.0000000000 0.0000000000
0.0000000000 0.0000000000 0.0000000000
0.0000000000 0.0000000000 0.0000000000
0.0000000000 0.0000000000 0.0000000000
0.0000000000 0.0000000000 0.0000000000
0.0044884164 0.0000000000 0.0000000000
0.0330112665 0.0000000000 0.0000000000
0.1035045488 0.0000000000 0.0000000000
0.1875304570 0.0013314880 0.0013314880
0.2701814013 0.0023668675 0.0023668675
0.3472724845 0.0036493794 0.0036493794
0.4159791958 0.0052035744 0.0047347357
0.4846893690 0.0059679587 0.0059679587
0.5524195276 0.0075215595 0.0071026040
0.6185348781 0.0094699718 0.0082860377
0.6824106140 0.0114183495 0.0098396072
0.7381274887 0.0137610450 0.0121690652
0.7860422286 0.0164246153 0.0151671544
0.8273062195 0.0206175172 0.0204197362
0.8651054480 0.0268523499 0.0310545150
0.9024753705 0.0374870237 0.0485680848
0.9381401177 0.0531694746 0.0743858662
0.9733498951 0.0752686444 0.1099449920
0.9959584367 0.1043783417 0.1532019182
1.0000000000 0.1416830995 0.2010655061
1.0000000000 0.1847552082 0.2541362204
1.0000000000 0.2326011036 0.3143882553
1.0000000000 0.2850616326 0.3793177256
1.0000000000 0.3428834611 0.4474340382
1.0000000000 0.4054122021 0.5186110574
1.0000000000 0.4719422188 0.5882056040
0.0000000000 0.0000000000 0.0000000000
0.0000000000 0.0000000000 0.0000000000
0.0000000000 0.0000000000 0.0000000000
0.0000000000 0.0000000000 0.0000000000
0.0000000000 0.0000000000 0.0000000000
0.0000000000 0.0000000000 0.0000000000
0.0000000000 0.0000000000 0.0000000000
0.0077185900 0.0000000000 0.0000000000
0.0523936866 0.0000000000 0.0000000000
0.1277033215 0.0000000000 0.0000000000
0.2084652671 0.0015782452 0.0015782452
0.2863990776 0.0028850576 0.0028850576
0.3575623125 0.0039204682 0.0036493794
0.4235782318 0.0052035744 0.0047347357
0.4904764630 0.0067571439 0.0059679587
0.5564883808 0.0075215595 0.0071026040
0.6211721372 0.0098396385 0.0082860377
0.6847521115 0.0114183495 0.0098396072
0.7397513941 0.0141060672 0.0121690652
0.7871122919 0.0167453996 0.0151671544
0.8279019994 0.0206175172 0.0204197362
0.8656307062 0.0273617932 0.0302633703
0.9028299501 0.0374870237 0.0478831907
0.9383694182 0.0533334650 0.0737669452
0.9734098150 0.0757497798 0.1093131948
0.9960005810 0.1046792218 0.1526854243
1.0000000000 0.1422233668 0.2008716774
1.0000000000 0.1851799697 0.2539916014
1.0000000000 0.2327669948 0.3142752831
1.0000000000 0.2852031867 0.3791370045
1.0000000000 0.3430942551 0.4472872388
1.0000000000 0.4056592856 0.5186074357
1.0000000000 0.4720842453 0.5882072563
0.0000000000 0.0000000000 0.0000000000
0.0000000000 0.0000000000 0.0000000000
0.0000000000 0.0000000000 0.0000000000
0.0000000000 0.0000000000 0.0000000000
0.0000000000 0.0000000000 0.0000000000
0.0000000000 0.0000000000 0.0000000000
0.0000000000 0.0000000000 0.0000000000
0.0171897189 0.0000000000 0.0000000000
0.0723542564 0.0000000000 0.0000000000
0.1465592001 0.0006189366 0.0006189366
0.2228777551 0.0021204230 0.0021204230
0.2976849286 0.0028850576 0.0028850576
0.3669062583 0.0039451127 0.0038958238
0.4316649508 0.0052035744 0.0052035744
0.4966129435 0.0067571439 0.0059679587
0.5608152894 0.0083107134 0.0075215595
0.6246019828 0.0098642829 0.0082860377
0.6869618118 0.0117812726 0.0098396072
0.7412852419 0.0141060672 0.0121690652
0.7880184497 0.0172142383 0.0151671544
0.8283696384 0.0213574135 0.0201240028
0.8660373487 0.0276286444 0.0299567644
0.9031741811 0.0382419786 0.0469959457
0.9385915112 0.0539274993 0.0732379815
0.9735673081 0.0762285935 0.1085989284
0.9961429288 0.1050510036 0.1522181547
1.0000000000 0.1422876232 0.2003781036
1.0000000000 0.1853922722 0.2537053984
1.0000000000 0.2330977159 0.3140656117
1.0000000000 0.2854548348 0.3790416490
1.0000000000 0.3433057426 0.4472121942
1.0000000000 0.4057478189 0.5184827049
1.0000000000 0.4721542584 0.5881517320
0.0000000000 0.0000000000 0.0000000000
0.0000000000 0.0000000000 0.0000000000
0.0000000000 0.0000000000 0.0000000000
0.0000000000 0.0000000000 0.0000000000
0.0000000000 0.0000000000 0.0000000000
0.0000000000 0.0000000000 0.0000000000
0.0032054041 0.0003896474 0.0003896474
0.0319682438 0.0000000000 0.0000000000
0.0947192082 0.0001284456 0.0001284456
0.1653897185 0.0013561638 0.0013561638
0.2369211116 0.0021204230 0.0021204230
0.3083976257 0.0030824633 0.0028850576
0.3737268408 0.0044386271 0.0039451127
0.4371696512 0.0052035744 0.0052035744
0.5016018510 0.0067571439 0.0059679587
0.5656048981 0.0083107134 0.0075215595
0.6286711116 0.0098642829 0.0082860377
0.6893408115 0.0121168407 0.0098396072
0.7429298958 0.0148216630 0.0121690652
0.7889970026 0.0179289272 0.0151671544
0.8289363212 0.0217028736 0.0201240028
0.8664644464 0.0280647566 0.0294201475
0.9034645682 0.0382419786 0.0463641703
0.9388994085 0.0545369301 0.0722555757
0.9737712109 0.0763714659 0.1081658098
0.9961982600 0.1057566219 0.1516982099
1.0000000000 0.1428171290 0.2001771041
1.0000000000 0.1858151854 0.2535503913
1.0000000000 0.2335238450 0.3140487128
1.0000000000 0.2856074203 0.3789533396
1.0000000000 0.3435289250 0.4470797023
1.0000000000 0.4060024660 0.5184808940
1.0000000000 0.4723662979 0.5881088650
0.0000000000 0.0000000000 0.0000000000
0.0000000000 0.0000000000 0.0000000000
0.0000000000 0.0000000000 0.0000000000
0.0000000000 0.0000000000 0.0000000000
0.0000000000 0.0000000000 0.0000000000
0.0000000000 0.0000000000 0.0000000000
0.0104566878 0.0005864811 0.0000000000
0.0506430012 0.0001277827 0.0000000000
0.1153376901 0.0005864811 0.0001284456
0.1826724497 0.0013561638 0.0013561638
0.2503259133 0.0022682897 0.0021204230
0.3186864224 0.0036740238 0.0031564905
0.3810961340 0.0044386271 0.0044386271
0.4430439069 0.0055243587 0.0052035744
0.5062469951 0.0067571439 0.0059679587
0.5691037842 0.0083107134 0.0075215595
0.6319782831 0.0105552031 0.0082860377
0.6917654717 0.0125771421 0.0098396072
0.7444403463 0.0148956902 0.0121690652
0.7900475469 0.0180028605 0.0148463700
0.8295873572 0.0221957625 0.0197296917
0.8670596455 0.0284042932 0.0291394187
0.9038140362 0.0390120824 0.0456812206
0.9391187245 0.0547588432 0.0717512338
0.9739206980 0.0768628916 0.1074438003
0.9961240659 0.1060418188 0.1511765395
1.0000000000 0.1431217684 0.1999559272
1.0000000000 0.1860845342 0.2532939757
1.0000000000 0.2337171860 0.3139070750
1.0000000000 0.2859720854 0.3789168572
1.0000000000 0.3438071466 0.4470664500
1.0000000000 0.4061627737 0.5183607528
1.0000000000 0.4725083244 0.5880988575
0.0000000000 0.0000000000 0.0000000000
0.0000000000 0.0000000000 0.0000000000
0.0000000000 0.0000000000 0.0000000000
0.0000000000 0.0000000000 0.0000000000
0.0000000000 0.0005202482 0.0000000000
0.0013316444 0.0046611777 0.0000000000
0.0190886234 0.0116840511 0.0000000000
0.0598973878 0.0171149412 0.0026878707
0.1205041428 0.0111715165 0.0016028271
0.1915874211 0.0046607398 0.0013561638
0.2603194511 0.0036985119 0.0021204230
0.3275139854 0.0038218905 0.0031564905
0.3876569600 0.0051048715 0.0044386271
0.4492227485 0.0059926032 0.0052035744
0.5111292063 0.0074228254 0.0063129809
0.5726520432 0.0089764262 0.0075215595
0.6351882209 0.0106539059 0.0082860377
0.6946897864 0.0128732507 0.0098396072
0.7462696245 0.0156847503 0.0117329529
0.7914499303 0.0186691049 0.0148463700
0.8304936328 0.0229850102 0.0193350053
0.8676654776 0.0289137365 0.0283223969
0.9041842013 0.0392360333 0.0449913573
0.9394055608 0.0552221944 0.0707174595
0.9740852276 0.0773523094 0.1067172507
0.9962708706 0.1065408744 0.1506529240
1.0000000000 0.1436749246 0.1995716845
1.0000000000 0.1866243282 0.2532585249
1.0000000000 0.2340333909 0.3136012051
1.0000000000 0.2862605677 0.3787726184
1.0000000000 0.3440171525 0.4468563996
1.0000000000 0.4064089158 0.5182450138
1.0000000000 0.4726382549 0.5880365680
0.0000000000 0.0012823243 0.0000000000
0.0012823243 0.0003896474 0.0012823243
0.0000000000 0.0039455505 0.0000000000
0.0000000000 0.0080637998 0.0000000000
0.0000000000 0.0143040984 0.0000000000
0.0000000000 0.0257615159 0.0000000000
0.0197296917 0.0348053406 0.0000000000
0.0619432043 0.0406160034 0.0000000000
0.1181293046 0.0450097043 0.0084830681
0.1871015637 0.0349072354 0.0066585348
0.2621374768 0.0170657148 0.0030578501
0.3324782354 0.0090997422 0.0031564905
0.3939968519 0.0069545496 0.0044386271
0.4549754347 0.0069545496 0.0052035744
0.5164398173 0.0081875225 0.0063129809
0.5770633956 0.0097410920 0.0075215595
0.6386233476 0.0112949486 0.0082860377
0.6975078051 0.0136378540 0.0098396072
0.7484783047 0.0163258811 0.0117329529
0.7929716971 0.0199018901 0.0145255857
0.8317347936 0.0240701163 0.0193350053
0.8683590242 0.0303197863 0.0280416681
0.9046036005 0.0399933272 0.0435651787
0.9396949556 0.0560001786 0.0700737604
0.9742428145 0.0782293712 0.1059858499
0.9963186566 0.1069667522 0.1498597202
1.0000000000 0.1443941339 0.1992199123
1.0000000000 0.1870269416 0.2528108380
1.0000000000 0.2344786783 0.3134745260
1.0000000000 0.2866024471 0.3785810621
1.0000000000 0.3443255100 0.4467786238
1.0000000000 0.4066608638 0.5182315572
1.0000000000 0.4728480753 0.5879582540
0.0000000000 0.0135392762 0.0000000000
0.0000000000 0.0192611033 0.0000000000
0.0000000000 0.0264399127 0.0000000000
0.0000000000 0.0363055063 0.0000000000
0.0000000000 0.0475510685 0.0000000000
0.0000000000 0.0611836771 0.0000000000
0.0085324196 0.0716685059 0.0000000000
0.0517315301 0.0772614220 0.0000000000
0.1110765010 0.0773409837 0.0000000000
0.1782028119 0.0770242426 0.0103333718
0.2525941955 0.0666650624 0.0142048639
0.3297980277 0.0414966094 0.0083849282
0.3960810243 0.0231329081 0.0053021209
0.4596955745 0.0134649989 0.0052035744
0.5217113035 0.0113193411 0.0061404698
0.5821940142 0.0114908643 0.0075215595
0.6430000097 0.0128485438 0.0082860377
0.7007834153 0.0147722803 0.0098396072
0.7510814598 0.0178796696 0.0113937069
0.7947867504 0.0213079995 0.0140567470
0.8329755754 0.0257858059 0.0187184876
0.8692940430 0.0318471322 0.0272239662
0.9052714908 0.0411142556 0.0426434884
0.9402080347 0.0570855632 0.0686027920
0.9745385362 0.0791753593 0.1048778337
0.9963910280 0.1082679259 0.1491228310
1.0000000000 0.1451367121 0.1986373399
1.0000000000 0.1878972971 0.2524300788
1.0000000000 0.2349965470 0.3131390204
1.0000000000 0.2870743777 0.3784541721
1.0000000000 0.3447397215 0.4466263621
1.0000000000 0.4069783095 0.5181077943
1.0000000000 0.4731836067 0.5878961515
0.0000000000 0.0488494896 0.0000000000
0.0000000000 0.0575272477 0.0000000000
0.0000000000 0.0675831609 0.0000000000
0.0000000000 0.0791064957 0.0000000000
0.0000000000 0.0901983340 0.0000000000
0.0000000000 0.1030853057 0.0000000000
0.0000000000 0.1169101057 0.0000000000
0.0293395485 0.1222845090 0.0000000000
0.0917717106 0.1237407438 0.0000000000
0.1651832525 0.1189914787 0.0000000000
0.2404837095 0.1144909676 0.0098645957
0.3181761811 0.1043348778 0.0208889189
0.3906440474 0.0769245080 0.0160798120
0.4591825158 0.0486020624 0.0107525463
0.5248624002 0.0273861446 0.0068559093
0.5867503037 0.0182742309 0.0071026040
0.6478583058 0.0165725758 0.0082860377
0.7041402291 0.0173372729 0.0098396072
0.7537205869 0.0200254876 0.0113937069
0.7970579965 0.0239222809 0.0140567470
0.8347965301 0.0283559593 0.0182496490
0.8705014977 0.0347322555 0.0264062643
0.9061678650 0.0438412056 0.0409630132
0.9408413647 0.0587139196 0.0662969486
0.9748600272 0.0806921467 0.1028036345
0.9964432726 0.1095787341 0.1477867800
1.0000000000 0.1462447449 0.1978736662
1.0000000000 0.1887960974 0.2517793557
1.0000000000 0.2357838872 0.3126281420
1.0000000000 0.2877551509 0.3780734707
1.0000000000 0.3453357574 0.4464019731
1.0000000000 0.4074829902 0.5179360123
1.0000000000 0.4735845253 0.5878043071
0.0000000000 0.1002568708 0.0000000000
0.0000000000 0.1094867552 0.0000000000
0.0000000000 0.1188961324 0.0000000000
0.0000000000 0.1293456311 0.0000000000
0.0000000000 0.1392197305 0.0000000000
0.0000000000 0.1500268976 0.0000000000
0.0000000000 0.1628707167 0.0000000000
0.0020221893 0.1744133894 0.0000000000
0.0587902222 0.1761155763 0.0000000000
0.1375032373 0.1746083872 0.0000000000
0.2222374861 0.1651196008 0.0000000000
0.3038446890 0.1563438644 0.0084093850
0.3790233793 0.1473045698 0.0264836363
0.4521465178 0.1197212391 0.0254890238
0.5217867340 0.0852557214 0.0184466794
0.5879618584 0.0505758269 0.0115391840
0.6513837197 0.0311925642 0.0090255899
0.7079730604 0.0251055472 0.0094694714
0.7567347662 0.0252760706 0.0113937069
0.7993452422 0.0278707445 0.0132681248
0.8367758604 0.0327439541 0.0174606515
0.8722207088 0.0390891524 0.0250113103
0.9073913166 0.0477940784 0.0397996808
0.9416508902 0.0614325961 0.0637629384
0.9753147743 0.0831938373 0.1001322556
0.9965053453 0.1118419446 0.1455768967
1.0000000000 0.1480592860 0.1961648451
1.0000000000 0.1901936535 0.2506809457
1.0000000000 0.2368365530 0.3119327767
1.0000000000 0.2886159780 0.3776486146
1.0000000000 0.3460410204 0.4460526650
1.0000000000 0.4081915705 0.5177045344
1.0000000000 0.4740316087 0.5876857449
0.0000000000 0.1600286626 0.0000000000
0.0000000000 0.1674365226 0.0000000000
0.0000000000 0.1761575127 0.0000000000
0.0000000000 0.1840835059 0.0000000000
0.0000000000 0.1927584815 0.0000000000
0.0000000000 0.2012199108 0.0000000000
0.0000000000 0.2122904690 0.0000000000
0.0000000000 0.2255570010 0.0000000000
0.0130212112 0.2335595861 0.0000000000
0.0951955715 0.2327829919 0.0000000000
0.1881133039 0.2285041819 0.0000000000
0.2816641997 0.2160762567 0.0000000000
0.3640562362 0.2028662339 0.0056722879
0.4397767530 0.1913858930 0.0264835392
0.5142034672 0.1670791613 0.0346046589
0.5832172978 0.1291411390 0.0281946310
0.6508851922 0.0857720861 0.0193841691
0.7103650306 0.0537852998 0.0133666400
0.7595936519 0.0396742358 0.0121170728
0.8015636924 0.0370355884 0.0132681248
0.8387422376 0.0401289333 0.0166714037
0.8740564464 0.0461109250 0.0237250003
0.9088350359 0.0542796921 0.0375159669
0.9428150530 0.0668199010 0.0605508487
0.9759857461 0.0868649068 0.0963443472
0.9965680779 0.1151239694 0.1424505764
1.0000000000 0.1506960845 0.1938298992
1.0000000000 0.1920574479 0.2490878210
1.0000000000 0.2383984507 0.3109243544
1.0000000000 0.2899399671 0.3770420979
1.0000000000 0.3471036275 0.4456320986
1.0000000000 0.4089463162 0.5173748953
1.0000000000 0.4747011712 0.5875267787
0.0000000000 0.2227197298 0.0000000000
0.0000000000 0.2293463322 0.0000000000
0.0000000000 0.2363225787 0.0000000000
0.0000000000 0.2429581392 0.0000000000
0.0000000000 0.2492724696 0.0000000000
0.0000000000 0.2562932360 0.0000000000
0.0000000000 0.2651472101 0.0000000000
0.0000000000 0.2762133477 0.0000000000
0.0000000000 0.2889972059 0.0000000000
0.0342042412 0.2944086308 0.0000000000
0.1379604627 0.2913989103 0.0000000000
0.2425746183 0.2848941230 0.0000000000
0.3402675828 0.2704295611 0.0000000000
0.4226958918 0.2535470147 0.0032302987
0.5015696177 0.2383286645 0.0226641945
0.5750828513 0.2169317969 0.0405035878
0.6448060299 0.1791199994 0.0391290772
0.7077239869 0.1307580551 0.0292666665
0.7599709946 0.0885147602 0.0211600077
0.8034030083 0.0651868982 0.0177808729
0.8403486762 0.0581948806 0.0192363650
0.8757655455 0.0602069675 0.0244898361
0.9104028126 0.0661393337 0.0364985743
0.9443136606 0.0762122482 0.0576811891
0.9767709597 0.0931247712 0.0920501338
0.9967501710 0.1197464441 0.1383201642
1.0000000000 0.1544314995 0.1907533197
1.0000000000 0.1950394563 0.2469276720
1.0000000000 0.2407095605 0.3096327347
1.0000000000 0.2917792897 0.3761492957
1.0000000000 0.3485029943 0.4451616266
1.0000000000 0.4100065504 0.5170678608
1.0000000000 0.4756464726 0.5873509775
0.0000000000 0.2872897888 0.0000000000
0.0000000000 0.2929264934 0.0000000000
0.0000000000 0.2979034506 0.0000000000
0.0000000000 0.3030691988 0.0000000000
0.0000000000 0.3080709531 0.0000000000
0.0000000000 0.3131622204 0.0000000000
0.0000000000 0.3199616725 0.0000000000
0.0000000000 0.3278226793 0.0000000000
0.0000000000 0.3382501550 0.0000000000
0.0006920230 0.3491394426 0.0000000000
0.0654250154 0.3520404996 0.0000000000
0.1862104007 0.3475186586 0.0000000000
0.2994719663 0.3398559340 0.0000000000
0.3963950160 0.3244693662 0.0000000000
0.4828591773 0.3050729868 0.0022189382
0.5621493843 0.2873630173 0.0185703708
0.6361573186 0.2670691773 0.0407973299
0.7011138467 0.2332041853 0.0481338453
0.7555397533 0.1837982964 0.0413963576
0.8017794872 0.1345670722 0.0326893359
0.8406687760 0.1023296135 0.0279134164
0.8767589242 0.0895481999 0.0302887291
0.9115594967 0.0888965836 0.0395534091
0.9456742861 0.0932114187 0.0567398557
0.9779789903 0.1042800646 0.0879598198
0.9970291094 0.1271737361 0.1332817012
1.0000000000 0.1600026972 0.1868783302
1.0000000000 0.1994590253 0.2444138603
1.0000000000 0.2444480522 0.3078700413
1.0000000000 0.2948559844 0.3748481407
1.0000000000 0.3505064038 0.4444243087
1.0000000000 0.4114298936 0.5166318805
1.0000000000 0.4768382575 0.5870010897
0.0000000000 0.3496589408 0.0000000000
0.0000000000 0.3533438790 0.0000000000
0.0000000000 0.3564723426 0.0000000000
0.0000000000 0.3602740418 0.0000000000
0.0000000000 0.3636594335 0.0000000000
0.0000000000 0.3676689422 0.0000000000
0.0000000000 0.3721946785 0.0000000000
0.0000000000 0.3787208992 0.0000000000
0.0000000000 0.3866283852 0.0000000000
0.0000000000 0.3968860459 0.0000000000
0.0078670509 0.4069559330 0.0000000000
0.1030619758 0.4082604262 0.0000000000
0.2386588610 0.4028735777 0.0000000000
0.3545866692 0.3941372138 0.0000000000
0.4542442944 0.3778884734 0.0000000000
0.5424544387 0.3564588508 0.0014796049
0.6225692581 0.3366399243 0.0155367585
0.6928273522 0.3161453273 0.0382620698
0.7489161055 0.2870092893 0.0532893152
0.7964811097 0.2411430075 0.0533064177
0.8375688752 0.1888850032 0.0467631929
0.8757423534 0.1491701970 0.0426054936
0.9115527784 0.1292792133 0.0467914343
0.9463390146 0.1236201627 0.0607178754
0.9789522198 0.1260992013 0.0866384966
0.9973774598 0.1403600165 0.1284274717
1.0000000000 0.1686381176 0.1823323030
1.0000000000 0.2056629123 0.2414243891
1.0000000000 0.2496668778 0.3054518544
1.0000000000 0.2991001228 0.3729268467
1.0000000000 0.3538739059 0.4432810112
1.0000000000 0.4135900549 0.5159402879
1.0000000000 0.4783787638 0.5866326835
0.0000000000 0.4092491371 0.0000000000
0.0000000000 0.4121685708 0.0000000000
0.0000000000 0.4148665442 0.0000000000
0.0000000000 0.4170892079 0.0000000000
0.0000000000 0.4198749980 0.0000000000
0.0000000000 0.4231528682 0.0000000000
0.0000000000 0.4271461961 0.0000000000
0.0000000000 0.4319714777 0.0000000000
0.0000000000 0.4381647445 0.0000000000
0.0000000000 0.4464473826 0.0000000000
0.0000000000 0.4565311150 0.0000000000
0.0194777117 0.4656862516 0.0000000000
0.1459884807 0.4656220399 0.0000000000
0.2917695332 0.4595576882 0.0000000000
0.4096102645 0.4503469305 0.0000000000
0.5123053638 0.4325528964 0.0000000000
0.6017528674 0.4097176952 0.0005864605
0.6799269933 0.3873685794 0.0118532159
0.7414710329 0.3651505975 0.0326124821
0.7906368904 0.3382854922 0.0531447534
0.8319445077 0.2978592621 0.0639294573
0.8716620860 0.2464927371 0.0631736809
0.9095208010 0.2010845473 0.0621410920
0.9459169961 0.1738213960 0.0703463506
0.9790573612 0.1633379276 0.0912470498
0.9974358889 0.1651247651 0.1260441752
1.0000000000 0.1825976687 0.1770329681
1.0000000000 0.2153053832 0.2371534030
1.0000000000 0.2572997329 0.3021431941
1.0000000000 0.3050643125 0.3705325962
1.0000000000 0.3585550954 0.4417927196
1.0000000000 0.4171024120 0.5146965389
1.0000000000 0.4804498691 0.5859511459
0.0000000000 0.4688862515 0.0000000000
0.0000000000 0.4711958920 0.0000000000
0.0000000000 0.4734550949 0.0000000000
0.0000000000 0.4754986325 0.0000000000
0.0000000000 0.4775489839 0.0000000000
0.0000000000 0.4797679293 0.0000000000
0.0000000000 0.4826926314 0.0000000000
0.0000000000 0.4866015796 0.0000000000
0.0000000000 0.4917360066 0.0000000000
0.0000000000 0.4981241736 0.0000000000
0.0000000000 0.5063907607 0.0000000000
0.0000000000 0.5163923120 0.0000000000
0.0400546340 0.5246291235 0.0000000000
0.1923842428 0.5239512941 0.0000000000
0.3436415843 0.5173970712 0.0000000000
0.4659626495 0.5070040191 0.0000000000
0.5705682137 0.4885415354 0.0000000000
0.6594841138 0.4648063983 0.0000000000
0.7294859975 0.4402325334 0.0077680978
0.7836483752 0.4154117530 0.0258448391
0.8264005442 0.3884059924 0.0494367491
0.8662804423 0.3516190063 0.0708774703
0.9050098289 0.3028961534 0.0817251481
0.9435837667 0.2538758451 0.0876766542
0.9779803663 0.2203553998 0.1021180707
0.9971885286 0.2055375420 0.1300128289
1.0000000000 0.2073463932 0.1735950193
1.0000000000 0.2305865408 0.2314763286
1.0000000000 0.2683118576 0.2977704978
1.0000000000 0.3135966425 0.3675191148
1.0000000000 0.3651110688 0.4393560604
1.0000000000 0.4221586566 0.5128104964
1.0000000000 0.4835444153 0.5846394487
0.0000000000 0.5290357062 0.0000000000
0.0000000000 0.5306128746 0.0000000000
0.0000000000 0.5321541133 0.0000000000
0.0000000000 0.5337744978 0.0000000000
0.0000000000 0.5355435006 0.0000000000
0.0000000000 0.5374765738 0.0000000000
0.0000000000 0.5397957655 0.0000000000
0.0000000000 0.5425176899 0.0000000000
0.0000000000 0.5464226555 0.0000000000
0.0000000000 0.5514547577 0.0000000000
0.0000000000 0.5580721014 0.0000000000
0.0000000000 0.5662851442 0.0000000000
0.0033536460 0.5761445357 0.0000000000
0.0696125042 0.5834883190 0.0000000000
0.2401638894 0.5821896926 0.0000000000
0.3960958935 0.5755793046 0.0000000000
0.5232345101 0.5651576050 0.0000000000
0.6284793487 0.5464760475 0.0000000000
0.7109745972 0.5218546814 0.0000000000
0.7726517916 0.4954175062 0.0044388147
0.8197090416 0.4683213278 0.0193348802
0.8608978944 0.4396644900 0.0454997962
0.8997907638 0.4039383940 0.0773918262
0.9391553552 0.3563131832 0.1029740459
0.9753558989 0.3043856451 0.1195607604
0.9965306917 0.2654577475 0.1411188549
1.0000000000 0.2489229106 0.1768282417
1.0000000000 0.2569667889 0.2277375478
1.0000000000 0.2855368318 0.2928647052
1.0000000000 0.3263399724 0.3634931752
1.0000000000 0.3745915800 0.4362098456
1.0000000000 0.4290549574 0.5103244659
1.0000000000 0.4890324083 0.5829904900
0.0000000000 0.5893393078 0.0000000000
0.0000000000 0.5904437939 0.0000000000
0.0000000000 0.5915214709 0.0000000000
0.0000000000 0.5926259570 0.0000000000
0.0000000000 0.5938098689 0.0000000000
0.0000000000 0.5952324339 0.0000000000
0.0000000000 0.5970015136 0.0000000000
0.0000000000 0.5992427065 0.0000000000
0.0000000000 0.6022898893 0.0000000000
0.0000000000 0.6061254812 0.0000000000
0.0000000000 0.6110600686 0.0000000000
0.0000000000 0.6174576141 0.0000000000
0.0000000000 0.6255360111 0.0000000000
0.0111222312 0.6347032624 0.0000000000
0.1078467307 0.6406919521 0.0000000000
0.2890185508 0.6391365292 0.0000000000
0.4514328279 0.6331220756 0.0000000000
0.5808473665 0.6229419823 0.0037976526
0.6826918566 0.6045577347 0.0053758978
0.7556575036 0.5805674986 0.0031564905
0.8091710046 0.5536633269 0.0041183744
0.8536694381 0.5240017985 0.0174358819
0.8940610758 0.4925062754 0.0454536839
0.9338208806 0.4557436419 0.0874374620
0.9709727985 0.4093554650 0.1294713991
0.9951972988 0.3547434664 0.1587789096
1.0000000000 0.3141833695 0.1886712450
1.0000000000 0.3019247922 0.2308342262
1.0000000000 0.3145051393 0.2888019399
1.0000000000 0.3460090246 0.3590210543
1.0000000000 0.3890311863 0.4329897944
1.0000000000 0.4395485559 0.5075749239
1.0000000000 0.4967958972 0.5813088447
0.0024169069 0.6465864712 0.0000000000
0.0024169069 0.6474493844 0.0000000000
0.0024169069 0.6484130331 0.0000000000
0.0027619292 0.6492986087 0.0000000000
0.0027619292 0.6501575996 0.0000000000
0.0027619292 0.6510789742 0.0000000000
0.0034031226 0.6523520514 0.0000000000
0.0035509892 0.6538534333 0.0000000000
0.0038960115 0.6558446086 0.0000000000
0.0042414715 0.6586132153 0.0000000000
0.0053761168 0.6621887641 0.0000000000
0.0070283891 0.6666419167 0.0000000000
0.0096179010 0.6723456270 0.0000000000
0.0136131783 0.6793903896 0.0000000000
0.0408724005 0.6871251210 0.0000000000
0.1568236726 0.6918741912 0.0000000000
