bundles/resolve-cinematic-luts/Gamut/_Conversion/Sony/Sony FX3 BaseLUTs/BaseLUT - Sony FX3 - S-Log3 to Rec709 (Bold).cube
TITLE "BaseLUT - Sony FX3 - S-Log3 to Rec709 (Bold)"
# Developed for converting S-Log3 / S-Gamut3.Cine to Rec.709. Version 1.0 - 05/01/2025 - Copyright 2025 Gamut, LLC.
LUT_3D_SIZE 5
0.0000000000 0.0000000000 0.0000000000
0.0330112665 0.0000000000 0.0000000000
0.6185348781 0.0094699718 0.0082860377
0.9733498951 0.0752686444 0.1099449920
1.0000000000 0.4719422188 0.5882056040
0.0000000000 0.0488494896 0.0000000000
0.0917717106 0.1237407438 0.0000000000
0.6478583058 0.0165725758 0.0082860377
0.9748600272 0.0806921467 0.1028036345
1.0000000000 0.4735845253 0.5878043071
0.0000000000 0.5290357062 0.0000000000
0.0000000000 0.5464226555 0.0000000000
0.5232345101 0.5651576050 0.0000000000
0.9753558989 0.3043856451 0.1195607604
1.0000000000 0.4890324083 0.5829904900
0.4181914825 0.8706884225 0.1328371181
0.4217394411 0.8717459964 0.1345562560
0.4489311918 0.8800205026 0.1468864374
0.8802640548 0.9039822565 0.2449989385
1.0000000000 0.7443815802 0.5641447876
0.9473202571 0.9959507701 0.6675827513
0.9475187959 0.9959507701 0.6679012379
0.9485579146 0.9960052427 0.6697602410
0.9577457689 0.9967106370 0.6852088369
1.0000000000 1.0000000000 0.7323259380
0.0029590847 0.0029590847 0.1060486658
0.1287982306 0.0000000000 0.1375689311
0.6333274790 0.0074969151 0.0829519585
0.9747276780 0.0733837584 0.1609775103
1.0000000000 0.4712340866 0.5951558471
0.0000000000 0.1531669862 0.1394694213
0.1614717495 0.1614696242 0.1614707764
0.6690508111 0.0116359459 0.0617374866
0.9764226986 0.0790356556 0.1532820134
1.0000000000 0.4728261337 0.5948528168
0.0000000000 0.5606950955 0.0000000000
0.0000000000 0.5759540719 0.0000000000
0.5468792781 0.5808750245 0.0000000000
0.9767034090 0.2882520043 0.1404739244
1.0000000000 0.4882187564 0.5895798402
0.4248926478 0.8727616886 0.1361005580
0.4284598379 0.8738478523 0.1377025558
0.4551279271 0.8819885116 0.1498555789
0.8818699747 0.9051629356 0.2468993239
1.0000000000 0.7445351855 0.5714486145
0.9476047306 0.9959507701 0.6680370190
0.9477970960 0.9959507701 0.6684346280
0.9488490556 0.9960460971 0.6702689210
0.9579494935 0.9967503275 0.6855051093
1.0000000000 1.0000000000 0.7328930482
0.0236756801 0.0564729352 0.6176374340
0.1485683283 0.0391698674 0.6171291590
0.5913784011 0.0149943305 0.6036329638
0.9760684330 0.0771103613 0.4933378396
1.0000000000 0.4674252493 0.6409637269
0.0175593543 0.0749275579 0.6378247592
0.1318298516 0.0506292353 0.6396385056
0.6075789693 0.0175591041 0.6191285899
0.9780444143 0.0804577281 0.4906711293
1.0000000000 0.4687596890 0.6406522624
0.0000000000 0.5912602007 0.5681996587
0.0000000000 0.5971477899 0.5767962560
0.5816289078 0.5816258628 0.5816259881
0.9820703100 0.1982736464 0.4398047494
1.0000000000 0.4836839101 0.6363957221
0.4689276804 0.8864000232 0.1727516518
0.4723248397 0.8874230477 0.1741287882
0.4963041738 0.8952363737 0.1842290824
0.8936417026 0.9136028870 0.2651934896
1.0000000000 0.7450606253 0.6243799330
0.9497511232 0.9961005697 0.6720400658
0.9498716294 0.9961141879 0.6722991482
0.9509705073 0.9962359642 0.6738840931
0.9596257249 0.9968885091 0.6890062153
1.0000000000 1.0000000000 0.7343129320
0.3095889946 0.3380197853 0.9498127245
0.3536259982 0.3396486391 0.9486900547
0.5436687352 0.2950913525 0.9516670558
0.9204050993 0.2620282896 0.9516849319
1.0000000000 0.5025095953 0.9016506644
0.2930211291 0.3388315643 0.9519286512
0.3470061636 0.3446282564 0.9499861983
0.5429686564 0.2984001468 0.9529712562
0.9213282065 0.2637057972 0.9528091123
1.0000000000 0.5032297290 0.9015575917
0.1779563068 0.3944928534 0.9634236829
0.2208572437 0.3916349317 0.9623443452
0.5315483253 0.3586640387 0.9593876052
0.9285357132 0.2767458090 0.9603691849
1.0000000000 0.5115235275 0.9005881887
0.5860293179 0.9066053208 0.8907402192
0.5871396849 0.9070098891 0.8913605820
0.5952592906 0.9101876399 0.8960231364
0.9111272751 0.9111271776 0.9111288524
1.0000000000 0.7040406776 0.8819634297
0.9652335441 0.9971330772 0.7155053497
0.9653534867 0.9971595806 0.7156832617
0.9662243204 0.9972582320 0.7168393133
0.9739145684 0.9979328405 0.7272947171
1.0000000000 1.0000000000 0.7488626376
0.7832940651 0.7800389108 1.0000000000
0.7857546195 0.7793565884 1.0000000000
0.8015258749 0.7755235419 1.0000000000
0.9118721617 0.7552492017 1.0000000000
1.0000000000 0.7663354789 1.0000000000
0.7826170434 0.7804493076 1.0000000000
0.7851269041 0.7798141457 1.0000000000
0.8013476190 0.7759279182 1.0000000000
0.9118571628 0.7555587218 1.0000000000
1.0000000000 0.7664870500 1.0000000000
0.7762430286 0.7815114228 1.0000000000
0.7796203779 0.7821528560 1.0000000000
0.7984569028 0.7793475576 1.0000000000
0.9118786612 0.7579905908 1.0000000000
1.0000000000 0.7679848121 1.0000000000
0.7109451528 0.8158021855 1.0000000000
0.7141835012 0.8160313088 1.0000000000
0.7401225661 0.8180796309 1.0000000000
0.9103203376 0.8040580620 1.0000000000
1.0000000000 0.7801590698 1.0000000000
0.9866202835 1.0000000000 1.0000000000
0.9866202835 1.0000000000 1.0000000000
0.9868909931 1.0000000000 1.0000000000
0.9891154230 1.0000000000 1.0000000000
1.0000000000 1.0000000000 1.0000000000
