bundles/resolve-cinematic-luts/Gamut/_Conversion/Sony/Sony FX3 BaseLUTs/BaseLUT - Sony FX3 - S-Log3 to Rec709.cube
TITLE "BaseLUT - Sony FX3 - S-Log3 to Rec709"
# Developed for converting S-Log3 / S-Gamut3.Cine to Rec.709. Version 1.0 - 05/01/2025 - Copyright 2025 Gamut, LLC.
LUT_3D_SIZE 33
0.0000000000 0.0000000000 0.0000000000
0.0000000000 0.0000000000 0.0000000000
0.0000000000 0.0000000000 0.0000000000
0.0000000000 0.0000000000 0.0000000000
0.0000000000 0.0000000000 0.0000000000
0.0000000000 0.0000000000 0.0000000000
0.0000000000 0.0000000000 0.0000000000
0.0043159052 0.0002587191 0.0002587191
0.0301860668 0.0025645234 0.0025645234
0.0966859776 0.0112950368 0.0112950368
0.1751966677 0.0211596950 0.0211596950
0.2530316432 0.0312471540 0.0312471540
0.3257753469 0.0403053009 0.0403053009
0.3904721217 0.0485923394 0.0485923394
0.4544283479 0.0566269912 0.0566269912
0.5181865068 0.0650189875 0.0647281643
0.5801485227 0.0736909246 0.0729284336
0.6401192840 0.0825494020 0.0813976966
0.6929896591 0.0910439237 0.0900052815
0.7377611690 0.1001991635 0.0995691316
0.7774846648 0.1112775040 0.1115339541
0.8136057735 0.1257680199 0.1287615649
0.8503025871 0.1454180411 0.1539123219
0.8856965246 0.1721460420 0.1885223458
0.9221019576 0.2061161361 0.2325596678
0.9536646237 0.2459196555 0.2833223557
0.9777521018 0.2915047749 0.3364681367
0.9932824224 0.3390238218 0.3911055220
0.9969682211 0.3869579593 0.4479243614
0.9974507487 0.4361723680 0.5059479425
0.9976093461 0.4872902145 0.5643854823
0.9977980241 0.5400715726 0.6238327926
0.9979325127 0.5940256847 0.6791082356
0.0000000000 0.0000000000 0.0000000000
0.0000000000 0.0000000000 0.0000000000
0.0000000000 0.0000000000 0.0000000000
0.0000000000 0.0000000000 0.0000000000
0.0000000000 0.0000000000 0.0000000000
0.0000000000 0.0000000000 0.0000000000
0.0000000000 0.0000000000 0.0000000000
0.0091495628 0.0003893012 0.0003893012
0.0505170767 0.0054991826 0.0054991826
0.1194550494 0.0144024573 0.0144024573
0.1951436610 0.0237496447 0.0237496447
0.2682849318 0.0330718437 0.0330718437
0.3352565829 0.0418038582 0.0415080936
0.3975594267 0.0495362716 0.0492743149
0.4599294871 0.0574982411 0.0572429147
0.5221737702 0.0658237162 0.0652689972
0.5827641153 0.0742004278 0.0731794055
0.6423613363 0.0827867670 0.0816131394
0.6944691880 0.0914686179 0.0900052815
0.7387870465 0.1005893741 0.0994137358
0.7780604987 0.1116323099 0.1114061040
0.8140902792 0.1260726689 0.1284631136
0.8506102793 0.1459550721 0.1535869044
0.8859245230 0.1724894066 0.1882601189
0.9222804335 0.2064895437 0.2322337973
0.9537933165 0.2463492980 0.2830895372
0.9778305845 0.2917515491 0.3363603994
0.9933255278 0.3392491950 0.3909411402
0.9969682211 0.3872139919 0.4478604676
0.9974507487 0.4364038803 0.5059499719
0.9976093461 0.4873597233 0.5642682866
0.9977980241 0.5401834254 0.6237346902
0.9979325127 0.5941814750 0.6790632724
0.0000000000 0.0000000000 0.0000000000
0.0000000000 0.0000000000 0.0000000000
0.0000000000 0.0000000000 0.0000000000
0.0000000000 0.0000000000 0.0000000000
0.0000000000 0.0000000000 0.0000000000
0.0000000000 0.0000000000 0.0000000000
0.0000000000 0.0000000000 0.0000000000
0.0158572927 0.0013562263 0.0013562263
0.0686010591 0.0076449694 0.0076449694
0.1372653500 0.0167701066 0.0167701066
0.2086200859 0.0255003996 0.0255003996
0.2789739989 0.0346257259 0.0346257259
0.3443505042 0.0425785945 0.0425299937
0.4049112247 0.0505778121 0.0501885988
0.4656721173 0.0584208440 0.0578533963
0.5262404090 0.0663578876 0.0658059521
0.5858124605 0.0747074113 0.0734414645
0.6444515830 0.0832357951 0.0818680170
0.6959373459 0.0918918727 0.0900052815
0.7396982657 0.1009789900 0.0994137358
0.7785785461 0.1119851163 0.1111792731
0.8144923443 0.1264995574 0.1281640705
0.8509911020 0.1464904163 0.1533197790
0.8861479147 0.1730940399 0.1878562614
0.9224596611 0.2070502504 0.2318693755
0.9538728305 0.2466858026 0.2827249898
0.9779267367 0.2921331093 0.3361580391
0.9933271857 0.3395660732 0.3908359773
0.9970401071 0.3873901261 0.4477655610
0.9974507487 0.4365453444 0.5058188113
0.9976093461 0.4875616299 0.5641655757
0.9977980241 0.5402507250 0.6236411747
0.9979325127 0.5941847897 0.6789771555
0.0000000000 0.0000000000 0.0000000000
0.0000000000 0.0000000000 0.0000000000
0.0000000000 0.0000000000 0.0000000000
0.0000000000 0.0000000000 0.0000000000
0.0000000000 0.0000000000 0.0000000000
0.0000000000 0.0000000000 0.0000000000
0.0025646485 0.0003893012 0.0003893012
0.0315678133 0.0032546304 0.0032546304
0.0889058556 0.0107028508 0.0107028508
0.1549136118 0.0190393033 0.0190393033
0.2219811477 0.0271033220 0.0271033220
0.2891710027 0.0356617621 0.0356617621
0.3504981176 0.0433191788 0.0433191788
0.4097842133 0.0512206006 0.0508349525
0.4704098853 0.0590613494 0.0584598748
0.5305419059 0.0668886814 0.0661285817
0.5895279847 0.0752113709 0.0739519757
0.6466151673 0.0836824923 0.0818680170
0.6975009523 0.0923135629 0.0900052815
0.7406080359 0.1013666033 0.0994137358
0.7790051660 0.1123375477 0.1110506731
0.8149759454 0.1270940931 0.1280434816
0.8514039545 0.1470238548 0.1528253268
0.8864998882 0.1736176406 0.1874447693
0.9226684572 0.2074210262 0.2314134258
0.9540047978 0.2471450086 0.2824657443
0.9779857392 0.2923836675 0.3359488079
0.9933669753 0.3397703902 0.3906728509
0.9970401071 0.3875741556 0.4475704856
0.9974507487 0.4366389471 0.5056944882
0.9976093461 0.4876853781 0.5641104267
0.9977980241 0.5404216685 0.6236366814
0.9979325127 0.5943339507 0.6789743453
0.0000000000 0.0000000000 0.0000000000
0.0000000000 0.0000000000 0.0000000000
0.0000000000 0.0000000000 0.0000000000
0.0000000000 0.0000000000 0.0000000000
0.0000000000 0.0000000000 0.0000000000
0.0000000000 0.0000000000 0.0000000000
0.0099136969 0.0014795424 0.0006182677
0.0478338659 0.0062146221 0.0055237958
0.1086436266 0.0130182458 0.0130182458
0.1706856397 0.0207903098 0.0207903098
0.2347250340 0.0286571105 0.0286571105
0.2989328234 0.0372153316 0.0370426016
0.3573785102 0.0446842559 0.0440523823
0.4153029901 0.0519435147 0.0514758957
0.4747648073 0.0596589459 0.0590613494
0.5340180242 0.0674155775 0.0663931655
0.5927401867 0.0759035596 0.0744599670
0.6489942948 0.0841267789 0.0823358491
0.6988564815 0.0927332504 0.0902508607
0.7416925341 0.1017526327 0.0990191131
0.7796852965 0.1128674446 0.1106946174
0.8154594841 0.1274347132 0.1277341299
0.8518080488 0.1473995985 0.1524980038
0.8867767234 0.1742044473 0.1870322176
0.9228732440 0.2077917393 0.2310469075
0.9541348807 0.2475835452 0.2821004170
0.9780356260 0.2928711489 0.3358529612
0.9933719490 0.3400762539 0.3905770086
0.9970401071 0.3877425047 0.4474723718
0.9974507487 0.4368027673 0.5056316398
0.9976093461 0.4878757624 0.5639954570
0.9977980241 0.5405463984 0.6235471287
0.9979325127 0.5943894249 0.6789303813
0.0000000000 0.0000000000 0.0000000000
0.0000000000 0.0000000000 0.0000000000
0.0000000000 0.0000000000 0.0000000000
0.0000000000 0.0000000000 0.0000000000
0.0000000000 0.0005198832 0.0000000000
0.0013316444 0.0039949333 0.0000000000
0.0178062992 0.0116892853 0.0013069687
0.0569052107 0.0193841691 0.0064119027
0.1132125630 0.0215296744 0.0132918830
0.1796989700 0.0247610052 0.0217762127
0.2441737041 0.0310001466 0.0300879894
0.3070449469 0.0387598227 0.0379794345
0.3636665331 0.0453803989 0.0447778297
0.4209347401 0.0531327428 0.0521116473
0.4792938148 0.0604218291 0.0596589459
0.5373255328 0.0682968030 0.0669413167
0.5958003397 0.0763853450 0.0744599670
0.6517109010 0.0850183203 0.0825138728
0.7004608443 0.0933235729 0.0902508607
0.7429489884 0.1024526163 0.0990191131
0.7805844218 0.1135543422 0.1106946174
0.8161357894 0.1280056419 0.1273223774
0.8521942827 0.1481630503 0.1519839647
0.8870568579 0.1749286750 0.1866191051
0.9230712652 0.2083187648 0.2305786289
0.9542779071 0.2480607900 0.2817288807
0.9781131097 0.2931361239 0.3356396200
0.9933719490 0.3403914375 0.3903871128
0.9970401071 0.3880108344 0.4473420932
0.9974507487 0.4370044402 0.5054986996
0.9976093461 0.4879623205 0.5639318740
0.9977980241 0.5407077233 0.6235333057
0.9979325127 0.5945019992 0.6788622184
0.0000000000 0.0003893012 0.0000000000
0.0012823243 0.0012823243 0.0012823243
0.0000000000 0.0033039818 0.0000000000
0.0003893012 0.0079897727 0.0003893012
0.0014796049 0.0148955026 0.0014796049
0.0034519111 0.0250069805 0.0027371909
0.0225904489 0.0349710296 0.0035013250
0.0598679233 0.0428729830 0.0072007439
0.1128621910 0.0472712345 0.0134160853
0.1767210266 0.0458288777 0.0217022793
0.2467943202 0.0416278444 0.0303347466
0.3119561796 0.0432009606 0.0387352144
0.3698076188 0.0481650647 0.0460704121
0.4263866100 0.0545421275 0.0527412175
0.4843683923 0.0618941470 0.0602515385
0.5416145424 0.0694352370 0.0674850215
0.5990501938 0.0773568533 0.0749654386
0.6545502296 0.0858235516 0.0825880494
0.7025611438 0.0943173737 0.0904339811
0.7444889702 0.1033624503 0.0990191131
0.7816598426 0.1143635910 0.1103375619
0.8168394502 0.1291688639 0.1267585183
0.8525967818 0.1489056970 0.1513323487
0.8875139441 0.1757728410 0.1862020426
0.9233845533 0.2092025888 0.2302225620
0.9544519791 0.2487655238 0.2813395601
0.9782032055 0.2937187061 0.3354081449
0.9934291466 0.3408133768 0.3901367114
0.9970401071 0.3884040717 0.4471933813
0.9974507487 0.4372402553 0.5053764059
0.9976093461 0.4881641647 0.5637865237
0.9977980241 0.5407744902 0.6233961059
0.9979325127 0.5946412162 0.6788131648
0.0012330041 0.0137117874 0.0012330041
0.0020216263 0.0186442103 0.0020216263
0.0027618979 0.0263880895 0.0027618979
0.0041428312 0.0358247970 0.0041428312
0.0056224987 0.0473837921 0.0056224987
0.0072500953 0.0607921525 0.0072007439
0.0196307387 0.0712798239 0.0080150113
0.0551611784 0.0768161046 0.0089517192
0.1079517196 0.0805717067 0.0126176533
0.1712794520 0.0814835272 0.0209875905
0.2406384140 0.0769168335 0.0294711903
0.3113881687 0.0669547961 0.0386121729
0.3726396092 0.0609530607 0.0462079581
0.4312887013 0.0605102426 0.0533640012
0.4896064782 0.0648429736 0.0609722634
0.5463824084 0.0713989159 0.0680196872
0.6031389493 0.0790701903 0.0754678864
0.6577172795 0.0871299902 0.0830527317
0.7050695326 0.0954442904 0.0904339811
0.7462909654 0.1046270792 0.0988629038
0.7829016571 0.1156516216 0.1099298287
0.8176715909 0.1303026239 0.1261416525
0.8533481364 0.1502958673 0.1506101324
0.8880429626 0.1769305044 0.1855639588
0.9237816606 0.2103010437 0.2296318708
0.9547526434 0.2497573436 0.2808472777
0.9783172458 0.2944114626 0.3350869409
0.9934794977 0.3413319047 0.3898147579
0.9970401071 0.3887545838 0.4469690368
0.9974507487 0.4375561097 0.5052068432
0.9976093461 0.4884634648 0.5636447476
0.9977980241 0.5410455373 0.6232880498
0.9979325127 0.5947962248 0.6787515278
0.0055238583 0.0480531639 0.0055238583
0.0064859612 0.0564857235 0.0064859612
0.0078423751 0.0663524771 0.0078423751
0.0093959447 0.0784946368 0.0093959447
0.0109495142 0.0897623309 0.0109495142
0.0124985779 0.1020914123 0.0124985779
0.0157344145 0.1157678803 0.0140568408
0.0453119699 0.1213577437 0.0149943305
0.0955727331 0.1231710293 0.0149943305
0.1611159414 0.1233657094 0.0196065008
0.2316119678 0.1211917190 0.0287064619
0.3041722552 0.1131555448 0.0378315679
0.3704392344 0.0993412950 0.0461162607
0.4327300449 0.0865647638 0.0538857716
0.4933173183 0.0781223051 0.0614252770
0.5511365072 0.0779469271 0.0685650914
0.6080187738 0.0828062954 0.0760943083
0.6610251817 0.0899316203 0.0833974402
0.7076049895 0.0977402115 0.0906789970
0.7485192125 0.1068869208 0.0987058808
0.7845944555 0.1178306039 0.1094512343
0.8190184936 0.1324074797 0.1254192090
0.8542734652 0.1522450297 0.1496271948
0.8888729079 0.1787941311 0.1841453845
0.9242426659 0.2118451200 0.2283433147
0.9550895431 0.2511006378 0.2801218646
0.9785343687 0.2953911789 0.3345131159
0.9935286207 0.3421775407 0.3893587381
0.9970401071 0.3892455735 0.4465262950
0.9974507487 0.4379804709 0.5049366543
0.9976093461 0.4887996739 0.5633962475
0.9977980241 0.5412790808 0.6231525037
0.9979736788 0.5950571158 0.6786408685
0.0117389183 0.0994798557 0.0117389183
0.0130928454 0.1084841412 0.0130928454
0.0146243198 0.1176105217 0.0146243198
0.0156110984 0.1283318423 0.0156110984
0.0171646992 0.1378470300 0.0171646992
0.0187184251 0.1483910019 0.0187184251
0.0202719946 0.1610728813 0.0202719946
0.0288050710 0.1724446839 0.0217762127
0.0782376100 0.1745678278 0.0217762127
0.1420823264 0.1736444117 0.0217762127
0.2170930048 0.1704512673 0.0271526109
0.2933614320 0.1658899497 0.0364751226
0.3638472077 0.1549034442 0.0454267480
0.4305477739 0.1378367214 0.0538029924
0.4937231005 0.1194020794 0.0614252770
0.5540768335 0.1021947147 0.0691065293
0.6120296966 0.0948623854 0.0765751804
0.6651324503 0.0964672553 0.0838436965
0.7106849260 0.1022818732 0.0908006601
0.7509597352 0.1106390032 0.0987058808
0.7866917587 0.1213598515 0.1087400602
0.8206824007 0.1357459738 0.1242705934
0.8555357947 0.1554200761 0.1480405931
0.8897887922 0.1814801253 0.1823392407
0.9249440717 0.2142492332 0.2266346377
0.9554443905 0.2533190634 0.2787457015
0.9787690675 0.2970532066 0.3335405626
0.9935949368 0.3431436143 0.3885878721
0.9970401071 0.3899363500 0.4459060704
0.9974507487 0.4386423621 0.5045932515
0.9976093461 0.4892518873 0.5630748215
0.9977980241 0.5417137398 0.6229199162
0.9979325127 0.5953030908 0.6785097571
0.0198282070 0.1580926106 0.0198282070
0.0208395987 0.1654314629 0.0208395987
0.0216036077 0.1740064161 0.0216036077
0.0231574275 0.1821242273 0.0231574275
0.0240207649 0.1903607663 0.0240207649
0.0249336101 0.1987506883 0.0249336101
0.0264872365 0.2096486331 0.0264872365
0.0287310438 0.2225930171 0.0285830833
0.0502799209 0.2306302389 0.0295451236
0.1175106905 0.2304977187 0.0295451236
0.1930268177 0.2270735927 0.0290022578
0.2758438794 0.2219054592 0.0349215218
0.3524616206 0.2147483366 0.0440050325
0.4228953365 0.2012394039 0.0531730133
0.4914262550 0.1810654231 0.0614252770
0.5542248491 0.1584640433 0.0693849670
0.6149025777 0.1338864379 0.0769591031
0.6691357911 0.1178511312 0.0844317750
0.7140487917 0.1139344245 0.0911050055
0.7534853066 0.1183620630 0.0985480442
0.7888514713 0.1275787534 0.1081241800
0.8227483417 0.1413357866 0.1228839766
0.8571357504 0.1604119249 0.1460230171
0.8911494990 0.1858548085 0.1800541252
0.9259625244 0.2180517967 0.2245097202
0.9560322814 0.2562681223 0.2767844966
0.9791139043 0.2991969615 0.3317755096
0.9937101609 0.3444221413 0.3872072865
0.9970401071 0.3909733143 0.4450948494
0.9974507487 0.4394986301 0.5041009857
0.9976093461 0.4899403556 0.5627387851
0.9977980241 0.5422407949 0.6226417723
0.9979325127 0.5957403170 0.6783037696
0.0278435623 0.2198352671 0.0278435623
0.0291260429 0.2262731991 0.0291260429
0.0299399977 0.2330057142 0.0299399977
0.0309261195 0.2396023866 0.0309261195
0.0316909729 0.2458461537 0.0316909729
0.0324550758 0.2528909555 0.0324550758
0.0340088330 0.2614061017 0.0340088330
0.0355630593 0.2723973701 0.0355630593
0.0389950217 0.2850029359 0.0371166288
0.0793438139 0.2907112885 0.0378315679
0.1626671847 0.2885550245 0.0378315679
0.2478401172 0.2835002301 0.0373140345
0.3342642637 0.2763320659 0.0430320773
0.4103432334 0.2672297314 0.0519010437
0.4837216193 0.2515575263 0.0608406908
0.5517351791 0.2292643570 0.0693849670
0.6146259808 0.2032196423 0.0772784246
0.6711597256 0.1726648576 0.0847246335
0.7173604579 0.1479319124 0.0913477684
0.7569054868 0.1379076047 0.0987058808
0.7912423925 0.1400635053 0.1078751660
0.8249534028 0.1510393574 0.1215067815
0.8590749809 0.1686166948 0.1436197010
0.8929557706 0.1926293476 0.1769604030
0.9272509462 0.2233480519 0.2216073319
0.9567748446 0.2603011196 0.2739647148
0.9795680987 0.3023562714 0.3296290151
0.9938716528 0.3467405484 0.3855291573
0.9970401071 0.3926881383 0.4440653556
0.9974816233 0.4407457406 0.5033203915
0.9976093461 0.4907370842 0.5622709114
0.9977980241 0.5428065754 0.6222681782
0.9979325127 0.5962415230 0.6780696801
0.0368946098 0.2833420900 0.0368946098
0.0376589316 0.2888488956 0.0376589316
0.0384649597 0.2936516571 0.0384649597
0.0392343481 0.2988078332 0.0392343481
0.0400095675 0.3036944373 0.0400095675
0.0407731700 0.3085906108 0.0407731700
0.0416806360 0.3153045874 0.0416806360
0.0428619743 0.3231312697 0.0428619743
0.0445906820 0.3331751064 0.0444012826
0.0523170907 0.3440269693 0.0460016390
0.1148304283 0.3475282563 0.0466401741
0.2121978425 0.3440305153 0.0459328660
0.3045784132 0.3378981043 0.0459328660
0.3901454152 0.3302591639 0.0512847762
0.4697113889 0.3200330048 0.0602515385
0.5433164977 0.3039078120 0.0688480924
0.6118040270 0.2807443685 0.0774509678
0.6710466851 0.2526269191 0.0851646223
0.7188542245 0.2179656336 0.0920331871
0.7594971248 0.1863200248 0.0989442941
0.7941523831 0.1697927165 0.1075096121
0.8275224315 0.1701649476 0.1208634028
0.8611857636 0.1827215423 0.1412647648
0.8949655331 0.2038478369 0.1735362326
0.9288579168 0.2316868445 0.2178366022
0.9577460259 0.2666093236 0.2704038884
0.9801492264 0.3069993536 0.3269755216
0.9940200350 0.3500375810 0.3836879314
0.9970949606 0.3952803140 0.4426674147
0.9975004911 0.4426415505 0.5019833093
0.9976093461 0.4919728487 0.5615923487
0.9977980241 0.5436596012 0.6217701464
0.9979325127 0.5969297275 0.6777045106
0.0462093342 0.3443458245 0.0462093342
0.0469137962 0.3480451211 0.0469137962
0.0471632118 0.3511131718 0.0471632118
0.0478365868 0.3547549169 0.0478365868
0.0485033942 0.3582710154 0.0483032675
0.0489880891 0.3621835725 0.0489880891
0.0498199017 0.3665433628 0.0498199017
0.0508554062 0.3730644653 0.0508554062
0.0522584194 0.3807658266 0.0521533365
0.0546015494 0.3909683607 0.0540705992
0.0700193948 0.4011278524 0.0558813717
0.1558882878 0.4031869830 0.0562408740
0.2655457242 0.3988197563 0.0552556279
0.3599051096 0.3919939443 0.0552556279
0.4475275964 0.3837469997 0.0606135116
0.5287061493 0.3721842963 0.0691609884
0.6028211623 0.3556000822 0.0777376264
0.6681021888 0.3327443496 0.0858096580
0.7186499781 0.3043948869 0.0926869071
0.7606791982 0.2677367982 0.0994140487
0.7961581231 0.2316783280 0.1075909713
0.8300540377 0.2103137635 0.1199984009
0.8633467267 0.2083652919 0.1393492526
0.8969931954 0.2218664955 0.1693235338
0.9307447578 0.2454244346 0.2128126759
0.9590519484 0.2765059200 0.2662948057
0.9809283257 0.3139356743 0.3238044875
0.9942960756 0.3547730547 0.3815912563
0.9970949606 0.3988460605 0.4405293044
0.9975004911 0.4454054554 0.5001962662
0.9976127767 0.4940179570 0.5604517126
0.9977980241 0.5449867636 0.6210763779
0.9979325127 0.5978719435 0.6772738946
0.0566855374 0.4031734076 0.0560652355
0.0566855374 0.4059768325 0.0566855374
0.0573008354 0.4086090133 0.0573008354
0.0579116923 0.4109558917 0.0578522079
0.0584385455 0.4136931641 0.0581080973
0.0590215055 0.4168524599 0.0586927461
0.0595998993 0.4207681195 0.0595998993
0.0607639115 0.4256194938 0.0604424704
0.0619121612 0.4317155778 0.0619121612
0.0634485296 0.4399705409 0.0634485296
0.0668604404 0.4499568504 0.0654066684
0.0942547402 0.4594872407 0.0675157779
0.2026330245 0.4604281728 0.0676739772
0.3203968318 0.4552370572 0.0666018301
0.4153720872 0.4482799208 0.0666196879
0.5053391491 0.4385010539 0.0713504098
0.5875571098 0.4262851266 0.0792284336
0.6599460178 0.4089499653 0.0869744692
0.7163997141 0.3850989084 0.0941399484
0.7606509742 0.3565094516 0.1009479484
0.7970534515 0.3196775198 0.1086092731
0.8315879342 0.2816299781 0.1198259344
0.8653039854 0.2569556943 0.1379357588
0.8992134399 0.2532743110 0.1668032953
0.9325501141 0.2672421027 0.2076214088
0.9605572978 0.2924144088 0.2603440697
0.9817609714 0.3241307090 0.3193828978
0.9945547082 0.3620039517 0.3782313651
0.9971429877 0.4041382312 0.4376746806
0.9975004911 0.4492500937 0.4979750341
0.9976127767 0.4968576591 0.5588792268
0.9977980241 0.5470483941 0.6197472529
0.9979874008 0.5990920305 0.6765772465
0.0686106358 0.4622061388 0.0677986711
0.0691385579 0.4644761281 0.0686194658
0.0696290733 0.4666331670 0.0688827712
0.0701332502 0.4687036967 0.0694202757
0.0706348674 0.4707781210 0.0698846430
0.0711337092 0.4729062902 0.0703986504
0.0719908006 0.4758081120 0.0711792525
0.0726297412 0.4796722532 0.0719401371
0.0738754272 0.4847973894 0.0732226830
0.0756892180 0.4910861896 0.0747349716
0.0779163357 0.4993118740 0.0766373879
0.0827210186 0.5094171169 0.0792834282
0.1265550696 0.5182772097 0.0817679180
0.2538511852 0.5185987635 0.0816913476
0.3745696254 0.5127911671 0.0805184759
0.4722647108 0.5048433261 0.0800569119
0.5636441776 0.4947143255 0.0841845068
0.6451406100 0.4821983651 0.0908772941
0.7093822039 0.4638221293 0.0970133309
0.7584049781 0.4392886633 0.1034768655
0.7968942820 0.4100420463 0.1108894857
0.8323861398 0.3724691150 0.1210988493
0.8666347116 0.3336360530 0.1371988023
0.9013219040 0.3073052335 0.1644283902
0.9344097519 0.3024339219 0.2036578404
0.9620620708 0.3158918697 0.2539782205
0.9828227133 0.3398251488 0.3129846315
0.9948605911 0.3727367498 0.3730132744
0.9971760222 0.4116678308 0.4335533465
0.9975056368 0.4546614798 0.4950046634
0.9976899631 0.5009263002 0.5563587974
0.9977980241 0.5500565118 0.6176630142
0.9979874008 0.6007666364 0.6751977204
0.0843328711 0.5218558992 0.0826336892
0.0847754197 0.5235132659 0.0830983401
0.0852259467 0.5249811198 0.0835609751
0.0856760874 0.5265701343 0.0840213846
0.0861219476 0.5283278199 0.0844192772
0.0869355049 0.5302679477 0.0848556737
0.0875707431 0.5325831738 0.0857493271
0.0884304734 0.5352708036 0.0861825640
0.0897133210 0.5391430070 0.0873843936
0.0914805792 0.5441622492 0.0890084454
0.0938229069 0.5507377168 0.0906628504
0.0969403353 0.5588928967 0.0932076363
0.1053686001 0.5690424150 0.0965868531
0.1671369648 0.5772434036 0.0990626715
0.3075103077 0.5767750380 0.0991868379
0.4293080073 0.5706098394 0.0976118832
0.5299999575 0.5628102040 0.0968335587
0.6217203881 0.5526217075 0.0997701823
0.6969922541 0.5393126347 0.1041610761
0.7526234472 0.5205609330 0.1088859693
0.7951889652 0.4962098270 0.1152900982
0.8320307121 0.4665495196 0.1248005991
0.8671110412 0.4281347926 0.1392392526
0.9026293430 0.3871186970 0.1628988011
0.9361094779 0.3584570691 0.1999737314
0.9634771356 0.3515446194 0.2491402546
0.9839190473 0.3642141086 0.3064615669
0.9951540396 0.3900165168 0.3669529874
0.9972244305 0.4232933335 0.4287632146
0.9975275222 0.4626197408 0.4905806060
0.9976899631 0.5065688226 0.5528905574
0.9978005652 0.5540376902 0.6149608616
0.9979874008 0.6039797583 0.6733144820
0.1061733494 0.5821644746 0.1008564195
0.1066950685 0.5832610568 0.1012328616
0.1072387545 0.5843497009 0.1017795081
0.1077745437 0.5855008986 0.1021493948
0.1082895256 0.5865949962 0.1025142853
0.1090045275 0.5880280363 0.1029562972
0.1095135555 0.5899188788 0.1036438018
0.1105796500 0.5920582291 0.1043875321
0.1118971876 0.5951791026 0.1054026158
0.1139369971 0.5990261119 0.1066590276
0.1163628707 0.6039688136 0.1087129717
0.1195998234 0.6104163661 0.1109956838
0.1244064281 0.6186032085 0.1141992792
0.1379621879 0.6282585885 0.1180573723
0.2152218496 0.6353483122 0.1212941360
0.3621116837 0.6344058657 0.1210536325
0.4867334263 0.6285751608 0.1192614193
0.5881508657 0.6207852021 0.1179822619
0.6761056921 0.6103863030 0.1191877461
0.7418377786 0.5971792360 0.1210358452
0.7901148322 0.5789577662 0.1241613409
0.8298879526 0.5546644113 0.1316507469
0.8665408504 0.5252368894 0.1447795143
0.9026734595 0.4860088290 0.1654062555
0.9371077568 0.4430781705 0.1978885366
0.9647146858 0.4112710724 0.2445503430
0.9849387205 0.4032418802 0.3010109859
0.9954572821 0.4165233228 0.3600248526
0.9972724576 0.4419130198 0.4219578405
0.9975544580 0.4751318529 0.4853075310
0.9976933936 0.5152945621 0.5487461427
0.9978245787 0.5602268749 0.6115126125
0.9979874008 0.6084629378 0.6710267936
0.1375927004 0.6401694877 0.1234183113
0.1382843028 0.6410797142 0.1237382208
0.1388554866 0.6420503256 0.1241902423
0.1394245888 0.6429442730 0.1246647186
0.1399908525 0.6438671056 0.1251444270
0.1406707536 0.6448027311 0.1255939571
0.1416216638 0.6460166257 0.1260910749
0.1425696387 0.6475263759 0.1266467431
0.1438940119 0.6495965862 0.1278018055
0.1461401488 0.6524229477 0.1291447586
0.1488347232 0.6560076705 0.1308554581
0.1522626399 0.6605214200 0.1331234764
0.1570114189 0.6662680121 0.1360404075
0.1637290434 0.6735693537 0.1398951729
0.1826848258 0.6819173526 0.1447982578
0.2711798639 0.6877930660 0.1482975033
